P3
400 225
255
204 225 254
203 225 254
203 225 254
203 225 254
203 225 254
203 225 254
203 225 254
203 225 254
203 225 254
203 225 254
203 225 254
203 225 254
203 225 254
203 225 254
203 225 254
203 225 254
203 225 254
203 225 254
203 225 254
202 225 254
202 225 254
202 225 254
202 225 254
202 225 254
202 225 254
202 225 254
202 225 254
202 224 254
202 224 254
202 224 254
202 224 254
202 224 254
202 224 254
202 224 254
202 224 254
202 224 254
201 224 254
201 224 254
201 224 254
201 224 254
201 224 254
201 224 254
201 224 254
201 224 254
201 224 254
201 224 254
201 224 254
201 224 254
201 224 254
201 224 254
201 224 254
200 224 254
200 224 254
200 224 254
200 224 254
200 224 254
200 223 254
200 223 254
200 223 254
200 223 254
200 223 254
200 223 254
200 223 254
200 223 254
200 223 254
200 223 254
199 223 254
199 223 254
199 223 254
199 223 254
199 223 254
199 223 254
199 223 254
199 223 254
199 223 254
199 223 254
199 223 254
199 223 254
199 223 254
199 223 254
199 223 254
198 223 254
198 223 254
198 222 254
198 222 254
198 222 254
198 222 254
198 222 254
198 222 254
198 222 254
198 222 254
198 222 254
198 222 254
198 222 254
198 222 254
197 222 254
197 222 254
197 222 254
197 222 254
197 222 254
197 222 254
197 222 254
197 222 254
197 222 254
197 222 254
197 222 254
197 222 254
197 222 254
197 222 254
196 222 254
196 221 254
196 221 254
196 221 254
196 221 254
196 221 254
196 221 254
196 221 254
196 221 254
196 221 254
196 221 254
196 221 254
196 221 254
196 221 254
196 221 254
195 221 254
195 221 254
195 221 254
195 221 254
195 221 254
195 221 254
195 221 254
195 221 254
195 221 254
195 221 254
195 221 254
195 221 254
195 221 254
195 221 254
195 221 254
195 220 254
195 220 254
194 220 254
194 220 254
194 220 254
194 220 254
194 220 254
194 220 254
194 220 254
194 220 254
194 220 254
194 220 254
194 220 254
194 220 254
194 220 254
194 220 254
194 220 254
194 220 254
194 220 254
194 220 254
194 220 254
194 220 254
193 220 254
193 220 254
193 220 254
193 220 254
193 220 254
193 220 254
193 220 254
193 220 254
193 220 254
193 220 254
193 220 254
193 220 254
193 220 254
193 220 254
193 220 254
193 220 254
193 220 254
193 220 254
193 220 254
193 220 254
193 220 254
193 220 254
193 220 254
193 220 254
193 220 254
193 220 254
193 220 254
193 220 254
193 220 254
193 220 254
193 220 254
193 219 254
193 219 254
193 219 254
193 219 254
193 219 254
193 219 254
193 219 254
193 219 254
193 219 254
193 219 254
193 219 254
193 219 254
193 219 254
193 219 254
193 219 254
193 219 254
193 220 254
193 220 254
193 220 254
193 220 254
193 220 254
193 220 254
193 220 254
193 220 254
193 220 254
193 220 254
193 220 254
193 220 254
193 220 254
193 220 254
193 220 254
193 220 254
193 220 254
193 220 254
193 220 254
193 220 254
193 220 254
193 220 254
193 220 254
193 220 254
193 220 254
193 220 254
193 220 254
193 220 254
193 220 254
193 220 254
193 220 254
194 220 254
194 220 254
194 220 254
194 220 254
194 220 254
194 220 254
194 220 254
194 220 254
194 220 254
194 220 254
194 220 254
194 220 254
194 220 254
194 220 254
194 220 254
194 220 254
194 220 254
194 220 254
194 220 254
194 220 254
195 220 254
195 221 254
195 221 254
195 221 254
195 221 254
195 221 254
195 221 254
195 221 254
195 221 254
195 221 254
195 221 254
195 221 254
195 221 254
195 221 254
195 221 254
195 221 254
195 221 254
196 221 254
196 221 254
196 221 254
196 221 254
196 221 254
196 221 254
196 221 254
196 221 254
196 221 254
196 221 254
196 221 254
196 221 254
196 221 254
196 221 254
196 222 254
197 222 254
197 222 254
197 222 254
197 222 254
197 222 254
197 222 254
197 222 254
197 222 254
197 222 254
197 222 254
197 222 254
197 222 254
197 222 254
197 222 254
198 222 254
198 222 254
198 222 254
198 222 254
198 222 254
198 222 254
198 222 254
198 222 254
198 222 254
198 222 254
198 222 254
198 222 254
198 223 254
198 223 254
199 223 254
199 223 254
199 223 254
199 223 254
199 223 254
199 223 254
199 223 254
199 223 254
199 223 254
199 223 254
199 223 254
199 223 254
199 223 254
199 223 254
199 223 254
200 223 254
200 223 254
200 223 254
200 223 254
200 223 254
200 223 254
200 223 254
200 223 254
200 223 254
200 223 254
200 224 254
200 224 254
200 224 254
200 224 254
200 224 254
201 224 254
201 224 254
201 224 254
201 224 254
201 224 254
201 224 254
201 224 254
201 224 254
201 224 254
201 224 254
201 224 254
201 224 254
201 224 254
201 224 254
201 224 254
202 224 254
202 224 254
202 224 254
202 224 254
202 224 254
202 224 254
202 224 254
202 224 254
202 224 254
202 225 254
202 225 254
202 225 254
202 225 254
202 225 254
202 225 254
202 225 254
202 225 254
203 225 254
203 225 254
203 225 254
203 225 254
203 225 254
203 225 254
203 225 254
203 225 254
203 225 254
203 225 254
203 225 254
203 225 254
203 225 254
203 225 254
203 225 254
203 225 254
203 225 254
203 225 254
204 225 254
204 225 254
204 225 254
204 225 254
203 225 254
203 225 254
203 225 254
203 225 254
203 225 254
203 225 254
203 225 254
203 225 254
203 225 254
203 225 254
203 225 254
203 225 254
203 225 254
203 225 254
203 225 254
203 225 254
203 225 254
203 225 254
202 225 254
202 225 254
202 225 254
202 225 254
202 225 254
202 225 254
202 225 254
202 225 254
202 224 254
202 224 254
202 224 254
202 224 254
202 224 254
202 224 254
202 224 254
202 224 254
202 224 254
201 224 254
201 224 254
201 224 254
201 224 254
201 224 254
201 224 254
201 224 254
201 224 254
201 224 254
201 224 254
201 224 254
201 224 254
201 224 254
201 224 254
201 224 254
200 224 254
200 224 254
200 224 254
200 224 254
200 224 254
200 223 254
200 223 254
200 223 254
200 223 254
200 223 254
200 223 254
200 223 254
200 223 254
200 223 254
200 223 254
199 223 254
199 223 254
199 223 254
199 223 254
199 223 254
199 223 254
199 223 254
199 223 254
199 223 254
199 223 254
199 223 254
199 223 254
199 223 254
199 223 254
199 223 254
198 223 254
198 223 254
198 222 254
198 222 254
198 222 254
198 222 254
198 222 254
198 222 254
198 222 254
198 222 254
198 222 254
198 222 254
198 222 254
198 222 254
197 222 254
197 222 254
197 222 254
197 222 254
197 222 254
197 222 254
197 222 254
197 222 254
197 222 254
197 222 254
197 222 254
197 222 254
197 222 254
197 222 254
196 222 254
196 221 254
196 221 254
196 221 254
196 221 254
196 221 254
196 221 254
196 221 254
196 221 254
196 221 254
196 221 254
196 221 254
196 221 254
196 221 254
196 221 254
196 221 254
195 221 254
195 221 254
195 221 254
195 221 254
195 221 254
195 221 254
195 221 254
195 221 254
195 221 254
195 221 254
195 221 254
195 221 254
195 221 254
195 221 254
195 221 254
195 220 254
194 220 254
194 220 254
194 220 254
194 220 254
194 220 254
194 220 254
194 220 254
194 220 254
194 220 254
194 220 254
194 220 254
194 220 254
194 220 254
194 220 254
194 220 254
194 220 254
194 220 254
194 220 254
194 220 254
194 220 254
194 220 254
193 220 254
193 220 254
193 220 254
193 220 254
193 220 254
193 220 254
193 220 254
193 220 254
193 220 254
193 220 254
193 220 254
193 220 254
193 220 254
193 220 254
193 220 254
193 220 254
193 220 254
193 220 254
193 220 254
193 220 254
193 220 254
193 220 254
193 220 254
193 220 254
193 220 254
193 220 254
193 220 254
193 220 254
193 220 254
193 220 254
193 220 254
193 220 254
193 220 254
193 220 254
193 220 254
193 220 254
193 220 254
193 220 254
193 220 254
193 220 254
193 220 254
193 220 254
193 220 254
193 220 254
193 220 254
193 220 254
193 220 254
193 220 254
193 220 254
193 220 254
193 220 254
193 220 254
193 220 254
193 220 254
193 220 254
193 220 254
193 220 254
193 220 254
193 220 254
193 220 254
193 220 254
193 220 254
193 220 254
193 220 254
193 220 254
193 220 254
193 220 254
193 220 254
193 220 254
193 220 254
193 220 254
193 220 254
194 220 254
194 220 254
194 220 254
194 220 254
194 220 254
194 220 254
194 220 254
194 220 254
194 220 254
194 220 254
194 220 254
194 220 254
194 220 254
194 220 254
194 220 254
194 220 254
194 220 254
194 220 254
194 220 254
194 220 254
194 220 254
195 220 254
195 221 254
195 221 254
195 221 254
195 221 254
195 221 254
195 221 254
195 221 254
195 221 254
195 221 254
195 221 254
195 221 254
195 221 254
195 221 254
195 221 254
195 221 254
196 221 254
196 221 254
196 221 254
196 221 254
196 221 254
196 221 254
196 221 254
196 221 254
196 221 254
196 221 254
196 221 254
196 221 254
196 221 254
196 221 254
196 221 254
196 222 254
197 222 254
197 222 254
197 222 254
197 222 254
197 222 254
197 222 254
197 222 254
197 222 254
197 222 254
197 222 254
197 222 254
197 222 254
197 222 254
197 222 254
198 222 254
198 222 254
198 222 254
198 222 254
198 222 254
198 222 254
198 222 254
198 222 254
198 222 254
198 222 254
198 222 254
198 222 254
198 223 254
198 223 254
199 223 254
199 223 254
199 223 254
199 223 254
199 223 254
199 223 254
199 223 254
199 223 254
199 223 254
199 223 254
199 223 254
199 223 254
199 223 254
199 223 254
199 223 254
200 223 254
200 223 254
200 223 254
200 223 254
200 223 254
200 223 254
200 223 254
200 223 254
200 223 254
200 223 254
200 224 254
200 224 254
200 224 254
200 224 254
200 224 254
201 224 254
201 224 254
201 224 254
201 224 254
201 224 254
201 224 254
201 224 254
201 224 254
201 224 254
201 224 254
201 224 254
201 224 254
201 224 254
201 224 254
201 224 254
202 224 254
202 224 254
202 224 254
202 224 254
202 224 254
202 224 254
202 224 254
202 224 254
202 224 254
202 225 254
202 225 254
202 225 254
202 225 254
202 225 254
202 225 254
202 225 254
202 225 254
203 225 254
203 225 254
203 225 254
203 225 254
203 225 254
203 225 254
203 225 254
203 225 254
203 225 254
203 225 254
203 225 254
203 225 254
203 225 254
203 225 254
203 225 254
203 225 254
203 225 254
203 225 254
204 225 254
204 225 254
204 225 254
204 225 254
204 225 254
204 225 254
204 225 254
204 225 254
204 225 254
203 225 254
203 225 254
203 225 254
203 225 254
203 225 254
203 225 254
203 225 254
203 225 254
203 225 254
203 225 254
203 225 254
203 225 254
203 225 254
203 225 254
203 225 254
203 225 254
203 225 254
202 225 254
202 225 254
202 225 254
202 225 254
202 225 254
202 225 254
202 225 254
202 225 254
202 224 254
202 224 254
202 224 254
202 224 254
202 224 254
202 224 254
202 224 254
202 224 254
202 224 254
201 224 254
201 224 254
201 224 254
201 224 254
201 224 254
201 224 254
201 224 254
201 224 254
201 224 254
201 224 254
201 224 254
201 224 254
201 224 254
201 224 254
201 224 254
200 224 254
200 224 254
200 224 254
200 224 254
200 224 254
200 223 254
200 223 254
200 223 254
200 223 254
200 223 254
200 223 254
200 223 254
200 223 254
200 223 254
200 223 254
199 223 254
199 223 254
199 223 254
199 223 254
199 223 254
199 223 254
199 223 254
199 223 254
199 223 254
199 223 254
199 223 254
199 223 254
199 223 254
199 223 254
199 223 254
198 223 254
198 223 254
198 222 254
198 222 254
198 222 254
198 222 254
198 222 254
198 222 254
198 222 254
198 222 254
198 222 254
198 222 254
198 222 254
198 222 254
197 222 254
197 222 254
197 222 254
197 222 254
197 222 254
197 222 254
197 222 254
197 222 254
197 222 254
197 222 254
197 222 254
197 222 254
197 222 254
197 222 254
197 222 254
196 221 254
196 221 254
196 221 254
196 221 254
196 221 254
196 221 254
196 221 254
196 221 254
196 221 254
196 221 254
196 221 254
196 221 254
196 221 254
196 221 254
196 221 254
195 221 254
195 221 254
195 221 254
195 221 254
195 221 254
195 221 254
195 221 254
195 221 254
195 221 254
195 221 254
195 221 254
195 221 254
195 221 254
195 221 254
195 221 254
195 220 254
195 220 254
194 220 254
194 220 254
194 220 254
194 220 254
194 220 254
194 220 254
194 220 254
194 220 254
194 220 254
194 220 254
194 220 254
194 220 254
194 220 254
194 220 254
194 220 254
194 220 254
194 220 254
194 220 254
194 220 254
194 220 254
194 220 254
194 220 254
193 220 254
193 220 254
193 220 254
193 220 254
193 220 254
193 220 254
193 220 254
193 220 254
193 220 254
193 220 254
193 220 254
193 220 254
193 220 254
193 220 254
193 220 254
193 220 254
193 220 254
193 220 254
193 220 254
193 220 254
193 220 254
193 220 254
193 220 254
193 220 254
193 220 254
193 220 254
193 220 254
193 220 254
193 220 254
193 220 254
193 220 254
193 220 254
193 220 254
193 220 254
193 220 254
193 220 254
193 220 254
193 220 254
193 220 254
193 220 254
193 220 254
193 220 254
193 220 254
193 220 254
193 220 254
193 220 254
193 220 254
193 220 254
193 220 254
193 220 254
193 220 254
193 220 254
193 220 254
193 220 254
193 220 254
193 220 254
193 220 254
193 220 254
193 220 254
193 220 254
193 220 254
193 220 254
193 220 254
193 220 254
194 220 254
194 220 254
194 220 254
194 220 254
194 220 254
194 220 254
194 220 254
194 220 254
194 220 254
194 220 254
194 220 254
194 220 254
194 220 254
194 220 254
194 220 254
194 220 254
194 220 254
194 220 254
194 220 254
194 220 254
194 220 254
194 220 254
195 220 254
195 221 254
195 221 254
195 221 254
195 221 254
195 221 254
195 221 254
195 221 254
195 221 254
195 221 254
195 221 254
195 221 254
195 221 254
195 221 254
195 221 254
195 221 254
195 221 254
196 221 254
196 221 254
196 221 254
196 221 254
196 221 254
196 221 254
196 221 254
196 221 254
196 221 254
196 221 254
196 221 254
196 221 254
196 221 254
196 221 254
196 221 254
196 222 254
197 222 254
197 222 254
197 222 254
197 222 254
197 222 254
197 222 254
197 222 254
197 222 254
197 222 254
197 222 254
197 222 254
197 222 254
197 222 254
197 222 254
198 222 254
198 222 254
198 222 254
198 222 254
198 222 254
198 222 254
198 222 254
198 222 254
198 222 254
198 222 254
198 222 254
198 222 254
198 223 254
198 223 254
199 223 254
199 223 254
199 223 254
199 223 254
199 223 254
199 223 254
199 223 254
199 223 254
199 223 254
199 223 254
199 223 254
199 223 254
199 223 254
199 223 254
199 223 254
200 223 254
200 223 254
200 223 254
200 223 254
200 223 254
200 223 254
200 223 254
200 223 254
200 223 254
200 223 254
200 224 254
200 224 254
200 224 254
200 224 254
200 224 254
201 224 254
201 224 254
201 224 254
201 224 254
201 224 254
201 224 254
201 224 254
201 224 254
201 224 254
201 224 254
201 224 254
201 224 254
201 224 254
201 224 254
201 224 254
202 224 254
202 224 254
202 224 254
202 224 254
202 224 254
202 224 254
202 224 254
202 224 254
202 224 254
202 225 254
202 225 254
202 225 254
202 225 254
202 225 254
202 225 254
202 225 254
202 225 254
203 225 254
203 225 254
203 225 254
203 225 254
203 225 254
203 225 254
203 225 254
203 225 254
203 225 254
203 225 254
203 225 254
203 225 254
203 225 254
203 225 254
203 225 254
203 225 254
203 225 254
204 225 254
204 225 254
204 225 254
204 225 254
204 225 254
204 225 254
204 226 254
204 225 254
204 225 254
204 225 254
204 225 254
204 225 254
204 225 254
204 225 254
203 225 254
203 225 254
203 225 254
203 225 254
203 225 254
203 225 254
203 225 254
203 225 254
203 225 254
203 225 254
203 225 254
203 225 254
203 225 254
203 225 254
203 225 254
203 225 254
203 225 254
203 225 254
202 225 254
202 225 254
202 225 254
202 225 254
202 225 254
202 225 254
202 225 254
202 224 254
202 224 254
202 224 254
202 224 254
202 224 254
202 224 254
202 224 254
202 224 254
202 224 254
201 224 254
201 224 254
201 224 254
201 224 254
201 224 254
201 224 254
201 224 254
201 224 254
201 224 254
201 224 254
201 224 254
201 224 254
201 224 254
201 224 254
201 224 254
201 224 254
200 224 254
200 224 254
200 224 254
200 224 254
200 223 254
200 223 254
200 223 254
200 223 254
200 223 254
200 223 254
200 223 254
200 223 254
200 223 254
200 223 254
199 223 254
199 223 254
199 223 254
199 223 254
199 223 254
199 223 254
199 223 254
199 223 254
199 223 254
199 223 254
199 223 254
199 223 254
199 223 254
199 223 254
199 223 254
198 223 254
198 223 254
198 222 254
198 222 254
198 222 254
198 222 254
198 222 254
198 222 254
198 222 254
198 222 254
198 222 254
198 222 254
198 222 254
198 222 254
197 222 254
197 222 254
197 222 254
197 222 254
197 222 254
197 222 254
197 222 254
197 222 254
197 222 254
197 222 254
197 222 254
197 222 254
197 222 254
197 222 254
197 222 254
196 221 254
196 221 254
196 221 254
196 221 254
196 221 254
196 221 254
196 221 254
196 221 254
196 221 254
196 221 254
196 221 254
196 221 254
196 221 254
196 221 254
196 221 254
195 221 254
195 221 254
195 221 254
195 221 254
195 221 254
195 221 254
195 221 254
195 221 254
195 221 254
195 221 254
195 221 254
195 221 254
195 221 254
195 221 254
195 221 254
195 221 254
195 220 254
195 220 254
194 220 254
194 220 254
194 220 254
194 220 254
194 220 254
194 220 254
194 220 254
194 220 254
194 220 254
194 220 254
194 220 254
194 220 254
194 220 254
194 220 254
194 220 254
194 220 254
194 220 254
194 220 254
194 220 254
194 220 254
194 220 254
194 220 254
194 220 254
193 220 254
193 220 254
193 220 254
193 220 254
193 220 254
193 220 254
193 220 254
193 220 254
193 220 254
193 220 254
193 220 254
193 220 254
193 220 254
193 220 254
193 220 254
193 220 254
193 220 254
193 220 254
193 220 254
193 220 254
193 220 254
193 220 254
193 220 254
193 220 254
193 220 254
193 220 254
193 220 254
193 220 254
193 220 254
193 220 254
193 220 254
193 220 254
193 220 254
193 220 254
193 220 254
193 220 254
193 220 254
193 220 254
193 220 254
193 220 254
193 220 254
193 220 254
193 220 254
193 220 254
193 220 254
193 220 254
193 220 254
193 220 254
193 220 254
193 220 254
193 220 254
193 220 254
193 220 254
193 220 254
193 220 254
193 220 254
194 220 254
194 220 254
194 220 254
194 220 254
194 220 254
194 220 254
194 220 254
194 220 254
194 220 254
194 220 254
194 220 254
194 220 254
194 220 254
194 220 254
194 220 254
194 220 254
194 220 254
194 220 254
194 220 254
194 220 254
194 220 254
194 220 254
194 220 254
194 220 254
195 220 254
195 221 254
195 221 254
195 221 254
195 221 254
195 221 254
195 221 254
195 221 254
195 221 254
195 221 254
195 221 254
195 221 254
195 221 254
195 221 254
195 221 254
195 221 254
195 221 254
196 221 254
196 221 254
196 221 254
196 221 254
196 221 254
196 221 254
196 221 254
196 221 254
196 221 254
196 221 254
196 221 254
196 221 254
196 221 254
196 221 254
196 221 254
197 222 254
197 222 254
197 222 254
197 222 254
197 222 254
197 222 254
197 222 254
197 222 254
197 222 254
197 222 254
197 222 254
197 222 254
197 222 254
197 222 254
197 222 254
198 222 254
198 222 254
198 222 254
198 222 254
198 222 254
198 222 254
198 222 254
198 222 254
198 222 254
198 222 254
198 222 254
198 222 254
198 223 254
198 223 254
199 223 254
199 223 254
199 223 254
199 223 254
199 223 254
199 223 254
199 223 254
199 223 254
199 223 254
199 223 254
199 223 254
199 223 254
199 223 254
199 223 254
199 223 254
200 223 254
200 223 254
200 223 254
200 223 254
200 223 254
200 223 254
200 223 254
200 223 254
200 223 254
200 223 254
200 224 254
200 224 254
200 224 254
200 224 254
200 224 254
201 224 254
201 224 254
201 224 254
201 224 254
201 224 254
201 224 254
201 224 254
201 224 254
201 224 254
201 224 254
201 224 254
201 224 254
201 224 254
201 224 254
201 224 254
202 224 254
202 224 254
202 224 254
202 224 254
202 224 254
202 224 254
202 224 254
202 224 254
202 224 254
202 225 254
202 225 254
202 225 254
202 225 254
202 225 254
202 225 254
202 225 254
203 225 254
203 225 254
203 225 254
203 225 254
203 225 254
203 225 254
203 225 254
203 225 254
203 225 254
203 225 254
203 225 254
203 225 254
203 225 254
203 225 254
203 225 254
203 225 254
203 225 254
203 225 254
204 225 254
204 225 254
204 225 254
204 225 254
204 225 254
204 225 254
204 225 254
204 226 254
204 226 254
204 226 254
204 226 254
204 225 254
204 225 254
204 225 254
204 225 254
204 225 254
204 225 254
204 225 254
203 225 254
203 225 254
203 225 254
203 225 254
203 225 254
203 225 254
203 225 254
203 225 254
203 225 254
203 225 254
203 225 254
203 225 254
203 225 254
203 225 254
203 225 254
203 225 254
203 225 254
203 225 254
202 225 254
202 225 254
202 225 254
202 225 254
202 225 254
202 225 254
202 225 254
202 224 254
202 224 254
202 224 254
202 224 254
202 224 254
202 224 254
202 224 254
202 224 254
202 224 254
201 224 254
201 224 254
201 224 254
201 224 254
201 224 254
201 224 254
201 224 254
201 224 254
201 224 254
201 224 254
201 224 254
201 224 254
201 224 254
201 224 254
201 224 254
201 224 254
200 224 254
200 224 254
200 224 254
200 224 254
200 223 254
200 223 254
200 223 254
200 223 254
200 223 254
200 223 254
200 223 254
200 223 254
200 223 254
200 223 254
199 223 254
199 223 254
199 223 254
199 223 254
199 223 254
199 223 254
199 223 254
199 223 254
199 223 254
199 223 254
199 223 254
199 223 254
199 223 254
199 223 254
199 223 254
198 223 254
198 223 254
198 222 254
198 222 254
198 222 254
198 222 254
198 222 254
198 222 254
198 222 254
198 222 254
198 222 254
198 222 254
198 222 254
198 222 254
197 222 254
197 222 254
197 222 254
197 222 254
197 222 254
197 222 254
197 222 254
197 222 254
197 222 254
197 222 254
197 222 254
197 222 254
197 222 254
197 222 254
197 222 254
196 222 254
196 221 254
196 221 254
196 221 254
196 221 254
196 221 254
196 221 254
196 221 254
196 221 254
196 221 254
196 221 254
196 221 254
196 221 254
196 221 254
196 221 254
195 221 254
195 221 254
195 221 254
195 221 254
195 221 254
195 221 254
195 221 254
195 221 254
195 221 254
195 221 254
195 221 254
195 221 254
195 221 254
195 221 254
195 221 254
195 221 254
195 221 254
195 220 254
194 220 254
194 220 254
194 220 254
194 220 254
194 220 254
194 220 254
194 220 254
194 220 254
194 220 254
194 220 254
194 220 254
194 220 254
194 220 254
194 220 254
194 220 254
194 220 254
194 220 254
194 220 254
194 220 254
194 220 254
194 220 254
194 220 254
194 220 254
194 220 254
194 220 254
194 220 254
193 220 254
193 220 254
193 220 254
193 220 254
193 220 254
193 220 254
193 220 254
193 220 254
193 220 254
193 220 254
193 220 254
193 220 254
193 220 254
193 220 254
193 220 254
193 220 254
193 220 254
193 220 254
193 220 254
193 220 254
193 220 254
193 220 254
193 220 254
193 220 254
193 220 254
193 220 254
193 220 254
193 220 254
193 220 254
193 220 254
193 220 254
193 220 254
193 220 254
193 220 254
193 220 254
193 220 254
193 220 254
193 220 254
193 220 254
193 220 254
193 220 254
193 220 254
193 220 254
193 220 254
193 220 254
193 220 254
193 220 254
194 220 254
194 220 254
194 220 254
194 220 254
194 220 254
194 220 254
194 220 254
194 220 254
194 220 254
194 220 254
194 220 254
194 220 254
194 220 254
194 220 254
194 220 254
194 220 254
194 220 254
194 220 254
194 220 254
194 220 254
194 220 254
194 220 254
194 220 254
194 220 254
194 220 254
195 220 254
195 221 254
195 221 254
195 221 254
195 221 254
195 221 254
195 221 254
195 221 254
195 221 254
195 221 254
195 221 254
195 221 254
195 221 254
195 221 254
195 221 254
195 221 254
195 221 254
195 221 254
196 221 254
196 221 254
196 221 254
196 221 254
196 221 254
196 221 254
196 221 254
196 221 254
196 221 254
196 221 254
196 221 254
196 221 254
196 221 254
196 221 254
196 222 254
197 222 254
197 222 254
197 222 254
197 222 254
197 222 254
197 222 254
197 222 254
197 222 254
197 222 254
197 222 254
197 222 254
197 222 254
197 222 254
197 222 254
197 222 254
198 222 254
198 222 254
198 222 254
198 222 254
198 222 254
198 222 254
198 222 254
198 222 254
198 222 254
198 222 254
198 222 254
198 222 254
198 223 254
198 223 254
199 223 254
199 223 254
199 223 254
199 223 254
199 223 254
199 223 254
199 223 254
199 223 254
199 223 254
199 223 254
199 223 254
199 223 254
199 223 254
199 223 254
199 223 254
200 223 254
200 223 254
200 223 254
200 223 254
200 223 254
200 223 254
200 223 254
200 223 254
200 223 254
200 223 254
200 224 254
200 224 254
200 224 254
200 224 254
201 224 254
201 224 254
201 224 254
201 224 254
201 224 254
201 224 254
201 224 254
201 224 254
201 224 254
201 224 254
201 224 254
201 224 254
201 224 254
201 224 254
201 224 254
201 224 254
202 224 254
202 224 254
202 224 254
202 224 254
202 224 254
202 224 254
202 224 254
202 224 254
202 225 254
202 225 254
202 225 254
202 225 254
202 225 254
202 225 254
202 225 254
202 225 254
203 225 254
203 225 254
203 225 254
203 225 254
203 225 254
203 225 254
203 225 254
203 225 254
203 225 254
203 225 254
203 225 254
203 225 254
203 225 254
203 225 254
203 225 254
203 225 254
203 225 254
203 225 254
204 225 254
204 225 254
204 225 254
204 225 254
204 225 254
204 225 254
204 225 254
204 226 254
204 226 254
204 226 254
204 226 254
204 226 254
204 226 254
204 226 254
204 226 254
204 226 254
204 225 254
204 225 254
204 225 254
204 225 254
204 225 254
204 225 254
204 225 254
203 225 254
203 225 254
203 225 254
203 225 254
203 225 254
203 225 254
203 225 254
203 225 254
203 225 254
203 225 254
203 225 254
203 225 254
203 225 254
203 225 254
203 225 254
203 225 254
203 225 254
202 225 254
202 225 254
202 225 254
202 225 254
202 225 254
202 225 254
202 225 254
202 225 254
202 224 254
202 224 254
202 224 254
202 224 254
202 224 254
202 224 254
202 224 254
202 224 254
201 224 254
201 224 254
201 224 254
201 224 254
201 224 254
201 224 254
201 224 254
201 224 254
201 224 254
201 224 254
201 224 254
201 224 254
201 224 254
201 224 254
201 224 254
201 224 254
200 224 254
200 224 254
200 224 254
200 224 254
200 223 254
200 223 254
200 223 254
200 223 254
200 223 254
200 223 254
200 223 254
200 223 254
200 223 254
200 223 254
200 223 254
199 223 254
199 223 254
199 223 254
199 223 254
199 223 254
199 223 254
199 223 254
199 223 254
199 223 254
199 223 254
199 223 254
199 223 254
199 223 254
199 223 254
198 223 254
198 223 254
198 222 254
198 222 254
198 222 254
198 222 254
198 222 254
198 222 254
198 222 254
198 222 254
198 222 254
198 222 254
198 222 254
198 222 254
197 222 254
197 222 254
197 222 254
197 222 254
197 222 254
197 222 254
197 222 254
197 222 254
197 222 254
197 222 254
197 222 254
197 222 254
197 222 254
197 222 254
197 222 254
196 222 254
196 221 254
196 221 254
196 221 254
196 221 254
196 221 254
196 221 254
196 221 254
196 221 254
196 221 254
196 221 254
196 221 254
196 221 254
196 221 254
196 221 254
196 221 254
195 221 254
195 221 254
195 221 254
195 221 254
195 221 254
195 221 254
195 221 254
195 221 254
195 221 254
195 221 254
195 221 254
195 221 254
195 221 254
195 221 254
195 221 254
195 221 254
195 221 254
195 220 254
194 220 254
194 220 254
194 220 254
194 220 254
194 220 254
194 220 254
194 220 254
194 220 254
194 220 254
194 220 254
194 220 254
194 220 254
194 220 254
194 220 254
194 220 254
194 220 254
194 220 254
194 220 254
194 220 254
194 220 254
194 220 254
194 220 254
194 220 254
194 220 254
194 220 254
194 220 254
194 220 254
194 220 254
193 220 254
193 220 254
193 220 254
193 220 254
193 220 254
193 220 254
193 220 254
193 220 254
193 220 254
193 220 254
193 220 254
193 220 254
193 220 254
193 220 254
193 220 254
193 220 254
193 220 254
193 220 254
193 220 254
193 220 254
193 220 254
193 220 254
193 220 254
193 220 254
193 220 254
193 220 254
193 220 254
193 220 254
193 220 254
193 220 254
193 220 254
193 220 254
193 220 254
193 220 254
193 220 254
193 220 254
194 220 254
194 220 254
194 220 254
194 220 254
194 220 254
194 220 254
194 220 254
194 220 254
194 220 254
194 220 254
194 220 254
194 220 254
194 220 254
194 220 254
194 220 254
194 220 254
194 220 254
194 220 254
194 220 254
194 220 254
194 220 254
194 220 254
194 220 254
194 220 254
194 220 254
194 220 254
194 220 254
194 220 254
195 220 254
195 221 254
195 221 254
195 221 254
195 221 254
195 221 254
195 221 254
195 221 254
195 221 254
195 221 254
195 221 254
195 221 254
195 221 254
195 221 254
195 221 254
195 221 254
195 221 254
195 221 254
196 221 254
196 221 254
196 221 254
196 221 254
196 221 254
196 221 254
196 221 254
196 221 254
196 221 254
196 221 254
196 221 254
196 221 254
196 221 254
196 221 254
196 221 254
196 222 254
197 222 254
197 222 254
197 222 254
197 222 254
197 222 254
197 222 254
197 222 254
197 222 254
197 222 254
197 222 254
197 222 254
197 222 254
197 222 254
197 222 254
197 222 254
198 222 254
198 222 254
198 222 254
198 222 254
198 222 254
198 222 254
198 222 254
198 222 254
198 222 254
198 222 254
198 222 254
198 222 254
198 223 254
198 223 254
199 223 254
199 223 254
199 223 254
199 223 254
199 223 254
199 223 254
199 223 254
199 223 254
199 223 254
199 223 254
199 223 254
199 223 254
199 223 254
199 223 254
200 223 254
200 223 254
200 223 254
200 223 254
200 223 254
200 223 254
200 223 254
200 223 254
200 223 254
200 223 254
200 223 254
200 224 254
200 224 254
200 224 254
200 224 254
201 224 254
201 224 254
201 224 254
201 224 254
201 224 254
201 224 254
201 224 254
201 224 254
201 224 254
201 224 254
201 224 254
201 224 254
201 224 254
201 224 254
201 224 254
202 224 254
202 224 254
202 224 254
202 224 254
202 224 254
202 224 254
202 224 254
202 224 254
202 224 254
202 225 254
202 225 254
202 225 254
202 225 254
202 225 254
202 225 254
202 225 254
202 225 254
203 225 254
203 225 254
203 225 254
203 225 254
203 225 254
203 225 254
203 225 254
203 225 254
203 225 254
203 225 254
203 225 254
203 225 254
203 225 254
203 225 254
203 225 254
203 225 254
203 225 254
204 225 254
204 225 254
204 225 254
204 225 254
204 225 254
204 225 254
204 225 254
204 226 254
204 226 254
204 226 254
204 226 254
204 226 254
204 226 254
204 226 254
204 226 254
204 226 254
204 226 254
204 226 254
204 226 254
204 226 254
204 226 254
204 225 254
204 225 254
204 225 254
204 225 254
204 225 254
204 225 254
204 225 254
203 225 254
203 225 254
203 225 254
203 225 254
203 225 254
203 225 254
203 225 254
203 225 254
203 225 254
203 225 254
203 225 254
203 225 254
203 225 254
203 225 254
203 225 254
203 225 254
203 225 254
202 225 254
202 225 254
202 225 254
202 225 254
202 225 254
202 225 254
202 225 254
202 225 254
202 224 254
202 224 254
202 224 254
202 224 254
202 224 254
202 224 254
202 224 254
202 224 254
202 224 254
201 224 254
201 224 254
201 224 254
201 224 254
201 224 254
201 224 254
201 224 254
201 224 254
201 224 254
201 224 254
201 224 254
201 224 254
201 224 254
201 224 254
201 224 254
200 224 254
200 224 254
200 224 254
200 224 254
200 224 254
200 223 254
200 223 254
200 223 254
200 223 254
200 223 254
200 223 254
200 223 254
200 223 254
200 223 254
200 223 254
199 223 254
199 223 254
199 223 254
199 223 254
199 223 254
199 223 254
199 223 254
199 223 254
199 223 254
199 223 254
199 223 254
199 223 254
199 223 254
199 223 254
198 223 254
198 223 254
198 223 254
198 222 254
198 222 254
198 222 254
198 222 254
198 222 254
198 222 254
198 222 254
198 222 254
198 222 254
198 222 254
198 222 254
197 222 254
197 222 254
197 222 254
197 222 254
197 222 254
197 222 254
197 222 254
197 222 254
197 222 254
197 222 254
197 222 254
197 222 254
197 222 254
197 222 254
197 222 254
196 222 254
196 221 254
196 221 254
196 221 254
196 221 254
196 221 254
196 221 254
196 221 254
196 221 254
196 221 254
196 221 254
196 221 254
196 221 254
196 221 254
196 221 254
196 221 254
195 221 254
195 221 254
195 221 254
195 221 254
195 221 254
195 221 254
195 221 254
195 221 254
195 221 254
195 221 254
195 221 254
195 221 254
195 221 254
195 221 254
195 221 254
195 221 254
195 221 254
195 220 254
195 220 254
194 220 254
194 220 254
194 220 254
194 220 254
194 220 254
194 220 254
194 220 254
194 220 254
194 220 254
194 220 254
194 220 254
194 220 254
194 220 254
194 220 254
194 220 254
194 220 254
194 220 254
194 220 254
194 220 254
194 220 254
194 220 254
194 220 254
194 220 254
194 220 254
194 220 254
194 220 254
194 220 254
194 220 254
194 220 254
194 220 254
194 220 254
194 220 254
194 220 254
194 220 254
193 220 254
193 220 254
193 220 254
193 220 254
193 220 254
193 220 254
193 220 254
193 220 254
193 220 254
193 220 254
193 220 254
193 220 254
193 220 254
193 220 254
193 220 254
193 220 254
194 220 254
194 220 254
194 220 254
194 220 254
194 220 254
194 220 254
194 220 254
194 220 254
194 220 254
194 220 254
194 220 254
194 220 254
194 220 254
194 220 254
194 220 254
194 220 254
194 220 254
194 220 254
194 220 254
194 220 254
194 220 254
194 220 254
194 220 254
194 220 254
194 220 254
194 220 254
194 220 254
194 220 254
194 220 254
194 220 254
194 220 254
194 220 254
194 220 254
194 220 254
194 220 254
194 220 254
195 220 254
195 221 254
195 221 254
195 221 254
195 221 254
195 221 254
195 221 254
195 221 254
195 221 254
195 221 254
195 221 254
195 221 254
195 221 254
195 221 254
195 221 254
195 221 254
195 221 254
195 221 254
195 221 254
196 221 254
196 221 254
196 221 254
196 221 254
196 221 254
196 221 254
196 221 254
196 221 254
196 221 254
196 221 254
196 221 254
196 221 254
196 221 254
196 221 254
196 221 254
196 222 254
197 222 254
197 222 254
197 222 254
197 222 254
197 222 254
197 222 254
197 222 254
197 222 254
197 222 254
197 222 254
197 222 254
197 222 254
197 222 254
197 222 254
198 222 254
198 222 254
198 222 254
198 222 254
198 222 254
198 222 254
198 222 254
198 222 254
198 222 254
198 222 254
198 222 254
198 222 254
198 222 254
198 223 254
198 223 254
199 223 254
199 223 254
199 223 254
199 223 254
199 223 254
199 223 254
199 223 254
199 223 254
199 223 254
199 223 254
199 223 254
199 223 254
199 223 254
199 223 254
200 223 254
200 223 254
200 223 254
200 223 254
200 223 254
200 223 254
200 223 254
200 223 254
200 223 254
200 223 254
200 224 254
200 224 254
200 224 254
200 224 254
200 224 254
201 224 254
201 224 254
201 224 254
201 224 254
201 224 254
201 224 254
201 224 254
201 224 254
201 224 254
201 224 254
201 224 254
201 224 254
201 224 254
201 224 254
201 224 254
202 224 254
202 224 254
202 224 254
202 224 254
202 224 254
202 224 254
202 224 254
202 224 254
202 224 254
202 225 254
202 225 254
202 225 254
202 225 254
202 225 254
202 225 254
202 225 254
203 225 254
203 225 254
203 225 254
203 225 254
203 225 254
203 225 254
203 225 254
203 225 254
203 225 254
203 225 254
203 225 254
203 225 254
203 225 254
203 225 254
203 225 254
203 225 254
203 225 254
203 225 254
204 225 254
204 225 254
204 225 254
204 225 254
204 225 254
204 225 254
204 225 254
204 226 254
204 226 254
204 226 254
204 226 254
204 226 254
204 226 254
204 226 254
204 226 254
204 226 254
204 226 254
204 226 254
204 226 254
204 226 254
204 226 254
204 226 254
204 226 254
204 226 254
204 226 254
204 225 254
204 225 254
204 225 254
204 225 254
204 225 254
204 225 254
204 225 254
204 225 254
203 225 254
203 225 254
203 225 254
203 225 254
203 225 254
203 225 254
203 225 254
203 225 254
203 225 254
203 225 254
203 225 254
203 225 254
203 225 254
203 225 254
203 225 254
203 225 254
203 225 254
202 225 254
202 225 254
202 225 254
202 225 254
202 225 254
202 225 254
202 225 254
202 224 254
202 224 254
202 224 254
202 224 254
202 224 254
202 224 254
202 224 254
202 224 254
202 224 254
201 224 254
201 224 254
201 224 254
201 224 254
201 224 254
201 224 254
201 224 254
201 224 254
201 224 254
201 224 254
201 224 254
201 224 254
201 224 254
201 224 254
201 224 254
200 224 254
200 224 254
200 224 254
200 224 254
200 224 254
200 223 254
200 223 254
200 223 254
200 223 254
200 223 254
200 223 254
200 223 254
200 223 254
200 223 254
200 223 254
199 223 254
199 223 254
199 223 254
199 223 254
199 223 254
199 223 254
199 223 254
199 223 254
199 223 254
199 223 254
199 223 254
199 223 254
199 223 254
199 223 254
198 223 254
198 223 254
198 223 254
198 222 254
198 222 254
198 222 254
198 222 254
198 222 254
198 222 254
198 222 254
198 222 254
198 222 254
198 222 254
198 222 254
198 222 254
197 222 254
197 222 254
197 222 254
197 222 254
197 222 254
197 222 254
197 222 254
197 222 254
197 222 254
197 222 254
197 222 254
197 222 254
197 222 254
197 222 254
197 222 254
196 221 254
196 221 254
196 221 254
196 221 254
196 221 254
196 221 254
196 221 254
196 221 254
196 221 254
196 221 254
196 221 254
196 221 254
196 221 254
196 221 254
196 221 254
196 221 254
195 221 254
195 221 254
195 221 254
195 221 254
195 221 254
195 221 254
195 221 254
195 221 254
195 221 254
195 221 254
195 221 254
195 221 254
195 221 254
195 221 254
195 221 254
195 221 254
195 221 254
195 221 254
195 220 254
194 220 254
194 220 254
194 220 254
194 220 254
194 220 254
194 220 254
194 220 254
194 220 254
194 220 254
194 220 254
194 220 254
194 220 254
194 220 254
194 220 254
194 220 254
194 220 254
194 220 254
194 220 254
194 220 254
194 220 254
194 220 254
194 220 254
194 220 254
194 220 254
194 220 254
194 220 254
194 220 254
194 220 254
194 220 254
194 220 254
194 220 254
194 220 254
194 220 254
194 220 254
194 220 254
194 220 254
194 220 254
194 220 254
194 220 254
194 220 254
194 220 254
194 220 254
194 220 254
194 220 254
194 220 254
194 220 254
194 220 254
194 220 254
194 220 254
194 220 254
194 220 254
194 220 254
194 220 254
194 220 254
194 220 254
194 220 254
194 220 254
194 220 254
194 220 254
194 220 254
194 220 254
194 220 254
194 220 254
194 220 254
194 220 254
194 220 254
194 220 254
194 220 254
194 220 254
194 220 254
194 220 254
194 220 254
194 220 254
194 220 254
194 220 254
194 220 254
194 220 254
194 220 254
194 220 254
195 220 254
195 220 254
195 221 254
195 221 254
195 221 254
195 221 254
195 221 254
195 221 254
195 221 254
195 221 254
195 221 254
195 221 254
195 221 254
195 221 254
195 221 254
195 221 254
195 221 254
195 221 254
195 221 254
195 221 254
196 221 254
196 221 254
196 221 254
196 221 254
196 221 254
196 221 254
196 221 254
196 221 254
196 221 254
196 221 254
196 221 254
196 221 254
196 221 254
196 221 254
196 221 254
196 221 254
197 222 254
197 222 254
197 222 254
197 222 254
197 222 254
197 222 254
197 222 254
197 222 254
197 222 254
197 222 254
197 222 254
197 222 254
197 222 254
197 222 254
197 222 254
198 222 254
198 222 254
198 222 254
198 222 254
198 222 254
198 222 254
198 222 254
198 222 254
198 222 254
198 222 254
198 222 254
198 222 254
198 223 254
198 223 254
198 223 254
199 223 254
199 223 254
199 223 254
199 223 254
199 223 254
199 223 254
199 223 254
199 223 254
199 223 254
199 223 254
199 223 254
199 223 254
199 223 254
199 223 254
200 223 254
200 223 254
200 223 254
200 223 254
200 223 254
200 223 254
200 223 254
200 223 254
200 223 254
200 223 254
200 224 254
200 224 254
200 224 254
200 224 254
200 224 254
201 224 254
201 224 254
201 224 254
201 224 254
201 224 254
201 224 254
201 224 254
201 224 254
201 224 254
201 224 254
201 224 254
201 224 254
201 224 254
201 224 254
201 224 254
202 224 254
202 224 254
202 224 254
202 224 254
202 224 254
202 224 254
202 224 254
202 224 254
202 224 254
202 225 254
202 225 254
202 225 254
202 225 254
202 225 254
202 225 254
202 225 254
203 225 254
203 225 254
203 225 254
203 225 254
203 225 254
203 225 254
203 225 254
203 225 254
203 225 254
203 225 254
203 225 254
203 225 254
203 225 254
203 225 254
203 225 254
203 225 254
203 225 254
204 225 254
204 225 254
204 225 254
204 225 254
204 225 254
204 225 254
204 225 254
204 226 254
204 226 254
204 226 254
204 226 254
204 226 254
204 226 254
204 226 254
204 226 254
204 226 254
204 226 254
204 226 254
205 226 254
205 226 254
204 226 254
204 226 254
204 226 254
204 226 254
204 226 254
204 226 254
204 226 254
204 226 254
204 226 254
204 226 254
204 226 254
204 225 254
204 225 254
204 225 254
204 225 254
204 225 254
204 225 254
204 225 254
203 225 254
203 225 254
203 225 254
203 225 254
203 225 254
203 225 254
203 225 254
203 225 254
203 225 254
203 225 254
203 225 254
203 225 254
203 225 254
203 225 254
203 225 254
203 225 254
203 225 254
202 225 254
202 225 254
202 225 254
202 225 254
202 225 254
202 225 254
202 225 254
202 224 254
202 224 254
202 224 254
202 224 254
202 224 254
202 224 254
202 224 254
202 224 254
202 224 254
201 224 254
201 224 254
201 224 254
201 224 254
201 224 254
201 224 254
201 224 254
201 224 254
201 224 254
201 224 254
201 224 254
201 224 254
201 224 254
201 224 254
201 224 254
200 224 254
200 224 254
200 224 254
200 224 254
200 224 254
200 223 254
200 223 254
200 223 254
200 223 254
200 223 254
200 223 254
200 223 254
200 223 254
200 223 254
200 223 254
199 223 254
199 223 254
199 223 254
199 223 254
199 223 254
199 223 254
199 223 254
199 223 254
199 223 254
199 223 254
199 223 254
199 223 254
199 223 254
199 223 254
198 223 254
198 223 254
198 223 254
198 222 254
198 222 254
198 222 254
198 222 254
198 222 254
198 222 254
198 222 254
198 222 254
198 222 254
198 222 254
198 222 254
198 222 254
197 222 254
197 222 254
197 222 254
197 222 254
197 222 254
197 222 254
197 222 254
197 222 254
197 222 254
197 222 254
197 222 254
197 222 254
197 222 254
197 222 254
197 222 254
196 222 254
196 221 254
196 221 254
196 221 254
196 221 254
196 221 254
196 221 254
196 221 254
196 221 254
196 221 254
196 221 254
196 221 254
196 221 254
196 221 254
196 221 254
196 221 254
195 221 254
195 221 254
195 221 254
195 221 254
195 221 254
195 221 254
195 221 254
195 221 254
195 221 254
195 221 254
195 221 254
195 221 254
195 221 254
195 221 254
195 221 254
195 221 254
195 221 254
195 221 254
195 221 254
195 220 254
195 220 254
194 220 254
194 220 254
194 220 254
194 220 254
194 220 254
194 220 254
194 220 254
194 220 254
194 220 254
194 220 254
194 220 254
194 220 254
194 220 254
194 220 254
194 220 254
194 220 254
194 220 254
194 220 254
194 220 254
194 220 254
194 220 254
194 220 254
194 220 254
194 220 254
194 220 254
194 220 254
194 220 254
194 220 254
194 220 254
194 220 254
194 220 254
194 220 254
194 220 254
194 220 254
194 220 254
194 220 254
194 220 254
194 220 254
194 220 254
194 220 254
194 220 254
194 220 254
194 220 254
194 220 254
194 220 254
194 220 254
194 220 254
194 220 254
194 220 254
194 220 254
194 220 254
194 220 254
194 220 254
194 220 254
194 220 254
194 220 254
194 220 254
194 220 254
194 220 254
194 220 254
194 220 254
194 220 254
194 220 254
194 220 254
194 220 254
194 220 254
194 220 254
194 220 254
194 220 254
194 220 254
194 220 254
194 220 254
195 220 254
195 220 254
195 221 254
195 221 254
195 221 254
195 221 254
195 221 254
195 221 254
195 221 254
195 221 254
195 221 254
195 221 254
195 221 254
195 221 254
195 221 254
195 221 254
195 221 254
195 221 254
195 221 254
195 221 254
196 221 254
196 221 254
196 221 254
196 221 254
196 221 254
196 221 254
196 221 254
196 221 254
196 221 254
196 221 254
196 221 254
196 221 254
196 221 254
196 221 254
196 221 254
196 221 254
196 222 254
197 222 254
197 222 254
197 222 254
197 222 254
197 222 254
197 222 254
197 222 254
197 222 254
197 222 254
197 222 254
197 222 254
197 222 254
197 222 254
197 222 254
197 222 254
198 222 254
198 222 254
198 222 254
198 222 254
198 222 254
198 222 254
198 222 254
198 222 254
198 222 254
198 222 254
198 222 254
198 222 254
198 223 254
198 223 254
198 223 254
199 223 254
199 223 254
199 223 254
199 223 254
199 223 254
199 223 254
199 223 254
199 223 254
199 223 254
199 223 254
199 223 254
199 223 254
199 223 254
199 223 254
200 223 254
200 223 254
200 223 254
200 223 254
200 223 254
200 223 254
200 223 254
200 223 254
200 223 254
200 223 254
200 224 254
200 224 254
200 224 254
200 224 254
200 224 254
201 224 254
201 224 254
201 224 254
201 224 254
201 224 254
201 224 254
201 224 254
201 224 254
201 224 254
201 224 254
201 224 254
201 224 254
201 224 254
201 224 254
201 224 254
202 224 254
202 224 254
202 224 254
202 224 254
202 224 254
202 224 254
202 224 254
202 224 254
202 225 254
202 225 254
202 225 254
202 225 254
202 225 254
202 225 254
202 225 254
202 225 254
203 225 254
203 225 254
203 225 254
203 225 254
203 225 254
203 225 254
203 225 254
203 225 254
203 225 254
203 225 254
203 225 254
203 225 254
203 225 254
203 225 254
203 225 254
203 225 254
203 225 254
204 225 254
204 225 254
204 225 254
204 225 254
204 225 254
204 225 254
204 225 254
204 226 254
204 226 254
204 226 254
204 226 254
204 226 254
204 226 254
204 226 254
204 226 254
204 226 254
204 226 254
204 226 254
205 226 254
205 226 254
205 226 254
205 226 254
205 226 254
205 226 254
204 226 254
204 226 254
204 226 254
204 226 254
204 226 254
204 226 254
204 226 254
204 226 254
204 226 254
204 226 254
204 226 254
204 225 254
204 225 254
204 225 254
204 225 254
204 225 254
204 225 254
204 225 254
203 225 254
203 225 254
203 225 254
203 225 254
203 225 254
203 225 254
203 225 254
203 225 254
203 225 254
203 225 254
203 225 254
203 225 254
203 225 254
203 225 254
203 225 254
203 225 254
203 225 254
202 225 254
202 225 254
202 225 254
202 225 254
202 225 254
202 225 254
202 225 254
202 225 254
202 224 254
202 224 254
202 224 254
202 224 254
202 224 254
202 224 254
202 224 254
202 224 254
201 224 254
201 224 254
201 224 254
201 224 254
201 224 254
201 224 254
201 224 254
201 224 254
201 224 254
201 224 254
201 224 254
201 224 254
201 224 254
201 224 254
201 224 254
200 224 254
200 224 254
200 224 254
200 224 254
200 224 254
200 223 254
200 223 254
200 223 254
200 223 254
200 223 254
200 223 254
200 223 254
200 223 254
200 223 254
200 223 254
199 223 254
199 223 254
199 223 254
199 223 254
199 223 254
199 223 254
199 223 254
199 223 254
199 223 254
199 223 254
199 223 254
199 223 254
199 223 254
199 223 254
199 223 254
198 223 254
198 223 254
198 222 254
198 222 254
198 222 254
198 222 254
198 222 254
198 222 254
198 222 254
198 222 254
198 222 254
198 222 254
198 222 254
198 222 254
197 222 254
197 222 254
197 222 254
197 222 254
197 222 254
197 222 254
197 222 254
197 222 254
197 222 254
197 222 254
197 222 254
197 222 254
197 222 254
197 222 254
197 222 254
196 222 254
196 221 254
196 221 254
196 221 254
196 221 254
196 221 254
196 221 254
196 221 254
196 221 254
196 221 254
196 221 254
196 221 254
196 221 254
196 221 254
196 221 254
196 221 254
196 221 254
195 221 254
195 221 254
195 221 254
195 221 254
195 221 254
195 221 254
195 221 254
195 221 254
195 221 254
195 221 254
195 221 254
195 221 254
195 221 254
195 221 254
195 221 254
195 221 254
195 221 254
195 221 254
195 221 254
195 221 254
195 220 254
195 220 254
194 220 254
194 220 254
194 220 254
194 220 254
194 220 254
194 220 254
194 220 254
194 220 254
194 220 254
194 220 254
194 220 254
194 220 254
194 220 254
194 220 254
194 220 254
194 220 254
194 220 254
194 220 254
194 220 254
194 220 254
194 220 254
194 220 254
194 220 254
194 220 254
194 220 254
194 220 254
194 220 254
194 220 254
194 220 254
194 220 254
194 220 254
194 220 254
194 220 254
194 220 254
194 220 254
194 220 254
194 220 254
194 220 254
194 220 254
194 220 254
194 220 254
194 220 254
194 220 254
194 220 254
194 220 254
194 220 254
194 220 254
194 220 254
194 220 254
194 220 254
194 220 254
194 220 254
194 220 254
194 220 254
194 220 254
194 220 254
194 220 254
194 220 254
194 220 254
194 220 254
194 220 254
194 220 254
194 220 254
194 220 254
195 220 254
195 220 254
195 221 254
195 221 254
195 221 254
195 221 254
195 221 254
195 221 254
195 221 254
195 221 254
195 221 254
195 221 254
195 221 254
195 221 254
195 221 254
195 221 254
195 221 254
195 221 254
195 221 254
195 221 254
195 221 254
195 221 254
196 221 254
196 221 254
196 221 254
196 221 254
196 221 254
196 221 254
196 221 254
196 221 254
196 221 254
196 221 254
196 221 254
196 221 254
196 221 254
196 221 254
196 221 254
196 221 254
196 222 254
197 222 254
197 222 254
197 222 254
197 222 254
197 222 254
197 222 254
197 222 254
197 222 254
197 222 254
197 222 254
197 222 254
197 222 254
197 222 254
197 222 254
197 222 254
198 222 254
198 222 254
198 222 254
198 222 254
198 222 254
198 222 254
198 222 254
198 222 254
198 222 254
198 222 254
198 222 254
198 222 254
198 223 254
198 223 254
199 223 254
199 223 254
199 223 254
199 223 254
199 223 254
199 223 254
199 223 254
199 223 254
199 223 254
199 223 254
199 223 254
199 223 254
199 223 254
199 223 254
199 223 254
200 223 254
200 223 254
200 223 254
200 223 254
200 223 254
200 223 254
200 223 254
200 223 254
200 223 254
200 223 254
200 224 254
200 224 254
200 224 254
200 224 254
201 224 254
201 224 254
201 224 254
201 224 254
201 224 254
201 224 254
201 224 254
201 224 254
201 224 254
201 224 254
201 224 254
201 224 254
201 224 254
201 224 254
201 224 254
201 224 254
202 224 254
202 224 254
202 224 254
202 224 254
202 224 254
202 224 254
202 224 254
202 224 254
202 225 254
202 225 254
202 225 254
202 225 254
202 225 254
202 225 254
202 225 254
202 225 254
203 225 254
203 225 254
203 225 254
203 225 254
203 225 254
203 225 254
203 225 254
203 225 254
203 225 254
203 225 254
203 225 254
203 225 254
203 225 254
203 225 254
203 225 254
203 225 254
203 225 254
204 225 254
204 225 254
204 225 254
204 225 254
204 225 254
204 225 254
204 225 254
204 226 254
204 226 254
204 226 254
204 226 254
204 226 254
204 226 254
204 226 254
204 226 254
204 226 254
204 226 254
204 226 254
205 226 254
205 226 254
205 226 254
205 226 254
205 226 254
205 226 254
205 226 254
205 226 254
205 226 254
205 226 254
205 226 254
204 226 254
204 226 254
204 226 254
204 226 254
204 226 254
204 226 254
204 226 254
204 226 254
204 226 254
204 226 254
204 226 254
204 225 254
204 225 254
204 225 254
204 225 254
204 225 254
204 225 254
204 225 254
203 225 254
203 225 254
203 225 254
203 225 254
203 225 254
203 225 254
203 225 254
203 225 254
203 225 254
203 225 254
203 225 254
203 225 254
203 225 254
203 225 254
203 225 254
203 225 254
203 225 254
202 225 254
202 225 254
202 225 254
202 225 254
202 225 254
202 225 254
202 225 254
202 224 254
202 224 254
202 224 254
202 224 254
202 224 254
202 224 254
202 224 254
202 224 254
202 224 254
201 224 254
201 224 254
201 224 254
201 224 254
201 224 254
201 224 254
201 224 254
201 224 254
201 224 254
201 224 254
201 224 254
201 224 254
201 224 254
201 224 254
201 224 254
200 224 254
200 224 254
200 224 254
200 224 254
200 223 254
200 223 254
200 223 254
200 223 254
200 223 254
200 223 254
200 223 254
200 223 254
200 223 254
200 223 254
199 223 254
199 223 254
199 223 254
199 223 254
199 223 254
199 223 254
199 223 254
199 223 254
199 223 254
199 223 254
199 223 254
199 223 254
199 223 254
199 223 254
199 223 254
198 223 254
198 223 254
198 222 254
198 222 254
198 222 254
198 222 254
198 222 254
198 222 254
198 222 254
198 222 254
198 222 254
198 222 254
198 222 254
198 222 254
197 222 254
197 222 254
197 222 254
197 222 254
197 222 254
197 222 254
197 222 254
197 222 254
197 222 254
197 222 254
197 222 254
197 222 254
197 222 254
197 222 254
197 222 254
197 222 254
196 221 254
196 221 254
196 221 254
196 221 254
196 221 254
196 221 254
196 221 254
196 221 254
196 221 254
196 221 254
196 221 254
196 221 254
196 221 254
196 221 254
196 221 254
196 221 254
196 221 254
195 221 254
195 221 254
195 221 254
195 221 254
195 221 254
195 221 254
195 221 254
195 221 254
195 221 254
195 221 254
195 221 254
195 221 254
195 221 254
195 221 254
195 221 254
195 221 254
195 221 254
195 221 254
195 221 254
195 221 254
195 221 254
195 220 254
195 220 254
194 220 254
194 220 254
194 220 254
194 220 254
194 220 254
194 220 254
194 220 254
194 220 254
194 220 254
194 220 254
194 220 254
194 220 254
194 220 254
194 220 254
194 220 254
194 220 254
194 220 254
194 220 254
194 220 254
194 220 254
194 220 254
194 220 254
194 220 254
194 220 254
194 220 254
194 220 254
194 220 254
194 220 254
194 220 254
194 220 254
194 220 254
194 220 254
194 220 254
194 220 254
194 220 254
194 220 254
194 220 254
194 220 254
194 220 254
194 220 254
194 220 254
194 220 254
194 220 254
194 220 254
194 220 254
194 220 254
194 220 254
194 220 254
194 220 254
194 220 254
194 220 254
194 220 254
194 220 254
194 220 254
194 220 254
195 220 254
195 220 254
195 220 254
195 221 254
195 221 254
195 221 254
195 221 254
195 221 254
195 221 254
195 221 254
195 221 254
195 221 254
195 221 254
195 221 254
195 221 254
195 221 254
195 221 254
195 221 254
195 221 254
195 221 254
195 221 254
195 221 254
195 221 254
195 221 254
196 221 254
196 221 254
196 221 254
196 221 254
196 221 254
196 221 254
196 221 254
196 221 254
196 221 254
196 221 254
196 221 254
196 221 254
196 221 254
196 221 254
196 221 254
196 221 254
196 222 254
197 222 254
197 222 254
197 222 254
197 222 254
197 222 254
197 222 254
197 222 254
197 222 254
197 222 254
197 222 254
197 222 254
197 222 254
197 222 254
197 222 254
197 222 254
197 222 254
198 222 254
198 222 254
198 222 254
198 222 254
198 222 254
198 222 254
198 222 254
198 222 254
198 222 254
198 222 254
198 222 254
198 222 254
198 223 254
198 223 254
199 223 254
199 223 254
199 223 254
199 223 254
199 223 254
199 223 254
199 223 254
199 223 254
199 223 254
199 223 254
199 223 254
199 223 254
199 223 254
199 223 254
199 223 254
200 223 254
200 223 254
200 223 254
200 223 254
200 223 254
200 223 254
200 223 254
200 223 254
200 223 254
200 223 254
200 224 254
200 224 254
200 224 254
200 224 254
201 224 254
201 224 254
201 224 254
201 224 254
201 224 254
201 224 254
201 224 254
201 224 254
201 224 254
201 224 254
201 224 254
201 224 254
201 224 254
201 224 254
201 224 254
202 224 254
202 224 254
202 224 254
202 224 254
202 224 254
202 224 254
202 224 254
202 224 254
202 224 254
202 225 254
202 225 254
202 225 254
202 225 254
202 225 254
202 225 254
202 225 254
203 225 254
203 225 254
203 225 254
203 225 254
203 225 254
203 225 254
203 225 254
203 225 254
203 225 254
203 225 254
203 225 254
203 225 254
203 225 254
203 225 254
203 225 254
203 225 254
203 225 254
204 225 254
204 225 254
204 225 254
204 225 254
204 225 254
204 225 254
204 225 254
204 226 254
204 226 254
204 226 254
204 226 254
204 226 254
204 226 254
204 226 254
204 226 254
204 226 254
204 226 254
204 226 254
205 226 254
205 226 254
205 226 254
205 226 254
205 226 254
205 226 254
205 226 254
205 226 254
205 226 254
205 226 254
205 226 254
205 226 254
205 226 254
205 226 254
205 226 254
205 226 254
204 226 254
204 226 254
204 226 254
204 226 254
204 226 254
204 226 254
204 226 254
204 226 254
204 226 254
204 226 254
204 226 254
204 225 254
204 225 254
204 225 254
204 225 254
204 225 254
204 225 254
204 225 254
203 225 254
203 225 254
203 225 254
203 225 254
203 225 254
203 225 254
203 225 254
203 225 254
203 225 254
203 225 254
203 225 254
203 225 254
203 225 254
203 225 254
203 225 254
203 225 254
203 225 254
202 225 254
202 225 254
202 225 254
202 225 254
202 225 254
202 225 254
202 225 254
202 224 254
202 224 254
202 224 254
202 224 254
202 224 254
202 224 254
202 224 254
202 224 254
202 224 254
201 224 254
201 224 254
201 224 254
201 224 254
201 224 254
201 224 254
201 224 254
201 224 254
201 224 254
201 224 254
201 224 254
201 224 254
201 224 254
201 224 254
201 224 254
200 224 254
200 224 254
200 224 254
200 224 254
200 224 254
200 223 254
200 223 254
200 223 254
200 223 254
200 223 254
200 223 254
200 223 254
200 223 254
200 223 254
200 223 254
199 223 254
199 223 254
199 223 254
199 223 254
199 223 254
199 223 254
199 223 254
199 223 254
199 223 254
199 223 254
199 223 254
199 223 254
199 223 254
199 223 254
198 223 254
198 223 254
198 223 254
198 222 254
198 222 254
198 222 254
198 222 254
198 222 254
198 222 254
198 222 254
198 222 254
198 222 254
198 222 254
198 222 254
198 222 254
197 222 254
197 222 254
197 222 254
197 222 254
197 222 254
197 222 254
197 222 254
197 222 254
197 222 254
197 222 254
197 222 254
197 222 254
197 222 254
197 222 254
197 222 254
196 222 254
196 221 254
196 221 254
196 221 254
196 221 254
196 221 254
196 221 254
196 221 254
196 221 254
196 221 254
196 221 254
196 221 254
196 221 254
196 221 254
196 221 254
196 221 254
196 221 254
196 221 254
195 221 254
195 221 254
195 221 254
195 221 254
195 221 254
195 221 254
195 221 254
195 221 254
195 221 254
195 221 254
195 221 254
195 221 254
195 221 254
195 221 254
195 221 254
195 221 254
195 221 254
195 221 254
195 221 254
195 221 254
195 221 254
195 221 254
195 221 254
195 220 254
195 220 254
195 220 254
194 220 254
194 220 254
194 220 254
194 220 254
194 220 254
194 220 254
194 220 254
194 220 254
194 220 254
194 220 254
194 220 254
194 220 254
194 220 254
194 220 254
194 220 254
194 220 254
194 220 254
194 220 254
194 220 254
194 220 254
194 220 254
194 220 254
194 220 254
194 220 254
194 220 254
194 220 254
194 220 254
194 220 254
194 220 254
194 220 254
194 220 254
194 220 254
194 220 254
194 220 254
194 220 254
194 220 254
194 220 254
194 220 254
194 220 254
194 220 254
194 220 254
194 220 254
194 220 254
194 220 254
195 220 254
195 220 254
195 220 254
195 221 254
195 221 254
195 221 254
195 221 254
195 221 254
195 221 254
195 221 254
195 221 254
195 221 254
195 221 254
195 221 254
195 221 254
195 221 254
195 221 254
195 221 254
195 221 254
195 221 254
195 221 254
195 221 254
195 221 254
195 221 254
195 221 254
195 221 254
196 221 254
196 221 254
196 221 254
196 221 254
196 221 254
196 221 254
196 221 254
196 221 254
196 221 254
196 221 254
196 221 254
196 221 254
196 221 254
196 221 254
196 221 254
196 221 254
196 221 254
196 222 254
197 222 254
197 222 254
197 222 254
197 222 254
197 222 254
197 222 254
197 222 254
197 222 254
197 222 254
197 222 254
197 222 254
197 222 254
197 222 254
197 222 254
197 222 254
198 222 254
198 222 254
198 222 254
198 222 254
198 222 254
198 222 254
198 222 254
198 222 254
198 222 254
198 222 254
198 222 254
198 222 254
198 223 254
198 223 254
198 223 254
199 223 254
199 223 254
199 223 254
199 223 254
199 223 254
199 223 254
199 223 254
199 223 254
199 223 254
199 223 254
199 223 254
199 223 254
199 223 254
199 223 254
199 223 254
200 223 254
200 223 254
200 223 254
200 223 254
200 223 254
200 223 254
200 223 254
200 223 254
200 223 254
200 223 254
200 224 254
200 224 254
200 224 254
200 224 254
201 224 254
201 224 254
201 224 254
201 224 254
201 224 254
201 224 254
201 224 254
201 224 254
201 224 254
201 224 254
201 224 254
201 224 254
201 224 254
201 224 254
201 224 254
202 224 254
202 224 254
202 224 254
202 224 254
202 224 254
202 224 254
202 224 254
202 224 254
202 224 254
202 225 254
202 225 254
202 225 254
202 225 254
202 225 254
202 225 254
202 225 254
203 225 254
203 225 254
203 225 254
203 225 254
203 225 254
203 225 254
203 225 254
203 225 254
203 225 254
203 225 254
203 225 254
203 225 254
203 225 254
203 225 254
203 225 254
203 225 254
203 225 254
204 225 254
204 225 254
204 225 254
204 225 254
204 225 254
204 225 254
204 225 254
204 226 254
204 226 254
204 226 254
204 226 254
204 226 254
204 226 254
204 226 254
204 226 254
204 226 254
204 226 254
204 226 254
205 226 254
205 226 254
205 226 254
205 226 254
205 226 254
205 226 254
205 226 254
205 226 254
205 226 254
205 226 254
205 226 254
205 226 254
205 226 254
205 226 254
205 226 254
205 226 254
205 226 254
205 226 254
205 226 254
205 226 254
205 226 254
204 226 254
204 226 254
204 226 254
204 226 254
204 226 254
204 226 254
204 226 254
204 226 254
204 226 254
204 226 254
204 226 254
204 225 254
204 225 254
204 225 254
204 225 254
204 225 254
204 225 254
204 225 254
203 225 254
203 225 254
203 225 254
203 225 254
203 225 254
203 225 254
203 225 254
203 225 254
203 225 254
203 225 254
203 225 254
203 225 254
203 225 254
203 225 254
203 225 254
203 225 254
202 225 254
202 225 254
202 225 254
202 225 254
202 225 254
202 225 254
202 225 254
202 225 254
202 224 254
202 224 254
202 224 254
202 224 254
202 224 254
202 224 254
202 224 254
202 224 254
201 224 254
201 224 254
201 224 254
201 224 254
201 224 254
201 224 254
201 224 254
201 224 254
201 224 254
201 224 254
201 224 254
201 224 254
201 224 254
201 224 254
201 224 254
200 224 254
200 224 254
200 224 254
200 224 254
200 224 254
200 223 254
200 223 254
200 223 254
200 223 254
200 223 254
200 223 254
200 223 254
200 223 254
200 223 254
200 223 254
199 223 254
199 223 254
199 223 254
199 223 254
199 223 254
199 223 254
199 223 254
199 223 254
199 223 254
199 223 254
199 223 254
199 223 254
199 223 254
199 223 254
198 223 254
198 223 254
198 223 254
198 222 254
198 222 254
198 222 254
198 222 254
198 222 254
198 222 254
198 222 254
198 222 254
198 222 254
198 222 254
198 222 254
198 222 254
197 222 254
197 222 254
197 222 254
197 222 254
197 222 254
197 222 254
197 222 254
197 222 254
197 222 254
197 222 254
197 222 254
197 222 254
197 222 254
197 222 254
197 222 254
197 222 254
196 222 254
196 221 254
196 221 254
196 221 254
196 221 254
196 221 254
196 221 254
196 221 254
196 221 254
196 221 254
196 221 254
196 221 254
196 221 254
196 221 254
196 221 254
196 221 254
196 221 254
196 221 254
195 221 254
195 221 254
195 221 254
195 221 254
195 221 254
195 221 254
195 221 254
195 221 254
195 221 254
195 221 254
195 221 254
195 221 254
195 221 254
195 221 254
195 221 254
195 221 254
195 221 254
195 221 254
195 221 254
195 221 254
195 221 254
195 221 254
195 221 254
195 221 254
195 221 254
195 221 254
195 220 254
195 220 254
195 220 254
195 220 254
194 220 254
194 220 254
194 220 254
194 220 254
194 220 254
194 220 254
194 220 254
194 220 254
194 220 254
194 220 254
194 220 254
194 220 254
194 220 254
194 220 254
194 220 254
194 220 254
194 220 254
194 220 254
194 220 254
194 220 254
194 220 254
194 220 254
194 220 254
194 220 254
194 220 254
194 220 254
194 220 254
194 220 254
194 220 254
194 220 254
195 220 254
195 220 254
195 220 254
195 220 254
195 221 254
195 221 254
195 221 254
195 221 254
195 221 254
195 221 254
195 221 254
195 221 254
195 221 254
195 221 254
195 221 254
195 221 254
195 221 254
195 221 254
195 221 254
195 221 254
195 221 254
195 221 254
195 221 254
195 221 254
195 221 254
195 221 254
195 221 254
195 221 254
195 221 254
195 221 254
196 221 254
196 221 254
196 221 254
196 221 254
196 221 254
196 221 254
196 221 254
196 221 254
196 221 254
196 221 254
196 221 254
196 221 254
196 221 254
196 221 254
196 221 254
196 221 254
196 221 254
196 222 254
197 222 254
197 222 254
197 222 254
197 222 254
197 222 254
197 222 254
197 222 254
197 222 254
197 222 254
197 222 254
197 222 254
197 222 254
197 222 254
197 222 254
197 222 254
197 222 254
198 222 254
198 222 254
198 222 254
198 222 254
198 222 254
198 222 254
198 222 254
198 222 254
198 222 254
198 222 254
198 222 254
198 222 254
198 223 254
198 223 254
198 223 254
199 223 254
199 223 254
199 223 254
199 223 254
199 223 254
199 223 254
199 223 254
199 223 254
199 223 254
199 223 254
199 223 254
199 223 254
199 223 254
199 223 254
200 223 254
200 223 254
200 223 254
200 223 254
200 223 254
200 223 254
200 223 254
200 223 254
200 223 254
200 223 254
200 224 254
200 224 254
200 224 254
200 224 254
200 224 254
201 224 254
201 224 254
201 224 254
201 224 254
201 224 254
201 224 254
201 224 254
201 224 254
201 224 254
201 224 254
201 224 254
201 224 254
201 224 254
201 224 254
201 224 254
202 224 254
202 224 254
202 224 254
202 224 254
202 224 254
202 224 254
202 224 254
202 224 254
202 225 254
202 225 254
202 225 254
202 225 254
202 225 254
202 225 254
202 225 254
202 225 254
203 225 254
203 225 254
203 225 254
203 225 254
203 225 254
203 225 254
203 225 254
203 225 254
203 225 254
203 225 254
203 225 254
203 225 254
203 225 254
203 225 254
203 225 254
203 225 254
204 225 254
204 225 254
204 225 254
204 225 254
204 225 254
204 225 254
204 225 254
204 226 254
204 226 254
204 226 254
204 226 254
204 226 254
204 226 254
204 226 254
204 226 254
204 226 254
204 226 254
204 226 254
205 226 254
205 226 254
205 226 254
205 226 254
205 226 254
205 226 254
205 226 254
205 226 254
205 226 254
205 226 254
205 226 254
205 226 254
205 226 254
205 226 254
205 226 254
205 226 254
205 226 254
205 226 254
205 226 254
205 226 254
205 226 254
205 226 254
205 226 254
205 226 254
205 226 254
205 226 254
204 226 254
204 226 254
204 226 254
204 226 254
204 226 254
204 226 254
204 226 254
204 226 254
204 226 254
204 226 254
204 226 254
204 225 254
204 225 254
204 225 254
204 225 254
204 225 254
204 225 254
204 225 254
203 225 254
203 225 254
203 225 254
203 225 254
203 225 254
203 225 254
203 225 254
203 225 254
203 225 254
203 225 254
203 225 254
203 225 254
203 225 254
203 225 254
203 225 254
203 225 254
203 225 254
202 225 254
202 225 254
202 225 254
202 225 254
202 225 254
202 225 254
202 225 254
202 224 254
202 224 254
202 224 254
202 224 254
202 224 254
202 224 254
202 224 254
202 224 254
201 224 254
201 224 254
201 224 254
201 224 254
201 224 254
201 224 254
201 224 254
201 224 254
201 224 254
201 224 254
201 224 254
201 224 254
201 224 254
201 224 254
201 224 254
200 224 254
200 224 254
200 224 254
200 224 254
200 224 254
200 223 254
200 223 254
200 223 254
200 223 254
200 223 254
200 223 254
200 223 254
200 223 254
200 223 254
200 223 254
199 223 254
199 223 254
199 223 254
199 223 254
199 223 254
199 223 254
199 223 254
199 223 254
199 223 254
199 223 254
199 223 254
199 223 254
199 223 254
199 223 254
198 223 254
198 223 254
198 223 254
198 222 254
198 222 254
198 222 254
198 222 254
198 222 254
198 222 254
198 222 254
198 222 254
198 222 254
198 222 254
198 222 254
198 222 254
198 222 254
197 222 254
197 222 254
197 222 254
197 222 254
197 222 254
197 222 254
197 222 254
197 222 254
197 222 254
197 222 254
197 222 254
197 222 254
197 222 254
197 222 254
197 222 254
197 222 254
196 221 254
196 221 254
196 221 254
196 221 254
196 221 254
196 221 254
196 221 254
196 221 254
196 221 254
196 221 254
196 221 254
196 221 254
196 221 254
196 221 254
196 221 254
196 221 254
196 221 254
196 221 254
196 221 254
195 221 254
195 221 254
195 221 254
195 221 254
195 221 254
195 221 254
195 221 254
195 221 254
195 221 254
195 221 254
195 221 254
195 221 254
195 221 254
195 221 254
195 221 254
195 221 254
195 221 254
195 221 254
195 221 254
195 221 254
195 221 254
195 221 254
195 221 254
195 221 254
195 221 254
195 221 254
195 221 254
195 221 254
195 221 254
195 221 254
195 221 254
195 220 254
195 220 254
195 220 254
195 220 254
195 220 254
195 220 254
195 220 254
195 220 254
195 220 254
195 220 254
195 220 254
195 220 254
195 220 254
195 220 254
195 220 254
195 220 254
195 220 254
195 220 254
195 220 254
195 221 254
195 220 254
195 221 254
195 221 254
195 221 254
195 221 254
195 221 254
195 221 254
195 221 254
195 221 254
195 221 254
195 221 254
195 221 254
195 221 254
195 221 254
195 221 254
195 221 254
195 221 254
195 221 254
195 221 254
195 221 254
195 221 254
195 221 254
195 221 254
195 221 254
195 221 254
195 221 254
195 221 254
195 221 254
195 221 254
195 221 254
195 221 254
196 221 254
196 221 254
196 221 254
196 221 254
196 221 254
196 221 254
196 221 254
196 221 254
196 221 254
196 221 254
196 221 254
196 221 254
196 221 254
196 221 254
196 221 254
196 221 254
196 221 254
196 221 254
196 221 254
197 222 254
197 222 254
197 222 254
197 222 254
197 222 254
197 222 254
197 222 254
197 222 254
197 222 254
197 222 254
197 222 254
197 222 254
197 222 254
197 222 254
197 222 254
197 222 254
198 222 254
198 222 254
198 222 254
198 222 254
198 222 254
198 222 254
198 222 254
198 222 254
198 222 254
198 222 254
198 222 254
198 222 254
198 222 254
198 223 254
198 223 254
199 223 254
199 223 254
199 223 254
199 223 254
199 223 254
199 223 254
199 223 254
199 223 254
199 223 254
199 223 254
199 223 254
199 223 254
199 223 254
199 223 254
199 223 254
200 223 254
200 223 254
200 223 254
200 223 254
200 223 254
200 223 254
200 223 254
200 223 254
200 223 254
200 223 254
200 224 254
200 224 254
200 224 254
200 224 254
200 224 254
201 224 254
201 224 254
201 224 254
201 224 254
201 224 254
201 224 254
201 224 254
201 224 254
201 224 254
201 224 254
201 224 254
201 224 254
201 224 254
201 224 254
202 224 254
202 224 254
202 224 254
202 224 254
202 224 254
202 224 254
202 224 254
202 224 254
202 224 254
202 225 254
202 225 254
202 225 254
202 225 254
202 225 254
202 225 254
202 225 254
203 225 254
203 225 254
203 225 254
203 225 254
203 225 254
203 225 254
203 225 254
203 225 254
203 225 254
203 225 254
203 225 254
203 225 254
203 225 254
203 225 254
203 225 254
203 225 254
203 225 254
204 225 254
204 225 254
204 225 254
204 225 254
204 225 254
204 225 254
204 225 254
204 226 254
204 226 254
204 226 254
204 226 254
204 226 254
204 226 254
204 226 254
204 226 254
204 226 254
204 226 254
204 226 254
205 226 254
205 226 254
205 226 254
205 226 254
205 226 254
205 226 254
205 226 254
205 226 254
205 226 254
205 226 254
205 226 254
205 226 254
205 226 254
205 226 254
205 226 254
205 226 254
205 226 254
205 226 254
205 226 254
205 226 254
205 226 254
205 226 254
205 226 254
205 226 254
205 226 254
205 226 254
205 226 254
205 226 254
205 226 254
205 226 254
205 226 254
204 226 254
204 226 254
204 226 254
204 226 254
204 226 254
204 226 254
204 226 254
204 226 254
204 226 254
204 226 254
204 226 254
204 225 254
204 225 254
204 225 254
204 225 254
204 225 254
204 225 254
204 225 254
203 225 254
203 225 254
203 225 254
203 225 254
203 225 254
203 225 254
203 225 254
203 225 254
203 225 254
203 225 254
203 225 254
203 225 254
203 225 254
203 225 254
203 225 254
203 225 254
202 225 254
202 225 254
202 225 254
202 225 254
202 225 254
202 225 254
202 225 254
202 224 254
202 224 254
202 224 254
202 224 254
202 224 254
202 224 254
202 224 254
202 224 254
202 224 254
201 224 254
201 224 254
201 224 254
201 224 254
201 224 254
201 224 254
201 224 254
201 224 254
201 224 254
201 224 254
201 224 254
201 224 254
201 224 254
201 224 254
201 224 254
200 224 254
200 224 254
200 224 254
200 224 254
200 223 254
200 223 254
200 223 254
200 223 254
200 223 254
200 223 254
200 223 254
200 223 254
200 223 254
200 223 254
199 223 254
199 223 254
199 223 254
199 223 254
199 223 254
199 223 254
199 223 254
199 223 254
199 223 254
199 223 254
199 223 254
199 223 254
199 223 254
199 223 254
199 223 254
198 223 254
198 223 254
198 222 254
198 222 254
198 222 254
198 222 254
198 222 254
198 222 254
198 222 254
198 222 254
198 222 254
198 222 254
198 222 254
198 222 254
198 222 254
197 222 254
197 222 254
197 222 254
197 222 254
197 222 254
197 222 254
197 222 254
197 222 254
197 222 254
197 222 254
197 222 254
197 222 254
197 222 254
197 222 254
197 222 254
197 222 254
196 222 254
196 221 254
196 221 254
196 221 254
196 221 254
196 221 254
196 221 254
196 221 254
196 221 254
196 221 254
196 221 254
196 221 254
196 221 254
196 221 254
196 221 254
196 221 254
196 221 254
196 221 254
196 221 254
196 221 254
195 221 254
195 221 254
195 221 254
195 221 254
195 221 254
195 221 254
195 221 254
195 221 254
195 221 254
195 221 254
195 221 254
195 221 254
195 221 254
195 221 254
195 221 254
195 221 254
195 221 254
195 221 254
195 221 254
195 221 254
195 221 254
195 221 254
195 221 254
195 221 254
195 221 254
195 221 254
195 221 254
195 221 254
195 221 254
195 221 254
195 221 254
195 221 254
195 221 254
195 221 254
195 221 254
195 221 254
195 221 254
195 221 254
195 221 254
195 221 254
195 221 254
195 221 254
195 221 254
195 221 254
195 221 254
195 221 254
195 221 254
195 221 254
195 221 254
195 221 254
195 221 254
195 221 254
195 221 254
195 221 254
195 221 254
195 221 254
195 221 254
195 221 254
195 221 254
195 221 254
195 221 254
195 221 254
195 221 254
195 221 254
195 221 254
195 221 254
195 221 254
195 221 254
195 221 254
195 221 254
195 221 254
195 221 254
195 221 254
195 221 254
195 221 254
195 221 254
196 221 254
196 221 254
196 221 254
196 221 254
196 221 254
196 221 254
196 221 254
196 221 254
196 221 254
196 221 254
196 221 254
196 221 254
196 221 254
196 221 254
196 221 254
196 221 254
196 221 254
196 221 254
196 221 254
196 222 254
197 222 254
197 222 254
197 222 254
197 222 254
197 222 254
197 222 254
197 222 254
197 222 254
197 222 254
197 222 254
197 222 254
197 222 254
197 222 254
197 222 254
197 222 254
197 222 254
198 222 254
198 222 254
198 222 254
198 222 254
198 222 254
198 222 254
198 222 254
198 222 254
198 222 254
198 222 254
198 222 254
198 222 254
198 223 254
198 223 254
198 223 254
199 223 254
199 223 254
199 223 254
199 223 254
199 223 254
199 223 254
199 223 254
199 223 254
199 223 254
199 223 254
199 223 254
199 223 254
199 223 254
199 223 254
199 223 254
200 223 254
200 223 254
200 223 254
200 223 254
200 223 254
200 223 254
200 223 254
200 223 254
200 223 254
200 223 254
200 224 254
200 224 254
200 224 254
200 224 254
201 224 254
201 224 254
201 224 254
201 224 254
201 224 254
201 224 254
201 224 254
201 224 254
201 224 254
201 224 254
201 224 254
201 224 254
201 224 254
201 224 254
201 224 254
202 224 254
202 224 254
202 224 254
202 224 254
202 224 254
202 224 254
202 224 254
202 224 254
202 224 254
202 225 254
202 225 254
202 225 254
202 225 254
202 225 254
202 225 254
202 225 254
203 225 254
203 225 254
203 225 254
203 225 254
203 225 254
203 225 254
203 225 254
203 225 254
203 225 254
203 225 254
203 225 254
203 225 254
203 225 254
203 225 254
203 225 254
203 225 254
204 225 254
204 225 254
204 225 254
204 225 254
204 225 254
204 225 254
204 225 254
204 226 254
204 226 254
204 226 254
204 226 254
204 226 254
204 226 254
204 226 254
204 226 254
204 226 254
204 226 254
204 226 254
205 226 254
205 226 254
205 226 254
205 226 254
205 226 254
205 226 254
205 226 254
205 226 254
205 226 254
205 226 254
205 226 254
205 226 254
205 226 254
205 226 254
205 226 254
205 226 254
205 226 254
205 226 254
205 226 254
205 226 254
205 226 254
205 226 254
205 226 254
205 226 254
205 226 254
205 226 254
205 226 254
205 226 254
205 226 254
205 226 254
205 226 254
205 226 254
205 226 254
205 226 254
205 226 254
205 226 254
204 226 254
204 226 254
204 226 254
204 226 254
204 226 254
204 226 254
204 226 254
204 226 254
204 226 254
204 226 254
204 226 254
204 225 254
204 225 254
204 225 254
204 225 254
204 225 254
204 225 254
204 225 254
203 225 254
203 225 254
203 225 254
203 225 254
203 225 254
203 225 254
203 225 254
203 225 254
203 225 254
203 225 254
203 225 254
203 225 254
203 225 254
203 225 254
203 225 254
203 225 254
203 225 254
202 225 254
202 225 254
202 225 254
202 225 254
202 225 254
202 225 254
202 225 254
202 224 254
202 224 254
202 224 254
202 224 254
202 224 254
202 224 254
202 224 254
202 224 254
201 224 254
201 224 254
201 224 254
201 224 254
201 224 254
201 224 254
201 224 254
201 224 254
201 224 254
201 224 254
201 224 254
201 224 254
201 224 254
201 224 254
201 224 254
200 224 254
200 224 254
200 224 254
200 224 254
200 224 254
200 223 254
200 223 254
200 223 254
200 223 254
200 223 254
200 223 254
200 223 254
200 223 254
200 223 254
200 223 254
199 223 254
199 223 254
199 223 254
199 223 254
199 223 254
199 223 254
199 223 254
199 223 254
199 223 254
199 223 254
199 223 254
199 223 254
199 223 254
199 223 254
198 223 254
198 223 254
198 223 254
198 222 254
198 222 254
198 222 254
198 222 254
198 222 254
198 222 254
198 222 254
198 222 254
198 222 254
198 222 254
198 222 254
198 222 254
198 222 254
197 222 254
197 222 254
197 222 254
197 222 254
197 222 254
197 222 254
197 222 254
197 222 254
197 222 254
197 222 254
197 222 254
197 222 254
197 222 254
197 222 254
197 222 254
197 222 254
196 222 254
196 221 254
196 221 254
196 221 254
196 221 254
196 221 254
196 221 254
196 221 254
196 221 254
196 221 254
196 221 254
196 221 254
196 221 254
196 221 254
196 221 254
196 221 254
196 221 254
196 221 254
196 221 254
196 221 254
196 221 254
195 221 254
195 221 254
195 221 254
195 221 254
195 221 254
195 221 254
195 221 254
195 221 254
195 221 254
195 221 254
195 221 254
195 221 254
195 221 254
195 221 254
195 221 254
195 221 254
195 221 254
195 221 254
195 221 254
195 221 254
195 221 254
195 221 254
195 221 254
195 221 254
195 221 254
195 221 254
195 221 254
195 221 254
195 221 254
195 221 254
195 221 254
195 221 254
195 221 254
195 221 254
195 221 254
195 221 254
195 221 254
195 221 254
195 221 254
195 221 254
195 221 254
195 221 254
195 221 254
195 221 254
195 221 254
195 221 254
195 221 254
195 221 254
195 221 254
195 221 254
195 221 254
195 221 254
195 221 254
195 221 254
195 221 254
195 221 254
195 221 254
195 221 254
195 221 254
195 221 254
195 221 254
195 221 254
195 221 254
195 221 254
195 221 254
195 221 254
195 221 254
195 221 254
196 221 254
196 221 254
196 221 254
196 221 254
196 221 254
196 221 254
196 221 254
196 221 254
196 221 254
196 221 254
196 221 254
196 221 254
196 221 254
196 221 254
196 221 254
196 221 254
196 221 254
196 221 254
196 221 254
196 221 254
196 222 254
197 222 254
197 222 254
197 222 254
197 222 254
197 222 254
197 222 254
197 222 254
197 222 254
197 222 254
197 222 254
197 222 254
197 222 254
197 222 254
197 222 254
197 222 254
197 222 254
198 222 254
198 222 254
198 222 254
198 222 254
198 222 254
198 222 254
198 222 254
198 222 254
198 222 254
198 222 254
198 222 254
198 222 254
198 222 254
198 223 254
198 223 254
198 223 254
199 223 254
199 223 254
199 223 254
199 223 254
199 223 254
199 223 254
199 223 254
199 223 254
199 223 254
199 223 254
199 223 254
199 223 254
199 223 254
199 223 254
200 223 254
200 223 254
200 223 254
200 223 254
200 223 254
200 223 254
200 223 254
200 223 254
200 223 254
200 223 254
200 224 254
200 224 254
200 224 254
200 224 254
200 224 254
201 224 254
201 224 254
201 224 254
201 224 254
201 224 254
201 224 254
201 224 254
201 224 254
201 224 254
201 224 254
201 224 254
201 224 254
201 224 254
201 224 254
201 224 254
202 224 254
202 224 254
202 224 254
202 224 254
202 224 254
202 224 254
202 224 254
202 224 254
202 225 254
202 225 254
202 225 254
202 225 254
202 225 254
202 225 254
202 225 254
203 225 254
203 225 254
203 225 254
203 225 254
203 225 254
203 225 254
203 225 254
203 225 254
203 225 254
203 225 254
203 225 254
203 225 254
203 225 254
203 225 254
203 225 254
203 225 254
203 225 254
204 225 254
204 225 254
204 225 254
204 225 254
204 225 254
204 225 254
204 225 254
204 226 254
204 226 254
204 226 254
204 226 254
204 226 254
204 226 254
204 226 254
204 226 254
204 226 254
204 226 254
204 226 254
205 226 254
205 226 254
205 226 254
205 226 254
205 226 254
205 226 254
205 226 254
205 226 254
205 226 254
205 226 254
205 226 254
205 226 254
205 226 254
205 226 254
205 226 254
205 226 254
205 226 254
205 226 254
205 226 254
206 226 254
206 226 254
206 226 254
205 226 254
205 226 254
205 226 254
205 226 254
205 226 254
205 226 254
205 226 254
205 226 254
205 226 254
205 226 254
205 226 254
205 226 254
205 226 254
205 226 254
205 226 254
205 226 254
205 226 254
205 226 254
205 226 254
204 226 254
204 226 254
204 226 254
204 226 254
204 226 254
204 226 254
204 226 254
204 226 254
204 226 254
204 226 254
204 226 254
204 225 254
204 225 254
204 225 254
204 225 254
204 225 254
204 225 254
204 225 254
203 225 254
203 225 254
203 225 254
203 225 254
203 225 254
203 225 254
203 225 254
203 225 254
203 225 254
203 225 254
203 225 254
203 225 254
203 225 254
203 225 254
203 225 254
203 225 254
202 225 254
202 225 254
202 225 254
202 225 254
202 225 254
202 225 254
202 225 254
202 224 254
202 224 254
202 224 254
202 224 254
202 224 254
202 224 254
202 224 254
202 224 254
201 224 254
201 224 254
201 224 254
201 224 254
201 224 254
201 224 254
201 224 254
201 224 254
201 224 254
201 224 254
201 224 254
201 224 254
201 224 254
201 224 254
201 224 254
200 224 254
200 224 254
200 224 254
200 224 254
200 224 254
200 223 254
200 223 254
200 223 254
200 223 254
200 223 254
200 223 254
200 223 254
200 223 254
200 223 254
200 223 254
199 223 254
199 223 254
199 223 254
199 223 254
199 223 254
199 223 254
199 223 254
199 223 254
199 223 254
199 223 254
199 223 254
199 223 254
199 223 254
199 223 254
199 223 254
198 223 254
198 223 254
198 222 254
198 222 254
198 222 254
198 222 254
198 222 254
198 222 254
198 222 254
198 222 254
198 222 254
198 222 254
198 222 254
198 222 254
198 222 254
197 222 254
197 222 254
197 222 254
197 222 254
197 222 254
197 222 254
197 222 254
197 222 254
197 222 254
197 222 254
197 222 254
197 222 254
197 222 254
197 222 254
197 222 254
197 222 254
197 222 254
196 222 254
196 221 254
196 221 254
196 221 254
196 221 254
196 221 254
196 221 254
196 221 254
196 221 254
196 221 254
196 221 254
196 221 254
196 221 254
196 221 254
196 221 254
196 221 254
196 221 254
196 221 254
196 221 254
196 221 254
196 221 254
196 221 254
196 221 254
195 221 254
195 221 254
195 221 254
195 221 254
195 221 254
195 221 254
195 221 254
195 221 254
195 221 254
195 221 254
195 221 254
195 221 254
195 221 254
195 221 254
195 221 254
195 221 254
195 221 254
195 221 254
195 221 254
195 221 254
195 221 254
195 221 254
195 221 254
195 221 254
195 221 254
195 221 254
195 221 254
195 221 254
195 221 254
195 221 254
195 221 254
195 221 254
195 221 254
195 221 254
195 221 254
195 221 254
195 221 254
195 221 254
195 221 254
195 221 254
195 221 254
195 221 254
195 221 254
195 221 254
195 221 254
195 221 254
195 221 254
195 221 254
195 221 254
195 221 254
195 221 254
195 221 254
195 221 254
195 221 254
195 221 254
195 221 254
195 221 254
195 221 254
196 221 254
196 221 254
196 221 254
196 221 254
196 221 254
196 221 254
196 221 254
196 221 254
196 221 254
196 221 254
196 221 254
196 221 254
196 221 254
196 221 254
196 221 254
196 221 254
196 221 254
196 221 254
196 221 254
196 221 254
196 221 254
196 221 254
196 222 254
197 222 254
197 222 254
197 222 254
197 222 254
197 222 254
197 222 254
197 222 254
197 222 254
197 222 254
197 222 254
197 222 254
197 222 254
197 222 254
197 222 254
197 222 254
197 222 254
197 222 254
198 222 254
198 222 254
198 222 254
198 222 254
198 222 254
198 222 254
198 222 254
198 222 254
198 222 254
198 222 254
198 222 254
198 222 254
198 222 254
198 223 254
198 223 254
199 223 254
199 223 254
199 223 254
199 223 254
199 223 254
199 223 254
199 223 254
199 223 254
199 223 254
199 223 254
199 223 254
199 223 254
199 223 254
199 223 254
199 223 254
200 223 254
200 223 254
200 223 254
200 223 254
200 223 254
200 223 254
200 223 254
200 223 254
200 223 254
200 223 254
200 224 254
200 224 254
200 224 254
200 224 254
200 224 254
201 224 254
201 224 254
201 224 254
201 224 254
201 224 254
201 224 254
201 224 254
201 224 254
201 224 254
201 224 254
201 224 254
201 224 254
201 224 254
201 224 254
201 224 254
202 224 254
202 224 254
202 224 254
202 224 254
202 224 254
202 224 254
202 224 254
202 224 254
202 225 254
202 225 254
202 225 254
202 225 254
202 225 254
202 225 254
202 225 254
203 225 254
203 225 254
203 225 254
203 225 254
203 225 254
203 225 254
203 225 254
203 225 254
203 225 254
203 225 254
203 225 254
203 225 254
203 225 254
203 225 254
203 225 254
203 225 254
204 225 254
204 225 254
204 225 254
204 225 254
204 225 254
204 225 254
204 225 254
204 226 254
204 226 254
204 226 254
204 226 254
204 226 254
204 226 254
204 226 254
204 226 254
204 226 254
204 226 254
204 226 254
205 226 254
205 226 254
205 226 254
205 226 254
205 226 254
205 226 254
205 226 254
205 226 254
205 226 254
205 226 254
205 226 254
205 226 254
205 226 254
205 226 254
205 226 254
205 226 254
205 226 254
205 226 254
205 226 254
206 226 254
206 226 254
206 226 254
206 227 254
206 226 254
206 226 254
206 226 254
206 226 254
206 226 254
205 226 254
205 226 254
205 226 254
205 226 254
205 226 254
205 226 254
205 226 254
205 226 254
205 226 254
205 226 254
205 226 254
205 226 254
205 226 254
205 226 254
205 226 254
205 226 254
205 226 254
205 226 254
205 226 254
204 226 254
204 226 254
204 226 254
204 226 254
204 226 254
204 226 254
204 226 254
204 226 254
204 226 254
204 226 254
204 225 254
204 225 254
204 225 254
204 225 254
204 225 254
204 225 254
204 225 254
203 225 254
203 225 254
203 225 254
203 225 254
203 225 254
203 225 254
203 225 254
203 225 254
203 225 254
203 225 254
203 225 254
203 225 254
203 225 254
203 225 254
203 225 254
203 225 254
202 225 254
202 225 254
202 225 254
202 225 254
202 225 254
202 225 254
202 225 254
202 224 254
202 224 254
202 224 254
202 224 254
202 224 254
202 224 254
202 224 254
202 224 254
202 224 254
201 224 254
201 224 254
201 224 254
201 224 254
201 224 254
201 224 254
201 224 254
201 224 254
201 224 254
201 224 254
201 224 254
201 224 254
201 224 254
201 224 254
201 224 254
200 224 254
200 224 254
200 224 254
200 224 254
200 223 254
200 223 254
200 223 254
200 223 254
200 223 254
200 223 254
200 223 254
200 223 254
200 223 254
200 223 254
199 223 254
199 223 254
199 223 254
199 223 254
199 223 254
199 223 254
199 223 254
199 223 254
199 223 254
199 223 254
199 223 254
199 223 254
199 223 254
199 223 254
199 223 254
198 223 254
198 223 254
198 223 254
198 222 254
198 222 254
198 222 254
198 222 254
198 222 254
198 222 254
198 222 254
198 222 254
198 222 254
198 222 254
198 222 254
198 222 254
198 222 254
197 222 254
197 222 254
197 222 254
197 222 254
197 222 254
197 222 254
197 222 254
197 222 254
197 222 254
197 222 254
197 222 254
197 222 254
197 222 254
197 222 254
197 222 254
197 222 254
197 222 254
196 222 254
196 221 254
196 221 254
196 221 254
196 221 254
196 221 254
196 221 254
196 221 254
196 221 254
196 221 254
196 221 254
196 221 254
196 221 254
196 221 254
196 221 254
196 221 254
196 221 254
196 221 254
196 221 254
196 221 254
196 221 254
196 221 254
196 221 254
196 221 254
196 221 254
195 221 254
195 221 254
195 221 254
195 221 254
195 221 254
195 221 254
195 221 254
195 221 254
195 221 254
195 221 254
195 221 254
195 221 254
195 221 254
195 221 254
195 221 254
195 221 254
195 221 254
195 221 254
195 221 254
195 221 254
195 221 254
195 221 254
195 221 254
195 221 254
195 221 254
195 221 254
195 221 254
195 221 254
195 221 254
195 221 254
195 221 254
195 221 254
195 221 254
195 221 254
195 221 254
195 221 254
195 221 254
195 221 254
195 221 254
195 221 254
195 221 254
195 221 254
195 221 254
195 221 254
195 221 254
195 221 254
195 221 254
195 221 254
196 221 254
196 221 254
196 221 254
196 221 254
196 221 254
196 221 254
196 221 254
196 221 254
196 221 254
196 221 254
196 221 254
196 221 254
196 221 254
196 221 254
196 221 254
196 221 254
196 221 254
196 221 254
196 221 254
196 221 254
196 221 254
196 221 254
196 221 254
196 221 254
196 222 254
197 222 254
197 222 254
197 222 254
197 222 254
197 222 254
197 222 254
197 222 254
197 222 254
197 222 254
197 222 254
197 222 254
197 222 254
197 222 254
197 222 254
197 222 254
197 222 254
197 222 254
198 222 254
198 222 254
198 222 254
198 222 254
198 222 254
198 222 254
198 222 254
198 222 254
198 222 254
198 222 254
198 222 254
198 222 254
198 222 254
198 223 254
198 223 254
198 223 254
199 223 254
199 223 254
199 223 254
199 223 254
199 223 254
199 223 254
199 223 254
199 223 254
199 223 254
199 223 254
199 223 254
199 223 254
199 223 254
199 223 254
199 223 254
200 223 254
200 223 254
200 223 254
200 223 254
200 223 254
200 223 254
200 223 254
200 223 254
200 223 254
200 223 254
200 224 254
200 224 254
200 224 254
200 224 254
201 224 254
201 224 254
201 224 254
201 224 254
201 224 254
201 224 254
201 224 254
201 224 254
201 224 254
201 224 254
201 224 254
201 224 254
201 224 254
201 224 254
201 224 254
202 224 254
202 224 254
202 224 254
202 224 254
202 224 254
202 224 254
202 224 254
202 224 254
202 225 254
202 225 254
202 225 254
202 225 254
202 225 254
202 225 254
202 225 254
202 225 254
203 225 254
203 225 254
203 225 254
203 225 254
203 225 254
203 225 254
203 225 254
203 225 254
203 225 254
203 225 254
203 225 254
203 225 254
203 225 254
203 225 254
203 225 254
203 225 254
204 225 254
204 225 254
204 225 254
204 225 254
204 225 254
204 225 254
204 225 254
204 226 254
204 226 254
204 226 254
204 226 254
204 226 254
204 226 254
204 226 254
204 226 254
204 226 254
204 226 254
205 226 254
205 226 254
205 226 254
205 226 254
205 226 254
205 226 254
205 226 254
205 226 254
205 226 254
205 226 254
205 226 254
205 226 254
205 226 254
205 226 254
205 226 254
205 226 254
205 226 254
205 226 254
205 226 254
205 226 254
206 226 254
206 226 254
206 226 254
206 226 254
206 227 254
206 227 254
206 227 254
206 227 254
206 227 254
206 226 254
206 226 254
206 226 254
206 226 254
205 226 254
205 226 254
205 226 254
205 226 254
205 226 254
205 226 254
205 226 254
205 226 254
205 226 254
205 226 254
205 226 254
205 226 254
205 226 254
205 226 254
205 226 254
205 226 254
205 226 254
205 226 254
205 226 254
204 226 254
204 226 254
204 226 254
204 226 254
204 226 254
204 226 254
204 226 254
204 226 254
204 226 254
204 226 254
204 226 254
204 225 254
204 225 254
204 225 254
204 225 254
204 225 254
204 225 254
204 225 254
203 225 254
203 225 254
203 225 254
203 225 254
203 225 254
203 225 254
203 225 254
203 225 254
203 225 254
203 225 254
203 225 254
203 225 254
203 225 254
203 225 254
203 225 254
203 225 254
202 225 254
202 225 254
202 225 254
202 225 254
202 225 254
202 225 254
202 225 254
202 224 254
202 224 254
202 224 254
202 224 254
202 224 254
202 224 254
202 224 254
202 224 254
201 224 254
201 224 254
201 224 254
201 224 254
201 224 254
201 224 254
201 224 254
201 224 254
201 224 254
201 224 254
201 224 254
201 224 254
201 224 254
201 224 254
201 224 254
200 224 254
200 224 254
200 224 254
200 224 254
200 224 254
200 223 254
200 223 254
200 223 254
200 223 254
200 223 254
200 223 254
200 223 254
200 223 254
200 223 254
200 223 254
199 223 254
199 223 254
199 223 254
199 223 254
199 223 254
199 223 254
199 223 254
199 223 254
199 223 254
199 223 254
199 223 254
199 223 254
199 223 254
199 223 254
199 223 254
198 223 254
198 223 254
198 222 254
198 222 254
198 222 254
198 222 254
198 222 254
198 222 254
198 222 254
198 222 254
198 222 254
198 222 254
198 222 254
198 222 254
198 222 254
197 222 254
197 222 254
197 222 254
197 222 254
197 222 254
197 222 254
197 222 254
197 222 254
197 222 254
197 222 254
197 222 254
197 222 254
197 222 254
197 222 254
197 222 254
197 222 254
197 222 254
197 222 254
197 222 254
196 222 254
196 221 254
196 221 254
196 221 254
196 221 254
196 221 254
196 221 254
196 221 254
196 221 254
196 221 254
196 221 254
196 221 254
196 221 254
196 221 254
196 221 254
196 221 254
196 221 254
196 221 254
196 221 254
196 221 254
196 221 254
196 221 254
196 221 254
196 221 254
196 221 254
196 221 254
196 221 254
196 221 254
195 221 254
195 221 254
195 221 254
195 221 254
195 221 254
195 221 254
195 221 254
195 221 254
195 221 254
195 221 254
195 221 254
195 221 254
195 221 254
195 221 254
195 221 254
195 221 254
195 221 254
195 221 254
195 221 254
195 221 254
195 221 254
195 221 254
195 221 254
195 221 254
195 221 254
195 221 254
195 221 254
195 221 254
195 221 254
195 221 254
195 221 254
195 221 254
195 221 254
195 221 254
195 221 254
196 221 254
196 221 254
196 221 254
196 221 254
196 221 254
196 221 254
196 221 254
196 221 254
196 221 254
196 221 254
196 221 254
196 221 254
196 221 254
196 221 254
196 221 254
196 221 254
196 221 254
196 221 254
196 221 254
196 221 254
196 221 254
196 221 254
196 221 254
196 221 254
196 221 254
196 221 254
196 222 254
197 222 254
197 222 254
197 222 254
197 222 254
197 222 254
197 222 254
197 222 254
197 222 254
197 222 254
197 222 254
197 222 254
197 222 254
197 222 254
197 222 254
197 222 254
197 222 254
197 222 254
197 222 254
197 222 254
198 222 254
198 222 254
198 222 254
198 222 254
198 222 254
198 222 254
198 222 254
198 222 254
198 222 254
198 222 254
198 222 254
198 222 254
198 222 254
198 223 254
198 223 254
199 223 254
199 223 254
199 223 254
199 223 254
199 223 254
199 223 254
199 223 254
199 223 254
199 223 254
199 223 254
199 223 254
199 223 254
199 223 254
199 223 254
199 223 254
200 223 254
200 223 254
200 223 254
200 223 254
200 223 254
200 223 254
200 223 254
200 223 254
200 223 254
200 223 254
200 224 254
200 224 254
200 224 254
200 224 254
200 224 254
201 224 254
201 224 254
201 224 254
201 224 254
201 224 254
201 224 254
201 224 254
201 224 254
201 224 254
201 224 254
201 224 254
201 224 254
201 224 254
201 224 254
201 224 254
202 224 254
202 224 254
202 224 254
202 224 254
202 224 254
202 224 254
202 224 254
202 224 254
202 225 254
202 225 254
202 225 254
202 225 254
202 225 254
202 225 254
202 225 254
203 225 254
203 225 254
203 225 254
203 225 254
203 225 254
203 225 254
203 225 254
203 225 254
203 225 254
203 225 254
203 225 254
203 225 254
203 225 254
203 225 254
203 225 254
203 225 254
204 225 254
204 225 254
204 225 254
204 225 254
204 225 254
204 225 254
204 225 254
204 226 254
204 226 254
204 226 254
204 226 254
204 226 254
204 226 254
204 226 254
204 226 254
204 226 254
204 226 254
204 226 254
205 226 254
205 226 254
205 226 254
205 226 254
205 226 254
205 226 254
205 226 254
205 226 254
205 226 254
205 226 254
205 226 254
205 226 254
205 226 254
205 226 254
205 226 254
205 226 254
205 226 254
205 226 254
205 226 254
206 226 254
206 226 254
206 226 254
206 226 254
206 227 254
206 227 254
206 227 254
206 227 254
206 227 254
206 227 254
206 227 254
206 227 254
206 227 254
206 227 254
206 226 254
206 226 254
206 226 254
206 226 254
206 226 254
205 226 254
205 226 254
205 226 254
205 226 254
205 226 254
205 226 254
205 226 254
205 226 254
205 226 254
205 226 254
205 226 254
205 226 254
205 226 254
205 226 254
205 226 254
205 226 254
205 226 254
205 226 254
205 226 254
204 226 254
204 226 254
204 226 254
204 226 254
204 226 254
204 226 254
204 226 254
204 226 254
204 226 254
204 226 254
204 225 254
204 225 254
204 225 254
204 225 254
204 225 254
204 225 254
204 225 254
203 225 254
203 225 254
203 225 254
203 225 254
203 225 254
203 225 254
203 225 254
203 225 254
203 225 254
203 225 254
203 225 254
203 225 254
203 225 254
203 225 254
203 225 254
203 225 254
202 225 254
202 225 254
202 225 254
202 225 254
202 225 254
202 225 254
202 225 254
202 224 254
202 224 254
202 224 254
202 224 254
202 224 254
202 224 254
202 224 254
202 224 254
202 224 254
201 224 254
201 224 254
201 224 254
201 224 254
201 224 254
201 224 254
201 224 254
201 224 254
201 224 254
201 224 254
201 224 254
201 224 254
201 224 254
201 224 254
201 224 254
200 224 254
200 224 254
200 224 254
200 224 254
200 223 254
200 223 254
200 223 254
200 223 254
200 223 254
200 223 254
200 223 254
200 223 254
200 223 254
200 223 254
199 223 254
199 223 254
199 223 254
199 223 254
199 223 254
199 223 254
199 223 254
199 223 254
199 223 254
199 223 254
199 223 254
199 223 254
199 223 254
199 223 254
199 223 254
198 223 254
198 223 254
198 223 254
198 222 254
198 222 254
198 222 254
198 222 254
198 222 254
198 222 254
198 222 254
198 222 254
198 222 254
198 222 254
198 222 254
198 222 254
198 222 254
197 222 254
197 222 254
197 222 254
197 222 254
197 222 254
197 222 254
197 222 254
197 222 254
197 222 254
197 222 254
197 222 254
197 222 254
197 222 254
197 222 254
197 222 254
197 222 254
197 222 254
197 222 254
197 222 254
196 222 254
196 222 254
196 221 254
196 221 254
196 221 254
196 221 254
196 221 254
196 221 254
196 221 254
196 221 254
196 221 254
196 221 254
196 221 254
196 221 254
196 221 254
196 221 254
196 221 254
196 221 254
196 221 254
196 221 254
196 221 254
196 221 254
196 221 254
196 221 254
196 221 254
196 221 254
196 221 254
196 221 254
196 221 254
196 221 254
196 221 254
196 221 254
196 221 254
196 221 254
196 221 254
196 221 254
196 221 254
196 221 254
195 221 254
195 221 254
195 221 254
195 221 254
195 221 254
195 221 254
195 221 254
196 221 254
196 221 254
196 221 254
196 221 254
196 221 254
196 221 254
196 221 254
196 221 254
196 221 254
196 221 254
196 221 254
196 221 254
196 221 254
196 221 254
196 221 254
196 221 254
196 221 254
196 221 254
196 221 254
196 221 254
196 221 254
196 221 254
196 221 254
196 221 254
196 221 254
196 221 254
196 221 254
196 221 254
196 221 254
196 221 254
196 221 254
196 221 254
196 221 254
196 221 254
196 221 254
196 221 254
196 221 254
196 221 254
196 222 254
197 222 254
197 222 254
197 222 254
197 222 254
197 222 254
197 222 254
197 222 254
197 222 254
197 222 254
197 222 254
197 222 254
197 222 254
197 222 254
197 222 254
197 222 254
197 222 254
197 222 254
197 222 254
197 222 254
198 222 254
198 222 254
198 222 254
198 222 254
198 222 254
198 222 254
198 222 254
198 222 254
198 222 254
198 222 254
198 222 254
198 222 254
198 222 254
198 223 254
198 223 254
198 223 254
199 223 254
199 223 254
199 223 254
199 223 254
199 223 254
199 223 254
199 223 254
199 223 254
199 223 254
199 223 254
199 223 254
199 223 254
199 223 254
199 223 254
199 223 254
200 223 254
200 223 254
200 223 254
200 223 254
200 223 254
200 223 254
200 223 254
200 223 254
200 223 254
200 223 254
200 224 254
200 224 254
200 224 254
200 224 254
201 224 254
201 224 254
201 224 254
201 224 254
201 224 254
201 224 254
201 224 254
201 224 254
201 224 254
201 224 254
201 224 254
201 224 254
201 224 254
201 224 254
201 224 254
202 224 254
202 224 254
202 224 254
202 224 254
202 224 254
202 224 254
202 224 254
202 224 254
202 224 254
202 225 254
202 225 254
202 225 254
202 225 254
202 225 254
202 225 254
202 225 254
203 225 254
203 225 254
203 225 254
203 225 254
203 225 254
203 225 254
203 225 254
203 225 254
203 225 254
203 225 254
203 225 254
203 225 254
203 225 254
203 225 254
203 225 254
203 225 254
204 225 254
204 225 254
204 225 254
204 225 254
204 225 254
204 225 254
204 225 254
204 226 254
204 226 254
204 226 254
204 226 254
204 226 254
204 226 254
204 226 254
204 226 254
204 226 254
204 226 254
205 226 254
205 226 254
205 226 254
205 226 254
205 226 254
205 226 254
205 226 254
205 226 254
205 226 254
205 226 254
205 226 254
205 226 254
205 226 254
205 226 254
205 226 254
205 226 254
205 226 254
205 226 254
205 226 254
206 226 254
206 226 254
206 226 254
206 226 254
206 226 254
206 227 254
206 227 254
206 227 254
206 227 254
206 227 254
206 227 254
206 227 254
206 227 254
206 227 254
206 227 254
206 227 254
206 227 254
206 227 254
206 227 254
206 227 254
206 226 254
206 226 254
206 226 254
206 226 254
206 226 254
205 226 254
205 226 254
205 226 254
205 226 254
205 226 254
205 226 254
205 226 254
205 226 254
205 226 254
205 226 254
205 226 254
205 226 254
205 226 254
205 226 254
205 226 254
205 226 254
205 226 254
205 226 254
205 226 254
204 226 254
204 226 254
204 226 254
204 226 254
204 226 254
204 226 254
204 226 254
204 226 254
204 226 254
204 226 254
204 225 254
204 225 254
204 225 254
204 225 254
204 225 254
204 225 254
204 225 254
203 225 254
203 225 254
203 225 254
203 225 254
203 225 254
203 225 254
203 225 254
203 225 254
203 225 254
203 225 254
203 225 254
203 225 254
203 225 254
203 225 254
203 225 254
203 225 254
202 225 254
202 225 254
202 225 254
202 225 254
202 225 254
202 225 254
202 225 254
202 224 254
202 224 254
202 224 254
202 224 254
202 224 254
202 224 254
202 224 254
202 224 254
201 224 254
201 224 254
201 224 254
201 224 254
201 224 254
201 224 254
201 224 254
201 224 254
201 224 254
201 224 254
201 224 254
201 224 254
201 224 254
201 224 254
201 224 254
200 224 254
200 224 254
200 224 254
200 224 254
200 224 254
200 223 254
200 223 254
200 223 254
200 223 254
200 223 254
200 223 254
200 223 254
200 223 254
200 223 254
200 223 254
199 223 254
199 223 254
199 223 254
199 223 254
199 223 254
199 223 254
199 223 254
199 223 254
199 223 254
199 223 254
199 223 254
199 223 254
199 223 254
199 223 254
199 223 254
198 223 254
198 223 254
198 223 254
198 222 254
198 222 254
198 222 254
198 222 254
198 222 254
198 222 254
198 222 254
198 222 254
198 222 254
198 222 254
198 222 254
198 222 254
198 222 254
197 222 254
197 222 254
197 222 254
197 222 254
197 222 254
197 222 254
197 222 254
197 222 254
197 222 254
197 222 254
197 222 254
197 222 254
197 222 254
197 222 254
197 222 254
197 222 254
197 222 254
197 222 254
197 222 254
197 222 254
196 222 254
196 221 254
196 221 254
196 221 254
196 221 254
196 221 254
196 221 254
196 221 254
196 221 254
196 221 254
196 221 254
196 221 254
196 221 254
196 221 254
196 221 254
196 221 254
196 221 254
196 221 254
196 221 254
196 221 254
196 221 254
196 221 254
196 221 254
196 221 254
196 221 254
196 221 254
196 221 254
196 221 254
196 221 254
196 221 254
196 221 254
196 221 254
196 221 254
196 221 254
196 221 254
196 221 254
196 221 254
196 221 254
196 221 254
196 221 254
196 221 254
196 221 254
196 221 254
196 221 254
196 221 254
196 221 254
196 221 254
196 221 254
196 221 254
196 221 254
196 221 254
196 221 254
196 221 254
196 221 254
196 221 254
196 221 254
196 221 254
196 221 254
196 221 254
196 221 254
196 221 254
196 221 254
196 221 254
196 221 254
196 221 254
196 221 254
196 221 254
196 221 254
196 221 254
196 221 254
196 221 254
196 221 254
196 221 254
196 221 254
196 221 254
196 222 254
197 222 254
197 222 254
197 222 254
197 222 254
197 222 254
197 222 254
197 222 254
197 222 254
197 222 254
197 222 254
197 222 254
197 222 254
197 222 254
197 222 254
197 222 254
197 222 254
197 222 254
197 222 254
197 222 254
197 222 254
198 222 254
198 222 254
198 222 254
198 222 254
198 222 254
198 222 254
198 222 254
198 222 254
198 222 254
198 222 254
198 222 254
198 222 254
198 222 254
198 223 254
198 223 254
198 223 254
199 223 254
199 223 254
199 223 254
199 223 254
199 223 254
199 223 254
199 223 254
199 223 254
199 223 254
199 223 254
199 223 254
199 223 254
199 223 254
199 223 254
199 223 254
200 223 254
200 223 254
200 223 254
200 223 254
200 223 254
200 223 254
200 223 254
200 223 254
200 223 254
200 223 254
200 223 254
200 224 254
200 224 254
200 224 254
200 224 254
201 224 254
201 224 254
201 224 254
201 224 254
201 224 254
201 224 254
201 224 254
201 224 254
201 224 254
201 224 254
201 224 254
201 224 254
201 224 254
201 224 254
201 224 254
202 224 254
202 224 254
202 224 254
202 224 254
202 224 254
202 224 254
202 224 254
202 224 254
202 225 254
202 225 254
202 225 254
202 225 254
202 225 254
202 225 254
202 225 254
203 225 254
203 225 254
203 225 254
203 225 254
203 225 254
203 225 254
203 225 254
203 225 254
203 225 254
203 225 254
203 225 254
203 225 254
203 225 254
203 225 254
203 225 254
203 225 254
204 225 254
204 225 254
204 225 254
204 225 254
204 225 254
204 225 254
204 225 254
204 226 254
204 226 254
204 226 254
204 226 254
204 226 254
204 226 254
204 226 254
204 226 254
204 226 254
204 226 254
205 226 254
205 226 254
205 226 254
205 226 254
205 226 254
205 226 254
205 226 254
205 226 254
205 226 254
205 226 254
205 226 254
205 226 254
205 226 254
205 226 254
205 226 254
205 226 254
205 226 254
205 226 254
205 226 254
206 226 254
206 226 254
206 226 254
206 226 254
206 226 254
206 227 254
206 227 254
206 227 254
206 227 254
206 227 254
206 227 254
206 227 254
206 227 254
206 227 254
206 227 254
206 227 254
206 227 254
206 227 254
206 227 254
206 227 254
206 227 254
206 227 254
206 227 254
206 227 254
206 227 254
206 227 254
206 226 254
206 226 254
206 226 254
206 226 254
206 226 254
205 226 254
205 226 254
205 226 254
205 226 254
205 226 254
205 226 254
205 226 254
205 226 254
205 226 254
205 226 254
205 226 254
205 226 254
205 226 254
205 226 254
205 226 254
205 226 254
205 226 254
205 226 254
204 226 254
204 226 254
204 226 254
204 226 254
204 226 254
204 226 254
204 226 254
204 226 254
204 226 254
204 226 254
204 226 254
204 225 254
204 225 254
204 225 254
204 225 254
204 225 254
204 225 254
203 225 254
203 225 254
203 225 254
203 225 254
203 225 254
203 225 254
203 225 254
203 225 254
203 225 254
203 225 254
203 225 254
203 225 254
203 225 254
203 225 254
203 225 254
203 225 254
202 225 254
202 225 254
202 225 254
202 225 254
202 225 254
202 225 254
202 225 254
202 224 254
202 224 254
202 224 254
202 224 254
202 224 254
202 224 254
202 224 254
202 224 254
202 224 254
201 224 254
201 224 254
201 224 254
201 224 254
201 224 254
201 224 254
201 224 254
201 224 254
201 224 254
201 224 254
201 224 254
201 224 254
201 224 254
201 224 254
200 224 254
200 224 254
200 224 254
200 224 254
200 224 254
200 223 254
200 223 254
200 223 254
200 223 254
200 223 254
200 223 254
200 223 254
200 223 254
200 223 254
200 223 254
199 223 254
199 223 254
199 223 254
199 223 254
199 223 254
199 223 254
199 223 254
199 223 254
199 223 254
199 223 254
199 223 254
199 223 254
199 223 254
199 223 254
199 223 254
199 223 254
198 223 254
198 223 254
198 222 254
198 222 254
198 222 254
198 222 254
198 222 254
198 222 254
198 222 254
198 222 254
198 222 254
198 222 254
198 222 254
198 222 254
198 222 254
198 222 254
197 222 254
197 222 254
197 222 254
197 222 254
197 222 254
197 222 254
197 222 254
197 222 254
197 222 254
197 222 254
197 222 254
197 222 254
197 222 254
197 222 254
197 222 254
197 222 254
197 222 254
197 222 254
197 222 254
197 222 254
197 222 254
196 222 254
196 222 254
196 221 254
196 221 254
196 221 254
196 221 254
196 221 254
196 221 254
196 221 254
196 221 254
196 221 254
196 221 254
196 221 254
196 221 254
196 221 254
196 221 254
196 221 254
196 221 254
196 221 254
196 221 254
196 221 254
196 221 254
196 221 254
196 221 254
196 221 254
196 221 254
196 221 254
196 221 254
196 221 254
196 221 254
196 221 254
196 221 254
196 221 254
196 221 254
196 221 254
196 221 254
196 221 254
196 221 254
196 221 254
196 221 254
196 221 254
196 221 254
196 221 254
196 221 254
196 221 254
196 221 254
196 221 254
196 221 254
196 221 254
196 221 254
196 221 254
196 221 254
196 221 254
196 221 254
196 221 254
196 221 254
196 221 254
196 221 254
196 221 254
196 221 254
196 221 254
196 221 254
196 221 254
196 221 254
196 221 254
196 221 254
196 222 254
196 222 254
197 222 254
197 222 254
197 222 254
197 222 254
197 222 254
197 222 254
197 222 254
197 222 254
197 222 254
197 222 254
197 222 254
197 222 254
197 222 254
197 222 254
197 222 254
197 222 254
197 222 254
197 222 254
197 222 254
197 222 254
197 222 254
198 222 254
198 222 254
198 222 254
198 222 254
198 222 254
198 222 254
198 222 254
198 222 254
198 222 254
198 222 254
198 222 254
198 222 254
198 222 254
198 222 254
198 223 254
198 223 254
198 223 254
199 223 254
199 223 254
199 223 254
199 223 254
199 223 254
199 223 254
199 223 254
199 223 254
199 223 254
199 223 254
199 223 254
199 223 254
199 223 254
199 223 254
199 223 254
200 223 254
200 223 254
200 223 254
200 223 254
200 223 254
200 223 254
200 223 254
200 223 254
200 223 254
200 223 254
200 224 254
200 224 254
200 224 254
200 224 254
200 224 254
201 224 254
201 224 254
201 224 254
201 224 254
201 224 254
201 224 254
201 224 254
201 224 254
201 224 254
201 224 254
201 224 254
201 224 254
201 224 254
201 224 254
201 224 254
202 224 254
202 224 254
202 224 254
202 224 254
202 224 254
202 224 254
202 224 254
202 224 254
202 225 254
202 225 254
202 225 254
202 225 254
202 225 254
202 225 254
202 225 254
203 225 254
203 225 254
203 225 254
203 225 254
203 225 254
203 225 254
203 225 254
203 225 254
203 225 254
203 225 254
203 225 254
203 225 254
203 225 254
203 225 254
203 225 254
203 225 254
204 225 254
204 225 254
204 225 254
204 225 254
204 225 254
204 225 254
204 226 254
204 226 254
204 226 254
204 226 254
204 226 254
204 226 254
204 226 254
204 226 254
204 226 254
204 226 254
204 226 254
205 226 254
205 226 254
205 226 254
205 226 254
205 226 254
205 226 254
205 226 254
205 226 254
205 226 254
205 226 254
205 226 254
205 226 254
205 226 254
205 226 254
205 226 254
205 226 254
205 226 254
205 226 254
206 226 254
206 226 254
206 226 254
206 226 254
206 226 254
206 227 254
206 227 254
206 227 254
206 227 254
206 227 254
206 227 254
206 227 254
206 227 254
206 227 254
206 227 254
206 227 254
206 227 254
206 227 254
206 227 254
206 227 254
206 227 254
206 227 254
206 227 254
206 227 254
206 227 254
206 227 254
206 227 254
206 227 254
206 227 254
206 227 254
206 227 254
206 227 254
206 226 254
206 226 254
206 226 254
206 226 254
205 226 254
205 226 254
205 226 254
205 226 254
205 226 254
205 226 254
205 226 254
205 226 254
205 226 254
205 226 254
205 226 254
205 226 254
205 226 254
205 226 254
205 226 254
205 226 254
205 226 254
205 226 254
205 226 254
204 226 254
204 226 254
204 226 254
204 226 254
204 226 254
204 226 254
204 226 254
204 226 254
204 226 254
204 226 254
204 225 254
204 225 254
204 225 254
204 225 254
204 225 254
204 225 254
204 225 254
203 225 254
203 225 254
203 225 254
203 225 254
203 225 254
203 225 254
203 225 254
203 225 254
203 225 254
203 225 254
203 225 254
203 225 254
203 225 254
203 225 254
203 225 254
203 225 254
202 225 254
202 225 254
202 225 254
202 225 254
202 225 254
202 225 254
202 225 254
202 224 254
202 224 254
202 224 254
202 224 254
202 224 254
202 224 254
202 224 254
202 224 254
201 224 254
201 224 254
201 224 254
201 224 254
201 224 254
201 224 254
201 224 254
201 224 254
201 224 254
201 224 254
201 224 254
201 224 254
201 224 254
201 224 254
201 224 254
200 224 254
200 224 254
200 224 254
200 224 254
200 223 254
200 223 254
200 223 254
200 223 254
200 223 254
200 223 254
200 223 254
200 223 254
200 223 254
200 223 254
200 223 254
199 223 254
199 223 254
199 223 254
199 223 254
199 223 254
199 223 254
199 223 254
199 223 254
199 223 254
199 223 254
199 223 254
199 223 254
199 223 254
199 223 254
199 223 254
198 223 254
198 223 254
198 223 254
198 222 254
198 222 254
198 222 254
198 222 254
198 222 254
198 222 254
198 222 254
198 222 254
198 222 254
198 222 254
198 222 254
198 222 254
198 222 254
198 222 254
198 222 254
197 222 254
197 222 254
197 222 254
197 222 254
197 222 254
197 222 254
197 222 254
197 222 254
197 222 254
197 222 254
197 222 254
197 222 254
197 222 254
197 222 254
197 222 254
197 222 254
197 222 254
197 222 254
197 222 254
197 222 254
197 222 254
197 222 254
196 222 254
196 222 254
196 221 254
196 221 254
196 221 254
196 221 254
196 221 254
196 221 254
196 221 254
196 221 254
196 221 254
196 221 254
196 221 254
196 221 254
196 221 254
196 221 254
196 221 254
196 221 254
196 221 254
196 221 254
196 221 254
196 221 254
196 221 254
196 221 254
196 221 254
196 221 254
196 221 254
196 221 254
196 221 254
196 221 254
196 221 254
196 221 254
196 221 254
196 221 254
196 221 254
196 221 254
196 221 254
196 221 254
196 221 254
196 221 254
196 221 254
196 221 254
196 221 254
196 221 254
196 221 254
196 221 254
196 221 254
196 221 254
196 221 254
196 221 254
196 221 254
196 221 254
196 221 254
196 221 254
196 221 254
196 221 254
196 222 254
196 222 254
197 222 254
197 222 254
197 222 254
197 222 254
197 222 254
197 222 254
197 222 254
197 222 254
197 222 254
197 222 254
197 222 254
197 222 254
197 222 254
197 222 254
197 222 254
197 222 254
197 222 254
197 222 254
197 222 254
197 222 254
197 222 254
197 222 254
198 222 254
198 222 254
198 222 254
198 222 254
198 222 254
198 222 254
198 222 254
198 222 254
198 222 254
198 222 254
198 222 254
198 222 254
198 222 254
198 222 254
198 222 254
198 223 254
198 223 254
198 223 254
199 223 254
199 223 254
199 223 254
199 223 254
199 223 254
199 223 254
199 223 254
199 223 254
199 223 254
199 223 254
199 223 254
199 223 254
199 223 254
199 223 254
199 223 254
200 223 254
200 223 254
200 223 254
200 223 254
200 223 254
200 223 254
200 223 254
200 223 254
200 223 254
200 223 254
200 224 254
200 224 254
200 224 254
200 224 254
200 224 254
201 224 254
201 224 254
201 224 254
201 224 254
201 224 254
201 224 254
201 224 254
201 224 254
201 224 254
201 224 254
201 224 254
201 224 254
201 224 254
201 224 254
201 224 254
202 224 254
202 224 254
202 224 254
202 224 254
202 224 254
202 224 254
202 224 254
202 224 254
202 225 254
202 225 254
202 225 254
202 225 254
202 225 254
202 225 254
202 225 254
203 225 254
203 225 254
203 225 254
203 225 254
203 225 254
203 225 254
203 225 254
203 225 254
203 225 254
203 225 254
203 225 254
203 225 254
203 225 254
203 225 254
203 225 254
203 225 254
204 225 254
204 225 254
204 225 254
204 225 254
204 225 254
204 225 254
204 225 254
204 226 254
204 226 254
204 226 254
204 226 254
204 226 254
204 226 254
204 226 254
204 226 254
204 226 254
204 226 254
205 226 254
205 226 254
205 226 254
205 226 254
205 226 254
205 226 254
205 226 254
205 226 254
205 226 254
205 226 254
205 226 254
205 226 254
205 226 254
205 226 254
205 226 254
205 226 254
205 226 254
205 226 254
205 226 254
206 226 254
206 226 254
206 226 254
206 226 254
206 227 254
206 227 254
206 227 254
206 227 254
206 227 254
206 227 254
206 227 254
206 227 254
206 227 254
206 227 254
206 227 254
206 227 254
206 227 254
206 227 254
206 227 254
207 227 254
207 227 254
206 227 254
206 227 254
206 227 254
206 227 254
206 227 254
206 227 254
206 227 254
206 227 254
206 227 254
206 227 254
206 227 254
206 227 254
206 227 254
206 227 254
206 227 254
206 227 254
206 226 254
206 226 254
206 226 254
206 226 254
205 226 254
205 226 254
205 226 254
205 226 254
205 226 254
205 226 254
205 226 254
205 226 254
205 226 254
205 226 254
205 226 254
205 226 254
205 226 254
205 226 254
205 226 254
205 226 254
205 226 254
205 226 254
204 226 254
204 226 254
204 226 254
204 226 254
204 226 254
204 226 254
204 226 254
204 226 254
204 226 254
204 226 254
204 226 254
204 225 254
204 225 254
204 225 254
204 225 254
204 225 254
204 225 254
203 225 254
203 225 254
203 225 254
203 225 254
203 225 254
203 225 254
203 225 254
203 225 254
203 225 254
203 225 254
203 225 254
203 225 254
203 225 254
203 225 254
203 225 254
203 225 254
202 225 254
202 225 254
202 225 254
202 225 254
202 225 254
202 225 254
202 225 254
202 224 254
202 224 254
202 224 254
202 224 254
202 224 254
202 224 254
202 224 254
202 224 254
202 224 254
201 224 254
201 224 254
201 224 254
201 224 254
201 224 254
201 224 254
201 224 254
201 224 254
201 224 254
201 224 254
201 224 254
201 224 254
201 224 254
201 224 254
201 224 254
200 224 254
200 224 254
200 224 254
200 224 254
200 223 254
200 223 254
200 223 254
200 223 254
200 223 254
200 223 254
200 223 254
200 223 254
200 223 254
200 223 254
199 223 254
199 223 254
199 223 254
199 223 254
199 223 254
199 223 254
199 223 254
199 223 254
199 223 254
199 223 254
199 223 254
199 223 254
199 223 254
199 223 254
199 223 254
199 223 254
198 223 254
198 223 254
198 223 254
198 222 254
198 222 254
198 222 254
198 222 254
198 222 254
198 222 254
198 222 254
198 222 254
198 222 254
198 222 254
198 222 254
198 222 254
198 222 254
198 222 254
198 222 254
197 222 254
197 222 254
197 222 254
197 222 254
197 222 254
197 222 254
197 222 254
197 222 254
197 222 254
197 222 254
197 222 254
197 222 254
197 222 254
197 222 254
197 222 254
197 222 254
197 222 254
197 222 254
197 222 254
197 222 254
197 222 254
197 222 254
197 222 254
197 222 254
197 222 254
196 222 254
196 222 254
196 221 254
196 221 254
196 221 254
196 221 254
196 221 254
196 221 254
196 221 254
196 221 254
196 221 254
196 221 254
196 221 254
196 221 254
196 221 254
196 221 254
196 221 254
196 221 254
196 221 254
196 221 254
196 221 254
196 221 254
196 221 254
196 221 254
196 221 254
196 221 254
196 221 254
196 221 254
196 221 254
196 221 254
196 221 254
196 221 254
196 221 254
196 221 254
196 221 254
196 221 254
196 221 254
196 221 254
196 221 254
196 221 254
196 221 254
196 221 254
196 221 254
196 221 254
196 222 254
196 222 254
197 222 254
197 222 254
197 222 254
197 222 254
197 222 254
197 222 254
197 222 254
197 222 254
197 222 254
197 222 254
197 222 254
197 222 254
197 222 254
197 222 254
197 222 254
197 222 254
197 222 254
197 222 254
197 222 254
197 222 254
197 222 254
197 222 254
197 222 254
197 222 254
197 222 254
198 222 254
198 222 254
198 222 254
198 222 254
198 222 254
198 222 254
198 222 254
198 222 254
198 222 254
198 222 254
198 222 254
198 222 254
198 222 254
198 222 254
198 222 254
198 223 254
198 223 254
198 223 254
199 223 254
199 223 254
199 223 254
199 223 254
199 223 254
199 223 254
199 223 254
199 223 254
199 223 254
199 223 254
199 223 254
199 223 254
199 223 254
199 223 254
199 223 254
199 223 254
200 223 254
200 223 254
200 223 254
200 223 254
200 223 254
200 223 254
200 223 254
200 223 254
200 223 254
200 223 254
200 224 254
200 224 254
200 224 254
200 224 254
200 224 254
201 224 254
201 224 254
201 224 254
201 224 254
201 224 254
201 224 254
201 224 254
201 224 254
201 224 254
201 224 254
201 224 254
201 224 254
201 224 254
201 224 254
202 224 254
202 224 254
202 224 254
202 224 254
202 224 254
202 224 254
202 224 254
202 224 254
202 224 254
202 225 254
202 225 254
202 225 254
202 225 254
202 225 254
202 225 254
202 225 254
203 225 254
203 225 254
203 225 254
203 225 254
203 225 254
203 225 254
203 225 254
203 225 254
203 225 254
203 225 254
203 225 254
203 225 254
203 225 254
203 225 254
203 225 254
203 225 254
204 225 254
204 225 254
204 225 254
204 225 254
204 225 254
204 225 254
204 226 254
204 226 254
204 226 254
204 226 254
204 226 254
204 226 254
204 226 254
204 226 254
204 226 254
204 226 254
204 226 254
205 226 254
205 226 254
205 226 254
205 226 254
205 226 254
205 226 254
205 226 254
205 226 254
205 226 254
205 226 254
205 226 254
205 226 254
205 226 254
205 226 254
205 226 254
205 226 254
205 226 254
205 226 254
206 226 254
206 226 254
206 226 254
206 226 254
206 227 254
206 227 254
206 227 254
206 227 254
206 227 254
206 227 254
206 227 254
206 227 254
206 227 254
206 227 254
206 227 254
206 227 254
206 227 254
206 227 254
206 227 254
206 227 254
207 227 254
207 227 254
207 227 254
207 227 254
207 227 254
207 227 254
207 227 254
206 227 254
206 227 254
206 227 254
206 227 254
206 227 254
206 227 254
206 227 254
206 227 254
206 227 254
206 227 254
206 227 254
206 227 254
206 227 254
206 227 254
206 227 254
206 227 254
206 226 254
206 226 254
206 226 254
206 226 254
205 226 254
205 226 254
205 226 254
205 226 254
205 226 254
205 226 254
205 226 254
205 226 254
205 226 254
205 226 254
205 226 254
205 226 254
205 226 254
205 226 254
205 226 254
205 226 254
205 226 254
205 226 254
204 226 254
204 226 254
204 226 254
204 226 254
204 226 254
204 226 254
204 226 254
204 226 254
204 226 254
204 226 254
204 226 254
204 225 254
204 225 254
204 225 254
204 225 254
204 225 254
204 225 254
203 225 254
203 225 254
203 225 254
203 225 254
203 225 254
203 225 254
203 225 254
203 225 254
203 225 254
203 225 254
203 225 254
203 225 254
203 225 254
203 225 254
203 225 254
203 225 254
202 225 254
202 225 254
202 225 254
202 225 254
202 225 254
202 225 254
202 225 254
202 224 254
202 224 254
202 224 254
202 224 254
202 224 254
202 224 254
202 224 254
202 224 254
201 224 254
201 224 254
201 224 254
201 224 254
201 224 254
201 224 254
201 224 254
201 224 254
201 224 254
201 224 254
201 224 254
201 224 254
201 224 254
201 224 254
201 224 254
200 224 254
200 224 254
200 224 254
200 224 254
200 224 254
200 223 254
200 223 254
200 223 254
200 223 254
200 223 254
200 223 254
200 223 254
200 223 254
200 223 254
200 223 254
199 223 254
199 223 254
199 223 254
199 223 254
199 223 254
199 223 254
199 223 254
199 223 254
199 223 254
199 223 254
199 223 254
199 223 254
199 223 254
199 223 254
199 223 254
199 223 254
198 223 254
198 223 254
198 223 254
198 222 254
198 222 254
198 222 254
198 222 254
198 222 254
198 222 254
198 222 254
198 222 254
198 222 254
198 222 254
198 222 254
198 222 254
198 222 254
198 222 254
198 222 254
198 222 254
197 222 254
197 222 254
197 222 254
197 222 254
197 222 254
197 222 254
197 222 254
197 222 254
197 222 254
197 222 254
197 222 254
197 222 254
197 222 254
197 222 254
197 222 254
197 222 254
197 222 254
197 222 254
197 222 254
197 222 254
197 222 254
197 222 254
197 222 254
197 222 254
197 222 254
197 222 254
197 222 254
197 222 254
197 222 254
196 222 254
196 222 254
196 222 254
196 221 254
196 221 254
196 221 254
196 221 254
196 221 254
196 221 254
196 221 254
196 221 254
196 221 254
196 221 254
196 221 254
196 221 254
196 221 254
196 221 254
196 221 254
196 221 254
196 221 254
196 221 254
196 221 254
196 221 254
196 221 254
196 221 254
196 221 254
196 221 254
196 222 254
196 222 254
196 222 254
197 222 254
197 222 254
197 222 254
197 222 254
197 222 254
197 222 254
197 222 254
197 222 254
197 222 254
197 222 254
197 222 254
197 222 254
197 222 254
197 222 254
197 222 254
197 222 254
197 222 254
197 222 254
197 222 254
197 222 254
197 222 254
197 222 254
197 222 254
197 222 254
197 222 254
197 222 254
197 222 254
197 222 254
197 222 254
198 222 254
198 222 254
198 222 254
198 222 254
198 222 254
198 222 254
198 222 254
198 222 254
198 222 254
198 222 254
198 222 254
198 222 254
198 222 254
198 222 254
198 222 254
198 222 254
198 223 254
198 223 254
198 223 254
199 223 254
199 223 254
199 223 254
199 223 254
199 223 254
199 223 254
199 223 254
199 223 254
199 223 254
199 223 254
199 223 254
199 223 254
199 223 254
199 223 254
199 223 254
199 223 254
200 223 254
200 223 254
200 223 254
200 223 254
200 223 254
200 223 254
200 223 254
200 223 254
200 223 254
200 223 254
200 224 254
200 224 254
200 224 254
200 224 254
200 224 254
201 224 254
201 224 254
201 224 254
201 224 254
201 224 254
201 224 254
201 224 254
201 224 254
201 224 254
201 224 254
201 224 254
201 224 254
201 224 254
201 224 254
201 224 254
202 224 254
202 224 254
202 224 254
202 224 254
202 224 254
202 224 254
202 224 254
202 224 254
202 225 254
202 225 254
202 225 254
202 225 254
202 225 254
202 225 254
202 225 254
203 225 254
203 225 254
203 225 254
203 225 254
203 225 254
203 225 254
203 225 254
203 225 254
203 225 254
203 225 254
203 225 254
203 225 254
203 225 254
203 225 254
203 225 254
203 225 254
204 225 254
204 225 254
204 225 254
204 225 254
204 225 254
204 225 254
204 226 254
204 226 254
204 226 254
204 226 254
204 226 254
204 226 254
204 226 254
204 226 254
204 226 254
204 226 254
204 226 254
205 226 254
205 226 254
205 226 254
205 226 254
205 226 254
205 226 254
205 226 254
205 226 254
205 226 254
205 226 254
205 226 254
205 226 254
205 226 254
205 226 254
205 226 254
205 226 254
205 226 254
205 226 254
206 226 254
206 226 254
206 226 254
206 226 254
206 226 254
206 227 254
206 227 254
206 227 254
206 227 254
206 227 254
206 227 254
206 227 254
206 227 254
206 227 254
206 227 254
206 227 254
206 227 254
206 227 254
206 227 254
206 227 254
207 227 254
207 227 254
207 227 254
207 227 254
207 227 254
207 227 254
207 227 254
207 227 254
207 227 254
207 227 254
207 227 254
207 227 254
207 227 254
206 227 254
206 227 254
206 227 254
206 227 254
206 227 254
206 227 254
206 227 254
206 227 254
206 227 254
206 227 254
206 227 254
206 227 254
206 227 254
206 227 254
206 227 254
206 226 254
206 226 254
206 226 254
206 226 254
206 226 254
205 226 254
205 226 254
205 226 254
205 226 254
205 226 254
205 226 254
205 226 254
205 226 254
205 226 254
205 226 254
205 226 254
205 226 254
205 226 254
205 226 254
205 226 254
205 226 254
205 226 254
205 226 254
204 226 254
204 226 254
204 226 254
204 226 254
204 226 254
204 226 254
204 226 254
204 226 254
204 226 254
204 226 254
204 225 254
204 225 254
204 225 254
204 225 254
204 225 254
204 225 254
204 225 254
203 225 254
203 225 254
203 225 254
203 225 254
203 225 254
203 225 254
203 225 254
203 225 254
203 225 254
203 225 254
203 225 254
203 225 254
203 225 254
203 225 254
203 225 254
202 225 254
202 225 254
202 225 254
202 225 254
202 225 254
202 225 254
202 225 254
202 224 254
202 224 254
202 224 254
202 224 254
202 224 254
202 224 254
202 224 254
202 224 254
202 224 254
201 224 254
201 224 254
201 224 254
201 224 254
201 224 254
201 224 254
201 224 254
201 224 254
201 224 254
201 224 254
201 224 254
201 224 254
201 224 254
201 224 254
201 224 254
200 224 254
200 224 254
200 224 254
200 224 254
200 223 254
200 223 254
200 223 254
200 223 254
200 223 254
200 223 254
200 223 254
200 223 254
200 223 254
200 223 254
200 223 254
199 223 254
199 223 254
199 223 254
199 223 254
199 223 254
199 223 254
199 223 254
199 223 254
199 223 254
199 223 254
199 223 254
199 223 254
199 223 254
199 223 254
199 223 254
199 223 254
198 223 254
198 223 254
198 223 254
198 222 254
198 222 254
198 222 254
198 222 254
198 222 254
198 222 254
198 222 254
198 222 254
198 222 254
198 222 254
198 222 254
198 222 254
198 222 254
198 222 254
198 222 254
198 222 254
197 222 254
197 222 254
197 222 254
197 222 254
197 222 254
197 222 254
197 222 254
197 222 254
197 222 254
197 222 254
197 222 254
197 222 254
197 222 254
197 222 254
197 222 254
197 222 254
197 222 254
197 222 254
197 222 254
197 222 254
197 222 254
197 222 254
197 222 254
197 222 254
197 222 254
197 222 254
197 222 254
197 222 254
197 222 254
197 222 254
197 222 254
197 222 254
197 222 254
197 222 254
197 222 254
197 222 254
197 222 254
197 222 254
197 222 254
197 222 254
197 222 254
197 222 254
197 222 254
197 222 254
197 222 254
197 222 254
197 222 254
197 222 254
197 222 254
197 222 254
197 222 254
197 222 254
197 222 254
197 222 254
197 222 254
197 222 254
197 222 254
197 222 254
197 222 254
197 222 254
197 222 254
197 222 254
197 222 254
197 222 254
197 222 254
197 222 254
197 222 254
197 222 254
197 222 254
197 222 254
197 222 254
197 222 254
197 222 254
197 222 254
197 222 254
197 222 254
197 222 254
197 222 254
197 222 254
197 222 254
197 222 254
197 222 254
198 222 254
198 222 254
198 222 254
198 222 254
198 222 254
198 222 254
198 222 254
198 222 254
198 222 254
198 222 254
198 222 254
198 222 254
198 222 254
198 222 254
198 222 254
198 222 254
198 223 254
198 223 254
198 223 254
199 223 254
199 223 254
199 223 254
199 223 254
199 223 254
199 223 254
199 223 254
199 223 254
199 223 254
199 223 254
199 223 254
199 223 254
199 223 254
199 223 254
199 223 254
199 223 254
200 223 254
200 223 254
200 223 254
200 223 254
200 223 254
200 223 254
200 223 254
200 223 254
200 223 254
200 223 254
200 223 254
200 224 254
200 224 254
200 224 254
200 224 254
201 224 254
201 224 254
201 224 254
201 224 254
201 224 254
201 224 254
201 224 254
201 224 254
201 224 254
201 224 254
201 224 254
201 224 254
201 224 254
201 224 254
201 224 254
202 224 254
202 224 254
202 224 254
202 224 254
202 224 254
202 224 254
202 224 254
202 224 254
202 224 254
202 225 254
202 225 254
202 225 254
202 225 254
202 225 254
202 225 254
202 225 254
203 225 254
203 225 254
203 225 254
203 225 254
203 225 254
203 225 254
203 225 254
203 225 254
203 225 254
203 225 254
203 225 254
203 225 254
203 225 254
203 225 254
203 225 254
204 225 254
204 225 254
204 225 254
204 225 254
204 225 254
204 225 254
204 225 254
204 226 254
204 226 254
204 226 254
204 226 254
204 226 254
204 226 254
204 226 254
204 226 254
204 226 254
204 226 254
205 226 254
205 226 254
205 226 254
205 226 254
205 226 254
205 226 254
205 226 254
205 226 254
205 226 254
205 226 254
205 226 254
205 226 254
205 226 254
205 226 254
205 226 254
205 226 254
205 226 254
205 226 254
206 226 254
206 226 254
206 226 254
206 226 254
206 226 254
206 227 254
206 227 254
206 227 254
206 227 254
206 227 254
206 227 254
206 227 254
206 227 254
206 227 254
206 227 254
206 227 254
206 227 254
206 227 254
206 227 254
206 227 254
207 227 254
207 227 254
207 227 254
207 227 254
207 227 254
207 227 254
207 227 254
207 227 254
207 227 254
207 227 254
207 227 254
207 227 254
207 227 254
207 227 254
207 227 254
207 227 254
207 227 254
207 227 254
207 227 254
206 227 254
206 227 254
206 227 254
206 227 254
206 227 254
206 227 254
206 227 254
206 227 254
206 227 254
206 227 254
206 227 254
206 227 254
206 227 254
206 227 254
206 227 254
206 226 254
206 226 254
206 226 254
206 226 254
206 226 254
205 226 254
205 226 254
205 226 254
205 226 254
205 226 254
205 226 254
205 226 254
205 226 254
205 226 254
205 226 254
205 226 254
205 226 254
205 226 254
205 226 254
205 226 254
205 226 254
205 226 254
205 226 254
204 226 254
204 226 254
204 226 254
204 226 254
204 226 254
204 226 254
204 226 254
204 226 254
204 226 254
204 226 254
204 225 254
204 225 254
204 225 254
204 225 254
204 225 254
204 225 254
203 225 254
203 225 254
203 225 254
203 225 254
203 225 254
203 225 254
203 225 254
203 225 254
203 225 254
203 225 254
203 225 254
203 225 254
203 225 254
203 225 254
203 225 254
203 225 254
202 225 254
202 225 254
202 225 254
202 225 254
202 225 254
202 225 254
202 225 254
202 224 254
202 224 254
202 224 254
202 224 254
202 224 254
202 224 254
202 224 254
202 224 254
201 224 254
201 224 254
201 224 254
201 224 254
201 224 254
201 224 254
201 224 254
201 224 254
201 224 254
201 224 254
201 224 254
201 224 254
201 224 254
201 224 254
201 224 254
200 224 254
200 224 254
200 224 254
200 224 254
200 224 254
200 223 254
200 223 254
200 223 254
200 223 254
200 223 254
200 223 254
200 223 254
200 223 254
200 223 254
200 223 254
200 223 254
199 223 254
199 223 254
199 223 254
199 223 254
199 223 254
199 223 254
199 223 254
199 223 254
199 223 254
199 223 254
199 223 254
199 223 254
199 223 254
199 223 254
199 223 254
199 223 254
198 223 254
198 223 254
198 223 254
198 223 254
198 222 254
198 222 254
198 222 254
198 222 254
198 222 254
198 222 254
198 222 254
198 222 254
198 222 254
198 222 254
198 222 254
198 222 254
198 222 254
198 222 254
198 222 254
198 222 254
198 222 254
197 222 254
197 222 254
197 222 254
197 222 254
197 222 254
197 222 254
197 222 254
197 222 254
197 222 254
197 222 254
197 222 254
197 222 254
197 222 254
197 222 254
197 222 254
197 222 254
197 222 254
197 222 254
197 222 254
197 222 254
197 222 254
197 222 254
197 222 254
197 222 254
197 222 254
197 222 254
197 222 254
197 222 254
197 222 254
197 222 254
197 222 254
197 222 254
197 222 254
197 222 254
197 222 254
197 222 254
197 222 254
197 222 254
197 222 254
197 222 254
197 222 254
197 222 254
197 222 254
197 222 254
197 222 254
197 222 254
197 222 254
197 222 254
197 222 254
197 222 254
197 222 254
197 222 254
197 222 254
197 222 254
197 222 254
197 222 254
197 222 254
197 222 254
197 222 254
197 222 254
197 222 254
197 222 254
197 222 254
197 222 254
197 222 254
197 222 254
197 222 254
197 222 254
197 222 254
197 222 254
197 222 254
197 222 254
198 222 254
198 222 254
198 222 254
198 222 254
198 222 254
198 222 254
198 222 254
198 222 254
198 222 254
198 222 254
198 222 254
198 222 254
198 222 254
198 222 254
198 222 254
198 222 254
198 222 254
198 223 254
198 223 254
198 223 254
198 223 254
199 223 254
199 223 254
199 223 254
199 223 254
199 223 254
199 223 254
199 223 254
199 223 254
199 223 254
199 223 254
199 223 254
199 223 254
199 223 254
199 223 254
199 223 254
199 223 254
200 223 254
200 223 254
200 223 254
200 223 254
200 223 254
200 223 254
200 223 254
200 223 254
200 223 254
200 223 254
200 223 254
200 224 254
200 224 254
200 224 254
200 224 254
201 224 254
201 224 254
201 224 254
201 224 254
201 224 254
201 224 254
201 224 254
201 224 254
201 224 254
201 224 254
201 224 254
201 224 254
201 224 254
201 224 254
201 224 254
201 224 254
202 224 254
202 224 254
202 224 254
202 224 254
202 224 254
202 224 254
202 224 254
202 224 254
202 225 254
202 225 254
202 225 254
202 225 254
202 225 254
202 225 254
202 225 254
203 225 254
203 225 254
203 225 254
203 225 254
203 225 254
203 225 254
203 225 254
203 225 254
203 225 254
203 225 254
203 225 254
203 225 254
203 225 254
203 225 254
203 225 254
203 225 254
204 225 254
204 225 254
204 225 254
204 225 254
204 225 254
204 225 254
204 226 254
204 226 254
204 226 254
204 226 254
204 226 254
204 226 254
204 226 254
204 226 254
204 226 254
204 226 254
205 226 254
205 226 254
205 226 254
205 226 254
205 226 254
205 226 254
205 226 254
205 226 254
205 226 254
205 226 254
205 226 254
205 226 254
205 226 254
205 226 254
205 226 254
205 226 254
205 226 254
205 226 254
206 226 254
206 226 254
206 226 254
206 226 254
206 226 254
206 227 254
206 227 254
206 227 254
206 227 254
206 227 254
206 227 254
206 227 254
206 227 254
206 227 254
206 227 254
206 227 254
206 227 254
206 227 254
206 227 254
206 227 254
207 227 254
207 227 254
207 227 254
207 227 254
207 227 254
207 227 254
207 227 254
207 227 254
207 227 254
207 227 254
207 227 254
207 227 254
207 227 254
207 227 254
207 227 254
207 227 254
207 227 254
207 227 254
207 227 254
207 227 254
207 227 254
207 227 254
207 227 254
207 227 254
207 227 254
206 227 254
206 227 254
206 227 254
206 227 254
206 227 254
206 227 254
206 227 254
206 227 254
206 227 254
206 227 254
206 227 254
206 227 254
206 227 254
206 227 254
206 227 254
206 226 254
206 226 254
206 226 254
206 226 254
205 226 254
205 226 254
205 226 254
205 226 254
205 226 254
205 226 254
205 226 254
205 226 254
205 226 254
205 226 254
205 226 254
205 226 254
205 226 254
205 226 254
205 226 254
205 226 254
205 226 254
205 226 254
204 226 254
204 226 254
204 226 254
204 226 254
204 226 254
204 226 254
204 226 254
204 226 254
204 226 254
204 226 254
204 226 254
204 225 254
204 225 254
204 225 254
204 225 254
204 225 254
204 225 254
203 225 254
203 225 254
203 225 254
203 225 254
203 225 254
203 225 254
203 225 254
203 225 254
203 225 254
203 225 254
203 225 254
203 225 254
203 225 254
203 225 254
203 225 254
203 225 254
202 225 254
202 225 254
202 225 254
202 225 254
202 225 254
202 225 254
202 225 254
202 224 254
202 224 254
202 224 254
202 224 254
202 224 254
202 224 254
202 224 254
202 224 254
201 224 254
201 224 254
201 224 254
201 224 254
201 224 254
201 224 254
201 224 254
201 224 254
201 224 254
201 224 254
201 224 254
201 224 254
201 224 254
201 224 254
201 224 254
200 224 254
200 224 254
200 224 254
200 224 254
200 224 254
200 223 254
200 223 254
200 223 254
200 223 254
200 223 254
200 223 254
200 223 254
200 223 254
200 223 254
200 223 254
200 223 254
199 223 254
199 223 254
199 223 254
199 223 254
199 223 254
199 223 254
199 223 254
199 223 254
199 223 254
199 223 254
199 223 254
199 223 254
199 223 254
199 223 254
199 223 254
199 223 254
199 223 254
198 223 254
198 223 254
198 223 254
198 222 254
198 222 254
198 222 254
198 222 254
198 222 254
198 222 254
198 222 254
198 222 254
198 222 254
198 222 254
198 222 254
198 222 254
198 222 254
198 222 254
198 222 254
198 222 254
198 222 254
198 222 254
198 222 254
197 222 254
197 222 254
197 222 254
197 222 254
197 222 254
197 222 254
197 222 254
197 222 254
197 222 254
197 222 254
197 222 254
197 222 254
197 222 254
197 222 254
197 222 254
197 222 254
197 222 254
197 222 254
197 222 254
197 222 254
197 222 254
197 222 254
197 222 254
197 222 254
197 222 254
197 222 254
197 222 254
197 222 254
197 222 254
197 222 254
197 222 254
197 222 254
197 222 254
197 222 254
197 222 254
197 222 254
197 222 254
197 222 254
197 222 254
197 222 254
197 222 254
197 222 254
197 222 254
197 222 254
197 222 254
197 222 254
197 222 254
197 222 254
197 222 254
197 222 254
197 222 254
197 222 254
197 222 254
197 222 254
197 222 254
197 222 254
197 222 254
197 222 254
197 222 254
197 222 254
197 222 254
197 222 254
198 222 254
198 222 254
198 222 254
198 222 254
198 222 254
198 222 254
198 222 254
198 222 254
198 222 254
198 222 254
198 222 254
198 222 254
198 222 254
198 222 254
198 222 254
198 222 254
198 222 254
198 222 254
198 222 254
198 223 254
198 223 254
198 223 254
199 223 254
199 223 254
199 223 254
199 223 254
199 223 254
199 223 254
199 223 254
199 223 254
199 223 254
199 223 254
199 223 254
199 223 254
199 223 254
199 223 254
199 223 254
199 223 254
199 223 254
199 223 254
200 223 254
200 223 254
200 223 254
200 223 254
200 223 254
200 223 254
200 223 254
200 223 254
200 223 254
200 223 254
200 224 254
200 224 254
200 224 254
200 224 254
200 224 254
201 224 254
201 224 254
201 224 254
201 224 254
201 224 254
201 224 254
201 224 254
201 224 254
201 224 254
201 224 254
201 224 254
201 224 254
201 224 254
201 224 254
201 224 254
202 224 254
202 224 254
202 224 254
202 224 254
202 224 254
202 224 254
202 224 254
202 224 254
202 225 254
202 225 254
202 225 254
202 225 254
202 225 254
202 225 254
202 225 254
203 225 254
203 225 254
203 225 254
203 225 254
203 225 254
203 225 254
203 225 254
203 225 254
203 225 254
203 225 254
203 225 254
203 225 254
203 225 254
203 225 254
203 225 254
203 225 254
204 225 254
204 225 254
204 225 254
204 225 254
204 225 254
204 225 254
204 226 254
204 226 254
204 226 254
204 226 254
204 226 254
204 226 254
204 226 254
204 226 254
204 226 254
204 226 254
204 226 254
205 226 254
205 226 254
205 226 254
205 226 254
205 226 254
205 226 254
205 226 254
205 226 254
205 226 254
205 226 254
205 226 254
205 226 254
205 226 254
205 226 254
205 226 254
205 226 254
205 226 254
205 226 254
206 226 254
206 226 254
206 226 254
206 226 254
206 227 254
206 227 254
206 227 254
206 227 254
206 227 254
206 227 254
206 227 254
206 227 254
206 227 254
206 227 254
206 227 254
206 227 254
206 227 254
206 227 254
206 227 254
207 227 254
207 227 254
207 227 254
207 227 254
207 227 254
207 227 254
207 227 254
207 227 254
207 227 254
207 227 254
207 227 254
207 227 254
207 227 254
207 227 254
207 227 254
207 227 254
207 227 254
207 227 254
207 227 254
207 227 254
207 227 254
207 227 254
207 227 254
207 227 254
207 227 254
207 227 254
207 227 254
207 227 254
207 227 254
207 227 254
207 227 254
206 227 254
206 227 254
206 227 254
206 227 254
206 227 254
206 227 254
206 227 254
206 227 254
206 227 254
206 227 254
206 227 254
206 227 254
206 227 254
206 227 254
206 227 254
206 226 254
206 226 254
206 226 254
206 226 254
205 226 254
205 226 254
205 226 254
205 226 254
205 226 254
205 226 254
205 226 254
205 226 254
205 226 254
205 226 254
205 226 254
205 226 254
205 226 254
205 226 254
205 226 254
205 226 254
205 226 254
205 226 254
204 226 254
204 226 254
204 226 254
204 226 254
204 226 254
204 226 254
204 226 254
204 226 254
204 226 254
204 226 254
204 225 254
204 225 254
204 225 254
204 225 254
204 225 254
204 225 254
204 225 254
203 225 254
203 225 254
203 225 254
203 225 254
203 225 254
203 225 254
203 225 254
203 225 254
203 225 254
203 225 254
203 225 254
203 225 254
203 225 254
203 225 254
203 225 254
202 225 254
202 225 254
202 225 254
202 225 254
202 225 254
202 225 254
202 225 254
202 224 254
202 224 254
202 224 254
202 224 254
202 224 254
202 224 254
202 224 254
202 224 254
202 224 254
201 224 254
201 224 254
201 224 254
201 224 254
201 224 254
201 224 254
201 224 254
201 224 254
201 224 254
201 224 254
201 224 254
201 224 254
201 224 254
201 224 254
201 224 254
200 224 254
200 224 254
200 224 254
200 224 254
200 224 254
200 223 254
200 223 254
200 223 254
200 223 254
200 223 254
200 223 254
200 223 254
200 223 254
200 223 254
200 223 254
200 223 254
199 223 254
199 223 254
199 223 254
199 223 254
199 223 254
199 223 254
199 223 254
199 223 254
199 223 254
199 223 254
199 223 254
199 223 254
199 223 254
199 223 254
199 223 254
199 223 254
199 223 254
198 223 254
198 223 254
198 223 254
198 223 254
198 222 254
198 222 254
198 222 254
198 222 254
198 222 254
198 222 254
198 222 254
198 222 254
198 222 254
198 222 254
198 222 254
198 222 254
198 222 254
198 222 254
198 222 254
198 222 254
198 222 254
198 222 254
198 222 254
198 222 254
197 222 254
197 222 254
197 222 254
197 222 254
197 222 254
197 222 254
197 222 254
197 222 254
197 222 254
197 222 254
197 222 254
197 222 254
197 222 254
197 222 254
197 222 254
197 222 254
197 222 254
197 222 254
197 222 254
197 222 254
197 222 254
197 222 254
197 222 254
197 222 254
197 222 254
197 222 254
197 222 254
197 222 254
197 222 254
197 222 254
197 222 254
197 222 254
197 222 254
197 222 254
197 222 254
197 222 254
197 222 254
197 222 254
197 222 254
197 222 254
197 222 254
197 222 254
197 222 254
197 222 254
197 222 254
197 222 254
197 222 254
197 222 254
197 222 254
197 222 254
197 222 254
197 222 254
198 222 254
198 222 254
198 222 254
198 222 254
198 222 254
198 222 254
198 222 254
198 222 254
198 222 254
198 222 254
198 222 254
198 222 254
198 222 254
198 222 254
198 222 254
198 222 254
198 222 254
198 222 254
198 222 254
198 222 254
198 223 254
198 223 254
198 223 254
198 223 254
199 223 254
199 223 254
199 223 254
199 223 254
199 223 254
199 223 254
199 223 254
199 223 254
199 223 254
199 223 254
199 223 254
199 223 254
199 223 254
199 223 254
199 223 254
199 223 254
199 223 254
200 223 254
200 223 254
200 223 254
200 223 254
200 223 254
200 223 254
200 223 254
200 223 254
200 223 254
200 223 254
200 223 254
200 224 254
200 224 254
200 224 254
200 224 254
200 224 254
201 224 254
201 224 254
201 224 254
201 224 254
201 224 254
201 224 254
201 224 254
201 224 254
201 224 254
201 224 254
201 224 254
201 224 254
201 224 254
201 224 254
201 224 254
202 224 254
202 224 254
202 224 254
202 224 254
202 224 254
202 224 254
202 224 254
202 224 254
202 224 254
202 225 254
202 225 254
202 225 254
202 225 254
202 225 254
202 225 254
202 225 254
203 225 254
203 225 254
203 225 254
203 225 254
203 225 254
203 225 254
203 225 254
203 225 254
203 225 254
203 225 254
203 225 254
203 225 254
203 225 254
203 225 254
203 225 254
204 225 254
204 225 254
204 225 254
204 225 254
204 225 254
204 225 254
204 225 254
204 226 254
204 226 254
204 226 254
204 226 254
204 226 254
204 226 254
204 226 254
204 226 254
204 226 254
204 226 254
205 226 254
205 226 254
205 226 254
205 226 254
205 226 254
205 226 254
205 226 254
205 226 254
205 226 254
205 226 254
205 226 254
205 226 254
205 226 254
205 226 254
205 226 254
205 226 254
205 226 254
205 226 254
206 226 254
206 226 254
206 226 254
206 226 254
206 227 254
206 227 254
206 227 254
206 227 254
206 227 254
206 227 254
206 227 254
206 227 254
206 227 254
206 227 254
206 227 254
206 227 254
206 227 254
206 227 254
206 227 254
207 227 254
207 227 254
207 227 254
207 227 254
207 227 254
207 227 254
207 227 254
207 227 254
207 227 254
207 227 254
207 227 254
207 227 254
207 227 254
207 227 254
207 227 254
207 227 254
207 227 254
207 227 254
207 227 254
207 227 254
207 227 254
207 227 254
207 227 254
207 227 254
207 227 254
207 227 254
207 227 254
207 227 254
207 227 254
207 227 254
207 227 254
207 227 254
207 227 254
207 227 254
207 227 254
207 227 254
207 227 254
206 227 254
206 227 254
206 227 254
206 227 254
206 227 254
206 227 254
206 227 254
206 227 254
206 227 254
206 227 254
206 227 254
206 227 254
206 227 254
206 227 254
206 227 254
206 226 254
206 226 254
206 226 254
206 226 254
205 226 254
205 226 254
205 226 254
205 226 254
205 226 254
205 226 254
205 226 254
205 226 254
205 226 254
205 226 254
205 226 254
205 226 254
205 226 254
205 226 254
205 226 254
205 226 254
205 226 254
205 226 254
204 226 254
204 226 254
204 226 254
204 226 254
204 226 254
204 226 254
204 226 254
204 226 254
204 226 254
204 226 254
204 225 254
204 225 254
204 225 254
204 225 254
204 225 254
204 225 254
204 225 254
203 225 254
203 225 254
203 225 254
203 225 254
203 225 254
203 225 254
203 225 254
203 225 254
203 225 254
203 225 254
203 225 254
203 225 254
203 225 254
203 225 254
203 225 254
202 225 254
202 225 254
202 225 254
202 225 254
202 225 254
202 225 254
202 225 254
202 224 254
202 224 254
202 224 254
202 224 254
202 224 254
202 224 254
202 224 254
202 224 254
201 224 254
201 224 254
201 224 254
201 224 254
201 224 254
201 224 254
201 224 254
201 224 254
201 224 254
201 224 254
201 224 254
201 224 254
201 224 254
201 224 254
201 224 254
201 224 254
200 224 254
200 224 254
200 224 254
200 224 254
200 223 254
200 223 254
200 223 254
200 223 254
200 223 254
200 223 254
200 223 254
200 223 254
200 223 254
200 223 254
200 223 254
200 223 254
199 223 254
199 223 254
199 223 254
199 223 254
199 223 254
199 223 254
199 223 254
199 223 254
199 223 254
199 223 254
199 223 254
199 223 254
199 223 254
199 223 254
199 223 254
199 223 254
199 223 254
199 223 254
198 223 254
198 223 254
198 223 254
198 223 254
198 222 254
198 222 254
198 222 254
198 222 254
198 222 254
198 222 254
198 222 254
198 222 254
198 222 254
198 222 254
198 222 254
198 222 254
198 222 254
198 222 254
198 222 254
198 222 254
198 222 254
198 222 254
198 222 254
198 222 254
198 222 254
198 222 254
198 222 254
197 222 254
197 222 254
197 222 254
197 222 254
197 222 254
197 222 254
197 222 254
197 222 254
197 222 254
197 222 254
197 222 254
197 222 254
197 222 254
197 222 254
197 222 254
197 222 254
197 222 254
197 222 254
197 222 254
197 222 254
197 222 254
197 222 254
197 222 254
197 222 254
197 222 254
197 222 254
197 222 254
197 222 254
197 222 254
197 222 254
197 222 254
197 222 254
197 222 254
197 222 254
197 222 254
197 222 254
197 222 254
197 222 254
198 222 254
198 222 254
198 222 254
198 222 254
198 222 254
198 222 254
198 222 254
198 222 254
198 222 254
198 222 254
198 222 254
198 222 254
198 222 254
198 222 254
198 222 254
198 222 254
198 222 254
198 222 254
198 222 254
198 222 254
198 222 254
198 222 254
198 222 254
198 222 254
198 223 254
198 223 254
198 223 254
199 223 254
199 223 254
199 223 254
199 223 254
199 223 254
199 223 254
199 223 254
199 223 254
199 223 254
199 223 254
199 223 254
199 223 254
199 223 254
199 223 254
199 223 254
199 223 254
199 223 254
199 223 254
200 223 254
200 223 254
200 223 254
200 223 254
200 223 254
200 223 254
200 223 254
200 223 254
200 223 254
200 223 254
200 223 254
200 223 254
200 224 254
200 224 254
200 224 254
200 224 254
201 224 254
201 224 254
201 224 254
201 224 254
201 224 254
201 224 254
201 224 254
201 224 254
201 224 254
201 224 254
201 224 254
201 224 254
201 224 254
201 224 254
201 224 254
201 224 254
202 224 254
202 224 254
202 224 254
202 224 254
202 224 254
202 224 254
202 224 254
202 224 254
202 225 254
202 225 254
202 225 254
202 225 254
202 225 254
202 225 254
202 225 254
203 225 254
203 225 254
203 225 254
203 225 254
203 225 254
203 225 254
203 225 254
203 225 254
203 225 254
203 225 254
203 225 254
203 225 254
203 225 254
203 225 254
203 225 254
203 225 254
204 225 254
204 225 254
204 225 254
204 225 254
204 225 254
204 225 254
204 226 254
204 226 254
204 226 254
204 226 254
204 226 254
204 226 254
204 226 254
204 226 254
204 226 254
204 226 254
205 226 254
205 226 254
205 226 254
205 226 254
205 226 254
205 226 254
205 226 254
205 226 254
205 226 254
205 226 254
205 226 254
205 226 254
205 226 254
205 226 254
205 226 254
205 226 254
205 226 254
205 226 254
206 226 254
206 226 254
206 226 254
206 226 254
206 227 254
206 227 254
206 227 254
206 227 254
206 227 254
206 227 254
206 227 254
206 227 254
206 227 254
206 227 254
206 227 254
206 227 254
206 227 254
206 227 254
206 227 254
207 227 254
207 227 254
207 227 254
207 227 254
207 227 254
207 227 254
207 227 254
207 227 254
207 227 254
207 227 254
207 227 254
207 227 254
207 227 254
207 227 254
207 227 254
207 227 254
207 227 254
207 227 254
207 227 254
207 227 254
208 227 254
208 227 254
207 227 254
207 227 254
207 227 254
207 227 254
207 227 254
207 227 254
207 227 254
207 227 254
207 227 254
207 227 254
207 227 254
207 227 254
207 227 254
207 227 254
207 227 254
207 227 254
207 227 254
207 227 254
207 227 254
207 227 254
207 227 254
206 227 254
206 227 254
206 227 254
206 227 254
206 227 254
206 227 254
206 227 254
206 227 254
206 227 254
206 227 254
206 227 254
206 227 254
206 227 254
206 227 254
206 227 254
206 226 254
206 226 254
206 226 254
206 226 254
205 226 254
205 226 254
205 226 254
205 226 254
205 226 254
205 226 254
205 226 254
205 226 254
205 226 254
205 226 254
205 226 254
205 226 254
205 226 254
205 226 254
205 226 254
205 226 254
205 226 254
205 226 254
204 226 254
204 226 254
204 226 254
204 226 254
204 226 254
204 226 254
204 226 254
204 226 254
204 226 254
204 226 254
204 225 254
204 225 254
204 225 254
204 225 254
204 225 254
204 225 254
203 225 254
203 225 254
203 225 254
203 225 254
203 225 254
203 225 254
203 225 254
203 225 254
203 225 254
203 225 254
203 225 254
203 225 254
203 225 254
203 225 254
203 225 254
203 225 254
202 225 254
202 225 254
202 225 254
202 225 254
202 225 254
202 225 254
202 225 254
202 224 254
202 224 254
202 224 254
202 224 254
202 224 254
202 224 254
202 224 254
202 224 254
201 224 254
201 224 254
201 224 254
201 224 254
201 224 254
201 224 254
201 224 254
201 224 254
201 224 254
201 224 254
201 224 254
201 224 254
201 224 254
201 224 254
201 224 254
201 224 254
200 224 254
200 224 254
200 224 254
200 224 254
200 223 254
200 223 254
200 223 254
200 223 254
200 223 254
200 223 254
200 223 254
200 223 254
200 223 254
200 223 254
200 223 254
200 223 254
199 223 254
199 223 254
199 223 254
199 223 254
199 223 254
199 223 254
199 223 254
199 223 254
199 223 254
199 223 254
199 223 254
199 223 254
199 223 254
199 223 254
199 223 254
199 223 254
199 223 254
199 223 254
199 223 254
198 223 254
198 223 254
198 223 254
198 223 254
198 222 254
198 222 254
198 222 254
198 222 254
198 222 254
198 222 254
198 222 254
198 222 254
198 222 254
198 222 254
198 222 254
198 222 254
198 222 254
198 222 254
198 222 254
198 222 254
198 222 254
198 222 254
198 222 254
198 222 254
198 222 254
198 222 254
198 222 254
198 222 254
198 222 254
198 222 254
198 222 254
198 222 254
198 222 254
198 222 254
198 222 254
197 222 254
197 222 254
197 222 254
197 222 254
197 222 254
197 222 254
197 222 254
197 222 254
197 222 254
197 222 254
197 222 254
197 222 254
197 222 254
197 222 254
198 222 254
198 222 254
198 222 254
198 222 254
198 222 254
198 222 254
198 222 254
198 222 254
198 222 254
198 222 254
198 222 254
198 222 254
198 222 254
198 222 254
198 222 254
198 222 254
198 222 254
198 222 254
198 222 254
198 222 254
198 222 254
198 222 254
198 222 254
198 222 254
198 222 254
198 222 254
198 222 254
198 222 254
198 222 254
198 222 254
198 222 254
198 223 254
198 223 254
198 223 254
198 223 254
199 223 254
199 223 254
199 223 254
199 223 254
199 223 254
199 223 254
199 223 254
199 223 254
199 223 254
199 223 254
199 223 254
199 223 254
199 223 254
199 223 254
199 223 254
199 223 254
199 223 254
199 223 254
199 223 254
200 223 254
200 223 254
200 223 254
200 223 254
200 223 254
200 223 254
200 223 254
200 223 254
200 223 254
200 223 254
200 223 254
200 223 254
200 224 254
200 224 254
200 224 254
200 224 254
201 224 254
201 224 254
201 224 254
201 224 254
201 224 254
201 224 254
201 224 254
201 224 254
201 224 254
201 224 254
201 224 254
201 224 254
201 224 254
201 224 254
201 224 254
201 224 254
202 224 254
202 224 254
202 224 254
202 224 254
202 224 254
202 224 254
202 224 254
202 224 254
202 225 254
202 225 254
202 225 254
202 225 254
202 225 254
202 225 254
202 225 254
203 225 254
203 225 254
203 225 254
203 225 254
203 225 254
203 225 254
203 225 254
203 225 254
203 225 254
203 225 254
203 225 254
203 225 254
203 225 254
203 225 254
203 225 254
203 225 254
204 225 254
204 225 254
204 225 254
204 225 254
204 225 254
204 225 254
204 226 254
204 226 254
204 226 254
204 226 254
204 226 254
204 226 254
204 226 254
204 226 254
204 226 254
204 226 254
205 226 254
205 226 254
205 226 254
205 226 254
205 226 254
205 226 254
205 226 254
205 226 254
205 226 254
205 226 254
205 226 254
205 226 254
205 226 254
205 226 254
205 226 254
205 226 254
205 226 254
205 226 254
206 226 254
206 226 254
206 226 254
206 226 254
206 227 254
206 227 254
206 227 254
206 227 254
206 227 254
206 227 254
206 227 254
206 227 254
206 227 254
206 227 254
206 227 254
206 227 254
206 227 254
206 227 254
206 227 254
207 227 254
207 227 254
207 227 254
207 227 254
207 227 254
207 227 254
207 227 254
207 227 254
207 227 254
207 227 254
207 227 254
207 227 254
207 227 254
207 227 254
207 227 254
207 227 254
207 227 254
207 227 254
207 227 254
207 227 254
207 227 254
208 227 254
208 227 254
208 228 254
208 228 254
208 228 254
208 228 254
208 227 254
207 227 254
207 227 254
207 227 254
207 227 254
207 227 254
207 227 254
207 227 254
207 227 254
207 227 254
207 227 254
207 227 254
207 227 254
207 227 254
207 227 254
207 227 254
207 227 254
207 227 254
207 227 254
207 227 254
207 227 254
207 227 254
206 227 254
206 227 254
206 227 254
206 227 254
206 227 254
206 227 254
206 227 254
206 227 254
206 227 254
206 227 254
206 227 254
206 227 254
206 227 254
206 227 254
206 227 254
206 226 254
206 226 254
206 226 254
206 226 254
205 226 254
205 226 254
205 226 254
205 226 254
205 226 254
205 226 254
205 226 254
205 226 254
205 226 254
205 226 254
205 226 254
205 226 254
205 226 254
205 226 254
205 226 254
205 226 254
205 226 254
205 226 254
204 226 254
204 226 254
204 226 254
204 226 254
204 226 254
204 226 254
204 226 254
204 226 254
204 226 254
204 225 254
204 225 254
204 225 254
204 225 254
204 225 254
204 225 254
204 225 254
203 225 254
203 225 254
203 225 254
203 225 254
203 225 254
203 225 254
203 225 254
203 225 254
203 225 254
203 225 254
203 225 254
203 225 254
203 225 254
203 225 254
203 225 254
203 225 254
202 225 254
202 225 254
202 225 254
202 225 254
202 225 254
202 225 254
202 225 254
202 224 254
202 224 254
202 224 254
202 224 254
202 224 254
202 224 254
202 224 254
202 224 254
201 224 254
201 224 254
201 224 254
201 224 254
201 224 254
201 224 254
201 224 254
201 224 254
201 224 254
201 224 254
201 224 254
201 224 254
201 224 254
201 224 254
201 224 254
200 224 254
200 224 254
200 224 254
200 224 254
200 224 254
200 223 254
200 223 254
200 223 254
200 223 254
200 223 254
200 223 254
200 223 254
200 223 254
200 223 254
200 223 254
200 223 254
200 223 254
199 223 254
199 223 254
199 223 254
199 223 254
199 223 254
199 223 254
199 223 254
199 223 254
199 223 254
199 223 254
199 223 254
199 223 254
199 223 254
199 223 254
199 223 254
199 223 254
199 223 254
199 223 254
199 223 254
199 223 254
198 223 254
198 223 254
198 223 254
198 223 254
198 223 254
198 222 254
198 222 254
198 222 254
198 222 254
198 222 254
198 222 254
198 222 254
198 222 254
198 222 254
198 222 254
198 222 254
198 222 254
198 222 254
198 222 254
198 222 254
198 222 254
198 222 254
198 222 254
198 222 254
198 222 254
198 222 254
198 222 254
198 222 254
198 222 254
198 222 254
198 222 254
198 222 254
198 222 254
198 222 254
198 222 254
198 222 254
198 222 254
198 222 254
198 222 254
198 222 254
198 222 254
198 222 254
198 222 254
198 222 254
198 222 254
198 222 254
198 222 254
198 222 254
198 222 254
198 222 254
198 222 254
198 222 254
198 222 254
198 222 254
198 222 254
198 222 254
198 222 254
198 222 254
198 222 254
198 222 254
198 222 254
198 222 254
198 222 254
198 222 254
198 222 254
198 222 254
198 222 254
198 222 254
198 222 254
198 222 254
198 222 254
198 223 254
198 223 254
198 223 254
198 223 254
199 223 254
199 223 254
199 223 254
199 223 254
199 223 254
199 223 254
199 223 254
199 223 254
199 223 254
199 223 254
199 223 254
199 223 254
199 223 254
199 223 254
199 223 254
199 223 254
199 223 254
199 223 254
199 223 254
199 223 254
199 223 254
200 223 254
200 223 254
200 223 254
200 223 254
200 223 254
200 223 254
200 223 254
200 223 254
200 223 254
200 223 254
200 223 254
200 224 254
200 224 254
200 224 254
200 224 254
200 224 254
201 224 254
201 224 254
201 224 254
201 224 254
201 224 254
201 224 254
201 224 254
201 224 254
201 224 254
201 224 254
201 224 254
201 224 254
201 224 254
201 224 254
201 224 254
201 224 254
202 224 254
202 224 254
202 224 254
202 224 254
202 224 254
202 224 254
202 224 254
202 224 254
202 224 254
202 225 254
202 225 254
202 225 254
202 225 254
202 225 254
202 225 254
203 225 254
203 225 254
203 225 254
203 225 254
203 225 254
203 225 254
203 225 254
203 225 254
203 225 254
203 225 254
203 225 254
203 225 254
203 225 254
203 225 254
203 225 254
203 225 254
204 225 254
204 225 254
204 225 254
204 225 254
204 225 254
204 225 254
204 226 254
204 226 254
204 226 254
204 226 254
204 226 254
204 226 254
204 226 254
204 226 254
204 226 254
204 226 254
204 226 254
205 226 254
205 226 254
205 226 254
205 226 254
205 226 254
205 226 254
205 226 254
205 226 254
205 226 254
205 226 254
205 226 254
205 226 254
205 226 254
205 226 254
205 226 254
205 226 254
205 226 254
206 226 254
206 226 254
206 226 254
206 226 254
206 227 254
206 227 254
206 227 254
206 227 254
206 227 254
206 227 254
206 227 254
206 227 254
206 227 254
206 227 254
206 227 254
206 227 254
206 227 254
206 227 254
206 227 254
207 227 254
207 227 254
207 227 254
207 227 254
207 227 254
207 227 254
207 227 254
207 227 254
207 227 254
207 227 254
207 227 254
207 227 254
207 227 254
207 227 254
207 227 254
207 227 254
207 227 254
207 227 254
207 227 254
207 227 254
207 227 254
208 227 254
208 228 254
208 228 254
208 228 254
208 228 254
208 228 254
208 228 254
208 228 254
208 228 254
208 228 254
208 228 254
208 228 254
208 227 254
207 227 254
207 227 254
207 227 254
207 227 254
207 227 254
207 227 254
207 227 254
207 227 254
207 227 254
207 227 254
207 227 254
207 227 254
207 227 254
207 227 254
207 227 254
207 227 254
207 227 254
207 227 254
207 227 254
207 227 254
207 227 254
206 227 254
206 227 254
206 227 254
206 227 254
206 227 254
206 227 254
206 227 254
206 227 254
206 227 254
206 227 254
206 227 254
206 227 254
206 227 254
206 227 254
206 227 254
206 226 254
206 226 254
206 226 254
206 226 254
205 226 254
205 226 254
205 226 254
205 226 254
205 226 254
205 226 254
205 226 254
205 226 254
205 226 254
205 226 254
205 226 254
205 226 254
205 226 254
205 226 254
205 226 254
205 226 254
205 226 254
204 226 254
204 226 254
204 226 254
204 226 254
204 226 254
204 226 254
204 226 254
204 226 254
204 226 254
204 226 254
204 225 254
204 225 254
204 225 254
204 225 254
204 225 254
204 225 254
204 225 254
203 225 254
203 225 254
203 225 254
203 225 254
203 225 254
203 225 254
203 225 254
203 225 254
203 225 254
203 225 254
203 225 254
203 225 254
203 225 254
203 225 254
203 225 254
202 225 254
202 225 254
202 225 254
202 225 254
202 225 254
202 225 254
202 225 254
202 224 254
202 224 254
202 224 254
202 224 254
202 224 254
202 224 254
202 224 254
202 224 254
202 224 254
201 224 254
201 224 254
201 224 254
201 224 254
201 224 254
201 224 254
201 224 254
201 224 254
201 224 254
201 224 254
201 224 254
201 224 254
201 224 254
201 224 254
201 224 254
201 224 254
200 224 254
200 224 254
200 224 254
200 224 254
200 224 254
200 223 254
200 223 254
200 223 254
200 223 254
200 223 254
200 223 254
200 223 254
200 223 254
200 223 254
200 223 254
200 223 254
200 223 254
199 223 254
199 223 254
199 223 254
199 223 254
199 223 254
199 223 254
199 223 254
199 223 254
199 223 254
199 223 254
199 223 254
199 223 254
199 223 254
199 223 254
199 223 254
199 223 254
199 223 254
199 223 254
199 223 254
199 223 254
199 223 254
198 223 254
198 223 254
198 223 254
198 223 254
198 223 254
198 222 254
198 222 254
198 222 254
198 222 254
198 222 254
198 222 254
198 222 254
198 222 254
198 222 254
198 222 254
198 222 254
198 222 254
198 222 254
198 222 254
198 222 254
198 222 254
198 222 254
198 222 254
198 222 254
198 222 254
198 222 254
198 222 254
198 222 254
198 222 254
198 222 254
198 222 254
198 222 254
198 222 254
198 222 254
198 222 254
198 222 254
198 222 254
198 222 254
198 222 254
198 222 254
198 222 254
198 222 254
198 222 254
198 222 254
198 222 254
198 222 254
198 222 254
198 222 254
198 222 254
198 222 254
198 222 254
198 222 254
198 222 254
198 222 254
198 222 254
198 222 254
198 222 254
198 222 254
198 222 254
198 222 254
198 222 254
198 223 254
198 223 254
198 223 254
198 223 254
199 223 254
199 223 254
199 223 254
199 223 254
199 223 254
199 223 254
199 223 254
199 223 254
199 223 254
199 223 254
199 223 254
199 223 254
199 223 254
199 223 254
199 223 254
199 223 254
199 223 254
199 223 254
199 223 254
199 223 254
199 223 254
199 223 254
200 223 254
200 223 254
200 223 254
200 223 254
200 223 254
200 223 254
200 223 254
200 223 254
200 223 254
200 223 254
200 223 254
200 223 254
200 224 254
200 224 254
200 224 254
200 224 254
200 224 254
201 224 254
201 224 254
201 224 254
201 224 254
201 224 254
201 224 254
201 224 254
201 224 254
201 224 254
201 224 254
201 224 254
201 224 254
201 224 254
201 224 254
201 224 254
201 224 254
202 224 254
202 224 254
202 224 254
202 224 254
202 224 254
202 224 254
202 224 254
202 224 254
202 224 254
202 225 254
202 225 254
202 225 254
202 225 254
202 225 254
202 225 254
202 225 254
203 225 254
203 225 254
203 225 254
203 225 254
203 225 254
203 225 254
203 225 254
203 225 254
203 225 254
203 225 254
203 225 254
203 225 254
203 225 254
203 225 254
203 225 254
204 225 254
204 225 254
204 225 254
204 225 254
204 225 254
204 225 254
204 225 254
204 226 254
204 226 254
204 226 254
204 226 254
204 226 254
204 226 254
204 226 254
204 226 254
204 226 254
204 226 254
205 226 254
205 226 254
205 226 254
205 226 254
205 226 254
205 226 254
205 226 254
205 226 254
205 226 254
205 226 254
205 226 254
205 226 254
205 226 254
205 226 254
205 226 254
205 226 254
205 226 254
206 226 254
206 226 254
206 226 254
206 226 254
206 227 254
206 227 254
206 227 254
206 227 254
206 227 254
206 227 254
206 227 254
206 227 254
206 227 254
206 227 254
206 227 254
206 227 254
206 227 254
206 227 254
206 227 254
207 227 254
207 227 254
207 227 254
207 227 254
207 227 254
207 227 254
207 227 254
207 227 254
207 227 254
207 227 254
207 227 254
207 227 254
207 227 254
207 227 254
207 227 254
207 227 254
207 227 254
207 227 254
207 227 254
207 227 254
207 227 254
208 227 254
208 228 254
208 228 254
208 228 254
208 228 254
208 228 254
208 228 254
208 228 254
208 228 254
208 228 254
208 228 254
208 228 254
208 228 254
208 228 254
208 228 254
208 228 254
208 228 254
208 228 254
208 227 254
207 227 254
207 227 254
207 227 254
207 227 254
207 227 254
207 227 254
207 227 254
207 227 254
207 227 254
207 227 254
207 227 254
207 227 254
207 227 254
207 227 254
207 227 254
207 227 254
207 227 254
207 227 254
207 227 254
207 227 254
207 227 254
206 227 254
206 227 254
206 227 254
206 227 254
206 227 254
206 227 254
206 227 254
206 227 254
206 227 254
206 227 254
206 227 254
206 227 254
206 227 254
206 227 254
206 227 254
206 226 254
206 226 254
206 226 254
206 226 254
205 226 254
205 226 254
205 226 254
205 226 254
205 226 254
205 226 254
205 226 254
205 226 254
205 226 254
205 226 254
205 226 254
205 226 254
205 226 254
205 226 254
205 226 254
205 226 254
205 226 254
204 226 254
204 226 254
204 226 254
204 226 254
204 226 254
204 226 254
204 226 254
204 226 254
204 226 254
204 226 254
204 225 254
204 225 254
204 225 254
204 225 254
204 225 254
204 225 254
204 225 254
203 225 254
203 225 254
203 225 254
203 225 254
203 225 254
203 225 254
203 225 254
203 225 254
203 225 254
203 225 254
203 225 254
203 225 254
203 225 254
203 225 254
203 225 254
202 225 254
202 225 254
202 225 254
202 225 254
202 225 254
202 225 254
202 225 254
202 224 254
202 224 254
202 224 254
202 224 254
202 224 254
202 224 254
202 224 254
202 224 254
202 224 254
201 224 254
201 224 254
201 224 254
201 224 254
201 224 254
201 224 254
201 224 254
201 224 254
201 224 254
201 224 254
201 224 254
201 224 254
201 224 254
201 224 254
201 224 254
201 224 254
200 224 254
200 224 254
200 224 254
200 224 254
200 224 254
200 223 254
200 223 254
200 223 254
200 223 254
200 223 254
200 223 254
200 223 254
200 223 254
200 223 254
200 223 254
200 223 254
200 223 254
199 223 254
199 223 254
199 223 254
199 223 254
199 223 254
199 223 254
199 223 254
199 223 254
199 223 254
199 223 254
199 223 254
199 223 254
199 223 254
199 223 254
199 223 254
199 223 254
199 223 254
199 223 254
199 223 254
199 223 254
199 223 254
199 223 254
199 223 254
199 223 254
198 223 254
198 223 254
198 223 254
198 223 254
198 223 254
198 223 254
198 222 254
198 222 254
198 222 254
198 222 254
198 222 254
198 222 254
198 222 254
198 222 254
198 222 254
198 222 254
198 222 254
198 222 254
198 222 254
198 222 254
198 222 254
198 222 254
198 222 254
198 222 254
198 222 254
198 222 254
198 222 254
198 222 254
198 222 254
198 222 254
198 222 254
198 222 254
198 222 254
198 222 254
198 222 254
198 222 254
198 222 254
198 222 254
198 222 254
198 222 254
198 222 254
198 222 254
198 222 254
198 222 254
198 222 254
198 222 254
198 222 254
198 222 254
198 223 254
198 223 254
198 223 254
198 223 254
198 223 254
198 223 254
199 223 254
199 223 254
199 223 254
199 223 254
199 223 254
199 223 254
199 223 254
199 223 254
199 223 254
199 223 254
199 223 254
199 223 254
199 223 254
199 223 254
199 223 254
199 223 254
199 223 254
199 223 254
199 223 254
199 223 254
199 223 254
199 223 254
199 223 254
199 223 254
200 223 254
200 223 254
200 223 254
200 223 254
200 223 254
200 223 254
200 223 254
200 223 254
200 223 254
200 223 254
200 223 254
200 223 254
200 224 254
200 224 254
200 224 254
200 224 254
200 224 254
201 224 254
201 224 254
201 224 254
201 224 254
201 224 254
201 224 254
201 224 254
201 224 254
201 224 254
201 224 254
201 224 254
201 224 254
201 224 254
201 224 254
201 224 254
201 224 254
202 224 254
202 224 254
202 224 254
202 224 254
202 224 254
202 224 254
202 224 254
202 224 254
202 224 254
202 225 254
202 225 254
202 225 254
202 225 254
202 225 254
202 225 254
202 225 254
203 225 254
203 225 254
203 225 254
203 225 254
203 225 254
203 225 254
203 225 254
203 225 254
203 225 254
203 225 254
203 225 254
203 225 254
203 225 254
203 225 254
203 225 254
204 225 254
204 225 254
204 225 254
204 225 254
204 225 254
204 225 254
204 225 254
204 226 254
204 226 254
204 226 254
204 226 254
204 226 254
204 226 254
204 226 254
204 226 254
204 226 254
204 226 254
205 226 254
205 226 254
205 226 254
205 226 254
205 226 254
205 226 254
205 226 254
205 226 254
205 226 254
205 226 254
205 226 254
205 226 254
205 226 254
205 226 254
205 226 254
205 226 254
205 226 254
206 226 254
206 226 254
206 226 254
206 226 254
206 227 254
206 227 254
206 227 254
206 227 254
206 227 254
206 227 254
206 227 254
206 227 254
206 227 254
206 227 254
206 227 254
206 227 254
206 227 254
206 227 254
206 227 254
207 227 254
207 227 254
207 227 254
207 227 254
207 227 254
207 227 254
207 227 254
207 227 254
207 227 254
207 227 254
207 227 254
207 227 254
207 227 254
207 227 254
207 227 254
207 227 254
207 227 254
207 227 254
207 227 254
207 227 254
208 227 254
208 227 254
208 228 254
208 228 254
208 228 254
208 228 254
208 228 254
208 228 254
208 228 254
208 228 254
208 228 254
208 228 254
208 228 254
208 228 254
208 228 254
208 228 254
208 228 254
208 228 254
208 228 254
208 228 254
208 228 254
208 228 254
208 228 254
208 228 254
208 228 254
208 227 254
208 227 254
207 227 254
207 227 254
207 227 254
207 227 254
207 227 254
207 227 254
207 227 254
207 227 254
207 227 254
207 227 254
207 227 254
207 227 254
207 227 254
207 227 254
207 227 254
207 227 254
207 227 254
207 227 254
207 227 254
207 227 254
206 227 254
206 227 254
206 227 254
206 227 254
206 227 254
206 227 254
206 227 254
206 227 254
206 227 254
206 227 254
206 227 254
206 227 254
206 227 254
206 227 254
206 227 254
206 226 254
206 226 254
206 226 254
206 226 254
205 226 254
205 226 254
205 226 254
205 226 254
205 226 254
205 226 254
205 226 254
205 226 254
205 226 254
205 226 254
205 226 254
205 226 254
205 226 254
205 226 254
205 226 254
205 226 254
205 226 254
204 226 254
204 226 254
204 226 254
204 226 254
204 226 254
204 226 254
204 226 254
204 226 254
204 226 254
204 226 254
204 225 254
204 225 254
204 225 254
204 225 254
204 225 254
204 225 254
203 225 254
203 225 254
203 225 254
203 225 254
203 225 254
203 225 254
203 225 254
203 225 254
203 225 254
203 225 254
203 225 254
203 225 254
203 225 254
203 225 254
203 225 254
203 225 254
202 225 254
202 225 254
202 225 254
202 225 254
202 225 254
202 225 254
202 225 254
202 224 254
202 224 254
202 224 254
202 224 254
202 224 254
202 224 254
202 224 254
202 224 254
202 224 254
201 224 254
201 224 254
201 224 254
201 224 254
201 224 254
201 224 254
201 224 254
201 224 254
201 224 254
201 224 254
201 224 254
201 224 254
201 224 254
201 224 254
201 224 254
201 224 254
200 224 254
200 224 254
200 224 254
200 224 254
200 224 254
200 223 254
200 223 254
200 223 254
200 223 254
200 223 254
200 223 254
200 223 254
200 223 254
200 223 254
200 223 254
200 223 254
200 223 254
200 223 254
200 223 254
199 223 254
199 223 254
199 223 254
199 223 254
199 223 254
199 223 254
199 223 254
199 223 254
199 223 254
199 223 254
199 223 254
199 223 254
199 223 254
199 223 254
199 223 254
199 223 254
199 223 254
199 223 254
199 223 254
199 223 254
199 223 254
199 223 254
199 223 254
199 223 254
199 223 254
199 223 254
198 223 254
198 223 254
198 223 254
198 223 254
198 223 254
198 223 254
198 223 254
198 223 254
198 223 254
198 223 254
198 223 254
198 222 254
198 222 254
198 222 254
198 222 254
198 222 254
198 222 254
198 222 254
198 222 254
198 222 254
198 222 254
198 222 254
198 222 254
198 222 254
198 222 254
198 222 254
198 222 254
198 222 254
198 222 254
198 223 254
198 222 254
198 223 254
198 223 254
198 223 254
198 223 254
198 223 254
198 223 254
198 223 254
198 223 254
198 223 254
199 223 254
199 223 254
199 223 254
199 223 254
199 223 254
199 223 254
199 223 254
199 223 254
199 223 254
199 223 254
199 223 254
199 223 254
199 223 254
199 223 254
199 223 254
199 223 254
199 223 254
199 223 254
199 223 254
199 223 254
199 223 254
199 223 254
199 223 254
199 223 254
199 223 254
199 223 254
199 223 254
200 223 254
200 223 254
200 223 254
200 223 254
200 223 254
200 223 254
200 223 254
200 223 254
200 223 254
200 223 254
200 223 254
200 223 254
200 223 254
200 224 254
200 224 254
200 224 254
200 224 254
200 224 254
201 224 254
201 224 254
201 224 254
201 224 254
201 224 254
201 224 254
201 224 254
201 224 254
201 224 254
201 224 254
201 224 254
201 224 254
201 224 254
201 224 254
201 224 254
201 224 254
202 224 254
202 224 254
202 224 254
202 224 254
202 224 254
202 224 254
202 224 254
202 224 254
202 224 254
202 225 254
202 225 254
202 225 254
202 225 254
202 225 254
202 225 254
202 225 254
203 225 254
203 225 254
203 225 254
203 225 254
203 225 254
203 225 254
203 225 254
203 225 254
203 225 254
203 225 254
203 225 254
203 225 254
203 225 254
203 225 254
203 225 254
203 225 254
204 225 254
204 225 254
204 225 254
204 225 254
204 225 254
204 225 254
204 226 254
204 226 254
204 226 254
204 226 254
204 226 254
204 226 254
204 226 254
204 226 254
204 226 254
204 226 254
205 226 254
205 226 254
205 226 254
205 226 254
205 226 254
205 226 254
205 226 254
205 226 254
205 226 254
205 226 254
205 226 254
205 226 254
205 226 254
205 226 254
205 226 254
205 226 254
205 226 254
206 226 254
206 226 254
206 226 254
206 226 254
206 227 254
206 227 254
206 227 254
206 227 254
206 227 254
206 227 254
206 227 254
206 227 254
206 227 254
206 227 254
206 227 254
206 227 254
206 227 254
206 227 254
206 227 254
207 227 254
207 227 254
207 227 254
207 227 254
207 227 254
207 227 254
207 227 254
207 227 254
207 227 254
207 227 254
207 227 254
207 227 254
207 227 254
207 227 254
207 227 254
207 227 254
207 227 254
207 227 254
207 227 254
207 227 254
208 227 254
208 228 254
208 228 254
208 228 254
208 228 254
208 228 254
208 228 254
208 228 254
208 228 254
208 228 254
208 228 254
208 228 254
208 228 254
208 228 254
208 228 254
208 228 254
208 228 254
208 228 254
208 228 254
208 228 254
208 228 254
208 228 254
208 228 254
208 228 254
208 228 254
208 228 254
208 228 254
208 228 254
208 228 254
208 228 254
208 228 254
208 228 254
208 227 254
207 227 254
207 227 254
207 227 254
207 227 254
207 227 254
207 227 254
207 227 254
207 227 254
207 227 254
207 227 254
207 227 254
207 227 254
207 227 254
207 227 254
207 227 254
207 227 254
207 227 254
207 227 254
207 227 254
207 227 254
206 227 254
206 227 254
206 227 254
206 227 254
206 227 254
206 227 254
206 227 254
206 227 254
206 227 254
206 227 254
206 227 254
206 227 254
206 227 254
206 227 254
206 227 254
206 226 254
206 226 254
206 226 254
206 226 254
205 226 254
205 226 254
205 226 254
205 226 254
205 226 254
205 226 254
205 226 254
205 226 254
205 226 254
205 226 254
205 226 254
205 226 254
205 226 254
205 226 254
205 226 254
205 226 254
205 226 254
204 226 254
204 226 254
204 226 254
204 226 254
204 226 254
204 226 254
204 226 254
204 226 254
204 226 254
204 226 254
204 225 254
204 225 254
204 225 254
204 225 254
204 225 254
204 225 254
203 225 254
203 225 254
203 225 254
203 225 254
203 225 254
203 225 254
203 225 254
203 225 254
203 225 254
203 225 254
203 225 254
203 225 254
203 225 254
203 225 254
203 225 254
203 225 254
202 225 254
202 225 254
202 225 254
202 225 254
202 225 254
202 225 254
202 225 254
202 224 254
202 224 254
202 224 254
202 224 254
202 224 254
202 224 254
202 224 254
202 224 254
202 224 254
201 224 254
201 224 254
201 224 254
201 224 254
201 224 254
201 224 254
201 224 254
201 224 254
201 224 254
201 224 254
201 224 254
201 224 254
201 224 254
201 224 254
201 224 254
201 224 254
201 224 254
200 224 254
200 224 254
200 224 254
200 224 254
200 224 254
200 223 254
200 223 254
200 223 254
200 223 254
200 223 254
200 223 254
200 223 254
200 223 254
200 223 254
200 223 254
200 223 254
200 223 254
200 223 254
200 223 254
199 223 254
199 223 254
199 223 254
199 223 254
199 223 254
199 223 254
199 223 254
199 223 254
199 223 254
199 223 254
199 223 254
199 223 254
199 223 254
199 223 254
199 223 254
199 223 254
199 223 254
199 223 254
199 223 254
199 223 254
199 223 254
199 223 254
199 223 254
199 223 254
199 223 254
199 223 254
199 223 254
199 223 254
199 223 254
199 223 254
199 223 254
199 223 254
199 223 254
199 223 254
199 223 254
198 223 254
198 223 254
198 223 254
198 223 254
198 223 254
198 223 254
198 223 254
198 223 254
198 223 254
198 223 254
198 223 254
198 223 254
198 223 254
199 223 254
199 223 254
199 223 254
199 223 254
199 223 254
199 223 254
199 223 254
199 223 254
199 223 254
199 223 254
199 223 254
199 223 254
199 223 254
199 223 254
199 223 254
199 223 254
199 223 254
199 223 254
199 223 254
199 223 254
199 223 254
199 223 254
199 223 254
199 223 254
199 223 254
199 223 254
199 223 254
199 223 254
199 223 254
199 223 254
199 223 254
199 223 254
199 223 254
199 223 254
199 223 254
199 223 254
200 223 254
200 223 254
200 223 254
200 223 254
200 223 254
200 223 254
200 223 254
200 223 254
200 223 254
200 223 254
200 223 254
200 223 254
200 223 254
200 223 254
200 224 254
200 224 254
200 224 254
200 224 254
200 224 254
201 224 254
201 224 254
201 224 254
201 224 254
201 224 254
201 224 254
201 224 254
201 224 254
201 224 254
201 224 254
201 224 254
201 224 254
201 224 254
201 224 254
201 224 254
201 224 254
201 224 254
202 224 254
202 224 254
202 224 254
202 224 254
202 224 254
202 224 254
202 224 254
202 224 254
202 224 254
202 225 254
202 225 254
202 225 254
202 225 254
202 225 254
202 225 254
202 225 254
203 225 254
203 225 254
203 225 254
203 225 254
203 225 254
203 225 254
203 225 254
203 225 254
203 225 254
203 225 254
203 225 254
203 225 254
203 225 254
203 225 254
203 225 254
203 225 254
204 225 254
204 225 254
204 225 254
204 225 254
204 225 254
204 225 254
204 226 254
204 226 254
204 226 254
204 226 254
204 226 254
204 226 254
204 226 254
204 226 254
204 226 254
204 226 254
205 226 254
205 226 254
205 226 254
205 226 254
205 226 254
205 226 254
205 226 254
205 226 254
205 226 254
205 226 254
205 226 254
205 226 254
205 226 254
205 226 254
205 226 254
205 226 254
205 226 254
206 226 254
206 226 254
206 226 254
206 226 254
206 227 254
206 227 254
206 227 254
206 227 254
206 227 254
206 227 254
206 227 254
206 227 254
206 227 254
206 227 254
206 227 254
206 227 254
206 227 254
206 227 254
207 227 254
207 227 254
207 227 254
207 227 254
207 227 254
207 227 254
207 227 254
207 227 254
207 227 254
207 227 254
207 227 254
207 227 254
207 227 254
207 227 254
207 227 254
207 227 254
207 227 254
207 227 254
207 227 254
207 227 254
207 227 254
208 227 254
208 228 254
208 228 254
208 228 254
208 228 254
208 228 254
208 228 254
208 228 254
208 228 254
208 228 254
208 228 254
208 228 254
208 228 254
208 228 254
208 228 254
208 228 254
208 228 254
208 228 254
208 228 254
208 228 254
208 228 254
208 228 254
208 228 254
208 228 254
208 228 254
208 228 254
208 228 254
208 228 254
208 228 254
208 228 254
208 228 254
208 228 254
208 228 254
208 228 254
208 228 254
208 228 254
208 228 254
208 228 254
208 227 254
207 227 254
207 227 254
207 227 254
207 227 254
207 227 254
207 227 254
207 227 254
207 227 254
207 227 254
207 227 254
207 227 254
207 227 254
207 227 254
207 227 254
207 227 254
207 227 254
207 227 254
207 227 254
207 227 254
207 227 254
206 227 254
206 227 254
206 227 254
206 227 254
206 227 254
206 227 254
206 227 254
206 227 254
206 227 254
206 227 254
206 227 254
206 227 254
206 227 254
206 227 254
206 227 254
206 226 254
206 226 254
206 226 254
206 226 254
205 226 254
205 226 254
205 226 254
205 226 254
205 226 254
205 226 254
205 226 254
205 226 254
205 226 254
205 226 254
205 226 254
205 226 254
205 226 254
205 226 254
205 226 254
205 226 254
205 226 254
204 226 254
204 226 254
204 226 254
204 226 254
204 226 254
204 226 254
204 226 254
204 226 254
204 226 254
204 226 254
204 225 254
204 225 254
204 225 254
204 225 254
204 225 254
204 225 254
203 225 254
203 225 254
203 225 254
203 225 254
203 225 254
203 225 254
203 225 254
203 225 254
203 225 254
203 225 254
203 225 254
203 225 254
203 225 254
203 225 254
203 225 254
203 225 254
202 225 254
202 225 254
202 225 254
202 225 254
202 225 254
202 225 254
202 225 254
202 224 254
202 224 254
202 224 254
202 224 254
202 224 254
202 224 254
202 224 254
202 224 254
202 224 254
201 224 254
201 224 254
201 224 254
201 224 254
201 224 254
201 224 254
201 224 254
201 224 254
201 224 254
201 224 254
201 224 254
201 224 254
201 224 254
201 224 254
201 224 254
201 224 254
201 224 254
200 224 254
200 224 254
200 224 254
200 224 254
200 224 254
200 224 254
200 223 254
200 223 254
200 223 254
200 223 254
200 223 254
200 223 254
200 223 254
200 223 254
200 223 254
200 223 254
200 223 254
200 223 254
200 223 254
200 223 254
199 223 254
199 223 254
199 223 254
199 223 254
199 223 254
199 223 254
199 223 254
199 223 254
199 223 254
199 223 254
199 223 254
199 223 254
199 223 254
199 223 254
199 223 254
199 223 254
199 223 254
199 223 254
199 223 254
199 223 254
199 223 254
199 223 254
199 223 254
199 223 254
199 223 254
199 223 254
199 223 254
199 223 254
199 223 254
199 223 254
199 223 254
199 223 254
199 223 254
199 223 254
199 223 254
199 223 254
199 223 254
199 223 254
199 223 254
199 223 254
199 223 254
199 223 254
199 223 254
199 223 254
199 223 254
199 223 254
199 223 254
199 223 254
199 223 254
199 223 254
199 223 254
199 223 254
199 223 254
199 223 254
199 223 254
199 223 254
199 223 254
199 223 254
199 223 254
199 223 254
199 223 254
199 223 254
199 223 254
199 223 254
199 223 254
199 223 254
199 223 254
199 223 254
199 223 254
199 223 254
199 223 254
199 223 254
199 223 254
199 223 254
199 223 254
199 223 254
200 223 254
200 223 254
200 223 254
200 223 254
200 223 254
200 223 254
200 223 254
200 223 254
200 223 254
200 223 254
200 223 254
200 223 254
200 223 254
200 223 254
200 224 254
200 224 254
200 224 254
200 224 254
200 224 254
200 224 254
201 224 254
201 224 254
201 224 254
201 224 254
201 224 254
201 224 254
201 224 254
201 224 254
201 224 254
201 224 254
201 224 254
201 224 254
201 224 254
201 224 254
201 224 254
201 224 254
201 224 254
202 224 254
202 224 254
202 224 254
202 224 254
202 224 254
202 224 254
202 224 254
202 224 254
202 224 254
202 225 254
202 225 254
202 225 254
202 225 254
202 225 254
202 225 254
202 225 254
203 225 254
203 225 254
203 225 254
203 225 254
203 225 254
203 225 254
203 225 254
203 225 254
203 225 254
203 225 254
203 225 254
203 225 254
203 225 254
203 225 254
203 225 254
203 225 254
204 225 254
204 225 254
204 225 254
204 225 254
204 225 254
204 225 254
204 226 254
204 226 254
204 226 254
204 226 254
204 226 254
204 226 254
204 226 254
204 226 254
204 226 254
204 226 254
205 226 254
205 226 254
205 226 254
205 226 254
205 226 254
205 226 254
205 226 254
205 226 254
205 226 254
205 226 254
205 226 254
205 226 254
205 226 254
205 226 254
205 226 254
205 226 254
205 226 254
206 226 254
206 226 254
206 226 254
206 226 254
206 227 254
206 227 254
206 227 254
206 227 254
206 227 254
206 227 254
206 227 254
206 227 254
206 227 254
206 227 254
206 227 254
206 227 254
206 227 254
206 227 254
207 227 254
207 227 254
207 227 254
207 227 254
207 227 254
207 227 254
207 227 254
207 227 254
207 227 254
207 227 254
207 227 254
207 227 254
207 227 254
207 227 254
207 227 254
207 227 254
207 227 254
207 227 254
207 227 254
207 227 254
207 227 254
208 227 254
208 228 254
208 228 254
208 228 254
208 228 254
208 228 254
208 228 254
208 228 254
208 228 254
208 228 254
208 228 254
208 228 254
208 228 254
208 228 254
208 228 254
208 228 254
208 228 254
208 228 254
208 228 254
208 228 254
208 228 254
209 228 254
209 228 254
208 228 254
208 228 254
208 228 254
208 228 254
208 228 254
208 228 254
208 228 254
208 228 254
208 228 254
208 228 254
208 228 254
208 228 254
208 228 254
208 228 254
208 228 254
208 228 254
208 228 254
208 228 254
208 228 254
208 228 254
208 228 254
208 227 254
208 227 254
207 227 254
207 227 254
207 227 254
207 227 254
207 227 254
207 227 254
207 227 254
207 227 254
207 227 254
207 227 254
207 227 254
207 227 254
207 227 254
207 227 254
207 227 254
207 227 254
207 227 254
207 227 254
207 227 254
207 227 254
206 227 254
206 227 254
206 227 254
206 227 254
206 227 254
206 227 254
206 227 254
206 227 254
206 227 254
206 227 254
206 227 254
206 227 254
206 227 254
206 227 254
206 226 254
206 226 254
206 226 254
206 226 254
205 226 254
205 226 254
205 226 254
205 226 254
205 226 254
205 226 254
205 226 254
205 226 254
205 226 254
205 226 254
205 226 254
205 226 254
205 226 254
205 226 254
205 226 254
205 226 254
205 226 254
204 226 254
204 226 254
204 226 254
204 226 254
204 226 254
204 226 254
204 226 254
204 226 254
204 226 254
204 226 254
204 225 254
204 225 254
204 225 254
204 225 254
204 225 254
204 225 254
203 225 254
203 225 254
203 225 254
203 225 254
203 225 254
203 225 254
203 225 254
203 225 254
203 225 254
203 225 254
203 225 254
203 225 254
203 225 254
203 225 254
203 225 254
203 225 254
202 225 254
202 225 254
202 225 254
202 225 254
202 225 254
202 225 254
202 225 254
202 224 254
202 224 254
202 224 254
202 224 254
202 224 254
202 224 254
202 224 254
202 224 254
202 224 254
201 224 254
201 224 254
201 224 254
201 224 254
201 224 254
201 224 254
201 224 254
201 224 254
201 224 254
201 224 254
201 224 254
201 224 254
201 224 254
201 224 254
201 224 254
201 224 254
201 224 254
201 224 254
200 224 254
200 224 254
200 224 254
200 224 254
200 224 254
200 224 254
200 223 254
200 223 254
200 223 254
200 223 254
200 223 254
200 223 254
200 223 254
200 223 254
200 223 254
200 223 254
200 223 254
200 223 254
200 223 254
200 223 254
200 223 254
199 223 254
199 223 254
199 223 254
199 223 254
199 223 254
199 223 254
199 223 254
199 223 254
199 223 254
199 223 254
199 223 254
199 223 254
199 223 254
199 223 254
199 223 254
199 223 254
199 223 254
199 223 254
199 223 254
199 223 254
199 223 254
199 223 254
199 223 254
199 223 254
199 223 254
199 223 254
199 223 254
199 223 254
199 223 254
199 223 254
199 223 254
199 223 254
199 223 254
199 223 254
199 223 254
199 223 254
199 223 254
199 223 254
199 223 254
199 223 254
199 223 254
199 223 254
199 223 254
199 223 254
199 223 254
199 223 254
199 223 254
199 223 254
199 223 254
199 223 254
199 223 254
199 223 254
199 223 254
199 223 254
199 223 254
199 223 254
199 223 254
199 223 254
199 223 254
199 223 254
199 223 254
199 223 254
199 223 254
199 223 254
199 223 254
200 223 254
200 223 254
200 223 254
200 223 254
200 223 254
200 223 254
200 223 254
200 223 254
200 223 254
200 223 254
200 223 254
200 223 254
200 223 254
200 223 254
200 223 254
200 223 254
200 224 254
200 224 254
200 224 254
200 224 254
200 224 254
200 224 254
201 224 254
201 224 254
201 224 254
201 224 254
201 224 254
201 224 254
201 224 254
201 224 254
201 224 254
201 224 254
201 224 254
201 224 254
201 224 254
201 224 254
201 224 254
201 224 254
201 224 254
201 224 254
202 224 254
202 224 254
202 224 254
202 224 254
202 224 254
202 224 254
202 224 254
202 224 254
202 224 254
202 225 254
202 225 254
202 225 254
202 225 254
202 225 254
202 225 254
202 225 254
203 225 254
203 225 254
203 225 254
203 225 254
203 225 254
203 225 254
203 225 254
203 225 254
203 225 254
203 225 254
203 225 254
203 225 254
203 225 254
203 225 254
203 225 254
203 225 254
204 225 254
204 225 254
204 225 254
204 225 254
204 225 254
204 225 254
204 226 254
204 226 254
204 226 254
204 226 254
204 226 254
204 226 254
204 226 254
204 226 254
204 226 254
204 226 254
205 226 254
205 226 254
205 226 254
205 226 254
205 226 254
205 226 254
205 226 254
205 226 254
205 226 254
205 226 254
205 226 254
205 226 254
205 226 254
205 226 254
205 226 254
205 226 254
205 226 254
206 226 254
206 226 254
206 226 254
206 226 254
206 227 254
206 227 254
206 227 254
206 227 254
206 227 254
206 227 254
206 227 254
206 227 254
206 227 254
206 227 254
206 227 254
206 227 254
206 227 254
206 227 254
207 227 254
207 227 254
207 227 254
207 227 254
207 227 254
207 227 254
207 227 254
207 227 254
207 227 254
207 227 254
207 227 254
207 227 254
207 227 254
207 227 254
207 227 254
207 227 254
207 227 254
207 227 254
207 227 254
207 227 254
208 227 254
208 227 254
208 228 254
208 228 254
208 228 254
208 228 254
208 228 254
208 228 254
208 228 254
208 228 254
208 228 254
208 228 254
208 228 254
208 228 254
208 228 254
208 228 254
208 228 254
208 228 254
208 228 254
208 228 254
208 228 254
208 228 254
208 228 254
209 228 254
209 228 254
209 228 254
209 228 254
209 228 254
209 228 254
209 228 254
209 228 254
208 228 254
208 228 254
208 228 254
208 228 254
208 228 254
208 228 254
208 228 254
208 228 254
208 228 254
208 228 254
208 228 254
208 228 254
208 228 254
208 228 254
208 228 254
208 228 254
208 228 254
208 228 254
208 228 254
208 228 254
208 228 254
208 227 254
207 227 254
207 227 254
207 227 254
207 227 254
207 227 254
207 227 254
207 227 254
207 227 254
207 227 254
207 227 254
207 227 254
207 227 254
207 227 254
207 227 254
207 227 254
207 227 254
207 227 254
207 227 254
207 227 254
207 227 254
206 227 254
206 227 254
206 227 254
206 227 254
206 227 254
206 227 254
206 227 254
206 227 254
206 227 254
206 227 254
206 227 254
206 227 254
206 227 254
206 227 254
206 226 254
206 226 254
206 226 254
206 226 254
205 226 254
205 226 254
205 226 254
205 226 254
205 226 254
205 226 254
205 226 254
205 226 254
205 226 254
205 226 254
205 226 254
205 226 254
205 226 254
205 226 254
205 226 254
205 226 254
205 226 254
204 226 254
204 226 254
204 226 254
204 226 254
204 226 254
204 226 254
204 226 254
204 226 254
204 226 254
204 226 254
204 225 254
204 225 254
204 225 254
204 225 254
204 225 254
204 225 254
203 225 254
203 225 254
203 225 254
203 225 254
203 225 254
203 225 254
203 225 254
203 225 254
203 225 254
203 225 254
203 225 254
203 225 254
203 225 254
203 225 254
203 225 254
203 225 254
202 225 254
202 225 254
202 225 254
202 225 254
202 225 254
202 225 254
202 225 254
202 224 254
202 224 254
202 224 254
202 224 254
202 224 254
202 224 254
202 224 254
202 224 254
202 224 254
202 224 254
201 224 254
201 224 254
201 224 254
201 224 254
201 224 254
201 224 254
201 224 254
201 224 254
201 224 254
201 224 254
201 224 254
201 224 254
201 224 254
201 224 254
201 224 254
201 224 254
201 224 254
201 224 254
200 224 254
200 224 254
200 224 254
200 224 254
200 224 254
200 224 254
200 223 254
200 223 254
200 223 254
200 223 254
200 223 254
200 223 254
200 223 254
200 223 254
200 223 254
200 223 254
200 223 254
200 223 254
200 223 254
200 223 254
200 223 254
200 223 254
200 223 254
200 223 254
199 223 254
199 223 254
199 223 254
199 223 254
199 223 254
199 223 254
199 223 254
199 223 254
199 223 254
199 223 254
199 223 254
199 223 254
199 223 254
199 223 254
199 223 254
199 223 254
199 223 254
199 223 254
199 223 254
199 223 254
199 223 254
199 223 254
199 223 254
199 223 254
199 223 254
199 223 254
199 223 254
199 223 254
199 223 254
199 223 254
199 223 254
199 223 254
199 223 254
199 223 254
199 223 254
199 223 254
199 223 254
199 223 254
199 223 254
199 223 254
199 223 254
199 223 254
199 223 254
199 223 254
199 223 254
199 223 254
199 223 254
199 223 254
199 223 254
199 223 254
199 223 254
199 223 254
200 223 254
200 223 254
200 223 254
200 223 254
200 223 254
200 223 254
200 223 254
200 223 254
200 223 254
200 223 254
200 223 254
200 223 254
200 223 254
200 223 254
200 223 254
200 223 254
200 223 254
200 223 254
200 224 254
200 224 254
200 224 254
200 224 254
200 224 254
200 224 254
201 224 254
201 224 254
201 224 254
201 224 254
201 224 254
201 224 254
201 224 254
201 224 254
201 224 254
201 224 254
201 224 254
201 224 254
201 224 254
201 224 254
201 224 254
201 224 254
201 224 254
201 224 254
201 224 254
202 224 254
202 224 254
202 224 254
202 224 254
202 224 254
202 224 254
202 224 254
202 224 254
202 225 254
202 225 254
202 225 254
202 225 254
202 225 254
202 225 254
202 225 254
202 225 254
203 225 254
203 225 254
203 225 254
203 225 254
203 225 254
203 225 254
203 225 254
203 225 254
203 225 254
203 225 254
203 225 254
203 225 254
203 225 254
203 225 254
203 225 254
203 225 254
204 225 254
204 225 254
204 225 254
204 225 254
204 225 254
204 225 254
204 226 254
204 226 254
204 226 254
204 226 254
204 226 254
204 226 254
204 226 254
204 226 254
204 226 254
204 226 254
205 226 254
205 226 254
205 226 254
205 226 254
205 226 254
205 226 254
205 226 254
205 226 254
205 226 254
205 226 254
205 226 254
205 226 254
205 226 254
205 226 254
205 226 254
205 226 254
205 226 254
206 226 254
206 226 254
206 226 254
206 226 254
206 227 254
206 227 254
206 227 254
206 227 254
206 227 254
206 227 254
206 227 254
206 227 254
206 227 254
206 227 254
206 227 254
206 227 254
206 227 254
206 227 254
207 227 254
207 227 254
207 227 254
207 227 254
207 227 254
207 227 254
207 227 254
207 227 254
207 227 254
207 227 254
207 227 254
207 227 254
207 227 254
207 227 254
207 227 254
207 227 254
207 227 254
207 227 254
207 227 254
207 227 254
208 227 254
208 227 254
208 228 254
208 228 254
208 228 254
208 228 254
208 228 254
208 228 254
208 228 254
208 228 254
208 228 254
208 228 254
208 228 254
208 228 254
208 228 254
208 228 254
208 228 254
208 228 254
208 228 254
208 228 254
208 228 254
208 228 254
209 228 254
209 228 254
209 228 254
209 228 254
209 228 254
209 228 254
209 228 254
209 228 254
209 228 254
209 228 254
209 228 254
209 228 254
209 228 254
209 228 254
209 228 254
208 228 254
208 228 254
208 228 254
208 228 254
208 228 254
208 228 254
208 228 254
208 228 254
208 228 254
208 228 254
208 228 254
208 228 254
208 228 254
208 228 254
208 228 254
208 228 254
208 228 254
208 228 254
208 228 254
208 228 254
208 228 254
208 227 254
207 227 254
207 227 254
207 227 254
207 227 254
207 227 254
207 227 254
207 227 254
207 227 254
207 227 254
207 227 254
207 227 254
207 227 254
207 227 254
207 227 254
207 227 254
207 227 254
207 227 254
207 227 254
207 227 254
207 227 254
206 227 254
206 227 254
206 227 254
206 227 254
206 227 254
206 227 254
206 227 254
206 227 254
206 227 254
206 227 254
206 227 254
206 227 254
206 227 254
206 227 254
206 226 254
206 226 254
206 226 254
206 226 254
205 226 254
205 226 254
205 226 254
205 226 254
205 226 254
205 226 254
205 226 254
205 226 254
205 226 254
205 226 254
205 226 254
205 226 254
205 226 254
205 226 254
205 226 254
205 226 254
205 226 254
204 226 254
204 226 254
204 226 254
204 226 254
204 226 254
204 226 254
204 226 254
204 226 254
204 226 254
204 226 254
204 225 254
204 225 254
204 225 254
204 225 254
204 225 254
204 225 254
203 225 254
203 225 254
203 225 254
203 225 254
203 225 254
203 225 254
203 225 254
203 225 254
203 225 254
203 225 254
203 225 254
203 225 254
203 225 254
203 225 254
203 225 254
203 225 254
203 225 254
202 225 254
202 225 254
202 225 254
202 225 254
202 225 254
202 225 254
202 225 254
202 224 254
202 224 254
202 224 254
202 224 254
202 224 254
202 224 254
202 224 254
202 224 254
202 224 254
201 224 254
201 224 254
201 224 254
201 224 254
201 224 254
201 224 254
201 224 254
201 224 254
201 224 254
201 224 254
201 224 254
201 224 254
201 224 254
201 224 254
201 224 254
201 224 254
201 224 254
201 224 254
201 224 254
200 224 254
200 224 254
200 224 254
200 224 254
200 224 254
200 224 254
200 224 254
200 223 254
200 223 254
200 223 254
200 223 254
200 223 254
200 223 254
200 223 254
200 223 254
200 223 254
200 223 254
200 223 254
200 223 254
200 223 254
200 223 254
200 223 254
200 223 254
200 223 254
200 223 254
200 223 254
200 223 254
200 223 254
199 223 254
199 223 254
199 223 254
199 223 254
199 223 254
199 223 254
199 223 254
199 223 254
199 223 254
199 223 254
199 223 254
199 223 254
199 223 254
199 223 254
199 223 254
199 223 254
199 223 254
199 223 254
199 223 254
199 223 254
199 223 254
199 223 254
199 223 254
199 223 254
199 223 254
199 223 254
199 223 254
199 223 254
199 223 254
199 223 254
199 223 254
199 223 254
199 223 254
199 223 254
199 223 254
199 223 254
200 223 254
200 223 254
200 223 254
200 223 254
200 223 254
200 223 254
200 223 254
200 223 254
200 223 254
200 223 254
200 223 254
200 223 254
200 223 254
200 223 254
200 223 254
200 223 254
200 223 254
200 223 254
200 223 254
200 223 254
200 223 254
200 224 254
200 224 254
200 224 254
200 224 254
200 224 254
200 224 254
200 224 254
201 224 254
201 224 254
201 224 254
201 224 254
201 224 254
201 224 254
201 224 254
201 224 254
201 224 254
201 224 254
201 224 254
201 224 254
201 224 254
201 224 254
201 224 254
201 224 254
201 224 254
201 224 254
201 224 254
202 224 254
202 224 254
202 224 254
202 224 254
202 224 254
202 224 254
202 224 254
202 224 254
202 224 254
202 225 254
202 225 254
202 225 254
202 225 254
202 225 254
202 225 254
202 225 254
202 225 254
203 225 254
203 225 254
203 225 254
203 225 254
203 225 254
203 225 254
203 225 254
203 225 254
203 225 254
203 225 254
203 225 254
203 225 254
203 225 254
203 225 254
203 225 254
203 225 254
204 225 254
204 225 254
204 225 254
204 225 254
204 225 254
204 225 254
204 226 254
204 226 254
204 226 254
204 226 254
204 226 254
204 226 254
204 226 254
204 226 254
204 226 254
204 226 254
205 226 254
205 226 254
205 226 254
205 226 254
205 226 254
205 226 254
205 226 254
205 226 254
205 226 254
205 226 254
205 226 254
205 226 254
205 226 254
205 226 254
205 226 254
205 226 254
205 226 254
206 226 254
206 226 254
206 226 254
206 226 254
206 227 254
206 227 254
206 227 254
206 227 254
206 227 254
206 227 254
206 227 254
206 227 254
206 227 254
206 227 254
206 227 254
206 227 254
206 227 254
206 227 254
207 227 254
207 227 254
207 227 254
207 227 254
207 227 254
207 227 254
207 227 254
207 227 254
207 227 254
207 227 254
207 227 254
207 227 254
207 227 254
207 227 254
207 227 254
207 227 254
207 227 254
207 227 254
207 227 254
207 227 254
208 227 254
208 228 254
208 228 254
208 228 254
208 228 254
208 228 254
208 228 254
208 228 254
208 228 254
208 228 254
208 228 254
208 228 254
208 228 254
208 228 254
208 228 254
208 228 254
208 228 254
208 228 254
208 228 254
208 228 254
208 228 254
208 228 254
209 228 254
209 228 254
209 228 254
209 228 254
209 228 254
209 228 254
209 228 254
209 228 254
209 228 254
209 228 254
209 228 254
209 228 254
209 228 254
209 228 254
209 228 254
209 228 254
209 228 254
209 228 254
209 228 254
209 228 254
209 228 254
209 228 254
208 228 254
208 228 254
208 228 254
208 228 254
208 228 254
208 228 254
208 228 254
208 228 254
208 228 254
208 228 254
208 228 254
208 228 254
208 228 254
208 228 254
208 228 254
208 228 254
208 228 254
208 228 254
208 228 254
208 228 254
208 227 254
208 227 254
207 227 254
207 227 254
207 227 254
207 227 254
207 227 254
207 227 254
207 227 254
207 227 254
207 227 254
207 227 254
207 227 254
207 227 254
207 227 254
207 227 254
207 227 254
207 227 254
207 227 254
207 227 254
207 227 254
206 227 254
206 227 254
206 227 254
206 227 254
206 227 254
206 227 254
206 227 254
206 227 254
206 227 254
206 227 254
206 227 254
206 227 254
206 227 254
206 227 254
206 226 254
206 226 254
206 226 254
206 226 254
205 226 254
205 226 254
205 226 254
205 226 254
205 226 254
205 226 254
205 226 254
205 226 254
205 226 254
205 226 254
205 226 254
205 226 254
205 226 254
205 226 254
205 226 254
205 226 254
205 226 254
204 226 254
204 226 254
204 226 254
204 226 254
204 226 254
204 226 254
204 226 254
204 226 254
204 226 254
204 226 254
204 225 254
204 225 254
204 225 254
204 225 254
204 225 254
204 225 254
204 225 254
203 225 254
203 225 254
203 225 254
203 225 254
203 225 254
203 225 254
203 225 254
203 225 254
203 225 254
203 225 254
203 225 254
203 225 254
203 225 254
203 225 254
203 225 254
203 225 254
202 225 254
202 225 254
202 225 254
202 225 254
202 225 254
202 225 254
202 225 254
202 224 254
202 224 254
202 224 254
202 224 254
202 224 254
202 224 254
202 224 254
202 224 254
202 224 254
202 224 254
201 224 254
201 224 254
201 224 254
201 224 254
201 224 254
201 224 254
201 224 254
201 224 254
201 224 254
201 224 254
201 224 254
201 224 254
201 224 254
201 224 254
201 224 254
201 224 254
201 224 254
201 224 254
201 224 254
200 224 254
200 224 254
200 224 254
200 224 254
200 224 254
200 224 254
200 224 254
200 224 254
200 223 254
200 223 254
200 223 254
200 223 254
200 223 254
200 223 254
200 223 254
200 223 254
200 223 254
200 223 254
200 223 254
200 223 254
200 223 254
200 223 254
200 223 254
200 223 254
200 223 254
200 223 254
200 223 254
200 223 254
200 223 254
200 223 254
200 223 254
200 223 254
200 223 254
200 223 254
200 223 254
200 223 254
200 223 254
200 223 254
200 223 254
200 223 254
200 223 254
200 223 254
200 223 254
200 223 254
200 223 254
200 223 254
200 223 254
200 223 254
200 223 254
200 223 254
200 223 254
200 223 254
200 223 254
200 223 254
200 223 254
200 223 254
200 223 254
200 223 254
200 223 254
200 223 254
200 223 254
200 223 254
200 223 254
200 223 254
200 223 254
200 223 254
200 223 254
200 223 254
200 223 254
200 223 254
200 223 254
200 223 254
200 223 254
200 223 254
200 223 254
200 223 254
200 224 254
200 224 254
200 224 254
200 224 254
200 224 254
200 224 254
200 224 254
201 224 254
201 224 254
201 224 254
201 224 254
201 224 254
201 224 254
201 224 254
201 224 254
201 224 254
201 224 254
201 224 254
201 224 254
201 224 254
201 224 254
201 224 254
201 224 254
201 224 254
201 224 254
201 224 254
201 224 254
202 224 254
202 224 254
202 224 254
202 224 254
202 224 254
202 224 254
202 224 254
202 224 254
202 224 254
202 224 254
202 225 254
202 225 254
202 225 254
202 225 254
202 225 254
202 225 254
202 225 254
203 225 254
203 225 254
203 225 254
203 225 254
203 225 254
203 225 254
203 225 254
203 225 254
203 225 254
203 225 254
203 225 254
203 225 254
203 225 254
203 225 254
203 225 254
203 225 254
203 225 254
204 225 254
204 225 254
204 225 254
204 225 254
204 225 254
204 225 254
204 226 254
204 226 254
204 226 254
204 226 254
204 226 254
204 226 254
204 226 254
204 226 254
204 226 254
204 226 254
205 226 254
205 226 254
205 226 254
205 226 254
205 226 254
205 226 254
205 226 254
205 226 254
205 226 254
205 226 254
205 226 254
205 226 254
205 226 254
205 226 254
205 226 254
205 226 254
205 226 254
206 226 254
206 226 254
206 226 254
206 226 254
206 227 254
206 227 254
206 227 254
206 227 254
206 227 254
206 227 254
206 227 254
206 227 254
206 227 254
206 227 254
206 227 254
206 227 254
206 227 254
206 227 254
207 227 254
207 227 254
207 227 254
207 227 254
207 227 254
207 227 254
207 227 254
207 227 254
207 227 254
207 227 254
207 227 254
207 227 254
207 227 254
207 227 254
207 227 254
207 227 254
207 227 254
207 227 254
207 227 254
208 227 254
208 227 254
208 228 254
208 228 254
208 228 254
208 228 254
208 228 254
208 228 254
208 228 254
208 228 254
208 228 254
208 228 254
208 228 254
208 228 254
208 228 254
208 228 254
208 228 254
208 228 254
208 228 254
208 228 254
208 228 254
208 228 254
209 228 254
209 228 254
209 228 254
209 228 254
209 228 254
209 228 254
209 228 254
209 228 254
209 228 254
209 228 254
209 228 254
209 228 254
209 228 254
209 228 254
209 228 254
209 228 254
209 228 254
209 228 254
209 228 254
209 228 254
209 228 254
209 228 254
209 228 254
209 228 254
209 228 254
209 228 254
209 228 254
209 228 254
209 228 254
208 228 254
208 228 254
208 228 254
208 228 254
208 228 254
208 228 254
208 228 254
208 228 254
208 228 254
208 228 254
208 228 254
208 228 254
208 228 254
208 228 254
208 228 254
208 228 254
208 228 254
208 228 254
208 228 254
208 228 254
208 228 254
208 227 254
207 227 254
207 227 254
207 227 254
207 227 254
207 227 254
207 227 254
207 227 254
207 227 254
207 227 254
207 227 254
207 227 254
207 227 254
207 227 254
207 227 254
207 227 254
207 227 254
207 227 254
207 227 254
207 227 254
207 227 254
206 227 254
206 227 254
206 227 254
206 227 254
206 227 254
206 227 254
206 227 254
206 227 254
206 227 254
206 227 254
206 227 254
206 227 254
206 227 254
206 227 254
206 226 254
206 226 254
206 226 254
205 226 254
205 226 254
205 226 254
205 226 254
205 226 254
205 226 254
205 226 254
205 226 254
205 226 254
205 226 254
205 226 254
205 226 254
205 226 254
205 226 254
205 226 254
205 226 254
205 226 254
204 226 254
204 226 254
204 226 254
204 226 254
204 226 254
204 226 254
204 226 254
204 226 254
204 226 254
204 226 254
204 225 254
204 225 254
204 225 254
204 225 254
204 225 254
204 225 254
203 225 254
203 225 254
203 225 254
203 225 254
203 225 254
203 225 254
203 225 254
203 225 254
203 225 254
203 225 254
203 225 254
203 225 254
203 225 254
203 225 254
203 225 254
203 225 254
203 225 254
202 225 254
202 225 254
202 225 254
202 225 254
202 225 254
202 225 254
202 225 254
202 225 254
202 224 254
202 224 254
202 224 254
202 224 254
202 224 254
202 224 254
202 224 254
202 224 254
202 224 254
202 224 254
201 224 254
201 224 254
201 224 254
201 224 254
201 224 254
201 224 254
201 224 254
201 224 254
201 224 254
201 224 254
201 224 254
201 224 254
201 224 254
201 224 254
201 224 254
201 224 254
201 224 254
201 224 254
201 224 254
201 224 254
200 224 254
200 224 254
200 224 254
200 224 254
200 224 254
200 224 254
200 224 254
200 224 254
200 224 254
200 223 254
200 223 254
200 223 254
200 223 254
200 223 254
200 223 254
200 223 254
200 223 254
200 223 254
200 223 254
200 223 254
200 223 254
200 223 254
200 223 254
200 223 254
200 223 254
200 223 254
200 223 254
200 223 254
200 223 254
200 223 254
200 223 254
200 223 254
200 223 254
200 223 254
200 223 254
200 223 254
200 223 254
200 223 254
200 223 254
200 223 254
200 223 254
200 223 254
200 223 254
200 223 254
200 223 254
200 223 254
200 223 254
200 223 254
200 223 254
200 223 254
200 223 254
200 223 254
200 223 254
200 223 254
200 223 254
200 223 254
200 223 254
200 223 254
200 223 254
200 223 254
200 223 254
200 223 254
200 223 254
200 223 254
200 224 254
200 224 254
200 224 254
200 224 254
200 224 254
200 224 254
200 224 254
200 224 254
200 224 254
200 224 254
201 224 254
201 224 254
201 224 254
201 224 254
201 224 254
201 224 254
201 224 254
201 224 254
201 224 254
201 224 254
201 224 254
201 224 254
201 224 254
201 224 254
201 224 254
201 224 254
201 224 254
201 224 254
201 224 254
201 224 254
202 224 254
202 224 254
202 224 254
202 224 254
202 224 254
202 224 254
202 224 254
202 224 254
202 224 254
202 224 254
202 225 254
202 225 254
202 225 254
202 225 254
202 225 254
202 225 254
202 225 254
202 225 254
203 225 254
203 225 254
203 225 254
203 225 254
203 225 254
203 225 254
203 225 254
203 225 254
203 225 254
203 225 254
203 225 254
203 225 254
203 225 254
203 225 254
203 225 254
203 225 254
204 225 254
204 225 254
204 225 254
204 225 254
204 225 254
204 225 254
204 225 254
204 226 254
204 226 254
204 226 254
204 226 254
204 226 254
204 226 254
204 226 254
204 226 254
204 226 254
204 226 254
205 226 254
205 226 254
205 226 254
205 226 254
205 226 254
205 226 254
205 226 254
205 226 254
205 226 254
205 226 254
205 226 254
205 226 254
205 226 254
205 226 254
205 226 254
205 226 254
205 226 254
206 226 254
206 226 254
206 226 254
206 226 254
206 227 254
206 227 254
206 227 254
206 227 254
206 227 254
206 227 254
206 227 254
206 227 254
206 227 254
206 227 254
206 227 254
206 227 254
206 227 254
206 227 254
207 227 254
207 227 254
207 227 254
207 227 254
207 227 254
207 227 254
207 227 254
207 227 254
207 227 254
207 227 254
207 227 254
207 227 254
207 227 254
207 227 254
207 227 254
207 227 254
207 227 254
207 227 254
207 227 254
208 227 254
208 228 254
208 228 254
208 228 254
208 228 254
208 228 254
208 228 254
208 228 254
208 228 254
208 228 254
208 228 254
208 228 254
208 228 254
208 228 254
208 228 254
208 228 254
208 228 254
208 228 254
208 228 254
208 228 254
208 228 254
208 228 254
209 228 254
209 228 254
209 228 254
209 228 254
209 228 254
209 228 254
209 228 254
209 228 254
209 228 254
209 228 254
209 228 254
209 228 254
209 228 254
209 228 254
209 228 254
209 228 254
209 228 254
209 228 254
209 228 254
209 228 254
209 228 254
209 228 254
209 228 254
209 228 254
209 228 254
209 228 254
209 228 254
209 228 254
209 228 254
209 228 254
209 228 254
209 228 254
209 228 254
209 228 254
209 228 254
209 228 254
208 228 254
208 228 254
208 228 254
208 228 254
208 228 254
208 228 254
208 228 254
208 228 254
208 228 254
208 228 254
208 228 254
208 228 254
208 228 254
208 228 254
208 228 254
208 228 254
208 228 254
208 228 254
208 228 254
208 228 254
208 227 254
207 227 254
207 227 254
207 227 254
207 227 254
207 227 254
207 227 254
207 227 254
207 227 254
207 227 254
207 227 254
207 227 254
207 227 254
207 227 254
207 227 254
207 227 254
207 227 254
207 227 254
207 227 254
207 227 254
207 227 254
206 227 254
206 227 254
206 227 254
206 227 254
206 227 254
206 227 254
206 227 254
206 227 254
206 227 254
206 227 254
206 227 254
206 227 254
206 227 254
206 227 254
206 226 254
206 226 254
206 226 254
206 226 254
205 226 254
205 226 254
205 226 254
205 226 254
205 226 254
205 226 254
205 226 254
205 226 254
205 226 254
205 226 254
205 226 254
205 226 254
205 226 254
205 226 254
205 226 254
205 226 254
204 226 254
204 226 254
204 226 254
204 226 254
204 226 254
204 226 254
204 226 254
204 226 254
204 226 254
204 226 254
204 226 254
204 225 254
204 225 254
204 225 254
204 225 254
204 225 254
204 225 254
203 225 254
203 225 254
203 225 254
203 225 254
203 225 254
203 225 254
203 225 254
203 225 254
203 225 254
203 225 254
203 225 254
203 225 254
203 225 254
203 225 254
203 225 254
203 225 254
203 225 254
202 225 254
202 225 254
202 225 254
202 225 254
202 225 254
202 225 254
202 225 254
202 224 254
202 224 254
202 224 254
202 224 254
202 224 254
202 224 254
202 224 254
202 224 254
202 224 254
202 224 254
202 224 254
201 224 254
201 224 254
201 224 254
201 224 254
201 224 254
201 224 254
201 224 254
201 224 254
201 224 254
201 224 254
201 224 254
201 224 254
201 224 254
201 224 254
201 224 254
201 224 254
201 224 254
201 224 254
201 224 254
201 224 254
201 224 254
201 224 254
200 224 254
200 224 254
200 224 254
200 224 254
200 224 254
200 224 254
200 224 254
200 224 254
200 224 254
200 224 254
200 224 254
200 223 254
200 223 254
200 223 254
200 223 254
200 223 254
200 223 254
200 223 254
200 223 254
200 223 254
200 223 254
200 223 254
200 223 254
200 223 254
200 223 254
200 223 254
200 223 254
200 223 254
200 223 254
200 223 254
200 223 254
200 223 254
200 223 254
200 223 254
200 223 254
200 223 254
200 223 254
200 223 254
200 223 254
200 223 254
200 223 254
200 223 254
200 223 254
200 223 254
200 223 254
200 223 254
200 223 254
200 223 254
200 223 254
200 223 254
200 223 254
200 224 254
200 224 254
200 224 254
200 224 254
200 224 254
200 224 254
200 224 254
200 224 254
200 224 254
200 224 254
200 224 254
201 224 254
201 224 254
201 224 254
201 224 254
201 224 254
201 224 254
201 224 254
201 224 254
201 224 254
201 224 254
201 224 254
201 224 254
201 224 254
201 224 254
201 224 254
201 224 254
201 224 254
201 224 254
201 224 254
201 224 254
201 224 254
201 224 254
202 224 254
202 224 254
202 224 254
202 224 254
202 224 254
202 224 254
202 224 254
202 224 254
202 224 254
202 224 254
202 224 254
202 225 254
202 225 254
202 225 254
202 225 254
202 225 254
202 225 254
202 225 254
203 225 254
203 225 254
203 225 254
203 225 254
203 225 254
203 225 254
203 225 254
203 225 254
203 225 254
203 225 254
203 225 254
203 225 254
203 225 254
203 225 254
203 225 254
203 225 254
203 225 254
204 225 254
204 225 254
204 225 254
204 225 254
204 225 254
204 225 254
204 225 254
204 226 254
204 226 254
204 226 254
204 226 254
204 226 254
204 226 254
204 226 254
204 226 254
204 226 254
204 226 254
205 226 254
205 226 254
205 226 254
205 226 254
205 226 254
205 226 254
205 226 254
205 226 254
205 226 254
205 226 254
205 226 254
205 226 254
205 226 254
205 226 254
205 226 254
205 226 254
206 226 254
206 226 254
206 226 254
206 226 254
206 227 254
206 227 254
206 227 254
206 227 254
206 227 254
206 227 254
206 227 254
206 227 254
206 227 254
206 227 254
206 227 254
206 227 254
206 227 254
206 227 254
207 227 254
207 227 254
207 227 254
207 227 254
207 227 254
207 227 254
207 227 254
207 227 254
207 227 254
207 227 254
207 227 254
207 227 254
207 227 254
207 227 254
207 227 254
207 227 254
207 227 254
207 227 254
207 227 254
207 227 254
208 227 254
208 228 254
208 228 254
208 228 254
208 228 254
208 228 254
208 228 254
208 228 254
208 228 254
208 228 254
208 228 254
208 228 254
208 228 254
208 228 254
208 228 254
208 228 254
208 228 254
208 228 254
208 228 254
208 228 254
208 228 254
209 228 254
209 228 254
209 228 254
209 228 254
209 228 254
209 228 254
209 228 254
209 228 254
209 228 254
209 228 254
209 228 254
209 228 254
209 228 254
209 228 254
209 228 254
209 228 254
209 228 254
209 228 254
209 228 254
209 228 254
209 229 254
209 229 254
209 228 254
209 228 254
209 228 254
209 228 254
209 228 254
209 228 254
209 228 254
209 228 254
209 228 254
209 228 254
209 228 254
209 228 254
209 228 254
209 228 254
209 228 254
209 228 254
209 228 254
209 228 254
209 228 254
209 228 254
209 228 254
209 228 254
208 228 254
208 228 254
208 228 254
208 228 254
208 228 254
208 228 254
208 228 254
208 228 254
208 228 254
208 228 254
208 228 254
208 228 254
208 228 254
208 228 254
208 228 254
208 228 254
208 228 254
208 228 254
208 228 254
208 227 254
208 227 254
207 227 254
207 227 254
207 227 254
207 227 254
207 227 254
207 227 254
207 227 254
207 227 254
207 227 254
207 227 254
207 227 254
207 227 254
207 227 254
207 227 254
207 227 254
207 227 254
207 227 254
207 227 254
207 227 254
206 227 254
206 227 254
206 227 254
206 227 254
206 227 254
206 227 254
206 227 254
206 227 254
206 227 254
206 227 254
206 227 254
206 227 254
206 227 254
206 227 254
206 226 254
206 226 254
206 226 254
206 226 254
205 226 254
205 226 254
205 226 254
205 226 254
205 226 254
205 226 254
205 226 254
205 226 254
205 226 254
205 226 254
205 226 254
205 226 254
205 226 254
205 226 254
205 226 254
205 226 254
205 226 254
204 226 254
204 226 254
204 226 254
204 226 254
204 226 254
204 226 254
204 226 254
204 226 254
204 226 254
204 226 254
204 225 254
204 225 254
204 225 254
204 225 254
204 225 254
204 225 254
203 225 254
203 225 254
203 225 254
203 225 254
203 225 254
203 225 254
203 225 254
203 225 254
203 225 254
203 225 254
203 225 254
203 225 254
203 225 254
203 225 254
203 225 254
203 225 254
203 225 254
202 225 254
202 225 254
202 225 254
202 225 254
202 225 254
202 225 254
202 225 254
202 225 254
202 224 254
202 224 254
202 224 254
202 224 254
202 224 254
202 224 254
202 224 254
202 224 254
202 224 254
202 224 254
202 224 254
201 224 254
201 224 254
201 224 254
201 224 254
201 224 254
201 224 254
201 224 254
201 224 254
201 224 254
201 224 254
201 224 254
201 224 254
201 224 254
201 224 254
201 224 254
201 224 254
201 224 254
201 224 254
201 224 254
201 224 254
201 224 254
201 224 254
201 224 254
201 224 254
201 224 254
201 224 254
200 224 254
200 224 254
200 224 254
200 224 254
200 224 254
200 224 254
200 224 254
200 224 254
200 224 254
200 224 254
200 224 254
200 224 254
200 224 254
200 224 254
200 224 254
200 224 254
200 224 254
200 224 254
200 223 254
200 223 254
200 223 254
200 223 254
200 223 254
200 223 254
200 223 254
200 223 254
200 223 254
200 224 254
200 224 254
200 224 254
200 224 254
200 224 254
200 224 254
200 224 254
200 224 254
200 224 254
200 224 254
200 224 254
200 224 254
200 224 254
200 224 254
200 224 254
200 224 254
200 224 254
200 224 254
200 224 254
201 224 254
201 224 254
201 224 254
201 224 254
201 224 254
201 224 254
201 224 254
201 224 254
201 224 254
201 224 254
201 224 254
201 224 254
201 224 254
201 224 254
201 224 254
201 224 254
201 224 254
201 224 254
201 224 254
201 224 254
201 224 254
201 224 254
201 224 254
201 224 254
201 224 254
201 224 254
202 224 254
202 224 254
202 224 254
202 224 254
202 224 254
202 224 254
202 224 254
202 224 254
202 224 254
202 224 254
202 224 254
202 225 254
202 225 254
202 225 254
202 225 254
202 225 254
202 225 254
202 225 254
202 225 254
203 225 254
203 225 254
203 225 254
203 225 254
203 225 254
203 225 254
203 225 254
203 225 254
203 225 254
203 225 254
203 225 254
203 225 254
203 225 254
203 225 254
203 225 254
203 225 254
203 225 254
204 225 254
204 225 254
204 225 254
204 225 254
204 225 254
204 225 254
204 226 254
204 226 254
204 226 254
204 226 254
204 226 254
204 226 254
204 226 254
204 226 254
204 226 254
204 226 254
205 226 254
205 226 254
205 226 254
205 226 254
205 226 254
205 226 254
205 226 254
205 226 254
205 226 254
205 226 254
205 226 254
205 226 254
205 226 254
205 226 254
205 226 254
205 226 254
205 226 254
206 226 254
206 226 254
206 226 254
206 226 254
206 227 254
206 227 254
206 227 254
206 227 254
206 227 254
206 227 254
206 227 254
206 227 254
206 227 254
206 227 254
206 227 254
206 227 254
206 227 254
206 227 254
207 227 254
207 227 254
207 227 254
207 227 254
207 227 254
207 227 254
207 227 254
207 227 254
207 227 254
207 227 254
207 227 254
207 227 254
207 227 254
207 227 254
207 227 254
207 227 254
207 227 254
207 227 254
207 227 254
208 227 254
208 227 254
208 228 254
208 228 254
208 228 254
208 228 254
208 228 254
208 228 254
208 228 254
208 228 254
208 228 254
208 228 254
208 228 254
208 228 254
208 228 254
208 228 254
208 228 254
208 228 254
208 228 254
208 228 254
208 228 254
208 228 254
209 228 254
209 228 254
209 228 254
209 228 254
209 228 254
209 228 254
209 228 254
209 228 254
209 228 254
209 228 254
209 228 254
209 228 254
209 228 254
209 228 254
209 228 254
209 228 254
209 228 254
209 228 254
209 228 254
209 228 254
209 228 254
209 229 254
209 229 254
210 229 254
210 229 254
210 229 254
209 229 254
209 229 254
209 229 254
209 228 254
209 228 254
209 228 254
209 228 254
209 228 254
209 228 254
209 228 254
209 228 254
209 228 254
209 228 254
209 228 254
209 228 254
209 228 254
209 228 254
209 228 254
209 228 254
209 228 254
209 228 254
209 228 254
209 228 254
209 228 254
208 228 254
208 228 254
208 228 254
208 228 254
208 228 254
208 228 254
208 228 254
208 228 254
208 228 254
208 228 254
208 228 254
208 228 254
208 228 254
208 228 254
208 228 254
208 228 254
208 228 254
208 228 254
208 228 254
208 228 254
208 227 254
207 227 254
207 227 254
207 227 254
207 227 254
207 227 254
207 227 254
207 227 254
207 227 254
207 227 254
207 227 254
207 227 254
207 227 254
207 227 254
207 227 254
207 227 254
207 227 254
207 227 254
207 227 254
207 227 254
206 227 254
206 227 254
206 227 254
206 227 254
206 227 254
206 227 254
206 227 254
206 227 254
206 227 254
206 227 254
206 227 254
206 227 254
206 227 254
206 227 254
206 226 254
206 226 254
206 226 254
206 226 254
205 226 254
205 226 254
205 226 254
205 226 254
205 226 254
205 226 254
205 226 254
205 226 254
205 226 254
205 226 254
205 226 254
205 226 254
205 226 254
205 226 254
205 226 254
205 226 254
205 226 254
204 226 254
204 226 254
204 226 254
204 226 254
204 226 254
204 226 254
204 226 254
204 226 254
204 226 254
204 226 254
204 225 254
204 225 254
204 225 254
204 225 254
204 225 254
204 225 254
204 225 254
203 225 254
203 225 254
203 225 254
203 225 254
203 225 254
203 225 254
203 225 254
203 225 254
203 225 254
203 225 254
203 225 254
203 225 254
203 225 254
203 225 254
203 225 254
203 225 254
203 225 254
202 225 254
202 225 254
202 225 254
202 225 254
202 225 254
202 225 254
202 225 254
202 225 254
202 225 254
202 224 254
202 224 254
202 224 254
202 224 254
202 224 254
202 224 254
202 224 254
202 224 254
202 224 254
202 224 254
201 224 254
201 224 254
201 224 254
201 224 254
201 224 254
201 224 254
201 224 254
201 224 254
201 224 254
201 224 254
201 224 254
201 224 254
201 224 254
201 224 254
201 224 254
201 224 254
201 224 254
201 224 254
201 224 254
201 224 254
201 224 254
201 224 254
201 224 254
201 224 254
201 224 254
201 224 254
201 224 254
201 224 254
201 224 254
201 224 254
201 224 254
201 224 254
200 224 254
200 224 254
200 224 254
200 224 254
200 224 254
200 224 254
200 224 254
200 224 254
200 224 254
200 224 254
200 224 254
200 224 254
200 224 254
200 224 254
200 224 254
200 224 254
200 224 254
200 224 254
200 224 254
200 224 254
200 224 254
200 224 254
200 224 254
200 224 254
200 224 254
200 224 254
201 224 254
201 224 254
201 224 254
201 224 254
201 224 254
201 224 254
201 224 254
201 224 254
201 224 254
201 224 254
201 224 254
201 224 254
201 224 254
201 224 254
201 224 254
201 224 254
201 224 254
201 224 254
201 224 254
201 224 254
201 224 254
201 224 254
201 224 254
201 224 254
201 224 254
201 224 254
201 224 254
201 224 254
201 224 254
201 224 254
201 224 254
201 224 254
202 224 254
202 224 254
202 224 254
202 224 254
202 224 254
202 224 254
202 224 254
202 224 254
202 224 254
202 224 254
202 224 254
202 225 254
202 225 254
202 225 254
202 225 254
202 225 254
202 225 254
202 225 254
202 225 254
203 225 254
203 225 254
203 225 254
203 225 254
203 225 254
203 225 254
203 225 254
203 225 254
203 225 254
203 225 254
203 225 254
203 225 254
203 225 254
203 225 254
203 225 254
203 225 254
203 225 254
204 225 254
204 225 254
204 225 254
204 225 254
204 225 254
204 225 254
204 225 254
204 226 254
204 226 254
204 226 254
204 226 254
204 226 254
204 226 254
204 226 254
204 226 254
204 226 254
204 226 254
205 226 254
205 226 254
205 226 254
205 226 254
205 226 254
205 226 254
205 226 254
205 226 254
205 226 254
205 226 254
205 226 254
205 226 254
205 226 254
205 226 254
205 226 254
205 226 254
205 226 254
206 226 254
206 226 254
206 226 254
206 226 254
206 227 254
206 227 254
206 227 254
206 227 254
206 227 254
206 227 254
206 227 254
206 227 254
206 227 254
206 227 254
206 227 254
206 227 254
206 227 254
206 227 254
207 227 254
207 227 254
207 227 254
207 227 254
207 227 254
207 227 254
207 227 254
207 227 254
207 227 254
207 227 254
207 227 254
207 227 254
207 227 254
207 227 254
207 227 254
207 227 254
207 227 254
207 227 254
207 227 254
208 227 254
208 228 254
208 228 254
208 228 254
208 228 254
208 228 254
208 228 254
208 228 254
208 228 254
208 228 254
208 228 254
208 228 254
208 228 254
208 228 254
208 228 254
208 228 254
208 228 254
208 228 254
208 228 254
208 228 254
208 228 254
209 228 254
209 228 254
209 228 254
209 228 254
209 228 254
209 228 254
209 228 254
209 228 254
209 228 254
209 228 254
209 228 254
209 228 254
209 228 254
209 228 254
209 228 254
209 228 254
209 228 254
209 228 254
209 228 254
209 228 254
209 228 254
209 229 254
209 229 254
209 229 254
210 229 254
210 229 254
210 229 254
210 229 254
210 229 254
210 229 254
210 229 254
210 229 254
210 229 254
210 229 254
209 229 254
209 229 254
209 229 254
209 228 254
209 228 254
209 228 254
209 228 254
209 228 254
209 228 254
209 228 254
209 228 254
209 228 254
209 228 254
209 228 254
209 228 254
209 228 254
209 228 254
209 228 254
209 228 254
209 228 254
209 228 254
209 228 254
209 228 254
209 228 254
208 228 254
208 228 254
208 228 254
208 228 254
208 228 254
208 228 254
208 228 254
208 228 254
208 228 254
208 228 254
208 228 254
208 228 254
208 228 254
208 228 254
208 228 254
208 228 254
208 228 254
208 228 254
208 228 254
208 227 254
208 227 254
207 227 254
207 227 254
207 227 254
207 227 254
207 227 254
207 227 254
207 227 254
207 227 254
207 227 254
207 227 254
207 227 254
207 227 254
207 227 254
207 227 254
207 227 254
207 227 254
207 227 254
207 227 254
207 227 254
206 227 254
206 227 254
206 227 254
206 227 254
206 227 254
206 227 254
206 227 254
206 227 254
206 227 254
206 227 254
206 227 254
206 227 254
206 227 254
206 226 254
206 226 254
206 226 254
206 226 254
206 226 254
205 226 254
205 226 254
205 226 254
205 226 254
205 226 254
205 226 254
205 226 254
205 226 254
205 226 254
205 226 254
205 226 254
205 226 254
205 226 254
205 226 254
205 226 254
205 226 254
204 226 254
204 226 254
204 226 254
204 226 254
204 226 254
204 226 254
204 226 254
204 226 254
204 226 254
204 226 254
204 226 254
204 225 254
204 225 254
204 225 254
204 225 254
204 225 254
204 225 254
203 225 254
203 225 254
203 225 254
203 225 254
203 225 254
203 225 254
203 225 254
203 225 254
203 225 254
203 225 254
203 225 254
203 225 254
203 225 254
203 225 254
203 225 254
203 225 254
203 225 254
203 225 254
202 225 254
202 225 254
202 225 254
202 225 254
202 225 254
202 225 254
202 225 254
202 225 254
202 225 254
202 224 254
202 224 254
202 224 254
202 224 254
202 224 254
202 224 254
202 224 254
202 224 254
202 224 254
202 224 254
202 224 254
202 224 254
201 224 254
201 224 254
201 224 254
201 224 254
201 224 254
201 224 254
201 224 254
201 224 254
201 224 254
201 224 254
201 224 254
201 224 254
201 224 254
201 224 254
201 224 254
201 224 254
201 224 254
201 224 254
201 224 254
201 224 254
201 224 254
201 224 254
201 224 254
201 224 254
201 224 254
201 224 254
201 224 254
201 224 254
201 224 254
201 224 254
201 224 254
201 224 254
201 224 254
201 224 254
201 224 254
201 224 254
201 224 254
201 224 254
201 224 254
201 224 254
201 224 254
201 224 254
201 224 254
201 224 254
201 224 254
201 224 254
201 224 254
201 224 254
201 224 254
201 224 254
201 224 254
201 224 254
201 224 254
201 224 254
201 224 254
201 224 254
201 224 254
201 224 254
201 224 254
201 224 254
201 224 254
201 224 254
201 224 254
201 224 254
201 224 254
201 224 254
201 224 254
201 224 254
201 224 254
201 224 254
201 224 254
201 224 254
201 224 254
201 224 254
201 224 254
201 224 254
201 224 254
201 224 254
202 224 254
202 224 254
202 224 254
202 224 254
202 224 254
202 224 254
202 224 254
202 224 254
202 224 254
202 224 254
202 224 254
202 224 254
202 225 254
202 225 254
202 225 254
202 225 254
202 225 254
202 225 254
202 225 254
202 225 254
202 225 254
203 225 254
203 225 254
203 225 254
203 225 254
203 225 254
203 225 254
203 225 254
203 225 254
203 225 254
203 225 254
203 225 254
203 225 254
203 225 254
203 225 254
203 225 254
203 225 254
203 225 254
203 225 254
204 225 254
204 225 254
204 225 254
204 225 254
204 225 254
204 225 254
204 226 254
204 226 254
204 226 254
204 226 254
204 226 254
204 226 254
204 226 254
204 226 254
204 226 254
204 226 254
205 226 254
205 226 254
205 226 254
205 226 254
205 226 254
205 226 254
205 226 254
205 226 254
205 226 254
205 226 254
205 226 254
205 226 254
205 226 254
205 226 254
205 226 254
205 226 254
205 226 254
205 226 254
206 226 254
206 226 254
206 226 254
206 226 254
206 227 254
206 227 254
206 227 254
206 227 254
206 227 254
206 227 254
206 227 254
206 227 254
206 227 254
206 227 254
206 227 254
206 227 254
206 227 254
207 227 254
207 227 254
207 227 254
207 227 254
207 227 254
207 227 254
207 227 254
207 227 254
207 227 254
207 227 254
207 227 254
207 227 254
207 227 254
207 227 254
207 227 254
207 227 254
207 227 254
207 227 254
207 227 254
208 227 254
208 227 254
208 228 254
208 228 254
208 228 254
208 228 254
208 228 254
208 228 254
208 228 254
208 228 254
208 228 254
208 228 254
208 228 254
208 228 254
208 228 254
208 228 254
208 228 254
208 228 254
208 228 254
208 228 254
208 228 254
209 228 254
209 228 254
209 228 254
209 228 254
209 228 254
209 228 254
209 228 254
209 228 254
209 228 254
209 228 254
209 228 254
209 228 254
209 228 254
209 228 254
209 228 254
209 228 254
209 228 254
209 228 254
209 228 254
209 228 254
209 228 254
209 229 254
209 229 254
209 229 254
210 229 254
210 229 254
210 229 254
210 229 254
210 229 254
210 229 254
210 229 254
210 229 254
210 229 254
210 229 254
210 229 254
210 229 254
210 229 254
210 229 254
210 229 254
210 229 254
210 229 254
210 229 254
209 229 254
209 229 254
209 229 254
209 228 254
209 228 254
209 228 254
209 228 254
209 228 254
209 228 254
209 228 254
209 228 254
209 228 254
209 228 254
209 228 254
209 228 254
209 228 254
209 228 254
209 228 254
209 228 254
209 228 254
209 228 254
209 228 254
209 228 254
208 228 254
208 228 254
208 228 254
208 228 254
208 228 254
208 228 254
208 228 254
208 228 254
208 228 254
208 228 254
208 228 254
208 228 254
208 228 254
208 228 254
208 228 254
208 228 254
208 228 254
208 228 254
208 228 254
208 228 254
208 227 254
207 227 254
207 227 254
207 227 254
207 227 254
207 227 254
207 227 254
207 227 254
207 227 254
207 227 254
207 227 254
207 227 254
207 227 254
207 227 254
207 227 254
207 227 254
207 227 254
207 227 254
207 227 254
207 227 254
206 227 254
206 227 254
206 227 254
206 227 254
206 227 254
206 227 254
206 227 254
206 227 254
206 227 254
206 227 254
206 227 254
206 227 254
206 227 254
206 227 254
206 226 254
206 226 254
206 226 254
206 226 254
205 226 254
205 226 254
205 226 254
205 226 254
205 226 254
205 226 254
205 226 254
205 226 254
205 226 254
205 226 254
205 226 254
205 226 254
205 226 254
205 226 254
205 226 254
205 226 254
205 226 254
204 226 254
204 226 254
204 226 254
204 226 254
204 226 254
204 226 254
204 226 254
204 226 254
204 226 254
204 226 254
204 225 254
204 225 254
204 225 254
204 225 254
204 225 254
204 225 254
204 225 254
203 225 254
203 225 254
203 225 254
203 225 254
203 225 254
203 225 254
203 225 254
203 225 254
203 225 254
203 225 254
203 225 254
203 225 254
203 225 254
203 225 254
203 225 254
203 225 254
203 225 254
203 225 254
202 225 254
202 225 254
202 225 254
202 225 254
202 225 254
202 225 254
202 225 254
202 225 254
202 225 254
202 224 254
202 224 254
202 224 254
202 224 254
202 224 254
202 224 254
202 224 254
202 224 254
202 224 254
202 224 254
202 224 254
202 224 254
202 224 254
202 224 254
201 224 254
201 224 254
201 224 254
201 224 254
201 224 254
201 224 254
201 224 254
201 224 254
201 224 254
201 224 254
201 224 254
201 224 254
201 224 254
201 224 254
201 224 254
201 224 254
201 224 254
201 224 254
201 224 254
201 224 254
201 224 254
201 224 254
201 224 254
201 224 254
201 224 254
201 224 254
201 224 254
201 224 254
201 224 254
201 224 254
201 224 254
201 224 254
201 224 254
201 224 254
201 224 254
201 224 254
201 224 254
201 224 254
201 224 254
201 224 254
201 224 254
201 224 254
201 224 254
201 224 254
201 224 254
201 224 254
201 224 254
201 224 254
201 224 254
201 224 254
201 224 254
201 224 254
201 224 254
201 224 254
201 224 254
201 224 254
201 224 254
201 224 254
201 224 254
201 224 254
201 224 254
201 224 254
201 224 254
201 224 254
201 224 254
201 224 254
202 224 254
202 224 254
202 224 254
202 224 254
202 224 254
202 224 254
202 224 254
202 224 254
202 224 254
202 224 254
202 224 254
202 224 254
202 224 254
202 225 254
202 225 254
202 225 254
202 225 254
202 225 254
202 225 254
202 225 254
202 225 254
202 225 254
202 225 254
203 225 254
203 225 254
203 225 254
203 225 254
203 225 254
203 225 254
203 225 254
203 225 254
203 225 254
203 225 254
203 225 254
203 225 254
203 225 254
203 225 254
203 225 254
203 225 254
203 225 254
203 225 254
204 225 254
204 225 254
204 225 254
204 225 254
204 225 254
204 225 254
204 225 254
204 226 254
204 226 254
204 226 254
204 226 254
204 226 254
204 226 254
204 226 254
204 226 254
204 226 254
204 226 254
205 226 254
205 226 254
205 226 254
205 226 254
205 226 254
205 226 254
205 226 254
205 226 254
205 226 254
205 226 254
205 226 254
205 226 254
205 226 254
205 226 254
205 226 254
205 226 254
205 226 254
206 226 254
206 226 254
206 226 254
206 226 254
206 227 254
206 227 254
206 227 254
206 227 254
206 227 254
206 227 254
206 227 254
206 227 254
206 227 254
206 227 254
206 227 254
206 227 254
206 227 254
206 227 254
207 227 254
207 227 254
207 227 254
207 227 254
207 227 254
207 227 254
207 227 254
207 227 254
207 227 254
207 227 254
207 227 254
207 227 254
207 227 254
207 227 254
207 227 254
207 227 254
207 227 254
207 227 254
207 227 254
208 227 254
208 228 254
208 228 254
208 228 254
208 228 254
208 228 254
208 228 254
208 228 254
208 228 254
208 228 254
208 228 254
208 228 254
208 228 254
208 228 254
208 228 254
208 228 254
208 228 254
208 228 254
208 228 254
208 228 254
208 228 254
209 228 254
209 228 254
209 228 254
209 228 254
209 228 254
209 228 254
209 228 254
209 228 254
209 228 254
209 228 254
209 228 254
209 228 254
209 228 254
209 228 254
209 228 254
209 228 254
209 228 254
209 228 254
209 228 254
209 228 254
209 229 254
209 229 254
209 229 254
210 229 254
210 229 254
210 229 254
210 229 254
210 229 254
210 229 254
210 229 254
210 229 254
210 229 254
210 229 254
210 229 254
210 229 254
210 229 254
210 229 254
210 229 254
210 229 254
210 229 254
210 229 254
210 229 254
210 229 254
210 229 254
210 229 254
210 229 254
210 229 254
210 229 254
210 229 254
209 229 254
209 229 254
209 229 254
209 228 254
209 228 254
209 228 254
209 228 254
209 228 254
209 228 254
209 228 254
209 228 254
209 228 254
209 228 254
209 228 254
209 228 254
209 228 254
209 228 254
209 228 254
209 228 254
209 228 254
209 228 254
209 228 254
209 228 254
208 228 254
208 228 254
209 228 254
208 228 254
208 227 253
208 228 254
208 228 253
208 228 254
208 227 251
207 227 253
208 228 254
208 228 254
208 227 253
207 227 252
207 227 254
208 227 253
207 227 254
208 227 253
208 228 254
208 228 254
208 228 254
207 227 254
207 227 254
208 227 254
207 227 254
207 227 254
207 227 254
207 227 254
207 227 254
207 227 254
207 227 254
207 227 254
207 227 254
207 227 254
207 227 254
207 227 254
207 227 254
207 227 254
207 227 254
207 227 254
206 227 254
206 227 254
206 227 254
206 227 254
206 227 254
206 227 254
206 227 254
206 227 254
206 227 254
206 227 254
206 227 254
206 227 254
206 227 254
206 226 254
206 226 254
206 226 254
206 226 254
205 226 254
205 226 254
205 226 254
205 226 254
205 226 254
205 226 254
205 226 254
205 226 254
205 226 254
205 226 254
205 226 254
205 226 254
205 226 254
205 226 254
205 226 254
205 226 254
205 226 254
204 226 254
204 226 254
204 226 254
204 226 254
204 226 254
204 226 254
204 226 254
204 226 254
204 226 254
204 226 254
204 226 254
204 225 254
204 225 254
204 225 254
204 225 254
204 225 254
204 225 254
204 225 254
203 225 254
203 225 254
203 225 254
203 225 254
203 225 254
203 225 254
203 225 254
203 225 254
203 225 254
203 225 254
203 225 254
203 225 254
203 225 254
203 225 254
203 225 254
203 225 254
203 225 254
203 225 254
203 225 254
202 225 254
202 225 254
202 225 254
202 225 254
202 225 254
202 225 254
202 225 254
202 225 254
202 225 254
202 224 254
202 224 254
202 224 254
202 224 254
202 224 254
202 224 254
202 224 254
202 224 254
202 224 254
202 224 254
202 224 254
202 224 254
202 224 254
202 224 254
202 224 254
201 224 254
201 224 254
201 224 254
201 224 254
201 224 254
201 224 254
201 224 254
201 224 254
201 224 254
201 224 254
201 224 254
201 224 254
201 224 254
201 224 254
201 224 254
201 224 254
201 224 254
201 224 254
201 224 254
201 224 254
201 224 254
201 224 254
201 224 254
201 224 254
201 224 254
201 224 254
201 224 254
201 224 254
201 224 254
201 224 254
201 224 254
201 224 254
201 224 254
201 224 254
201 224 254
201 224 254
201 224 254
201 224 254
201 224 254
201 224 254
201 224 254
201 224 254
201 224 254
201 224 254
201 224 254
201 224 254
201 224 254
201 224 254
201 224 254
201 224 254
201 224 254
201 224 254
201 224 254
201 224 254
202 224 254
202 224 254
202 224 254
202 224 254
202 224 254
202 224 254
202 224 254
202 224 254
202 224 254
202 224 254
202 224 254
202 224 254
202 224 254
202 224 254
202 224 254
202 225 254
202 225 254
202 225 254
202 225 254
202 225 254
202 225 254
202 225 254
202 225 254
202 225 254
203 225 254
203 225 254
203 225 254
203 225 254
203 225 254
203 225 254
203 225 254
203 225 254
203 225 254
203 225 254
203 225 254
203 225 254
203 225 254
203 225 254
203 225 254
203 225 254
203 225 254
203 225 254
203 225 254
204 225 254
204 225 254
204 225 254
204 225 254
204 225 254
204 225 254
204 225 254
204 226 254
204 226 254
204 226 254
204 226 254
204 226 254
204 226 254
204 226 254
204 226 254
204 226 254
204 226 254
205 226 254
205 226 254
205 226 254
205 226 254
205 226 254
205 226 254
205 226 254
205 226 254
205 226 254
205 226 254
205 226 254
205 226 254
205 226 254
205 226 254
205 226 254
205 226 254
205 226 254
205 226 254
206 226 254
206 226 254
206 226 254
206 226 254
206 227 254
206 227 254
206 227 254
206 227 254
206 227 254
206 227 254
206 227 254
206 227 254
206 227 254
206 227 254
206 227 254
206 227 254
206 227 254
206 227 254
207 227 254
207 227 254
207 227 254
207 227 254
207 227 254
207 227 254
207 227 254
207 227 254
207 227 254
207 227 254
207 227 254
207 227 254
207 227 254
207 227 254
207 227 254
207 227 254
201 219 247
198 215 247
193 209 240
193 208 241
191 204 241
188 200 239
187 200 236
186 199 236
176 184 230
179 189 229
182 189 239
181 193 230
181 191 233
182 194 232
188 198 241
186 199 236
197 212 245
190 203 241
193 208 241
196 211 243
201 218 249
206 225 253
208 228 254
209 228 254
209 228 254
209 228 254
209 228 254
209 228 254
209 228 254
209 228 254
209 228 254
209 228 254
209 228 254
209 228 254
209 228 254
209 228 254
209 228 254
209 228 254
209 228 254
209 228 254
209 228 254
209 228 254
209 228 254
209 228 254
209 229 254
209 229 254
210 229 254
210 229 254
210 229 254
210 229 254
210 229 254
210 229 254
210 229 254
210 229 254
210 229 254
210 229 254
210 229 254
210 229 254
210 229 254
210 229 254
210 229 254
210 229 254
210 229 254
210 229 254
210 229 254
210 229 254
210 229 254
210 229 254
210 229 254
210 229 254
210 229 254
210 229 254
210 229 254
210 229 254
210 229 254
210 229 254
210 229 254
210 229 254
210 229 254
210 229 254
209 229 254
209 229 254
209 228 254
209 228 254
209 228 254
209 228 254
209 228 254
209 228 254
209 228 254
209 228 254
209 228 254
209 228 254
209 228 254
210 229 254
209 228 252
208 228 253
208 227 253
209 228 253
209 228 253
207 227 252
208 228 254
207 227 252
208 228 253
208 227 251
208 227 252
208 228 253
206 226 251
207 227 252
208 228 253
205 225 247
208 227 253
206 226 249
206 226 249
206 226 252
206 226 252
206 226 252
209 228 253
206 226 253
207 227 254
205 226 249
207 227 253
207 227 253
205 226 252
207 227 253
207 227 253
206 226 252
207 227 252
207 227 252
207 227 253
207 227 254
207 227 254
207 227 254
207 227 254
207 227 254
207 227 254
207 227 254
207 227 254
207 227 254
207 227 254
207 227 254
207 227 254
207 227 254
206 227 254
206 227 254
206 227 254
206 227 254
206 227 254
206 227 254
206 227 254
206 227 254
206 227 254
206 227 254
206 227 254
206 227 254
206 227 254
206 227 254
206 226 254
206 226 254
206 226 254
206 226 254
205 226 254
205 226 254
205 226 254
205 226 254
205 226 254
205 226 254
205 226 254
205 226 254
205 226 254
205 226 254
205 226 254
205 226 254
205 226 254
205 226 254
205 226 254
205 226 254
205 226 254
204 226 254
204 226 254
204 226 254
204 226 254
204 226 254
204 226 254
204 226 254
204 226 254
204 226 254
204 226 254
204 226 254
204 225 254
204 225 254
204 225 254
204 225 254
204 225 254
204 225 254
204 225 254
203 225 254
203 225 254
203 225 254
203 225 254
203 225 254
203 225 254
203 225 254
203 225 254
203 225 254
203 225 254
203 225 254
203 225 254
203 225 254
203 225 254
203 225 254
203 225 254
203 225 254
203 225 254
203 225 254
202 225 254
202 225 254
202 225 254
202 225 254
202 225 254
202 225 254
202 225 254
202 225 254
202 225 254
202 225 254
202 225 254
202 224 254
202 224 254
202 224 254
202 224 254
202 224 254
202 224 254
202 224 254
202 224 254
202 224 254
202 224 254
202 224 254
202 224 254
202 224 254
202 224 254
202 224 254
202 224 254
202 224 254
202 224 254
201 224 254
201 224 254
201 224 254
201 224 254
201 224 254
201 224 254
201 224 254
201 224 254
201 224 254
201 224 254
201 224 254
201 224 254
201 224 254
201 224 254
201 224 254
201 224 254
201 224 254
201 224 254
201 224 254
201 224 254
201 224 254
201 224 254
201 224 254
201 224 254
201 224 254
201 224 254
201 224 254
201 224 254
201 224 254
201 224 254
201 224 254
201 224 254
201 224 254
201 224 254
201 224 254
201 224 254
202 224 254
202 224 254
202 224 254
202 224 254
202 224 254
202 224 254
202 224 254
202 224 254
202 224 254
202 224 254
202 224 254
202 224 254
202 224 254
202 224 254
202 224 254
202 224 254
202 224 254
202 224 254
202 225 254
202 225 254
202 225 254
202 225 254
202 225 254
202 225 254
202 225 254
202 225 254
202 225 254
202 225 254
202 225 254
203 225 254
203 225 254
203 225 254
203 225 254
203 225 254
203 225 254
203 225 254
203 225 254
203 225 254
203 225 254
203 225 254
203 225 254
203 225 254
203 225 254
203 225 254
203 225 254
203 225 254
203 225 254
203 225 254
204 225 254
204 225 254
204 225 254
204 225 254
204 225 254
204 225 254
204 225 254
204 226 254
204 226 254
204 226 254
204 226 254
204 226 254
204 226 254
204 226 254
204 226 254
204 226 254
204 226 254
204 226 254
205 226 254
205 226 254
205 226 254
205 226 254
205 226 254
205 226 254
205 226 254
205 226 254
205 226 254
205 226 254
205 226 254
205 226 254
205 226 254
205 226 254
205 226 254
205 226 254
205 226 254
206 226 254
206 226 254
206 226 254
206 226 254
206 227 254
206 227 254
206 227 254
206 227 254
206 227 254
206 227 254
206 227 254
206 227 254
206 227 254
206 227 254
206 227 254
206 227 254
206 227 254
206 227 254
207 227 254
207 227 254
207 227 254
207 227 254
207 227 254
207 227 254
207 227 254
207 227 254
207 227 254
207 227 254
204 224 252
196 214 244
191 206 241
184 196 236
175 184 228
175 181 235
160 163 219
160 161 222
164 161 230
158 153 226
166 161 237
150 146 216
163 159 235
167 162 239
164 160 236
159 155 229
164 160 236
166 161 239
159 154 228
166 161 239
168 163 241
172 167 247
166 161 237
166 161 237
165 160 237
168 163 240
164 159 235
167 161 237
157 152 225
165 160 235
162 157 232
153 148 217
157 151 220
164 162 226
167 168 226
163 166 217
167 170 220
181 187 237
189 201 239
192 205 241
198 213 245
205 223 251
209 228 254
209 228 254
209 228 254
209 228 254
209 228 254
209 228 254
209 228 254
209 228 254
209 229 254
209 229 254
210 229 254
210 229 254
210 229 254
210 229 254
210 229 254
210 229 254
210 229 254
210 229 254
210 229 254
210 229 254
210 229 254
210 229 254
210 229 254
210 229 254
210 229 254
210 229 254
210 229 254
210 229 254
210 229 254
210 229 254
210 229 254
210 229 254
210 229 254
210 229 254
210 229 254
210 229 254
210 229 254
210 229 254
210 229 254
210 229 254
210 229 254
210 229 254
210 229 254
210 229 254
210 229 254
210 229 254
210 229 254
210 229 254
210 229 254
210 229 254
210 229 254
210 229 254
210 229 254
210 229 254
209 229 254
209 228 253
209 229 254
209 228 253
209 228 253
208 228 252
207 227 252
209 228 253
208 228 254
208 228 253
208 227 252
206 227 251
207 227 252
206 226 251
206 226 251
205 226 252
206 226 249
205 226 252
206 226 251
205 226 252
207 227 253
205 226 252
205 226 253
205 226 251
206 226 253
206 226 253
205 226 251
206 226 253
205 226 251
206 226 252
205 226 253
203 225 249
204 225 247
203 225 251
203 224 248
205 226 253
205 226 249
204 225 252
206 227 252
206 226 249
204 225 252
206 227 253
206 226 249
207 227 251
206 226 252
206 226 251
208 227 253
207 227 254
207 227 254
207 227 254
207 227 254
207 227 254
207 227 254
207 227 254
207 227 254
207 227 254
207 227 254
207 227 254
207 227 254
207 227 254
206 227 254
206 227 254
206 227 254
206 227 254
206 227 254
206 227 254
206 227 254
206 227 254
206 227 254
206 227 254
206 227 254
206 227 254
206 227 254
206 226 254
206 226 254
206 226 254
206 226 254
206 226 254
205 226 254
205 226 254
205 226 254
205 226 254
205 226 254
205 226 254
205 226 254
205 226 254
205 226 254
205 226 254
205 226 254
205 226 254
205 226 254
205 226 254
205 226 254
205 226 254
205 226 254
204 226 254
204 226 254
204 226 254
204 226 254
204 226 254
204 226 254
204 226 254
204 226 254
204 226 254
204 226 254
204 225 254
204 225 254
204 225 254
204 225 254
204 225 254
204 225 254
204 225 254
204 225 254
203 225 254
203 225 254
203 225 254
203 225 254
203 225 254
203 225 254
203 225 254
203 225 254
203 225 254
203 225 254
203 225 254
203 225 254
203 225 254
203 225 254
203 225 254
203 225 254
203 225 254
203 225 254
203 225 254
203 225 254
202 225 254
202 225 254
202 225 254
202 225 254
202 225 254
202 225 254
202 225 254
202 225 254
202 225 254
202 225 254
202 225 254
202 225 254
202 224 254
202 224 254
202 224 254
202 224 254
202 224 254
202 224 254
202 224 254
202 224 254
202 224 254
202 224 254
202 224 254
202 224 254
202 224 254
202 224 254
202 224 254
202 224 254
202 224 254
202 224 254
202 224 254
202 224 254
202 224 254
202 224 254
202 224 254
202 224 254
202 224 254
202 224 254
202 224 254
202 224 254
202 224 254
202 224 254
202 224 254
202 224 254
202 224 254
202 224 254
202 224 254
202 224 254
202 224 254
202 224 254
202 224 254
202 224 254
202 224 254
202 224 254
202 224 254
202 224 254
202 224 254
202 224 254
202 224 254
202 224 254
202 224 254
202 224 254
202 224 254
202 224 254
202 224 254
202 224 254
202 224 254
202 224 254
202 224 254
202 224 254
202 224 254
202 224 254
202 225 254
202 225 254
202 225 254
202 225 254
202 225 254
202 225 254
202 225 254
202 225 254
202 225 254
202 225 254
202 225 254
202 225 254
203 225 254
203 225 254
203 225 254
203 225 254
203 225 254
203 225 254
203 225 254
203 225 254
203 225 254
203 225 254
203 225 254
203 225 254
203 225 254
203 225 254
203 225 254
203 225 254
203 225 254
203 225 254
203 225 254
203 225 254
204 225 254
204 225 254
204 225 254
204 225 254
204 225 254
204 225 254
204 225 254
204 225 254
204 226 254
204 226 254
204 226 254
204 226 254
204 226 254
204 226 254
204 226 254
204 226 254
204 226 254
204 226 254
205 226 254
205 226 254
205 226 254
205 226 254
205 226 254
205 226 254
205 226 254
205 226 254
205 226 254
205 226 254
205 226 254
205 226 254
205 226 254
205 226 254
205 226 254
205 226 254
205 226 254
205 226 254
206 226 254
206 226 254
206 226 254
206 226 254
206 227 254
206 227 254
206 227 254
206 227 254
206 227 254
206 227 254
206 227 254
206 227 254
206 227 254
206 227 254
206 227 254
206 227 254
206 227 254
207 227 254
207 227 254
207 227 254
207 227 254
207 227 254
207 227 254
207 227 254
207 227 254
204 222 252
192 206 243
190 203 244
174 180 230
163 166 222
164 163 230
156 152 225
168 164 243
163 159 236
170 166 247
170 165 245
170 167 248
172 169 251
174 170 253
173 169 252
168 165 247
173 169 252
173 169 252
174 171 254
174 170 253
174 170 253
174 171 254
174 171 254
174 171 254
174 170 253
174 171 254
174 170 253
175 171 254
174 170 253
174 170 253
172 168 249
175 171 253
176 172 254
174 170 252
172 167 248
175 170 252
171 167 247
174 169 249
169 164 243
170 165 244
170 165 244
170 164 243
168 163 240
164 158 233
160 155 229
164 158 232
160 154 226
155 150 219
153 151 210
170 172 226
171 177 223
185 196 233
193 207 240
204 222 248
209 229 254
210 229 254
210 229 254
210 229 254
210 229 254
210 229 254
210 229 254
210 229 254
210 229 254
210 229 254
210 229 254
210 229 254
210 229 254
210 229 254
210 229 254
210 229 254
210 229 254
210 229 254
210 229 254
210 229 254
210 229 254
210 229 254
210 229 254
210 229 254
210 229 254
210 229 254
210 229 254
210 229 254
210 229 254
210 229 254
210 229 254
210 229 254
210 229 254
210 229 254
210 229 254
210 229 254
210 229 254
210 229 254
210 229 254
210 229 254
210 229 254
210 229 254
210 229 254
210 229 254
209 228 253
209 228 253
209 228 252
208 228 253
209 228 254
209 228 253
209 228 253
206 226 247
207 227 252
209 228 253
208 227 253
206 226 252
207 226 248
204 225 247
205 226 254
206 226 253
207 227 254
206 227 254
205 226 254
205 226 253
205 226 253
205 226 253
203 225 253
204 225 254
203 225 253
205 226 254
205 226 253
204 225 254
205 226 254
203 225 254
203 225 254
204 226 254
203 225 254
203 225 254
203 225 254
203 225 253
202 224 253
204 225 254
204 226 254
204 225 254
204 225 253
203 225 253
204 225 253
202 224 251
203 225 253
204 225 253
203 225 249
203 225 249
205 226 254
204 225 253
204 225 251
205 226 252
205 226 248
207 227 249
205 226 251
205 226 252
206 226 251
205 226 253
207 227 254
207 227 252
207 227 254
207 227 254
207 227 254
207 227 254
207 227 254
207 227 254
207 227 254
206 227 254
206 227 254
206 227 254
206 227 254
206 227 254
206 227 254
206 227 254
206 227 254
206 227 254
206 227 254
206 227 254
206 227 254
206 227 254
206 227 254
206 226 254
206 226 254
206 226 254
206 226 254
205 226 254
205 226 254
205 226 254
205 226 254
205 226 254
205 226 254
205 226 254
205 226 254
205 226 254
205 226 254
205 226 254
205 226 254
205 226 254
205 226 254
205 226 254
205 226 254
205 226 254
205 226 254
204 226 254
204 226 254
204 226 254
204 226 254
204 226 254
204 226 254
204 226 254
204 226 254
204 226 254
204 226 254
204 226 254
204 225 254
204 225 254
204 225 254
204 225 254
204 225 254
204 225 254
204 225 254
203 225 254
203 225 254
203 225 254
203 225 254
203 225 254
203 225 254
203 225 254
203 225 254
203 225 254
203 225 254
203 225 254
203 225 254
203 225 254
203 225 254
203 225 254
203 225 254
203 225 254
203 225 254
203 225 254
203 225 254
203 225 254
203 225 254
202 225 254
202 225 254
202 225 254
202 225 254
202 225 254
202 225 254
202 225 254
202 225 254
202 225 254
202 225 254
202 225 254
202 225 254
202 225 254
202 225 254
202 225 254
202 224 254
202 224 254
202 224 254
202 224 254
202 224 254
202 224 254
202 224 254
202 224 254
202 224 254
202 224 254
202 224 254
202 224 254
202 224 254
202 224 254
202 224 254
202 224 254
202 224 254
202 224 254
202 224 254
202 224 254
202 224 254
202 224 254
202 224 254
202 224 254
202 224 254
202 224 254
202 224 254
202 224 254
202 224 254
202 224 254
202 224 254
202 224 254
202 224 254
202 224 254
202 224 254
202 224 254
202 224 254
202 224 254
202 224 254
202 224 254
202 224 254
202 224 254
202 225 254
202 225 254
202 225 254
202 225 254
202 225 254
202 225 254
202 225 254
202 225 254
202 225 254
202 225 254
202 225 254
202 225 254
202 225 254
202 225 254
203 225 254
203 225 254
203 225 254
203 225 254
203 225 254
203 225 254
203 225 254
203 225 254
203 225 254
203 225 254
203 225 254
203 225 254
203 225 254
203 225 254
203 225 254
203 225 254
203 225 254
203 225 254
203 225 254
203 225 254
203 225 254
203 225 254
203 225 254
204 225 254
204 225 254
204 225 254
204 225 254
204 225 254
204 225 254
204 225 254
204 226 254
204 226 254
204 226 254
204 226 254
204 226 254
204 226 254
204 226 254
204 226 254
204 226 254
204 226 254
204 226 254
205 226 254
205 226 254
205 226 254
205 226 254
205 226 254
205 226 254
205 226 254
205 226 254
205 226 254
205 226 254
205 226 254
205 226 254
205 226 254
205 226 254
205 226 254
205 226 254
205 226 254
205 226 254
206 226 254
206 226 254
206 226 254
206 226 254
206 227 254
206 227 254
206 227 254
206 227 254
206 227 254
206 227 254
206 227 254
206 227 254
206 227 254
206 227 254
206 227 254
206 227 254
206 227 254
206 227 254
207 227 254
207 227 254
207 227 254
207 227 254
207 227 254
207 227 254
204 222 253
188 203 239
181 190 236
168 173 226
155 153 220
162 158 235
157 153 228
167 163 243
165 162 240
167 164 244
169 167 249
171 168 251
173 170 254
173 170 254
172 170 254
172 170 254
172 170 254
173 170 254
172 170 254
172 170 254
172 170 254
172 170 254
172 170 254
172 170 254
172 170 254
172 170 254
172 170 254
172 170 254
172 170 254
173 170 254
172 170 254
173 170 254
172 170 254
173 170 254
173 170 254
173 170 254
173 170 254
174 171 254
174 171 254
174 171 254
174 171 254
174 171 254
175 171 254
175 171 254
176 172 254
176 172 254
177 172 254
174 170 252
176 171 253
178 172 254
172 167 247
176 171 252
173 168 247
169 163 240
167 162 237
164 159 233
163 157 230
155 149 219
159 153 223
165 161 226
174 178 228
179 185 230
189 201 239
206 224 252
210 229 254
210 229 254
210 229 254
210 229 254
210 229 254
210 229 254
210 229 254
210 229 254
210 229 254
210 229 254
210 229 254
210 229 254
210 229 254
210 229 254
210 229 254
210 229 254
210 229 254
210 229 254
211 229 254
211 229 254
211 229 254
211 229 254
211 229 254
210 229 254
210 229 254
210 229 254
210 229 254
210 229 254
210 229 254
210 229 254
210 229 254
210 229 254
210 229 254
210 229 253
210 229 254
210 229 253
210 229 252
210 229 253
208 228 251
208 228 253
209 228 254
207 227 249
208 227 248
206 227 251
207 227 248
207 227 253
205 226 251
207 227 254
206 227 253
205 226 254
205 226 254
206 227 254
205 226 254
204 225 253
204 226 254
203 225 254
204 226 254
203 225 253
204 225 254
203 225 254
203 225 254
202 225 253
204 225 254
202 224 254
202 224 254
202 224 254
202 224 254
201 224 253
201 224 254
203 225 254
201 224 254
201 224 254
201 224 254
201 224 254
202 224 254
200 224 254
201 224 254
199 223 254
202 224 253
202 224 254
201 224 254
202 225 254
202 224 254
201 224 253
201 224 254
202 224 254
203 225 254
202 224 254
201 224 254
203 225 254
204 226 254
203 224 251
203 225 251
203 225 253
203 225 249
203 224 251
203 225 252
206 227 254
204 225 251
206 226 252
207 227 252
207 227 254
206 227 254
207 227 254
207 227 254
207 227 254
207 227 254
207 227 254
207 227 254
207 227 254
206 227 254
206 227 254
206 227 254
206 227 254
206 227 254
206 227 254
206 227 254
206 227 254
206 227 254
206 227 254
206 227 254
206 227 254
206 227 254
206 227 254
206 226 254
206 226 254
206 226 254
206 226 254
205 226 254
205 226 254
205 226 254
205 226 254
205 226 254
205 226 254
205 226 254
205 226 254
205 226 254
205 226 254
205 226 254
205 226 254
205 226 254
205 226 254
205 226 254
205 226 254
205 226 254
205 226 254
204 226 254
204 226 254
204 226 254
204 226 254
204 226 254
204 226 254
204 226 254
204 226 254
204 226 254
204 226 254
204 226 254
204 225 254
204 225 254
204 225 254
204 225 254
204 225 254
204 225 254
204 225 254
204 225 254
203 225 254
203 225 254
203 225 254
203 225 254
203 225 254
203 225 254
203 225 254
203 225 254
203 225 254
203 225 254
203 225 254
203 225 254
203 225 254
203 225 254
203 225 254
203 225 254
203 225 254
203 225 254
203 225 254
203 225 254
203 225 254
203 225 254
203 225 254
203 225 254
202 225 254
202 225 254
202 225 254
202 225 254
202 225 254
202 225 254
202 225 254
202 225 254
202 225 254
202 225 254
202 225 254
202 225 254
202 225 254
202 225 254
202 225 254
202 225 254
202 225 254
202 225 254
202 225 254
202 225 254
202 225 254
202 225 254
202 225 254
202 225 254
202 224 254
202 224 254
202 224 254
202 224 254
202 224 254
202 224 254
202 224 254
202 224 254
202 224 254
202 225 254
202 225 254
202 225 254
202 225 254
202 225 254
202 225 254
202 225 254
202 225 254
202 225 254
202 225 254
202 225 254
202 225 254
202 225 254
202 225 254
202 225 254
202 225 254
202 225 254
202 225 254
202 225 254
202 225 254
202 225 254
202 225 254
202 225 254
202 225 254
203 225 254
203 225 254
203 225 254
203 225 254
203 225 254
203 225 254
203 225 254
203 225 254
203 225 254
203 225 254
203 225 254
203 225 254
203 225 254
203 225 254
203 225 254
203 225 254
203 225 254
203 225 254
203 225 254
203 225 254
203 225 254
203 225 254
203 225 254
203 225 254
203 225 254
204 225 254
204 225 254
204 225 254
204 225 254
204 225 254
204 225 254
204 225 254
204 225 254
204 226 254
204 226 254
204 226 254
204 226 254
204 226 254
204 226 254
204 226 254
204 226 254
204 226 254
204 226 254
204 226 254
205 226 254
205 226 254
205 226 254
205 226 254
205 226 254
205 226 254
205 226 254
205 226 254
205 226 254
205 226 254
205 226 254
205 226 254
205 226 254
205 226 254
205 226 254
205 226 254
205 226 254
205 226 254
206 226 254
206 226 254
206 226 254
206 226 254
206 227 254
206 227 254
206 227 254
206 227 254
206 227 254
206 227 254
206 227 254
206 227 254
206 227 254
206 227 254
206 227 254
206 227 254
206 227 254
206 227 254
207 227 254
207 227 254
207 227 254
207 227 254
207 227 254
207 227 254
200 219 249
189 201 244
172 179 229
163 161 230
163 158 235
168 164 243
168 165 245
172 168 251
170 166 248
172 169 253
173 170 254
173 170 254
172 170 254
171 169 254
171 169 254
171 169 254
171 169 254
171 169 254
170 169 254
171 169 254
170 169 254
170 169 254
170 169 254
170 169 254
170 169 254
170 169 254
170 169 254
170 169 254
170 169 254
169 168 254
170 169 254
171 169 254
170 169 254
171 169 254
171 169 254
171 169 254
171 169 254
171 169 254
172 170 254
172 170 254
172 170 254
172 170 254
172 170 254
173 170 254
173 170 254
172 170 254
173 170 254
174 171 254
174 171 254
174 171 254
175 171 254
174 171 254
175 171 254
176 172 254
176 172 254
176 172 254
177 172 254
176 171 253
177 172 254
174 168 248
177 172 253
175 169 249
171 166 244
166 161 236
167 161 236
172 166 243
162 156 228
163 156 228
153 152 208
173 177 226
186 196 233
199 214 244
210 229 254
210 229 254
210 229 254
210 229 254
210 229 254
210 229 254
210 229 254
210 229 254
210 229 254
211 229 254
211 229 254
211 229 254
211 229 254
211 229 254
211 229 254
211 229 254
211 229 254
211 229 254
211 229 254
211 229 254
211 229 254
211 229 254
211 229 254
210 229 254
210 229 253
211 229 254
211 229 253
210 229 253
210 229 253
211 229 253
209 228 253
210 229 254
208 227 251
208 227 251
208 228 254
208 228 253
207 227 253
206 226 247
207 227 252
207 227 254
207 227 253
207 227 254
206 227 254
205 226 254
205 226 254
205 226 254
204 226 254
205 226 254
203 225 253
203 225 254
203 225 254
202 225 254
204 225 254
202 225 254
202 225 254
201 224 254
201 224 254
201 224 254
201 224 253
200 223 253
201 224 254
201 224 254
200 224 253
200 223 254
200 223 254
200 223 253
199 223 254
200 223 254
199 223 254
200 223 252
198 222 254
198 222 253
199 223 254
198 223 254
200 223 254
199 223 254
199 223 254
199 223 253
199 223 254
199 223 254
199 223 254
200 224 254
200 223 254
199 223 254
200 223 254
200 224 254
200 223 254
201 224 254
202 224 254
202 225 254
202 224 254
202 224 254
202 225 254
203 225 253
204 225 253
204 226 254
205 226 251
204 225 251
204 225 252
205 226 252
206 227 254
207 227 253
207 227 254
207 227 254
207 227 254
207 227 254
207 227 254
207 227 254
207 227 254
207 227 254
206 227 254
206 227 254
206 227 254
206 227 254
206 227 254
206 227 254
206 227 254
206 227 254
206 227 254
206 227 254
206 227 254
206 227 254
206 227 254
206 226 254
206 226 254
206 226 254
206 226 254
205 226 254
205 226 254
205 226 254
205 226 254
205 226 254
205 226 254
205 226 254
205 226 254
205 226 254
205 226 254
205 226 254
205 226 254
205 226 254
205 226 254
205 226 254
205 226 254
205 226 254
205 226 254
205 226 254
204 226 254
204 226 254
204 226 254
204 226 254
204 226 254
204 226 254
204 226 254
204 226 254
204 226 254
204 226 254
204 226 254
204 226 254
204 225 254
204 225 254
204 225 254
204 225 254
204 225 254
204 225 254
204 225 254
204 225 254
203 225 254
203 225 254
203 225 254
203 225 254
203 225 254
203 225 254
203 225 254
203 225 254
203 225 254
203 225 254
203 225 254
203 225 254
203 225 254
203 225 254
203 225 254
203 225 254
203 225 254
203 225 254
203 225 254
203 225 254
203 225 254
203 225 254
203 225 254
203 225 254
203 225 254
203 225 254
203 225 254
203 225 254
203 225 254
202 225 254
202 225 254
202 225 254
202 225 254
202 225 254
202 225 254
202 225 254
202 225 254
202 225 254
202 225 254
202 225 254
202 225 254
202 225 254
202 225 254
202 225 254
202 225 254
202 225 254
202 225 254
202 225 254
202 225 254
202 225 254
202 225 254
202 225 254
202 225 254
202 225 254
202 225 254
202 225 254
202 225 254
202 225 254
202 225 254
202 225 254
202 225 254
202 225 254
202 225 254
202 225 254
202 225 254
202 225 254
202 225 254
203 225 254
203 225 254
203 225 254
203 225 254
203 225 254
203 225 254
203 225 254
203 225 254
203 225 254
203 225 254
203 225 254
203 225 254
203 225 254
203 225 254
203 225 254
203 225 254
203 225 254
203 225 254
203 225 254
203 225 254
203 225 254
203 225 254
203 225 254
203 225 254
203 225 254
203 225 254
203 225 254
203 225 254
203 225 254
203 225 254
204 225 254
204 225 254
204 225 254
204 225 254
204 225 254
204 225 254
204 225 254
204 226 254
204 226 254
204 226 254
204 226 254
204 226 254
204 226 254
204 226 254
204 226 254
204 226 254
204 226 254
204 226 254
204 226 254
205 226 254
205 226 254
205 226 254
205 226 254
205 226 254
205 226 254
205 226 254
205 226 254
205 226 254
205 226 254
205 226 254
205 226 254
205 226 254
205 226 254
205 226 254
205 226 254
205 226 254
205 226 254
205 226 254
206 226 254
206 226 254
206 226 254
206 227 254
206 227 254
206 227 254
206 227 254
206 227 254
206 227 254
206 227 254
206 227 254
206 227 254
206 227 254
206 227 254
206 227 254
206 227 254
206 227 254
207 227 254
207 227 254
207 227 254
207 227 254
207 227 254
207 227 254
204 223 252
179 192 228
176 184 233
163 162 229
165 161 239
166 162 241
170 167 248
170 167 249
171 168 252
172 170 254
172 170 254
171 169 254
171 169 254
171 169 254
170 169 254
169 168 254
169 169 254
169 169 254
169 168 254
169 168 254
169 168 254
169 168 254
168 168 254
169 168 254
168 168 254
169 168 254
168 168 254
169 168 254
169 168 254
169 168 254
168 168 254
169 168 254
169 168 254
169 168 254
169 168 254
169 169 254
169 168 254
169 169 254
170 169 254
169 169 254
170 169 254
170 169 254
170 169 254
170 169 254
170 169 254
170 169 254
172 170 254
171 169 254
172 170 254
171 170 254
172 170 254
173 170 254
173 170 254
173 170 254
173 170 254
173 170 254
173 170 254
174 171 254
175 171 254
176 172 254
175 171 254
176 172 254
176 171 254
176 172 254
176 172 254
177 172 254
178 172 254
177 172 253
179 172 253
176 170 251
175 168 247
172 165 243
169 163 239
167 160 235
160 154 225
149 143 208
163 159 223
173 176 226
193 204 240
208 225 253
210 229 254
211 229 254
211 229 254
211 229 254
211 229 254
211 229 254
211 229 254
211 229 254
211 229 254
211 229 254
211 229 254
211 229 254
211 229 254
211 229 254
211 229 254
211 229 254
211 229 254
210 229 254
211 229 254
210 229 253
212 230 254
210 229 253
210 228 252
209 228 254
209 228 252
208 228 252
206 227 253
208 228 253
207 227 252
207 227 252
207 227 254
208 228 254
207 227 253
207 227 254
205 226 253
206 226 254
205 226 254
204 226 254
205 226 254
205 226 254
204 225 254
203 225 254
203 225 253
202 225 254
202 225 254
203 225 254
201 224 253
201 224 254
201 224 254
201 224 254
200 223 253
200 223 254
200 223 254
199 223 254
199 223 254
199 223 254
198 223 254
199 223 254
198 222 254
198 222 254
198 222 254
197 222 253
198 222 254
199 223 254
198 222 254
198 222 254
197 222 254
198 222 254
196 221 253
196 222 254
197 222 254
197 222 254
198 222 253
196 221 254
198 222 254
197 222 254
197 222 253
198 222 254
198 222 254
197 222 254
198 222 254
198 222 253
197 222 254
199 223 254
198 223 254
198 222 254
199 223 254
198 223 254
201 224 254
201 224 254
201 224 254
203 225 254
203 225 254
203 225 254
203 225 254
202 224 253
205 226 254
205 226 253
204 225 251
205 226 251
206 227 253
207 227 253
207 227 254
207 227 254
207 227 254
207 227 254
207 227 254
207 227 254
207 227 254
206 227 254
206 227 254
206 227 254
206 227 254
206 227 254
206 227 254
206 227 254
206 227 254
206 227 254
206 227 254
206 227 254
206 227 254
206 227 254
206 227 254
206 227 254
206 226 254
206 226 254
206 226 254
206 226 254
205 226 254
205 226 254
205 226 254
205 226 254
205 226 254
205 226 254
205 226 254
205 226 254
205 226 254
205 226 254
205 226 254
205 226 254
205 226 254
205 226 254
205 226 254
205 226 254
205 226 254
205 226 254
204 226 254
204 226 254
204 226 254
204 226 254
204 226 254
204 226 254
204 226 254
204 226 254
204 226 254
204 226 254
204 226 254
204 226 254
204 225 254
204 225 254
204 225 254
204 225 254
204 225 254
204 225 254
204 225 254
204 225 254
204 225 254
203 225 254
203 225 254
203 225 254
203 225 254
203 225 254
203 225 254
203 225 254
203 225 254
203 225 254
203 225 254
203 225 254
203 225 254
203 225 254
203 225 254
203 225 254
203 225 254
203 225 254
203 225 254
203 225 254
203 225 254
203 225 254
203 225 254
203 225 254
203 225 254
203 225 254
203 225 254
203 225 254
203 225 254
203 225 254
203 225 254
203 225 254
203 225 254
203 225 254
203 225 254
203 225 254
203 225 254
203 225 254
203 225 254
203 225 254
203 225 254
203 225 254
203 225 254
203 225 254
203 225 254
203 225 254
203 225 254
203 225 254
203 225 254
203 225 254
203 225 254
203 225 254
203 225 254
203 225 254
203 225 254
203 225 254
203 225 254
203 225 254
203 225 254
203 225 254
203 225 254
203 225 254
203 225 254
203 225 254
203 225 254
203 225 254
203 225 254
203 225 254
203 225 254
203 225 254
203 225 254
203 225 254
203 225 254
203 225 254
203 225 254
203 225 254
203 225 254
203 225 254
203 225 254
203 225 254
203 225 254
203 225 254
203 225 254
203 225 254
203 225 254
203 225 254
203 225 254
204 225 254
204 225 254
204 225 254
204 225 254
204 225 254
204 225 254
204 225 254
204 225 254
204 225 254
204 226 254
204 226 254
204 226 254
204 226 254
204 226 254
204 226 254
204 226 254
204 226 254
204 226 254
204 226 254
204 226 254
204 226 254
205 226 254
205 226 254
205 226 254
205 226 254
205 226 254
205 226 254
205 226 254
205 226 254
205 226 254
205 226 254
205 226 254
205 226 254
205 226 254
205 226 254
205 226 254
205 226 254
205 226 254
205 226 254
205 226 254
206 226 254
206 226 254
206 226 254
206 226 254
206 227 254
206 227 254
206 227 254
206 227 254
206 227 254
206 227 254
206 227 254
206 227 254
206 227 254
206 227 254
206 227 254
206 227 254
206 227 254
206 227 254
207 227 254
207 227 254
207 227 254
207 227 254
207 227 254
207 227 254
195 211 244
187 198 243
174 178 237
159 155 229
161 158 235
170 167 248
171 169 252
172 169 253
171 170 254
171 170 254
171 169 254
170 169 254
170 169 254
169 168 254
169 168 254
169 168 254
168 168 254
168 168 254
167 168 254
168 168 254
167 168 254
167 168 254
167 168 254
167 168 254
167 168 254
167 168 254
167 168 254
167 168 254
168 168 254
167 168 254
167 168 254
167 168 254
167 168 254
167 168 254
168 168 254
167 168 254
168 168 254
168 168 254
168 168 254
168 168 254
168 168 254
168 168 254
169 168 254
169 168 254
169 168 254
169 169 254
169 169 254
170 169 254
169 169 254
170 169 254
171 169 254
171 169 254
171 169 254
171 169 254
171 169 254
172 170 254
172 170 254
172 170 254
172 170 254
172 170 254
173 170 254
173 170 254
173 170 254
174 171 254
175 171 254
175 171 254
175 171 254
176 171 254
176 172 254
177 172 254
177 172 254
177 172 254
178 173 254
178 173 254
179 173 254
177 172 253
177 171 251
177 170 249
172 166 243
167 160 235
168 161 235
161 153 223
158 151 217
173 172 232
182 191 230
195 210 239
210 228 253
211 229 254
211 229 254
211 229 254
211 229 254
211 229 254
211 229 254
211 229 254
211 229 254
211 229 254
211 229 254
211 229 254
211 230 254
209 228 249
211 230 254
211 229 252
210 229 252
209 228 252
209 228 254
208 228 254
209 228 252
208 227 251
209 228 254
208 227 252
208 228 254
207 227 254
207 227 254
206 227 254
206 227 254
204 226 254
205 226 254
205 226 254
204 226 254
204 226 254
203 225 254
203 225 254
203 225 254
202 224 253
202 224 254
202 224 254
202 225 254
201 224 254
200 224 254
200 223 254
199 223 254
200 223 253
199 223 254
199 223 254
198 222 254
198 222 254
198 222 254
198 222 254
197 222 253
197 222 254
198 222 254
197 222 254
197 222 254
196 221 254
197 222 254
196 222 254
196 221 254
196 221 254
195 221 254
196 221 254
196 221 254
195 221 254
195 221 254
196 221 254
195 221 254
195 221 254
195 221 254
196 221 254
195 221 254
195 221 253
195 221 254
195 221 254
195 221 254
196 221 254
196 221 254
196 221 254
196 221 254
195 221 254
197 222 254
197 222 253
197 222 254
198 222 254
198 222 254
199 223 254
199 223 254
200 223 254
200 223 254
201 224 254
201 224 254
200 223 253
203 225 253
203 225 253
204 225 249
205 226 253
205 226 252
206 227 253
207 227 254
208 228 254
207 227 254
207 227 254
207 227 254
207 227 254
207 227 254
207 227 254
207 227 254
207 227 254
206 227 254
206 227 254
206 227 254
206 227 254
206 227 254
206 227 254
206 227 254
206 227 254
206 227 254
206 227 254
206 227 254
206 227 254
206 227 254
206 227 254
206 226 254
206 226 254
206 226 254
206 226 254
205 226 254
205 226 254
205 226 254
205 226 254
205 226 254
205 226 254
205 226 254
205 226 254
205 226 254
205 226 254
205 226 254
205 226 254
205 226 254
205 226 254
205 226 254
205 226 254
205 226 254
205 226 254
205 226 254
204 226 254
204 226 254
204 226 254
204 226 254
204 226 254
204 226 254
204 226 254
204 226 254
204 226 254
204 226 254
204 226 254
204 226 254
204 226 254
204 225 254
204 225 254
204 225 254
204 225 254
204 225 254
204 225 254
204 225 254
204 225 254
204 225 254
204 225 254
203 225 254
203 225 254
203 225 254
203 225 254
203 225 254
203 225 254
203 225 254
203 225 254
203 225 254
203 225 254
203 225 254
203 225 254
203 225 254
203 225 254
203 225 254
203 225 254
203 225 254
203 225 254
203 225 254
203 225 254
203 225 254
203 225 254
203 225 254
203 225 254
203 225 254
203 225 254
203 225 254
203 225 254
203 225 254
203 225 254
203 225 254
203 225 254
203 225 254
203 225 254
203 225 254
203 225 254
203 225 254
203 225 254
203 225 254
203 225 254
203 225 254
203 225 254
203 225 254
203 225 254
203 225 254
203 225 254
203 225 254
203 225 254
203 225 254
203 225 254
203 225 254
203 225 254
203 225 254
203 225 254
203 225 254
203 225 254
203 225 254
203 225 254
203 225 254
203 225 254
203 225 254
203 225 254
203 225 254
203 225 254
203 225 254
203 225 254
203 225 254
203 225 254
203 225 254
203 225 254
203 225 254
203 225 254
203 225 254
203 225 254
204 225 254
204 225 254
204 225 254
204 225 254
204 225 254
204 225 254
204 225 254
204 225 254
204 225 254
204 225 254
204 226 254
204 226 254
204 226 254
204 226 254
204 226 254
204 226 254
204 226 254
204 226 254
204 226 254
204 226 254
204 226 254
204 226 254
205 226 254
205 226 254
205 226 254
205 226 254
205 226 254
205 226 254
205 226 254
205 226 254
205 226 254
205 226 254
205 226 254
205 226 254
205 226 254
205 226 254
205 226 254
205 226 254
205 226 254
205 226 254
205 226 254
206 226 254
206 226 254
206 226 254
206 226 254
206 226 254
206 227 254
206 227 254
206 227 254
206 227 254
206 227 254
206 227 254
206 227 254
206 227 254
206 227 254
206 227 254
206 227 254
206 227 254
206 227 254
206 227 254
207 227 254
207 227 254
207 227 254
207 227 254
207 227 254
207 227 254
207 227 254
197 213 247
179 185 239
165 167 229
166 162 240
169 166 247
172 169 252
171 168 252
171 170 254
170 169 254
170 169 254
169 169 254
169 168 254
168 168 254
168 168 254
168 168 254
168 168 254
168 168 254
167 167 254
167 167 254
167 167 254
166 167 254
166 167 254
166 167 254
166 167 254
166 167 254
166 167 254
166 167 254
166 167 254
166 167 254
166 167 254
166 167 254
167 167 254
166 167 254
166 167 254
166 167 254
167 167 254
167 167 254
166 167 254
167 168 254
167 168 254
167 167 254
167 168 254
167 168 254
168 168 254
168 168 254
168 168 254
168 168 254
168 168 254
168 168 254
169 168 254
169 168 254
169 169 254
170 169 254
170 169 254
170 169 254
170 169 254
170 169 254
171 169 254
171 169 254
171 169 254
172 170 254
172 170 254
172 170 254
172 170 254
172 170 254
173 170 254
173 170 254
174 171 254
174 171 254
174 171 254
175 171 254
175 171 254
176 171 254
175 171 254
176 172 254
177 172 254
178 172 254
177 172 254
177 172 254
179 173 254
179 173 254
178 172 253
179 172 253
177 170 249
177 170 248
166 159 232
170 163 239
163 156 228
162 154 225
155 153 208
183 189 233
194 208 239
211 229 254
211 229 254
211 229 254
211 229 254
211 230 254
211 229 254
211 229 252
212 230 253
210 228 252
210 228 249
210 229 253
211 230 254
209 228 251
208 228 249
209 228 252
208 228 254
209 228 254
209 228 254
207 227 254
207 227 254
206 227 254
206 227 254
206 226 254
206 227 254
205 226 254
205 226 254
205 226 254
204 225 254
203 225 254
203 225 254
202 225 254
203 225 254
201 224 253
201 224 254
201 224 254
201 224 254
200 223 254
200 224 254
200 223 254
199 223 254
198 222 253
199 223 254
199 223 254
199 223 254
197 222 254
198 222 254
197 222 254
197 222 254
197 222 254
196 221 254
196 221 254
195 221 254
195 221 254
196 221 254
195 221 254
195 221 254
195 220 254
195 221 254
194 220 254
194 220 254
194 220 254
193 220 254
193 220 254
194 220 254
193 220 254
193 220 254
193 220 254
194 220 254
194 220 254
194 220 254
193 220 254
193 220 254
193 220 254
194 220 254
193 220 254
194 220 254
194 220 254
195 221 254
194 220 254
194 220 254
194 220 254
194 220 254
196 221 254
196 221 254
197 222 254
198 222 254
197 222 254
197 222 254
197 222 254
199 223 254
199 223 254
200 223 254
201 224 254
201 224 254
202 224 253
202 225 254
204 225 253
204 225 252
204 225 251
205 225 248
206 227 254
208 228 254
207 227 254
207 227 254
207 227 254
207 227 254
207 227 254
207 227 254
207 227 254
207 227 254
207 227 254
206 227 254
206 227 254
206 227 254
206 227 254
206 227 254
206 227 254
206 227 254
206 227 254
206 227 254
206 227 254
206 227 254
206 227 254
206 227 254
206 227 254
206 226 254
206 226 254
206 226 254
206 226 254
206 226 254
205 226 254
205 226 254
205 226 254
205 226 254
205 226 254
205 226 254
205 226 254
205 226 254
205 226 254
205 226 254
205 226 254
205 226 254
205 226 254
205 226 254
205 226 254
205 226 254
205 226 254
205 226 254
205 226 254
205 226 254
204 226 254
204 226 254
204 226 254
204 226 254
204 226 254
204 226 254
204 226 254
204 226 254
204 226 254
204 226 254
204 226 254
204 226 254
204 226 254
204 226 254
204 225 254
204 225 254
204 225 254
204 225 254
204 225 254
204 225 254
204 225 254
204 225 254
204 225 254
204 225 254
203 225 254
203 225 254
203 225 254
203 225 254
203 225 254
203 225 254
203 225 254
203 225 254
203 225 254
203 225 254
203 225 254
203 225 254
203 225 254
203 225 254
203 225 254
203 225 254
203 225 254
203 225 254
203 225 254
203 225 254
203 225 254
203 225 254
203 225 254
203 225 254
203 225 254
203 225 254
203 225 254
203 225 254
203 225 254
203 225 254
203 225 254
203 225 254
203 225 254
203 225 254
203 225 254
203 225 254
203 225 254
203 225 254
203 225 254
203 225 254
203 225 254
203 225 254
203 225 254
203 225 254
203 225 254
203 225 254
203 225 254
203 225 254
203 225 254
203 225 254
203 225 254
203 225 254
203 225 254
203 225 254
203 225 254
203 225 254
203 225 254
203 225 254
203 225 254
203 225 254
204 225 254
204 225 254
204 225 254
204 225 254
204 225 254
204 225 254
204 225 254
204 225 254
204 225 254
204 225 254
204 225 254
204 226 254
204 226 254
204 226 254
204 226 254
204 226 254
204 226 254
204 226 254
204 226 254
204 226 254
204 226 254
204 226 254
204 226 254
204 226 254
204 226 254
205 226 254
205 226 254
205 226 254
205 226 254
205 226 254
205 226 254
205 226 254
205 226 254
205 226 254
205 226 254
205 226 254
205 226 254
205 226 254
205 226 254
205 226 254
205 226 254
205 226 254
205 226 254
205 226 254
206 226 254
206 226 254
206 226 254
206 226 254
206 227 254
206 227 254
206 227 254
206 227 254
206 227 254
206 227 254
206 227 254
206 227 254
206 227 254
206 227 254
206 227 254
206 227 254
206 227 254
206 227 254
206 227 254
207 227 254
207 227 254
207 227 254
207 227 254
207 227 254
207 227 254
207 227 254
207 227 254
193 209 241
178 188 232
157 157 219
160 156 232
168 164 244
171 168 251
172 170 254
171 169 254
170 169 254
170 169 254
169 168 254
168 168 254
168 168 254
167 168 254
167 168 254
167 168 254
167 167 254
166 167 254
166 167 254
166 167 254
166 167 254
166 167 254
165 167 254
165 167 254
165 167 254
165 167 254
165 167 254
165 167 254
165 167 254
165 167 254
165 167 254
165 167 254
165 167 254
165 167 254
165 167 254
166 167 254
165 167 254
165 167 254
166 167 254
166 167 254
166 167 254
166 167 254
166 167 254
166 167 254
167 168 254
167 168 254
167 168 254
167 167 254
167 168 254
168 168 254
168 168 254
168 168 254
168 168 254
168 168 254
169 168 254
169 168 254
169 168 254
169 169 254
169 169 254
170 169 254
170 169 254
171 169 254
171 169 254
170 169 254
171 170 254
171 169 254
172 170 254
172 170 254
172 170 254
173 170 254
172 170 254
173 170 254
174 171 254
174 171 254
173 170 254
175 171 254
175 171 254
176 171 254
176 172 254
175 171 254
177 172 254
177 172 254
178 172 254
178 172 254
178 173 254
178 173 254
179 173 254
180 173 254
180 173 254
179 173 253
176 169 247
172 165 241
167 160 235
163 156 228
161 153 223
164 161 222
181 188 230
200 215 244
211 230 254
211 229 252
210 229 253
211 229 253
211 229 253
210 228 249
209 228 251
209 228 251
207 227 247
209 228 254
208 228 254
207 227 254
207 227 254
207 227 254
207 227 254
206 227 254
205 226 254
205 226 254
206 227 254
205 226 254
204 226 254
203 225 254
203 225 254
203 225 254
203 225 254
202 224 254
202 224 254
201 224 254
201 224 254
200 223 254
200 224 254
200 224 253
200 223 254
199 223 254
198 223 254
198 222 254
198 222 253
198 222 254
198 222 254
197 222 254
197 222 254
196 221 254
196 221 254
197 222 254
196 221 254
195 221 254
195 221 254
195 221 254
195 220 254
194 220 254
194 220 254
193 220 254
193 220 254
193 220 254
193 220 254
193 220 254
192 219 254
192 219 254
192 219 254
192 219 254
192 219 254
192 219 254
192 219 254
191 219 254
191 219 254
192 219 254
191 219 254
192 219 254
191 219 254
192 219 254
191 219 254
191 219 254
192 219 254
192 219 254
192 219 254
192 219 254
192 219 254
192 219 254
193 220 254
193 220 254
194 220 254
194 220 254
193 220 254
195 221 254
196 221 254
196 221 254
197 222 254
196 221 254
196 221 253
197 222 254
199 223 254
199 223 254
201 224 254
202 224 254
202 225 254
203 225 253
203 225 253
203 225 252
205 226 253
206 226 251
207 227 251
208 228 254
207 227 254
207 227 254
207 227 254
207 227 254
207 227 254
207 227 254
207 227 254
207 227 254
207 227 254
207 227 254
206 227 254
206 227 254
206 227 254
206 227 254
206 227 254
206 227 254
206 227 254
206 227 254
206 227 254
206 227 254
206 227 254
206 227 254
206 227 254
206 227 254
206 227 254
206 226 254
206 226 254
206 226 254
206 226 254
205 226 254
205 226 254
205 226 254
205 226 254
205 226 254
205 226 254
205 226 254
205 226 254
205 226 254
205 226 254
205 226 254
205 226 254
205 226 254
205 226 254
205 226 254
205 226 254
205 226 254
205 226 254
205 226 254
205 226 254
205 226 254
204 226 254
204 226 254
204 226 254
204 226 254
204 226 254
204 226 254
204 226 254
204 226 254
204 226 254
204 226 254
204 226 254
204 226 254
204 226 254
204 226 254
204 226 254
204 225 254
204 225 254
204 225 254
204 225 254
204 225 254
204 225 254
204 225 254
204 225 254
204 225 254
204 225 254
204 225 254
204 225 254
204 225 254
204 225 254
203 225 254
203 225 254
203 225 254
203 225 254
203 225 254
203 225 254
203 225 254
203 225 254
203 225 254
203 225 254
203 225 254
203 225 254
203 225 254
203 225 254
203 225 254
203 225 254
203 225 254
203 225 254
203 225 254
203 225 254
203 225 254
203 225 254
203 225 254
203 225 254
203 225 254
203 225 254
203 225 254
203 225 254
203 225 254
203 225 254
203 225 254
203 225 254
203 225 254
203 225 254
203 225 254
203 225 254
203 225 254
203 225 254
203 225 254
203 225 254
204 225 254
204 225 254
204 225 254
204 225 254
204 225 254
204 225 254
204 225 254
204 225 254
204 225 254
204 225 254
204 225 254
204 225 254
204 225 254
204 225 254
204 226 254
204 226 254
204 226 254
204 226 254
204 226 254
204 226 254
204 226 254
204 226 254
204 226 254
204 226 254
204 226 254
204 226 254
204 226 254
204 226 254
204 226 254
205 226 254
205 226 254
205 226 254
205 226 254
205 226 254
205 226 254
205 226 254
205 226 254
205 226 254
205 226 254
205 226 254
205 226 254
205 226 254
205 226 254
205 226 254
205 226 254
205 226 254
205 226 254
205 226 254
205 226 254
205 226 254
206 226 254
206 226 254
206 226 254
206 226 254
206 227 254
206 227 254
206 227 254
206 227 254
206 227 254
206 227 254
206 227 254
206 227 254
206 227 254
206 227 254
206 227 254
206 227 254
206 227 254
206 227 254
206 227 254
207 227 254
207 227 254
207 227 254
207 227 254
207 227 254
207 227 254
207 227 254
207 227 254
207 227 254
205 223 253
180 191 232
170 171 235
160 156 232
169 166 247
171 168 251
171 169 253
171 169 254
170 169 254
169 168 254
169 168 254
168 168 254
167 168 254
167 168 254
167 167 254
166 167 254
166 167 254
165 167 254
165 167 254
165 167 254
165 167 254
165 167 254
165 167 254
165 166 254
164 166 254
164 166 254
164 166 254
164 166 254
164 166 254
164 166 254
164 166 254
164 166 254
165 166 254
165 166 254
164 166 254
164 166 254
165 166 254
165 166 254
165 167 254
165 167 254
165 167 254
165 167 254
165 167 254
165 167 254
166 167 254
166 167 254
166 167 254
166 167 254
166 167 254
167 167 254
166 167 254
167 167 254
167 168 254
167 168 254
167 168 254
168 168 254
168 168 254
168 168 254
168 168 254
169 168 254
169 168 254
169 168 254
169 169 254
169 168 254
170 169 254
170 169 254
170 169 254
171 169 254
171 169 254
171 169 254
171 169 254
172 170 254
172 170 254
173 170 254
172 170 254
173 170 254
173 170 254
173 170 254
174 171 254
174 171 254
174 171 254
175 171 254
175 171 254
176 172 254
176 172 254
176 172 254
177 172 254
178 172 254
178 173 254
178 173 254
178 173 254
179 173 254
180 173 254
180 174 254
178 171 251
178 171 251
174 166 243
169 162 236
174 166 241
168 161 233
148 141 205
167 168 219
210 229 252
211 229 253
210 229 253
210 229 252
209 228 252
210 229 254
210 229 254
209 229 254
208 228 254
208 228 254
207 227 254
207 227 254
206 227 254
206 226 253
206 227 254
205 226 254
204 226 253
204 226 254
204 225 254
203 225 254
203 225 254
202 224 254
202 224 253
201 224 254
201 224 254
201 224 254
200 223 254
200 223 254
199 223 254
200 223 254
200 223 254
199 223 254
198 223 254
197 222 254
198 222 254
197 222 254
196 221 254
196 221 254
195 221 254
196 221 254
195 221 254
195 221 254
195 221 254
194 220 254
194 220 254
194 220 254
193 220 254
194 220 254
193 220 254
192 219 254
192 219 254
192 219 254
192 219 254
191 219 254
192 219 254
192 219 254
191 219 254
191 219 254
191 219 254
191 218 254
191 219 254
190 218 254
190 218 254
190 218 254
191 218 254
190 218 254
190 218 254
190 218 254
190 218 254
191 218 254
190 218 254
190 218 254
190 218 254
190 218 254
191 218 254
191 219 254
191 218 254
191 219 254
191 219 254
192 219 254
192 219 254
193 219 254
192 219 254
193 220 254
193 220 254
194 220 254
194 220 254
196 221 254
196 221 254
197 222 254
196 221 254
198 222 254
198 223 254
199 223 254
200 224 254
201 224 254
203 225 254
203 225 251
203 225 252
205 226 252
206 226 252
204 225 251
207 227 254
207 227 253
207 227 254
207 227 254
207 227 254
207 227 254
207 227 254
207 227 254
207 227 254
207 227 254
207 227 254
207 227 254
207 227 254
207 227 254
206 227 254
206 227 254
206 227 254
206 227 254
206 227 254
206 227 254
206 227 254
206 227 254
206 227 254
206 227 254
206 227 254
206 227 254
206 227 254
206 227 254
206 226 254
206 226 254
206 226 254
206 226 254
206 226 254
205 226 254
205 226 254
205 226 254
205 226 254
205 226 254
205 226 254
205 226 254
205 226 254
205 226 254
205 226 254
205 226 254
205 226 254
205 226 254
205 226 254
205 226 254
205 226 254
205 226 254
205 226 254
205 226 254
205 226 254
205 226 254
205 226 254
204 226 254
204 226 254
204 226 254
204 226 254
204 226 254
204 226 254
204 226 254
204 226 254
204 226 254
204 226 254
204 226 254
204 226 254
204 226 254
204 226 254
204 226 254
204 226 254
204 226 254
204 225 254
204 225 254
204 225 254
204 225 254
204 225 254
204 225 254
204 225 254
204 225 254
204 225 254
204 225 254
204 225 254
204 225 254
204 225 254
204 225 254
204 225 254
204 225 254
204 225 254
204 225 254
204 225 254
204 225 254
204 225 254
204 225 254
204 225 254
204 225 254
204 225 254
204 225 254
204 225 254
204 225 254
204 225 254
204 225 254
204 225 254
204 225 254
204 225 254
204 225 254
204 225 254
204 225 254
204 225 254
204 225 254
204 225 254
204 225 254
204 225 254
204 225 254
204 225 254
204 225 254
204 225 254
204 225 254
204 225 254
204 225 254
204 225 254
204 225 254
204 225 254
204 225 254
204 226 254
204 226 254
204 226 254
204 226 254
204 226 254
204 226 254
204 226 254
204 226 254
204 226 254
204 226 254
204 226 254
204 226 254
204 226 254
204 226 254
204 226 254
204 226 254
204 226 254
204 226 254
205 226 254
205 226 254
205 226 254
205 226 254
205 226 254
205 226 254
205 226 254
205 226 254
205 226 254
205 226 254
205 226 254
205 226 254
205 226 254
205 226 254
205 226 254
205 226 254
205 226 254
205 226 254
205 226 254
205 226 254
205 226 254
206 226 254
206 226 254
206 226 254
206 226 254
206 226 254
206 227 254
206 227 254
206 227 254
206 227 254
206 227 254
206 227 254
206 227 254
206 227 254
206 227 254
206 227 254
206 227 254
206 227 254
206 227 254
206 227 254
206 227 254
207 227 254
207 227 254
207 227 254
207 227 254
207 227 254
207 227 254
207 227 254
207 227 254
207 227 254
207 227 254
207 227 254
196 212 244
170 176 226
164 161 235
166 162 241
170 167 249
172 170 254
171 169 254
170 169 254
169 169 254
169 168 254
168 168 254
167 168 254
167 167 254
167 167 254
166 167 254
166 167 254
166 167 254
165 167 254
165 167 254
164 166 254
165 166 254
164 166 254
164 166 254
164 166 254
164 166 254
163 166 254
163 166 254
164 166 254
163 166 254
164 166 254
164 166 254
164 166 254
164 166 254
164 166 254
164 166 254
164 166 254
164 166 254
164 166 254
164 166 254
164 166 254
165 166 254
165 166 254
165 166 254
165 166 254
165 167 254
165 167 254
165 167 254
165 167 254
166 167 254
165 167 254
166 167 254
166 167 254
167 167 254
166 167 254
167 167 254
167 168 254
167 168 254
167 168 254
168 168 254
168 168 254
168 168 254
168 168 254
168 168 254
169 168 254
169 168 254
169 168 254
170 169 254
170 169 254
170 169 254
171 169 254
171 169 254
171 169 254
171 169 254
171 169 254
171 169 254
172 170 254
172 170 254
173 170 254
173 170 254
173 170 254
174 171 254
174 171 254
174 171 254
174 171 254
175 171 254
174 171 254
176 171 254
176 172 254
176 172 254
177 172 254
177 172 254
178 172 254
178 172 254
178 172 254
179 173 254
179 173 254
180 173 254
180 173 254
181 174 254
178 171 251
177 169 247
172 165 240
171 164 239
166 158 230
210 229 253
209 228 252
210 229 254
210 228 253
209 228 254
210 229 254
209 228 254
208 228 254
207 227 254
207 227 254
206 227 254
206 227 254
205 226 254
204 226 254
205 226 254
204 225 253
204 225 254
203 225 254
203 225 254
203 225 254
202 224 254
202 224 254
201 224 254
200 224 254
200 224 254
200 224 254
199 223 254
200 223 254
199 223 254
199 223 254
198 222 254
198 222 254
197 222 254
197 222 254
197 222 254
196 221 254
196 221 254
195 221 254
194 220 254
195 221 254
194 220 254
194 220 254
194 220 254
194 220 254
194 220 254
193 220 254
192 219 254
192 219 254
192 219 254
192 219 254
192 219 254
192 219 254
191 219 254
190 218 254
190 218 254
190 218 254
190 218 254
190 218 254
190 218 254
191 218 254
189 218 254
189 218 254
189 217 254
189 218 254
189 218 254
189 218 254
188 217 254
189 217 254
189 217 254
189 217 254
189 217 254
188 217 254
189 218 254
189 217 254
189 217 254
189 218 254
189 217 254
190 218 254
190 218 254
190 218 254
190 218 254
191 218 254
190 218 254
191 218 254
191 219 254
192 219 254
192 219 254
193 220 254
193 220 254
194 220 254
194 220 254
195 221 254
196 221 254
196 222 254
195 221 253
199 223 254
199 223 254
200 224 254
201 224 254
203 225 253
203 225 252
204 225 251
204 225 251
204 225 249
208 227 249
208 228 254
207 227 254
207 227 254
207 227 254
207 227 254
207 227 254
207 227 254
207 227 254
207 227 254
207 227 254
207 227 254
207 227 254
207 227 254
207 227 254
207 227 254
206 227 254
206 227 254
206 227 254
206 227 254
206 227 254
206 227 254
206 227 254
206 227 254
206 227 254
206 227 254
206 227 254
206 227 254
206 227 254
206 227 254
206 227 254
206 226 254
206 226 254
206 226 254
206 226 254
206 226 254
205 226 254
205 226 254
205 226 254
205 226 254
205 226 254
205 226 254
205 226 254
205 226 254
205 226 254
205 226 254
205 226 254
205 226 254
205 226 254
205 226 254
205 226 254
205 226 254
205 226 254
205 226 254
205 226 254
205 226 254
205 226 254
205 226 254
205 226 254
204 226 254
204 226 254
204 226 254
204 226 254
204 226 254
204 226 254
204 226 254
204 226 254
204 226 254
204 226 254
204 226 254
204 226 254
204 226 254
204 226 254
204 226 254
204 226 254
204 226 254
204 226 254
204 226 254
204 226 254
204 226 254
204 226 254
204 226 254
204 225 254
204 225 254
204 225 254
204 225 254
204 225 254
204 225 254
204 225 254
204 225 254
204 225 254
204 225 254
204 225 254
204 225 254
204 225 254
204 225 254
204 225 254
204 225 254
204 225 254
204 225 254
204 225 254
204 225 254
204 225 254
204 225 254
204 225 254
204 225 254
204 225 254
204 225 254
204 225 254
204 225 254
204 226 254
204 226 254
204 226 254
204 226 254
204 226 254
204 226 254
204 226 254
204 226 254
204 226 254
204 226 254
204 226 254
204 226 254
204 226 254
204 226 254
204 226 254
204 226 254
204 226 254
204 226 254
204 226 254
204 226 254
204 226 254
204 226 254
204 226 254
205 226 254
205 226 254
205 226 254
205 226 254
205 226 254
205 226 254
205 226 254
205 226 254
205 226 254
205 226 254
205 226 254
205 226 254
205 226 254
205 226 254
205 226 254
205 226 254
205 226 254
205 226 254
205 226 254
205 226 254
205 226 254
205 226 254
205 226 254
205 226 254
206 226 254
206 226 254
206 226 254
206 226 254
206 227 254
206 227 254
206 227 254
206 227 254
206 227 254
206 227 254
206 227 254
206 227 254
206 227 254
206 227 254
206 227 254
206 227 254
206 227 254
206 227 254
206 227 254
207 227 254
207 227 254
207 227 254
207 227 254
207 227 254
207 227 254
207 227 254
207 227 254
207 227 254
207 227 254
207 227 254
207 227 254
207 227 254
207 227 254
185 197 236
174 179 233
159 155 230
168 165 245
172 169 253
172 170 254
170 169 254
170 169 254
169 169 254
168 168 254
167 168 254
167 167 254
166 167 254
166 167 254
166 167 254
165 167 254
164 166 254
165 166 254
164 166 254
164 166 254
164 166 254
164 166 254
164 166 254
163 166 254
164 166 254
163 166 254
163 166 254
163 166 254
163 166 254
163 166 254
163 166 254
163 166 254
163 166 254
163 166 254
163 166 254
163 166 254
163 166 254
163 166 254
163 166 254
163 166 254
164 166 254
164 166 254
164 166 254
164 166 254
164 166 254
164 166 254
164 166 254
165 166 254
165 166 254
165 167 254
165 167 254
166 167 254
165 167 254
166 167 254
166 167 254
166 167 254
166 167 254
166 167 254
167 167 254
167 167 254
167 168 254
168 168 254
167 168 254
168 168 254
168 168 254
168 168 254
168 168 254
169 168 254
170 169 254
170 169 254
169 169 254
170 169 254
170 169 254
171 169 254
171 169 254
171 170 254
171 169 254
172 170 254
172 170 254
171 169 254
172 170 254
173 170 254
174 170 254
174 171 254
174 171 254
174 171 254
174 171 254
174 171 254
174 171 254
175 171 254
176 172 254
176 172 254
177 172 254
176 172 254
177 172 254
178 172 254
178 173 254
179 173 254
179 173 254
179 173 254
180 173 254
181 174 254
180 173 254
182 174 254
181 174 254
176 168 245
210 229 253
211 229 254
209 228 254
208 227 253
208 228 254
208 228 254
207 227 254
207 227 254
207 227 254
205 226 253
205 226 254
205 226 254
205 226 254
204 226 254
203 225 254
203 225 253
203 225 253
202 225 254
203 225 254
201 224 254
202 224 254
201 224 254
200 223 254
199 223 254
200 223 254
200 223 254
198 223 254
198 222 254
198 222 254
197 222 254
197 222 254
197 222 254
196 222 254
196 221 254
196 221 254
195 221 254
195 221 254
195 221 254
194 220 254
194 220 254
193 220 254
193 220 254
193 220 254
193 219 254
192 219 254
192 219 254
192 219 254
191 219 254
191 219 254
191 219 254
190 218 254
190 218 254
190 218 254
190 218 254
189 218 254
190 218 254
189 217 254
189 217 254
189 217 254
188 217 254
188 217 254
188 217 254
188 217 254
187 217 254
188 217 254
187 217 254
188 217 254
188 217 254
187 217 254
188 217 254
187 217 254
187 216 254
187 217 254
187 217 254
187 217 254
188 217 254
188 217 254
188 217 254
188 217 254
188 217 254
188 217 254
189 217 254
188 217 254
189 218 254
189 218 254
189 218 254
190 218 254
191 218 254
191 219 254
192 219 254
192 219 254
192 219 253
194 220 254
194 220 254
195 221 254
196 221 254
196 221 253
197 222 254
199 223 254
198 222 254
201 224 254
201 224 254
202 225 254
204 226 254
204 225 252
207 227 251
207 227 253
208 228 254
207 227 254
207 227 254
207 227 254
207 227 254
207 227 254
207 227 254
207 227 254
207 227 254
207 227 254
207 227 254
207 227 254
207 227 254
207 227 254
207 227 254
207 227 254
207 227 254
206 227 254
206 227 254
206 227 254
206 227 254
206 227 254
206 227 254
206 227 254
206 227 254
206 227 254
206 227 254
206 227 254
206 227 254
206 227 254
206 227 254
206 227 254
206 227 254
206 226 254
206 226 254
206 226 254
206 226 254
206 226 254
205 226 254
205 226 254
205 226 254
205 226 254
205 226 254
205 226 254
205 226 254
205 226 254
205 226 254
205 226 254
205 226 254
205 226 254
205 226 254
205 226 254
205 226 254
205 226 254
205 226 254
205 226 254
205 226 254
205 226 254
205 226 254
205 226 254
205 226 254
205 226 254
205 226 254
205 226 254
204 226 254
204 226 254
204 226 254
204 226 254
204 226 254
204 226 254
204 226 254
204 226 254
204 226 254
204 226 254
204 226 254
204 226 254
204 226 254
204 226 254
204 226 254
204 226 254
204 226 254
204 226 254
204 226 254
204 226 254
204 226 254
204 226 254
204 226 254
204 226 254
204 226 254
204 226 254
204 226 254
204 226 254
204 226 254
204 226 254
204 226 254
204 226 254
204 226 254
204 226 254
204 226 254
204 226 254
204 226 254
204 226 254
204 226 254
204 226 254
204 226 254
204 226 254
204 226 254
204 226 254
204 226 254
204 226 254
204 226 254
204 226 254
204 226 254
204 226 254
204 226 254
204 226 254
204 226 254
204 226 254
204 226 254
204 226 254
204 226 254
204 226 254
205 226 254
205 226 254
205 226 254
205 226 254
205 226 254
205 226 254
205 226 254
205 226 254
205 226 254
205 226 254
205 226 254
205 226 254
205 226 254
205 226 254
205 226 254
205 226 254
205 226 254
205 226 254
205 226 254
205 226 254
205 226 254
205 226 254
205 226 254
205 226 254
205 226 254
205 226 254
206 226 254
206 226 254
206 226 254
206 226 254
206 226 254
206 227 254
206 227 254
206 227 254
206 227 254
206 227 254
206 227 254
206 227 254
206 227 254
206 227 254
206 227 254
206 227 254
206 227 254
206 227 254
206 227 254
206 227 254
206 227 254
207 227 254
207 227 254
207 227 254
207 227 254
207 227 254
207 227 254
207 227 254
207 227 254
207 227 254
207 227 254
207 227 254
207 227 254
207 227 254
207 227 254
207 227 254
204 224 252
189 202 241
165 165 230
167 163 241
171 168 251
172 170 254
171 169 254
170 169 254
169 168 254
168 168 254
168 168 254
167 168 254
166 167 254
166 167 254
165 167 254
165 167 254
165 166 254
164 166 254
164 166 254
164 166 254
164 166 254
163 166 254
163 166 254
163 166 254
163 166 254
163 166 254
163 166 254
163 166 254
163 166 254
163 166 254
163 166 254
162 165 254
163 166 254
163 166 254
163 166 254
163 166 254
163 166 254
163 166 254
163 166 254
163 166 254
163 166 254
163 166 254
163 166 254
163 166 254
163 166 254
164 166 254
164 166 254
164 166 254
164 166 254
165 166 254
164 166 254
165 167 254
165 167 254
165 167 254
165 167 254
165 167 254
166 167 254
166 167 254
166 167 254
167 167 254
166 167 254
167 167 254
167 167 254
167 168 254
167 168 254
168 168 254
168 168 254
168 168 254
168 168 254
168 168 254
169 168 254
169 169 254
169 169 254
169 169 254
169 169 254
170 169 254
170 169 254
170 169 254
171 169 254
171 169 254
171 169 254
171 169 254
172 170 254
172 170 254
172 170 254
172 170 254
173 170 254
173 170 254
174 171 254
174 171 254
175 171 254
175 171 254
175 171 254
175 171 254
176 172 254
176 172 254
176 172 254
176 172 254
177 172 254
177 172 254
178 172 254
179 173 254
178 173 254
179 173 254
180 173 254
180 173 254
180 174 254
181 174 254
182 174 254
210 229 254
209 228 254
209 228 254
208 228 254
207 227 254
208 228 254
206 227 254
206 227 254
205 226 253
204 226 254
205 226 254
204 226 254
203 225 254
204 226 254
203 225 254
203 225 254
202 225 254
201 224 254
201 224 254
200 224 254
200 223 254
200 224 254
199 223 254
199 223 254
199 223 254
198 222 254
198 222 254
198 222 254
198 222 254
197 222 254
197 222 254
196 221 254
196 221 254
195 221 254
195 221 254
195 221 254
194 220 254
194 220 254
193 220 254
193 220 254
193 220 254
193 220 254
192 219 254
191 219 254
192 219 254
191 219 254
191 219 254
190 218 254
190 218 254
190 218 254
190 218 254
190 218 254
189 218 254
189 217 254
188 217 254
188 217 254
188 217 254
188 217 254
188 217 254
188 217 254
187 217 254
187 216 254
187 216 254
187 217 254
187 216 254
186 216 254
186 216 254
186 216 254
187 216 254
186 216 254
186 216 254
186 216 254
186 216 254
186 216 254
186 216 254
186 216 254
186 216 254
186 216 254
186 216 254
187 216 254
187 216 254
187 216 254
188 217 254
187 217 254
187 217 254
188 217 254
188 217 254
189 217 254
190 218 254
190 218 254
190 218 254
191 219 254
191 219 254
192 219 254
194 220 254
193 220 254
195 221 254
195 220 254
196 221 254
197 222 254
197 222 254
199 223 254
199 223 254
202 224 254
203 225 253
204 225 254
204 225 251
205 226 251
206 227 254
207 227 253
208 228 254
207 227 254
207 227 254
207 227 254
207 227 254
207 227 254
207 227 254
207 227 254
207 227 254
207 227 254
207 227 254
207 227 254
207 227 254
207 227 254
207 227 254
207 227 254
207 227 254
207 227 254
207 227 254
206 227 254
206 227 254
206 227 254
206 227 254
206 227 254
206 227 254
206 227 254
206 227 254
206 227 254
206 227 254
206 227 254
206 227 254
206 227 254
206 227 254
206 227 254
206 227 254
206 226 254
206 226 254
206 226 254
206 226 254
206 226 254
205 226 254
205 226 254
205 226 254
205 226 254
205 226 254
205 226 254
205 226 254
205 226 254
205 226 254
205 226 254
205 226 254
205 226 254
205 226 254
205 226 254
205 226 254
205 226 254
205 226 254
205 226 254
205 226 254
205 226 254
205 226 254
205 226 254
205 226 254
205 226 254
205 226 254
205 226 254
205 226 254
205 226 254
205 226 254
205 226 254
205 226 254
205 226 254
204 226 254
204 226 254
204 226 254
204 226 254
204 226 254
204 226 254
204 226 254
204 226 254
204 226 254
204 226 254
204 226 254
204 226 254
204 226 254
204 226 254
204 226 254
204 226 254
201 225 252
201 225 252
200 224 251
201 225 253
204 226 254
204 226 254
204 226 254
204 226 254
204 226 254
204 226 254
204 226 254
204 226 254
204 226 254
204 226 254
204 226 254
204 226 254
204 226 254
204 226 254
204 226 254
204 226 254
204 226 254
205 226 254
205 226 254
205 226 254
205 226 254
205 226 254
205 226 254
205 226 254
205 226 254
205 226 254
205 226 254
205 226 254
205 226 254
205 226 254
205 226 254
205 226 254
205 226 254
205 226 254
205 226 254
205 226 254
205 226 254
205 226 254
205 226 254
205 226 254
205 226 254
205 226 254
205 226 254
205 226 254
205 226 254
205 226 254
205 226 254
205 226 254
206 226 254
206 226 254
206 226 254
206 226 254
206 226 254
206 227 254
206 227 254
206 227 254
206 227 254
206 227 254
206 227 254
206 227 254
206 227 254
206 227 254
206 227 254
206 227 254
206 227 254
206 227 254
206 227 254
206 227 254
206 227 254
207 227 254
207 227 254
207 227 254
207 227 254
207 227 254
207 227 254
207 227 254
207 227 254
207 227 254
207 227 254
207 227 254
207 227 254
207 227 254
207 227 254
207 227 254
207 227 254
207 227 254
207 227 254
205 224 253
186 197 239
161 159 229
164 160 237
171 168 251
173 170 254
171 169 254
169 169 254
168 168 254
168 168 254
167 168 254
167 167 254
166 167 254
165 167 254
165 167 254
164 166 254
165 166 254
164 166 254
164 166 254
164 166 254
163 166 254
163 166 254
162 165 254
163 166 254
163 166 254
162 165 254
162 165 254
162 165 254
162 165 254
162 165 254
162 165 254
162 165 254
162 165 254
162 165 254
162 165 254
162 165 254
162 165 254
162 165 254
163 166 254
162 166 254
163 166 254
163 166 254
163 166 254
163 166 254
163 166 254
163 166 254
163 166 254
164 166 254
163 166 254
164 166 254
164 166 254
164 166 254
165 166 254
164 166 254
165 166 254
165 167 254
165 167 254
165 167 254
166 167 254
166 167 254
166 167 254
166 167 254
166 167 254
166 167 254
167 167 254
167 167 254
167 168 254
167 168 254
167 168 254
168 168 254
168 168 254
168 168 254
169 168 254
169 169 254
169 168 254
169 168 254
169 168 254
170 169 254
170 169 254
171 169 254
171 169 254
171 169 254
171 169 254
172 170 254
172 170 254
172 170 254
172 170 254
173 170 254
172 170 254
173 170 254
174 171 254
173 170 254
174 171 254
175 171 254
175 171 254
175 171 254
175 171 254
176 171 254
176 172 254
176 172 254
176 172 254
177 172 254
177 172 254
178 173 254
178 173 254
178 173 254
179 173 254
179 173 254
180 173 254
180 173 254
181 174 254
209 228 254
208 228 254
208 228 254
207 227 253
207 227 254
207 227 254
206 227 254
205 226 254
205 226 254
205 226 254
204 226 254
204 225 253
203 225 254
203 225 254
202 225 253
202 225 254
202 224 254
201 224 254
201 224 254
201 224 254
200 223 254
200 223 254
199 223 254
198 223 254
198 222 254
198 222 254
198 222 254
197 222 254
196 221 254
196 221 254
196 221 254
196 221 254
195 221 254
195 221 254
194 220 254
194 220 254
194 220 254
193 220 254
192 219 254
192 219 254
192 219 254
192 219 254
192 219 254
191 219 254
191 218 254
190 218 254
190 218 254
190 218 254
190 218 254
189 218 254
189 218 254
189 217 254
188 217 254
188 217 254
188 217 254
188 217 254
187 217 254
187 217 254
187 217 254
187 216 254
187 216 254
186 216 254
187 216 254
186 216 254
186 216 254
186 216 254
185 216 254
185 216 254
186 216 254
185 215 254
185 215 254
185 216 254
185 216 254
185 215 254
185 216 254
185 216 254
185 216 254
185 216 254
185 215 254
185 216 254
186 216 254
186 216 254
186 216 254
186 216 254
186 216 254
187 217 254
187 216 254
187 216 254
188 217 254
188 217 254
189 217 254
189 218 254
190 218 254
190 218 254
191 219 254
191 218 254
193 219 254
193 220 254
194 220 254
195 221 254
195 221 253
196 221 254
198 222 254
197 222 253
199 223 254
201 224 254
202 224 253
203 225 251
204 225 251
206 227 254
207 227 252
207 227 253
207 227 254
208 227 254
207 227 254
207 227 254
207 227 254
207 227 254
207 227 254
207 227 254
207 227 254
207 227 254
207 227 254
207 227 254
207 227 254
207 227 254
207 227 254
207 227 254
207 227 254
207 227 254
207 227 254
207 227 254
207 227 254
207 227 254
206 227 254
206 227 254
206 227 254
206 227 254
206 227 254
206 227 254
206 227 254
206 227 254
206 227 254
206 227 254
206 227 254
206 227 254
206 227 254
206 227 254
206 227 254
206 227 254
206 227 254
206 226 254
206 226 254
206 226 254
206 226 254
206 226 254
205 226 254
205 226 254
205 226 254
205 226 254
205 226 254
205 226 254
205 226 254
205 226 254
205 226 254
205 226 254
205 226 254
205 226 254
205 226 254
205 226 254
205 226 254
205 226 254
205 226 254
205 226 254
205 226 254
205 226 254
205 226 254
205 226 254
205 226 254
205 226 254
205 226 254
205 226 254
205 226 254
205 226 254
205 226 254
205 226 254
205 226 254
205 226 254
205 226 254
202 225 253
184 220 241
164 216 228
147 211 216
122 206 203
108 203 194
87 200 186
76 200 182
61 197 175
61 197 177
62 197 173
61 197 176
61 197 177
67 197 177
83 200 183
99 202 191
110 203 195
128 207 206
148 212 217
169 216 230
184 220 239
202 225 253
205 226 254
205 226 254
205 226 254
205 226 254
205 226 254
205 226 254
205 226 254
205 226 254
205 226 254
205 226 254
205 226 254
205 226 254
205 226 254
205 226 254
205 226 254
205 226 254
205 226 254
205 226 254
205 226 254
205 226 254
205 226 254
205 226 254
205 226 254
205 226 254
205 226 254
205 226 254
205 226 254
205 226 254
205 226 254
205 226 254
205 226 254
205 226 254
206 226 254
206 226 254
206 226 254
206 226 254
206 226 254
206 226 254
206 227 254
206 227 254
206 227 254
206 227 254
206 227 254
206 227 254
206 227 254
206 227 254
206 227 254
206 227 254
206 227 254
206 227 254
206 227 254
206 227 254
206 227 254
206 227 254
206 227 254
207 227 254
207 227 254
207 227 254
207 227 254
207 227 254
207 227 254
207 227 254
207 227 254
207 227 254
207 227 254
207 227 254
207 227 254
207 227 254
207 227 254
207 227 254
207 227 254
207 227 254
207 227 254
207 227 254
207 227 254
208 227 254
204 223 252
184 193 240
161 159 228
165 162 241
173 170 253
172 170 254
171 169 254
170 169 254
169 168 254
167 168 254
167 168 254
166 167 254
166 167 254
165 167 254
165 167 254
164 166 254
164 166 254
164 166 254
164 166 254
163 166 254
163 166 254
163 166 254
163 166 254
162 165 254
162 165 254
162 165 254
162 165 254
162 165 254
162 165 254
162 165 254
162 165 254
162 165 254
162 165 254
162 165 254
162 165 254
162 165 254
162 165 254
162 165 254
162 165 254
162 165 254
162 165 254
162 165 254
162 166 254
163 166 254
163 166 254
163 166 254
163 166 254
163 166 254
163 166 254
163 166 254
164 166 254
164 166 254
164 166 254
164 166 254
164 166 254
164 166 254
165 166 254
165 167 254
165 167 254
165 167 254
166 167 254
166 167 254
166 167 254
166 167 254
166 167 254
167 167 254
167 167 254
167 167 254
168 168 254
167 168 254
168 168 254
168 168 254
168 168 254
168 168 254
168 168 254
169 168 254
169 169 254
169 169 254
170 169 254
170 169 254
170 169 254
170 169 254
171 169 254
171 169 254
171 169 254
171 169 254
171 169 254
172 170 254
172 170 254
172 170 254
173 170 254
173 170 254
174 171 254
174 171 254
174 171 254
173 170 254
175 171 254
175 171 254
175 171 254
176 172 254
176 172 254
176 172 254
177 172 254
177 172 254
177 172 254
178 172 254
178 173 254
179 173 254
179 173 254
179 173 254
180 174 254
180 173 254
180 173 254
208 228 254
208 228 254
206 227 254
207 227 254
207 227 254
206 227 254
205 226 254
205 226 254
204 226 254
204 226 254
204 225 254
203 225 254
202 225 254
202 225 254
202 224 254
201 224 254
201 224 254
201 224 254
199 223 254
200 223 254
199 223 254
199 223 254
199 223 254
198 222 254
198 222 254
197 222 254
197 222 254
197 222 254
196 221 254
196 221 254
195 221 254
195 221 254
194 220 254
194 220 254
193 220 254
193 220 254
193 220 254
192 219 254
193 219 254
192 219 254
192 219 254
191 219 254
191 218 254
191 219 254
190 218 254
190 218 254
189 218 254
189 218 254
189 217 254
189 218 254
188 217 254
188 217 254
188 217 254
188 217 254
187 217 254
187 217 254
187 217 254
187 216 254
186 216 254
186 216 254
186 216 254
186 216 254
185 216 254
185 216 254
185 215 254
185 216 254
185 216 254
185 215 254
184 215 254
184 215 254
184 215 254
184 215 254
184 215 254
184 215 254
184 215 254
184 215 254
184 215 254
185 215 254
184 215 254
184 215 254
184 215 254
185 215 254
184 215 254
185 215 254
185 216 254
185 216 254
186 216 254
186 216 254
186 216 254
187 216 254
187 216 254
187 216 254
188 217 254
188 217 254
189 217 254
190 218 254
190 218 254
190 218 254
191 219 254
192 219 254
193 220 254
194 220 254
195 221 254
196 221 253
197 222 254
198 222 254
199 223 254
201 224 254
202 224 254
203 225 254
204 225 252
205 226 252
208 227 252
209 228 254
208 228 254
208 228 254
208 228 254
208 227 254
207 227 254
207 227 254
207 227 254
207 227 254
207 227 254
207 227 254
207 227 254
207 227 254
207 227 254
207 227 254
207 227 254
207 227 254
207 227 254
207 227 254
207 227 254
207 227 254
207 227 254
207 227 254
207 227 254
207 227 254
207 227 254
206 227 254
206 227 254
206 227 254
206 227 254
206 227 254
206 227 254
206 227 254
206 227 254
206 227 254
206 227 254
206 227 254
206 227 254
206 227 254
206 227 254
206 227 254
206 227 254
206 227 254
206 227 254
206 226 254
206 226 254
206 226 254
206 226 254
206 226 254
206 226 254
205 226 254
205 226 254
205 226 254
205 226 254
205 226 254
205 226 254
205 226 254
205 226 254
205 226 254
205 226 254
205 226 254
205 226 254
205 226 254
205 226 254
205 226 254
205 226 254
205 226 254
205 226 254
205 226 254
205 226 254
205 226 254
205 226 254
201 225 252
179 219 237
150 213 218
120 206 203
68 198 180
61 197 174
62 198 177
62 198 174
61 197 176
62 198 177
62 198 177
62 198 177
62 198 175
63 199 178
62 197 174
61 196 175
63 199 177
62 197 175
62 198 171
61 197 173
61 197 175
62 198 178
61 196 173
61 197 177
62 198 177
68 199 181
115 205 197
146 211 217
180 219 238
202 225 253
205 226 254
205 226 254
205 226 254
205 226 254
205 226 254
205 226 254
205 226 254
205 226 254
205 226 254
205 226 254
205 226 254
205 226 254
205 226 254
205 226 254
205 226 254
205 226 254
205 226 254
205 226 254
205 226 254
205 226 254
205 226 254
205 226 254
206 226 254
206 226 254
206 226 254
206 226 254
206 226 254
206 226 254
206 227 254
206 227 254
206 227 254
206 227 254
206 227 254
206 227 254
206 227 254
206 227 254
206 227 254
206 227 254
206 227 254
206 227 254
206 227 254
206 227 254
206 227 254
206 227 254
206 227 254
206 227 254
207 227 254
207 227 254
207 227 254
207 227 254
207 227 254
207 227 254
207 227 254
207 227 254
207 227 254
207 227 254
207 227 254
207 227 254
207 227 254
207 227 254
207 227 254
207 227 254
207 227 254
207 227 254
207 227 254
207 227 254
208 227 254
208 227 254
208 228 254
208 228 254
206 226 253
187 199 240
159 157 223
167 164 243
172 169 253
173 170 254
171 169 254
170 169 254
169 168 254
168 168 254
167 168 254
167 167 254
166 167 254
165 167 254
165 166 254
165 166 254
164 166 254
164 166 254
163 166 254
163 166 254
163 166 254
163 166 254
162 165 254
162 165 254
162 165 254
162 165 254
162 165 254
162 165 254
162 165 254
162 165 254
162 165 254
162 165 254
162 165 254
162 165 254
162 165 254
162 165 254
162 165 254
162 165 254
162 165 254
162 165 254
162 165 254
162 165 254
162 165 254
162 165 254
163 166 254
162 165 254
163 166 254
163 166 254
163 166 254
163 166 254
163 166 254
163 166 254
163 166 254
164 166 254
164 166 254
164 166 254
164 166 254
164 166 254
165 166 254
165 166 254
165 167 254
165 167 254
165 167 254
165 167 254
166 167 254
166 167 254
166 167 254
167 167 254
167 167 254
167 168 254
167 168 254
168 168 254
168 168 254
168 168 254
168 168 254
168 168 254
168 168 254
168 168 254
169 168 254
169 169 254
169 168 254
169 169 254
170 169 254
170 169 254
170 169 254
171 169 254
171 169 254
171 170 254
171 170 254
172 170 254
173 170 254
173 170 254
173 170 254
172 170 254
173 170 254
174 171 254
174 171 254
174 171 254
175 171 254
174 171 254
175 171 254
175 171 254
176 171 254
176 172 254
176 172 254
177 172 254
177 172 254
178 172 254
178 173 254
178 172 254
178 173 254
179 173 254
179 173 254
179 173 254
180 173 254
207 227 254
207 227 254
205 226 253
206 226 254
206 227 254
204 226 254
205 226 254
205 226 254
204 226 254
204 225 254
203 225 254
202 225 254
202 225 254
202 224 254
201 224 254
201 224 254
201 224 254
200 224 254
200 223 254
199 223 254
199 223 254
198 222 254
198 222 254
198 222 254
197 222 254
197 222 254
196 221 254
196 221 254
196 221 254
195 221 254
195 221 254
194 220 254
194 220 254
193 220 254
193 220 254
193 220 254
193 220 254
192 219 254
192 219 254
191 219 254
191 219 254
191 219 254
190 218 254
190 218 254
190 218 254
189 218 254
189 218 254
189 217 254
188 217 254
189 217 254
188 217 254
188 217 254
187 217 254
187 217 254
187 216 254
188 217 254
188 217 253
189 217 252
188 217 252
190 218 252
187 216 249
189 217 248
189 217 253
189 217 252
189 217 251
189 217 251
189 217 251
187 216 251
189 217 249
188 217 251
189 217 251
187 216 252
188 216 249
187 216 253
186 216 253
186 216 254
184 215 254
183 215 254
183 215 254
183 215 254
184 215 254
183 215 254
184 215 254
184 215 254
184 215 254
184 215 254
184 215 254
184 215 254
185 215 254
185 216 254
185 216 254
186 216 254
186 216 254
187 216 254
187 216 254
187 217 254
188 217 254
189 218 254
190 218 254
190 218 254
190 218 254
192 219 254
193 220 254
194 220 254
195 221 254
195 221 254
196 221 253
198 223 254
199 223 253
202 224 254
202 224 253
204 225 253
206 226 254
206 227 252
209 228 253
208 228 254
208 228 254
208 228 254
208 228 254
208 228 254
208 228 254
208 228 254
208 227 254
207 227 254
207 227 254
207 227 254
207 227 254
207 227 254
207 227 254
207 227 254
207 227 254
207 227 254
207 227 254
207 227 254
207 227 254
207 227 254
207 227 254
207 227 254
207 227 254
207 227 254
207 227 254
207 227 254
207 227 254
207 227 254
207 227 254
206 227 254
206 227 254
206 227 254
206 227 254
206 227 254
206 227 254
206 227 254
206 227 254
206 227 254
206 227 254
206 227 254
206 227 254
206 227 254
206 227 254
206 227 254
206 227 254
206 227 254
206 227 254
206 227 254
206 227 254
206 226 254
206 226 254
206 226 254
206 226 254
206 226 254
206 226 254
206 226 254
205 226 254
205 226 254
205 226 254
205 226 254
205 226 254
205 226 254
205 226 254
205 226 254
205 226 254
205 226 254
202 225 253
175 218 235
124 206 202
68 199 181
63 199 179
62 198 176
63 199 174
61 196 171
62 197 174
61 196 171
61 197 172
63 199 175
62 197 167
62 198 177
62 198 173
62 197 171
63 199 175
61 197 175
61 197 176
61 197 172
62 198 172
63 199 173
62 198 176
62 198 175
62 198 173
62 197 174
62 197 172
62 199 174
62 198 176
62 198 176
62 197 174
62 198 172
76 199 180
113 205 195
166 216 228
200 225 251
205 226 254
205 226 254
205 226 254
205 226 254
205 226 254
205 226 254
205 226 254
205 226 254
205 226 254
205 226 254
206 226 254
206 226 254
206 226 254
206 226 254
206 226 254
206 226 254
206 226 254
206 227 254
206 227 254
206 227 254
206 227 254
206 227 254
206 227 254
206 227 254
206 227 254
206 227 254
206 227 254
206 227 254
206 227 254
206 227 254
206 227 254
206 227 254
206 227 254
206 227 254
206 227 254
206 227 254
206 227 254
207 227 254
207 227 254
207 227 254
207 227 254
207 227 254
207 227 254
207 227 254
207 227 254
207 227 254
207 227 254
207 227 254
207 227 254
207 227 254
207 227 254
207 227 254
207 227 254
207 227 254
207 227 254
207 227 254
207 227 254
207 227 254
208 227 254
208 227 254
208 228 254
208 228 254
208 228 254
208 228 254
208 228 254
208 228 254
195 210 244
155 155 214
172 167 248
175 171 254
172 170 254
172 170 254
170 169 254
169 168 254
168 168 254
167 168 254
166 167 254
166 167 254
165 167 254
164 166 254
165 166 254
164 166 254
163 166 254
163 166 254
163 166 254
163 166 254
163 166 254
162 165 254
162 165 254
162 165 254
162 165 254
162 165 254
162 165 254
162 165 254
161 165 254
161 165 254
161 165 254
161 165 254
161 165 254
161 165 254
162 165 254
162 165 254
162 165 254
162 165 254
162 165 254
162 165 254
162 165 254
162 165 254
162 165 254
162 165 254
162 165 254
162 165 254
162 165 254
163 166 254
163 166 254
163 166 254
163 166 254
163 166 254
164 166 254
164 166 254
164 166 254
164 166 254
164 166 254
165 166 254
165 166 254
165 167 254
165 167 254
165 167 254
165 167 254
166 167 254
165 167 254
166 167 254
166 167 254
166 167 254
166 167 254
167 167 254
167 167 254
167 168 254
167 168 254
168 168 254
167 168 254
169 168 254
169 168 254
168 168 254
169 168 254
169 169 254
170 169 254
169 168 254
170 169 254
170 169 254
170 169 254
170 169 254
170 169 254
171 169 254
172 170 254
171 169 254
172 170 254
172 170 254
172 170 254
173 170 254
173 170 254
173 170 254
173 170 254
174 171 254
174 171 254
174 171 254
174 171 254
175 171 254
175 171 254
175 171 254
176 171 254
176 172 254
176 171 254
176 172 254
177 172 254
178 172 254
178 172 254
178 173 254
179 173 254
178 173 254
178 173 254
180 173 254
207 227 253
206 227 254
206 227 254
205 226 254
205 226 254
205 226 254
204 225 254
204 226 254
203 225 254
203 225 254
203 225 254
203 225 254
202 225 254
201 224 254
201 224 254
200 223 254
200 223 254
199 223 254
200 223 254
199 223 254
198 222 254
198 222 254
197 222 254
197 222 254
197 222 254
196 221 254
196 221 254
196 221 254
195 221 254
195 221 254
194 220 254
194 220 254
193 220 254
193 220 254
193 220 254
193 220 254
192 219 254
192 219 254
191 219 254
191 219 254
191 218 254
191 218 254
190 218 254
190 218 254
189 218 254
189 218 254
189 217 254
188 217 254
188 217 253
188 216 252
190 218 251
192 219 252
193 219 251
192 218 244
196 221 249
194 219 244
195 220 247
194 219 244
194 220 244
194 219 243
192 219 247
194 220 247
194 220 247
193 220 252
193 219 245
192 219 247
196 221 253
194 219 243
195 220 251
194 220 253
194 220 249
193 219 248
190 217 240
193 219 251
193 219 247
192 218 243
192 218 243
192 219 247
192 219 248
190 218 252
187 216 252
187 216 251
186 216 253
184 215 252
183 214 252
183 214 254
183 214 254
183 215 254
184 215 254
184 215 254
184 215 254
185 215 254
185 215 254
185 216 254
186 216 254
186 216 254
187 216 254
187 216 254
188 217 254
188 217 254
189 218 254
190 218 254
191 218 254
192 219 254
192 219 254
193 220 254
194 220 254
196 221 254
197 221 253
198 222 254
201 224 254
202 224 254
202 225 254
204 226 254
205 226 253
207 227 251
208 228 252
208 228 254
208 228 254
208 228 254
208 228 254
208 228 254
208 228 254
208 228 254
208 228 254
208 228 254
208 228 254
208 227 254
207 227 254
207 227 254
207 227 254
207 227 254
207 227 254
207 227 254
207 227 254
207 227 254
207 227 254
207 227 254
207 227 254
207 227 254
207 227 254
207 227 254
207 227 254
207 227 254
207 227 254
207 227 254
207 227 254
207 227 254
207 227 254
207 227 254
207 227 254
206 227 254
206 227 254
206 227 254
206 227 254
206 227 254
206 227 254
206 227 254
206 227 254
206 227 254
206 227 254
206 227 254
206 227 254
206 227 254
206 227 254
206 227 254
206 227 254
206 227 254
206 227 254
206 227 254
206 227 254
206 227 254
206 227 254
206 227 254
206 226 254
206 226 254
206 226 254
206 226 254
206 226 254
206 226 254
182 220 237
131 207 204
70 198 176
62 198 178
61 196 175
62 198 174
63 199 177
61 196 169
62 197 173
61 196 168
62 198 176
62 198 178
62 198 175
62 198 171
62 199 175
61 196 169
62 197 172
62 197 172
62 198 174
62 197 172
61 196 168
62 197 174
62 198 173
62 198 175
62 198 177
63 200 179
61 196 171
62 197 175
62 197 172
62 197 172
62 199 175
61 195 169
62 198 174
62 198 173
62 197 172
61 195 172
61 196 170
70 196 176
127 208 206
185 220 240
206 226 254
206 226 254
206 226 254
206 226 254
206 226 254
206 226 254
206 227 254
206 227 254
206 227 254
206 227 254
206 227 254
206 227 254
206 227 254
206 227 254
206 227 254
206 227 254
206 227 254
206 227 254
206 227 254
206 227 254
206 227 254
206 227 254
206 227 254
206 227 254
206 227 254
206 227 254
206 227 254
206 227 254
206 227 254
207 227 254
207 227 254
207 227 254
207 227 254
207 227 254
207 227 254
207 227 254
207 227 254
207 227 254
207 227 254
207 227 254
207 227 254
207 227 254
207 227 254
207 227 254
207 227 254
207 227 254
207 227 254
207 227 254
207 227 254
207 227 254
207 227 254
207 227 254
208 227 254
208 228 254
208 228 254
208 228 254
208 228 254
208 228 254
208 228 254
208 228 254
208 228 254
208 228 254
202 219 251
178 183 237
164 160 236
171 168 249
173 170 254
172 170 254
171 169 254
169 168 254
168 168 254
167 167 254
167 167 254
166 167 254
166 167 254
165 167 254
164 166 254
164 166 254
164 166 254
164 166 254
163 166 254
163 166 254
162 166 254
162 165 254
162 165 254
162 165 254
162 165 254
162 165 254
162 165 254
161 165 254
161 165 254
161 165 254
161 165 254
161 165 254
161 165 254
161 165 254
161 165 254
161 165 254
161 165 254
162 165 254
162 165 254
162 165 254
162 165 254
162 165 254
162 165 254
162 165 254
162 165 254
162 165 254
162 166 254
162 166 254
163 166 254
163 166 254
163 166 254
163 166 254
163 166 254
163 166 254
163 166 254
164 166 254
164 166 254
164 166 254
164 166 254
165 166 254
164 166 254
165 167 254
166 167 254
166 167 254
165 167 254
165 167 254
166 167 254
166 167 254
166 167 254
166 167 254
166 167 254
167 168 254
167 168 254
167 168 254
168 168 254
168 168 254
168 168 254
168 168 254
168 168 254
169 168 254
169 168 254
169 169 254
170 169 254
170 169 254
170 169 254
170 169 254
170 169 254
171 169 254
170 169 254
171 169 254
172 170 254
172 170 254
172 170 254
172 170 254
172 170 254
173 170 254
173 170 254
173 170 254
173 170 254
174 171 254
174 171 254
174 171 254
174 171 254
175 171 254
175 171 254
175 171 254
176 172 254
175 171 254
176 172 254
177 172 254
177 172 254
178 172 254
177 172 254
178 172 254
178 172 254
179 173 254
179 173 254
179 173 254
206 227 254
206 227 254
206 227 254
205 226 254
204 226 254
204 226 254
204 225 254
204 225 254
203 225 254
203 225 254
202 225 254
201 224 254
201 224 254
201 224 254
200 223 254
200 224 254
199 223 254
199 223 254
199 223 253
198 222 254
198 222 254
198 222 254
197 222 254
197 222 254
197 222 254
197 222 254
196 221 254
195 221 254
195 221 254
194 220 254
194 220 254
194 220 254
193 220 254
193 220 254
193 219 254
192 219 254
192 219 254
191 219 254
191 219 254
191 218 254
191 218 254
190 218 254
190 218 254
190 218 254
192 219 253
193 219 251
194 220 249
196 221 248
199 222 251
195 220 245
196 221 249
196 221 249
196 221 248
198 222 251
197 221 244
196 221 248
196 220 245
197 221 251
195 220 248
195 220 247
196 220 241
195 221 251
196 221 249
195 220 247
196 221 249
195 220 248
193 220 251
194 219 244
196 221 248
195 220 249
197 221 252
195 219 243
194 220 248
194 220 247
193 219 247
194 219 244
196 220 248
194 219 245
194 220 252
194 220 248
194 219 244
194 220 252
193 219 247
192 218 244
192 219 252
190 218 251
188 217 252
187 216 253
183 214 249
182 213 253
183 215 254
184 215 254
184 215 254
184 215 254
185 215 254
185 216 254
185 216 254
186 216 254
186 216 254
188 217 254
188 217 254
188 217 254
189 217 254
190 218 254
191 218 254
191 219 254
193 219 254
194 220 254
195 221 254
196 221 254
197 222 254
198 222 254
200 224 254
201 224 253
204 226 254
204 225 249
204 225 249
206 226 249
209 228 254
208 228 254
208 228 254
208 228 254
208 228 254
208 228 254
208 228 254
208 228 254
208 228 254
208 228 254
208 228 254
208 228 254
208 228 254
208 228 254
208 227 254
207 227 254
207 227 254
207 227 254
207 227 254
207 227 254
207 227 254
207 227 254
207 227 254
207 227 254
207 227 254
207 227 254
207 227 254
207 227 254
207 227 254
207 227 254
207 227 254
207 227 254
207 227 254
207 227 254
207 227 254
207 227 254
207 227 254
207 227 254
207 227 254
207 227 254
206 227 254
206 227 254
206 227 254
206 227 254
206 227 254
206 227 254
206 227 254
206 227 254
206 227 254
206 227 254
206 227 254
206 227 254
206 227 254
206 227 254
206 227 254
206 227 254
206 227 254
206 227 254
206 227 254
204 226 253
164 215 226
109 204 195
62 197 173
62 197 172
61 197 177
62 197 172
62 198 173
62 197 172
62 198 173
62 198 172
62 198 173
62 197 172
61 196 168
61 196 169
62 198 172
62 197 167
62 196 165
62 197 168
63 199 176
62 196 170
62 197 173
62 197 168
62 198 172
62 197 172
62 198 172
63 199 173
62 197 171
61 196 171
62 198 173
62 198 174
61 195 167
62 197 175
61 196 170
61 196 172
62 197 172
61 195 164
62 196 170
61 196 171
61 196 174
62 198 173
62 197 173
62 196 176
94 202 190
160 213 223
204 226 253
206 227 254
206 227 254
206 227 254
206 227 254
206 227 254
206 227 254
206 227 254
206 227 254
206 227 254
206 227 254
206 227 254
206 227 254
206 227 254
206 227 254
206 227 254
206 227 254
206 227 254
206 227 254
206 227 254
207 227 254
207 227 254
207 227 254
207 227 254
207 227 254
207 227 254
207 227 254
207 227 254
207 227 254
207 227 254
207 227 254
207 227 254
207 227 254
207 227 254
207 227 254
207 227 254
207 227 254
207 227 254
207 227 254
207 227 254
207 227 254
207 227 254
207 227 254
207 227 254
208 227 254
208 227 254
208 228 254
208 228 254
208 228 254
208 228 254
208 228 254
208 228 254
208 228 254
208 228 254
208 228 254
208 228 254
208 228 254
208 228 254
208 227 254
188 198 243
166 162 237
173 169 251
173 170 253
172 170 254
171 169 254
170 169 254
168 168 254
168 168 254
167 168 254
166 167 254
166 167 254
165 167 254
165 166 254
164 166 254
164 166 254
163 166 254
163 166 254
163 166 254
162 165 254
162 165 254
162 165 254
162 165 254
162 165 254
162 165 254
162 165 254
161 165 254
161 165 254
161 165 254
161 165 254
161 165 254
161 165 254
161 165 254
161 165 254
161 165 254
161 165 254
162 165 254
162 165 254
161 165 254
162 165 254
162 165 254
162 165 254
162 165 254
162 165 254
162 165 254
162 165 254
163 166 254
163 166 254
163 166 254
163 166 254
163 166 254
163 166 254
163 166 254
164 166 254
164 166 254
163 166 254
164 166 254
164 166 254
164 166 254
165 166 254
165 167 254
165 167 254
165 167 254
166 167 254
165 167 254
166 167 254
166 167 254
166 167 254
166 167 254
166 167 254
166 167 254
167 167 254
167 168 254
167 168 254
168 168 254
167 168 254
168 168 254
169 168 254
168 168 254
169 168 254
169 168 254
169 168 254
169 169 254
170 169 254
170 169 254
170 169 254
170 169 254
170 169 254
171 169 254
171 169 254
171 169 254
172 170 254
171 170 254
172 170 254
172 170 254
173 170 254
173 170 254
173 170 254
173 170 254
174 171 254
174 171 254
174 171 254
174 171 254
174 171 254
175 171 254
175 171 254
175 171 254
176 172 254
176 172 254
176 172 254
177 172 254
177 172 254
177 172 254
177 172 254
178 172 254
178 173 254
179 173 254
178 173 254
179 173 254
206 226 254
205 226 254
205 226 254
204 226 254
205 226 254
204 226 254
203 225 254
203 225 254
203 225 254
202 225 254
202 224 254
201 224 254
201 224 254
201 224 254
200 223 254
200 223 254
199 223 254
199 223 254
199 223 254
198 222 254
198 222 254
197 222 254
197 222 254
196 222 254
196 221 254
196 221 254
195 221 254
195 221 254
194 220 254
194 220 254
194 220 254
193 220 254
193 220 254
193 219 254
192 219 254
192 219 254
191 219 254
191 219 254
191 219 254
191 219 254
194 220 254
196 221 249
196 220 251
197 221 249
197 222 249
198 222 249
194 219 243
200 223 251
197 221 249
198 222 252
197 221 251
198 222 245
197 221 249
196 221 245
197 221 248
194 219 243
196 221 251
196 221 249
198 222 247
197 221 251
196 220 244
195 220 249
195 220 243
197 221 244
197 221 249
197 221 245
196 221 248
195 220 243
195 220 244
196 220 241
195 219 241
196 221 251
195 220 245
196 221 251
197 221 245
195 220 247
195 220 248
195 220 247
195 220 244
195 220 245
193 219 245
194 220 247
191 217 240
194 220 248
194 219 245
194 219 248
196 221 252
193 219 247
192 218 244
193 219 248
191 218 251
186 216 249
185 215 253
184 215 254
183 215 254
184 215 254
184 215 254
185 215 254
185 216 254
186 216 254
186 216 254
187 217 254
187 217 254
188 217 254
189 217 254
190 218 254
191 219 254
192 219 254
192 219 254
194 220 254
195 221 254
196 221 254
197 222 254
200 223 254
200 223 254
202 224 253
204 225 254
203 225 252
205 225 248
207 227 251
209 228 254
208 228 254
208 228 254
208 228 254
208 228 254
208 228 254
208 228 254
208 228 254
208 228 254
208 228 254
208 228 254
208 228 254
208 228 254
208 228 254
208 228 254
208 228 254
208 228 254
208 228 254
208 227 254
207 227 254
207 227 254
207 227 254
207 227 254
207 227 254
207 227 254
207 227 254
207 227 254
207 227 254
207 227 254
207 227 254
207 227 254
207 227 254
207 227 254
207 227 254
207 227 254
207 227 254
207 227 254
207 227 254
207 227 254
207 227 254
207 227 254
207 227 254
207 227 254
207 227 254
207 227 254
206 227 254
206 227 254
206 227 254
206 227 254
206 227 254
206 227 254
206 227 254
206 227 254
206 227 254
206 227 254
206 227 254
157 214 222
94 201 186
62 198 175
61 196 171
62 197 172
63 199 175
62 198 173
61 196 169
63 198 170
61 196 168
62 197 169
62 197 169
62 197 169
62 197 172
62 197 166
61 196 167
62 198 172
61 196 167
61 196 168
62 197 168
61 197 172
62 196 171
62 198 172
62 197 171
62 197 172
62 196 168
61 196 168
62 198 169
62 197 173
62 197 172
62 197 171
62 197 171
62 198 172
61 194 168
62 197 168
62 197 172
61 196 173
61 196 171
62 196 168
61 196 171
62 196 173
61 195 174
62 197 174
61 196 171
62 197 177
62 197 177
100 203 190
156 212 220
204 226 253
206 227 254
206 227 254
206 227 254
206 227 254
206 227 254
206 227 254
206 227 254
206 227 254
206 227 254
206 227 254
207 227 254
207 227 254
207 227 254
207 227 254
207 227 254
207 227 254
207 227 254
207 227 254
207 227 254
207 227 254
207 227 254
207 227 254
207 227 254
207 227 254
207 227 254
207 227 254
207 227 254
207 227 254
207 227 254
207 227 254
207 227 254
207 227 254
207 227 254
207 227 254
207 227 254
208 227 254
208 227 254
208 228 254
208 228 254
208 228 254
208 228 254
208 228 254
208 228 254
208 228 254
208 228 254
208 228 254
208 228 254
208 228 254
208 228 254
208 228 254
208 228 254
208 228 254
208 228 254
208 228 254
195 209 244
167 166 232
169 164 243
174 170 253
172 170 254
172 170 254
170 169 254
169 168 254
168 168 254
167 168 254
167 167 254
166 167 254
166 167 254
165 167 254
164 166 254
164 166 254
164 166 254
163 166 254
163 166 254
163 166 254
162 165 254
162 165 254
162 165 254
162 165 254
162 165 254
162 165 254
162 165 254
161 165 254
161 165 254
161 165 254
161 165 254
161 165 254
161 165 254
161 165 254
161 165 254
161 165 254
162 165 254
161 165 254
162 165 254
162 165 254
162 165 254
162 165 254
162 165 254
162 165 254
162 165 254
162 165 254
163 166 254
162 165 254
163 166 254
163 166 254
163 166 254
163 166 254
163 166 254
163 166 254
164 166 254
163 166 254
164 166 254
164 166 254
164 166 254
164 166 254
164 166 254
165 166 254
165 167 254
165 167 254
165 167 254
166 167 254
166 167 254
166 167 254
166 167 254
166 167 254
166 167 254
167 168 254
167 167 254
167 168 254
168 168 254
168 168 254
167 168 254
168 168 254
168 168 254
169 168 254
168 168 254
168 168 254
169 169 254
169 169 254
170 169 254
170 169 254
170 169 254
171 169 254
171 169 254
171 169 254
171 169 254
171 169 254
171 169 254
171 169 254
173 170 254
171 170 254
172 170 254
172 170 254
173 170 254
174 171 254
174 171 254
173 170 254
174 171 254
175 171 254
175 171 254
175 171 254
175 171 254
176 171 254
176 171 254
176 172 254
176 172 254
176 172 254
177 172 254
177 172 254
176 172 254
177 172 254
178 173 254
177 172 254
179 173 254
178 173 254
179 173 254
206 227 254
205 226 254
205 226 254
204 226 254
204 225 254
203 225 254
203 225 254
203 225 254
202 225 254
202 224 254
202 224 254
201 224 254
201 224 254
200 224 254
200 223 254
199 223 254
199 223 254
199 223 254
198 222 254
198 222 254
198 222 254
197 222 254
197 222 254
196 221 254
196 221 254
195 221 254
195 221 254
195 221 254
194 220 254
194 220 254
194 220 254
193 220 254
193 220 254
193 219 254
192 219 254
192 219 254
194 220 254
196 221 248
199 223 252
197 221 245
197 221 245
200 223 249
197 221 247
200 223 249
198 222 247
199 222 251
199 223 249
198 222 248
200 223 251
197 221 240
198 222 248
196 220 241
196 221 244
196 221 247
199 223 252
200 223 249
198 222 249
198 222 249
198 222 249
197 221 248
197 221 239
200 222 247
197 221 248
199 222 249
198 222 251
200 223 253
197 221 244
199 223 248
196 221 245
195 220 241
196 220 243
198 221 244
196 220 243
197 221 241
197 221 251
198 222 249
198 222 249
199 222 248
196 221 248
198 222 248
194 219 245
195 220 249
196 221 248
196 221 252
195 220 247
193 219 248
193 219 247
194 219 243
194 219 245
194 220 247
191 217 243
193 219 251
190 218 247
190 218 248
190 218 249
187 216 251
186 216 254
183 215 254
184 215 254
185 215 254
185 216 254
185 216 254
186 216 254
187 216 254
188 217 254
189 217 254
189 218 254
190 218 254
191 219 254
192 219 254
193 220 254
194 220 254
196 221 254
197 222 254
198 222 254
199 223 254
202 224 254
202 225 254
204 225 253
206 226 254
208 227 249
210 229 254
208 228 254
208 228 254
208 228 254
208 228 254
208 228 254
208 228 254
208 228 254
208 228 254
208 228 254
208 228 254
208 228 254
208 228 254
208 228 254
208 228 254
208 228 254
208 228 254
208 228 254
208 228 254
208 228 254
208 228 254
208 228 254
208 228 254
208 227 254
207 227 254
207 227 254
207 227 254
207 227 254
207 227 254
207 227 254
207 227 254
207 227 254
207 227 254
207 227 254
207 227 254
207 227 254
207 227 254
207 227 254
207 227 254
207 227 254
207 227 254
207 227 254
207 227 254
207 227 254
207 227 254
207 227 254
207 227 254
207 227 254
207 227 254
207 227 254
207 227 254
207 227 254
207 227 254
178 219 234
92 202 186
62 198 174
61 196 172
61 197 175
62 198 174
62 197 170
61 196 172
62 198 174
62 197 173
61 195 165
62 197 173
62 197 170
62 196 167
62 198 172
61 196 167
62 197 172
62 197 172
61 196 169
62 198 171
62 197 168
62 197 170
62 198 173
62 197 170
62 197 167
61 195 166
63 198 171
62 197 169
61 196 169
62 197 168
63 199 174
62 197 168
62 196 168
62 196 167
62 197 170
62 198 168
61 196 166
62 198 172
62 198 175
62 197 171
62 197 171
62 196 168
62 197 172
61 196 172
62 197 172
62 195 169
61 195 175
62 196 175
61 195 172
61 193 174
92 201 185
168 215 227
207 227 254
207 227 254
207 227 254
207 227 254
207 227 254
207 227 254
207 227 254
207 227 254
207 227 254
207 227 254
207 227 254
207 227 254
207 227 254
207 227 254
207 227 254
207 227 254
207 227 254
207 227 254
207 227 254
207 227 254
207 227 254
207 227 254
207 227 254
207 227 254
207 227 254
207 227 254
207 227 254
207 227 254
207 227 254
208 227 254
208 228 254
208 228 254
208 228 254
208 228 254
208 228 254
208 228 254
208 228 254
208 228 254
208 228 254
208 228 254
208 228 254
208 228 254
208 228 254
208 228 254
208 228 254
208 228 254
208 228 254
208 228 254
208 228 254
208 228 254
208 228 254
208 228 254
180 190 232
164 160 235
171 166 247
174 171 254
172 170 254
171 169 254
170 169 254
168 168 254
168 168 254
167 167 254
166 167 254
166 167 254
166 167 254
165 167 254
164 166 254
164 166 254
163 166 254
163 166 254
163 166 254
163 166 254
163 166 254
162 165 254
162 165 254
162 165 254
162 165 254
162 165 254
162 165 254
161 165 254
161 165 254
162 165 254
162 165 254
161 165 254
161 165 254
161 165 254
161 165 254
161 165 254
162 165 254
162 165 254
162 165 254
162 165 254
162 165 254
162 165 254
162 165 254
162 165 254
162 165 254
162 166 254
162 166 254
163 166 254
163 166 254
163 166 254
163 166 254
163 166 254
163 166 254
164 166 254
164 166 254
164 166 254
164 166 254
164 166 254
164 166 254
164 166 254
164 166 254
165 167 254
165 167 254
165 167 254
165 167 254
166 167 254
166 167 254
166 167 254
166 167 254
166 167 254
167 167 254
167 167 254
167 167 254
167 168 254
168 168 254
168 168 254
168 168 254
168 168 254
168 168 254
169 168 254
169 168 254
169 169 254
169 169 254
169 169 254
170 169 254
170 169 254
170 169 254
170 169 254
170 169 254
170 169 254
171 169 254
171 170 254
172 170 254
172 170 254
172 170 254
172 170 254
173 170 254
173 170 254
173 170 254
173 170 254
173 170 254
174 170 254
174 171 254
174 171 254
174 171 254
174 171 254
175 171 254
175 171 254
175 171 254
175 171 254
176 172 254
176 172 254
177 172 254
177 172 254
177 172 254
177 172 254
178 172 254
178 172 254
178 173 254
179 173 254
178 173 254
179 173 254
205 226 254
205 226 254
204 226 254
203 225 254
203 225 254
203 225 254
203 225 254
203 225 254
202 225 254
201 224 254
201 224 254
201 224 254
201 224 254
200 223 254
200 223 254
199 223 254
199 223 254
199 223 254
198 222 254
198 222 254
197 222 254
197 222 254
197 222 254
196 221 254
196 221 254
195 221 254
195 221 254
194 220 254
194 220 254
194 220 254
194 220 254
193 220 254
193 220 254
194 220 252
196 221 251
200 223 252
200 223 252
199 222 249
198 222 248
200 223 248
199 222 247
199 222 244
197 222 248
196 219 236
199 222 248
199 222 248
201 224 249
197 221 243
200 223 248
199 223 251
198 222 249
200 223 251
200 223 248
199 222 247
200 223 249
201 223 249
198 221 243
199 222 245
197 221 244
197 221 241
198 221 244
194 219 240
195 219 237
195 219 239
196 220 239
195 219 237
194 219 237
192 217 226
194 219 239
196 220 245
195 219 240
193 218 236
194 219 245
196 220 243
194 220 244
193 218 233
194 219 239
194 219 240
195 220 247
195 220 244
195 220 248
195 220 243
196 220 245
198 222 248
194 220 248
196 221 251
195 220 245
194 220 245
195 220 249
195 220 248
193 219 249
193 219 247
195 220 245
193 219 247
191 218 244
193 219 248
189 216 244
189 217 249
187 216 251
184 215 252
184 215 254
185 215 254
185 216 254
186 216 254
186 216 254
187 216 254
188 217 254
189 217 254
189 218 254
190 218 254
192 219 254
192 219 254
193 220 254
194 220 254
196 221 254
197 222 254
199 223 254
201 224 254
203 225 254
205 226 254
204 225 251
207 227 253
209 228 254
209 228 254
209 228 254
209 228 254
209 228 254
209 228 254
208 228 254
208 228 254
208 228 254
208 228 254
208 228 254
208 228 254
208 228 254
208 228 254
208 228 254
208 228 254
208 228 254
208 228 254
208 228 254
208 228 254
208 228 254
208 228 254
208 228 254
208 228 254
208 228 254
208 228 254
208 228 254
208 228 254
208 227 254
208 227 254
207 227 254
207 227 254
207 227 254
207 227 254
207 227 254
207 227 254
207 227 254
207 227 254
207 227 254
207 227 254
207 227 254
207 227 254
207 227 254
207 227 254
207 227 254
207 227 254
207 227 254
207 227 254
207 227 254
207 227 254
193 223 244
130 208 206
62 197 174
62 198 177
62 199 177
62 197 174
62 196 169
62 198 172
62 197 171
62 198 171
62 198 175
62 196 162
62 198 173
62 197 162
62 198 173
62 198 172
62 198 172
62 196 165
62 197 168
62 197 169
62 198 174
62 198 172
62 197 168
62 197 171
62 198 169
62 197 173
63 199 172
61 195 164
62 198 173
62 196 170
63 199 173
61 194 164
61 196 167
62 198 174
61 194 163
61 196 168
62 196 169
61 195 161
62 196 169
62 197 171
62 196 170
62 198 173
62 195 168
61 195 168
63 199 172
61 194 167
63 199 170
62 198 174
62 196 174
61 195 175
62 197 172
60 195 174
62 196 174
61 194 171
118 205 201
190 222 243
207 227 254
207 227 254
207 227 254
207 227 254
207 227 254
207 227 254
207 227 254
207 227 254
207 227 254
207 227 254
207 227 254
207 227 254
207 227 254
207 227 254
207 227 254
207 227 254
207 227 254
207 227 254
207 227 254
207 227 254
208 227 254
208 228 254
208 228 254
208 228 254
208 228 254
208 228 254
208 228 254
208 228 254
208 228 254
208 228 254
208 228 254
208 228 254
208 228 254
208 228 254
208 228 254
208 228 254
208 228 254
208 228 254
208 228 254
208 228 254
208 228 254
208 228 254
208 228 254
208 228 254
209 228 254
209 228 254
209 228 254
209 228 254
197 213 244
167 166 230
173 169 249
175 171 254
173 170 254
171 170 254
170 169 254
169 168 254
168 168 254
168 168 254
167 168 254
166 167 254
166 167 254
165 167 254
165 166 254
164 166 254
164 166 254
164 166 254
163 166 254
163 166 254
163 166 254
163 166 254
162 165 254
162 165 254
162 165 254
162 165 254
162 165 254
162 165 254
162 165 254
162 165 254
162 165 254
162 165 254
162 165 254
162 165 254
162 165 254
162 165 254
162 165 254
162 165 254
162 165 254
162 165 254
162 165 254
162 165 254
162 165 254
162 165 254
162 165 254
162 165 254
163 166 254
163 166 254
163 166 254
163 166 254
163 166 254
163 166 254
163 166 254
164 166 254
164 166 254
164 166 254
164 166 254
164 166 254
164 166 254
164 166 254
165 167 254
165 167 254
165 167 254
165 167 254
166 167 254
165 167 254
166 167 254
166 167 254
166 167 254
166 167 254
166 167 254
167 167 254
167 167 254
168 168 254
167 168 254
167 168 254
167 168 254
168 168 254
168 168 254
168 168 254
168 168 254
169 168 254
169 168 254
169 168 254
170 169 254
169 169 254
170 169 254
170 169 254
170 169 254
170 169 254
171 169 254
171 169 254
171 169 254
172 170 254
171 170 254
172 170 254
172 170 254
172 170 254
173 170 254
172 170 254
173 170 254
173 170 254
174 170 254
174 171 254
174 171 254
174 171 254
175 171 254
175 171 254
175 171 254
176 171 254
175 171 254
176 172 254
176 171 254
177 172 254
176 172 254
177 172 254
177 172 254
177 172 254
177 172 254
178 173 254
179 173 254
178 173 254
178 173 254
178 173 254
205 226 254
205 226 254
205 226 254
204 225 254
203 225 254
203 225 254
202 225 254
202 225 254
202 224 254
202 224 254
201 224 254
201 224 254
200 224 254
200 223 254
199 223 254
199 223 254
199 223 254
198 222 254
198 222 254
198 222 254
197 222 254
197 222 254
196 221 254
196 221 254
196 221 254
195 221 254
195 221 254
195 221 254
194 220 254
194 220 254
194 220 253
198 222 253
200 223 252
200 223 251
199 223 249
200 222 251
200 223 251
201 223 251
200 223 253
197 221 239
200 223 248
198 221 243
199 222 247
199 222 243
199 222 241
202 224 251
199 222 247
199 222 245
202 224 254
201 223 252
202 224 253
199 223 252
196 219 236
198 221 244
198 221 243
194 218 232
194 219 237
196 220 237
196 220 243
197 221 245
195 220 243
196 220 236
196 219 235
195 219 235
196 220 239
195 220 239
195 219 236
195 219 233
196 220 239
195 219 237
196 220 243
196 221 244
194 219 233
197 221 248
196 221 245
195 219 237
195 219 243
194 218 233
195 219 241
194 219 243
192 217 228
194 218 239
193 218 236
192 217 232
193 219 243
194 219 239
193 218 241
196 221 249
193 218 236
195 220 243
195 219 239
196 221 251
195 220 243
195 220 244
196 221 248
195 220 248
192 218 241
195 220 247
194 220 248
193 218 244
191 218 249
188 216 251
184 215 254
184 215 254
185 216 254
186 216 254
186 216 254
187 216 254
188 217 254
189 218 254
189 218 254
190 218 254
192 219 254
193 220 254
194 220 254
195 221 254
197 222 254
198 223 254
200 224 254
201 224 254
202 225 254
204 225 254
206 226 251
205 226 247
209 228 254
209 228 254
209 228 254
209 228 254
209 228 254
209 228 254
209 228 254
209 228 254
209 228 254
209 228 254
208 228 254
208 228 254
208 228 254
208 228 254
208 228 254
208 228 254
208 228 254
208 228 254
208 228 254
208 228 254
208 228 254
208 228 254
208 228 254
208 228 254
208 228 254
208 228 254
208 228 254
208 228 254
208 228 254
208 228 254
208 228 254
208 228 254
208 228 254
208 228 254
208 227 254
208 227 254
207 227 254
207 227 254
207 227 254
207 227 254
207 227 254
207 227 254
207 227 254
207 227 254
207 227 254
207 227 254
204 226 253
157 214 222
77 200 178
62 197 175
62 198 172
61 196 169
61 197 174
62 197 172
63 199 175
62 198 172
61 196 169
62 198 172
62 198 169
62 196 165
63 198 172
63 199 173
61 197 172
61 194 161
62 198 170
62 197 171
61 196 167
62 196 167
62 198 172
62 197 165
61 196 169
62 198 174
62 198 172
61 196 166
62 197 169
62 197 168
62 197 168
62 198 170
62 197 163
62 196 166
62 197 165
61 195 165
62 197 168
61 195 160
61 195 171
62 197 168
63 198 170
62 196 171
61 195 163
62 196 168
63 197 168
60 193 164
61 196 168
62 197 167
62 196 172
61 196 172
62 197 172
61 195 172
61 195 170
61 194 171
61 194 175
61 193 170
61 194 172
76 199 183
160 211 223
206 227 254
207 227 254
207 227 254
207 227 254
207 227 254
207 227 254
207 227 254
207 227 254
207 227 254
207 227 254
207 227 254
208 227 254
208 227 254
208 228 254
208 228 254
208 228 254
208 228 254
208 228 254
208 228 254
208 228 254
208 228 254
208 228 254
208 228 254
208 228 254
208 228 254
208 228 254
208 228 254
208 228 254
208 228 254
208 228 254
208 228 254
208 228 254
208 228 254
208 228 254
208 228 254
208 228 254
208 228 254
209 228 254
209 228 254
209 228 254
209 228 254
209 228 254
209 228 254
209 228 254
209 228 254
209 228 254
192 205 241
158 155 223
174 169 249
174 171 254
173 170 254
171 169 254
170 169 254
169 169 254
168 168 254
168 168 254
167 167 254
166 167 254
166 167 254
165 167 254
164 166 254
165 166 254
164 166 254
164 166 254
163 166 254
163 166 254
163 166 254
163 166 254
163 166 254
162 165 254
162 165 254
162 165 254
162 165 254
162 165 254
162 165 254
162 165 254
162 165 254
162 165 254
162 165 254
162 165 254
162 165 254
162 165 254
162 165 254
162 165 254
162 165 254
162 165 254
162 165 254
162 165 254
162 165 254
162 165 254
162 165 254
163 166 254
163 166 254
163 166 254
163 166 254
163 166 254
163 166 254
163 166 254
164 166 254
164 166 254
164 166 254
164 166 254
164 166 254
164 166 254
164 166 254
165 167 254
165 167 254
165 167 254
165 167 254
165 167 254
166 167 254
166 167 254
166 167 254
166 167 254
166 167 254
166 167 254
166 167 254
167 167 254
167 168 254
168 168 254
168 168 254
168 168 254
168 168 254
168 168 254
168 168 254
168 168 254
169 168 254
169 168 254
169 169 254
169 168 254
170 169 254
170 169 254
170 169 254
170 169 254
170 169 254
171 169 254
171 169 254
171 169 254
171 169 254
171 169 254
172 170 254
172 170 254
172 170 254
172 170 254
173 170 254
173 170 254
173 170 254
174 171 254
173 170 254
174 171 254
174 171 254
174 171 254
174 171 254
175 171 254
175 171 254
175 171 254
175 171 254
176 172 254
176 172 254
176 172 254
177 172 254
176 172 254
177 172 254
177 172 254
177 172 254
178 172 254
177 172 254
178 173 254
178 173 254
179 173 254
179 173 254
205 226 254
204 226 254
204 225 254
203 225 254
203 225 254
203 225 254
202 225 254
202 224 254
201 224 254
201 224 254
201 224 254
200 224 254
200 223 254
199 223 254
199 223 254
199 223 254
199 223 254
198 222 254
198 222 254
197 222 254
197 222 254
197 222 254
196 221 254
196 221 254
196 221 254
195 221 254
195 221 254
195 220 252
198 222 252
198 222 244
200 223 251
200 223 247
199 222 245
198 221 243
201 223 244
199 223 248
199 222 247
201 223 247
201 223 247
201 223 249
200 223 248
202 224 248
199 223 247
200 223 248
200 223 249
200 223 253
201 224 249
200 223 248
199 222 243
197 221 243
195 218 229
197 221 244
197 220 233
197 220 239
196 220 240
199 222 245
196 219 235
197 220 240
196 220 240
197 221 240
197 221 243
198 222 244
197 220 240
198 221 244
198 222 247
198 221 241
197 221 241
197 220 235
198 221 244
198 222 247
198 221 244
197 221 241
195 219 232
197 221 247
195 219 240
196 220 240
195 220 240
195 220 240
193 217 226
194 219 237
194 218 230
195 220 240
194 218 235
195 219 240
195 219 236
194 218 230
194 219 237
194 219 241
194 218 233
195 220 245
194 219 244
195 219 240
195 220 245
197 221 247
196 221 248
196 221 248
197 221 252
194 219 244
195 220 245
195 221 253
193 218 241
194 219 244
191 218 245
189 217 251
184 214 253
185 215 254
185 216 254
186 216 254
187 216 254
188 217 254
188 217 254
189 218 254
190 218 254
191 219 254
192 219 254
194 220 254
195 221 254
197 222 254
197 222 254
199 223 254
201 224 254
203 225 254
204 226 254
204 225 252
207 227 252
208 228 254
209 229 254
209 228 254
209 228 254
209 228 254
209 228 254
209 228 254
209 228 254
209 228 254
209 228 254
209 228 254
209 228 254
209 228 254
209 228 254
209 228 254
208 228 254
208 228 254
208 228 254
208 228 254
208 228 254
208 228 254
208 228 254
208 228 254
208 228 254
208 228 254
208 228 254
208 228 254
208 228 254
208 228 254
208 228 254
208 228 254
208 228 254
208 228 254
208 228 254
208 228 254
208 228 254
208 228 254
208 228 254
208 228 254
208 228 254
208 228 254
208 228 254
208 227 254
208 227 254
195 224 246
104 203 189
61 196 168
62 197 172
62 197 174
61 196 164
62 198 173
62 197 170
61 196 169
63 198 172
62 197 170
62 196 164
62 197 171
62 198 171
61 196 167
61 195 164
61 196 167
61 196 169
61 196 166
61 195 165
62 196 165
62 196 167
62 197 171
62 198 174
62 197 170
62 196 166
62 196 164
62 196 166
62 198 169
62 196 161
62 197 169
62 196 165
61 194 162
62 196 165
61 195 166
62 197 164
62 197 169
61 196 166
61 194 161
62 196 167
62 196 168
61 196 164
61 195 163
62 198 172
62 197 168
62 196 168
61 196 165
61 195 161
61 194 164
62 196 171
61 196 167
62 196 175
61 195 163
63 197 172
62 194 166
61 195 166
61 196 171
61 195 168
62 195 172
62 195 173
110 202 195
194 222 245
208 227 254
208 227 254
208 228 254
208 228 254
208 228 254
208 228 254
208 228 254
208 228 254
208 228 254
208 228 254
208 228 254
208 228 254
208 228 254
208 228 254
208 228 254
208 228 254
208 228 254
208 228 254
208 228 254
208 228 254
208 228 254
208 228 254
208 228 254
208 228 254
208 228 254
208 228 254
208 228 254
208 228 254
208 228 254
209 228 254
209 228 254
209 228 254
209 228 254
209 228 254
209 228 254
209 228 254
209 228 254
209 228 254
209 228 254
209 228 254
209 228 254
209 228 254
208 227 253
167 172 220
170 165 243
176 172 254
173 170 254
173 170 254
171 169 254
170 169 254
169 169 254
168 168 254
168 168 254
167 168 254
167 167 254
165 167 254
165 167 254
165 166 254
164 166 254
164 166 254
163 166 254
163 166 254
163 166 254
163 166 254
163 166 254
163 166 254
163 166 254
163 166 254
162 165 254
162 165 254
162 165 254
162 165 254
162 165 254
162 165 254
162 165 254
162 165 254
162 165 254
162 165 254
162 165 254
162 165 254
162 165 254
162 165 254
162 165 254
162 165 254
162 166 254
163 166 254
163 166 254
163 166 254
163 166 254
163 166 254
163 166 254
163 166 254
164 166 254
164 166 254
164 166 254
164 166 254
164 166 254
164 166 254
164 166 254
165 166 254
164 166 254
165 166 254
165 167 254
165 167 254
165 167 254
165 167 254
165 167 254
166 167 254
166 167 254
166 167 254
166 167 254
167 167 254
167 167 254
167 167 254
167 168 254
167 168 254
167 168 254
167 168 254
168 168 254
168 168 254
168 168 254
169 168 254
169 168 254
169 168 254
169 169 254
169 169 254
169 168 254
170 169 254
170 169 254
170 169 254
170 169 254
170 169 254
171 169 254
171 169 254
171 169 254
171 169 254
172 170 254
172 170 254
172 170 254
172 170 254
172 170 254
173 170 254
173 170 254
173 170 254
174 170 254
174 171 254
174 171 254
175 171 254
174 171 254
175 171 254
175 171 254
175 171 254
175 171 254
176 172 254
176 171 254
176 172 254
176 172 254
176 172 254
176 172 254
177 172 254
177 172 254
177 172 254
177 172 254
178 172 254
178 173 254
178 172 254
179 173 254
180 173 254
179 173 254
204 226 254
204 226 254
203 225 254
204 225 254
203 225 254
203 225 254
202 225 254
202 224 254
202 224 254
201 224 254
201 224 254
201 224 254
200 223 254
200 223 254
199 223 254
199 223 254
199 223 254
198 222 254
198 222 254
197 222 254
197 222 254
197 222 254
196 222 254
196 221 254
196 221 254
197 222 254
199 223 253
201 224 251
201 223 248
201 224 252
199 222 247
202 224 252
201 223 248
200 222 243
202 224 249
200 223 248
203 224 248
202 223 249
201 223 247
202 224 252
202 224 248
202 224 247
201 223 249
201 223 248
199 222 245
197 220 236
199 222 241
197 221 241
198 221 243
198 221 239
197 220 235
196 220 233
198 221 240
198 221 241
198 221 237
198 221 241
198 221 241
199 222 245
198 221 237
199 222 244
198 221 241
199 222 244
197 221 239
199 222 244
197 221 241
197 220 241
198 222 244
197 221 240
197 221 244
197 221 240
198 221 247
199 222 248
195 219 233
199 222 243
196 220 236
198 222 245
198 221 244
196 220 239
197 221 243
199 222 248
198 221 245
197 221 244
196 220 243
196 220 241
196 220 243
194 218 232
195 220 241
197 221 244
195 219 237
195 220 243
194 219 237
194 219 237
194 219 240
194 219 239
195 220 243
194 218 236
194 219 244
196 221 247
195 220 245
195 221 251
198 222 247
195 220 247
195 220 248
193 219 251
194 220 249
191 218 249
187 216 252
185 216 254
186 216 254
186 216 254
187 217 254
188 217 254
189 218 254
190 218 254
191 219 254
192 219 254
193 220 254
194 220 253
197 222 254
197 222 254
199 223 254
201 224 254
201 224 254
203 225 254
206 227 254
207 227 253
208 228 252
210 229 254
209 228 254
209 228 254
209 228 254
209 228 254
209 228 254
209 228 254
209 228 254
209 228 254
209 228 254
209 228 254
209 228 254
209 228 254
209 228 254
209 228 254
209 228 254
209 228 254
209 228 254
209 228 254
209 228 254
208 228 254
208 228 254
208 228 254
208 228 254
208 228 254
208 228 254
208 228 254
208 228 254
208 228 254
208 228 254
208 228 254
208 228 254
208 228 254
208 228 254
208 228 254
208 228 254
208 228 254
208 228 254
208 228 254
208 228 254
208 228 254
176 219 234
79 200 180
62 198 175
63 198 172
62 197 171
61 197 172
61 196 170
62 197 169
62 197 169
61 197 172
62 198 171
62 196 166
63 199 171
61 196 164
61 195 167
62 197 170
62 197 166
62 197 168
61 196 169
63 199 175
62 196 168
61 196 167
62 197 170
62 198 172
62 196 159
62 198 170
62 197 167
61 196 166
61 195 163
62 197 162
63 198 172
62 196 166
62 196 162
62 196 170
62 197 170
62 197 168
62 196 167
63 199 173
60 194 160
62 197 167
62 196 167
61 195 166
61 195 166
62 195 163
62 196 166
62 195 165
61 195 161
62 197 169
62 195 169
62 196 170
62 196 169
62 197 169
61 194 174
61 194 162
62 196 171
61 195 169
61 194 168
62 194 171
63 197 171
61 195 175
62 194 172
61 195 171
73 195 176
180 218 235
208 228 254
208 228 254
208 228 254
208 228 254
208 228 254
208 228 254
208 228 254
208 228 254
208 228 254
208 228 254
208 228 254
208 228 254
208 228 254
208 228 254
208 228 254
208 228 254
208 228 254
208 228 254
208 228 254
208 228 254
208 228 254
208 228 254
209 228 254
209 228 254
209 228 254
209 228 254
209 228 254
209 228 254
209 228 254
209 228 254
209 228 254
209 228 254
209 228 254
209 228 254
209 228 254
209 228 254
209 228 254
209 228 254
209 228 254
209 228 254
203 219 251
176 178 236
173 167 247
176 171 254
174 171 254
173 170 254
172 170 254
170 169 254
169 169 254
168 168 254
168 168 254
167 168 254
166 167 254
166 167 254
165 167 254
165 167 254
165 167 254
164 166 254
164 166 254
164 166 254
163 166 254
163 166 254
163 166 254
163 166 254
163 166 254
163 166 254
163 166 254
163 166 254
163 166 254
162 165 254
162 165 254
162 165 254
162 165 254
162 165 254
162 165 254
162 165 254
162 165 254
162 166 254
162 166 254
163 166 254
163 166 254
163 166 254
163 166 254
163 166 254
163 166 254
163 166 254
163 166 254
163 166 254
163 166 254
164 166 254
163 166 254
164 166 254
164 166 254
164 166 254
164 166 254
164 166 254
164 166 254
165 167 254
165 167 254
165 167 254
165 167 254
165 167 254
165 167 254
166 167 254
166 167 254
166 167 254
166 167 254
166 167 254
166 167 254
167 167 254
167 168 254
167 167 254
167 168 254
167 168 254
168 168 254
167 168 254
168 168 254
168 168 254
169 168 254
168 168 254
169 168 254
169 168 254
170 169 254
169 168 254
170 169 254
170 169 254
170 169 254
170 169 254
170 169 254
171 169 254
171 169 254
171 169 254
171 169 254
171 169 254
172 170 254
172 170 254
172 170 254
172 170 254
173 170 254
173 170 254
173 170 254
173 170 254
173 170 254
173 170 254
173 170 254
174 171 254
174 171 254
175 171 254
175 171 254
175 171 254
175 171 254
175 171 254
176 172 254
175 171 254
176 172 254
176 172 254
177 172 254
176 172 254
177 172 254
177 172 254
178 172 254
178 172 254
178 173 254
178 173 254
178 173 254
179 173 254
179 173 254
179 173 254
205 226 254
204 226 254
204 225 254
203 225 254
203 225 254
203 225 254
202 225 254
202 224 254
202 224 254
201 224 254
201 224 254
200 224 254
200 223 254
200 223 254
199 223 254
199 223 254
199 223 254
198 222 254
198 222 254
198 222 254
197 222 254
197 222 254
196 221 254
197 222 253
200 223 251
200 223 249
201 224 252
201 223 248
203 224 248
201 223 248
201 224 251
199 221 236
202 224 249
201 223 247
203 224 247
201 224 249
202 224 249
201 223 248
202 224 247
203 225 251
203 224 249
199 221 236
198 221 237
199 222 244
197 220 230
197 220 236
198 221 237
197 220 236
198 221 236
199 222 241
199 221 240
199 221 240
200 223 245
198 220 230
201 223 245
200 223 248
200 223 249
198 221 235
199 222 241
199 222 243
198 221 240
198 221 240
199 222 241
199 222 245
198 222 244
199 222 244
200 223 248
201 224 251
199 222 240
198 221 241
200 223 245
200 223 248
197 221 243
198 221 237
199 222 248
199 222 244
198 221 237
196 220 236
196 219 229
196 220 241
198 221 243
198 222 247
198 222 247
198 222 247
199 222 245
198 222 249
197 220 243
195 219 237
197 221 243
197 221 243
197 221 243
196 219 236
196 220 245
194 219 237
196 220 245
195 219 239
193 218 237
195 220 243
196 221 248
197 221 243
196 220 244
198 222 248
195 220 251
194 219 244
194 220 248
195 220 247
195 220 249
192 219 251
187 217 253
186 216 254
186 216 254
187 217 254
188 217 254
189 217 254
190 218 254
191 218 254
192 219 254
193 220 254
194 220 254
196 221 254
197 222 254
199 223 254
200 224 254
201 224 254
205 226 254
206 227 254
207 227 252
208 227 252
209 228 254
209 229 254
209 229 254
209 228 254
209 228 254
209 228 254
209 228 254
209 228 254
209 228 254
209 228 254
209 228 254
209 228 254
209 228 254
209 228 254
209 228 254
209 228 254
209 228 254
209 228 254
209 228 254
209 228 254
209 228 254
209 228 254
209 228 254
209 228 254
209 228 254
209 228 254
208 228 254
208 228 254
208 228 254
208 228 254
208 228 254
208 228 254
208 228 254
208 228 254
208 228 254
208 228 254
208 228 254
208 228 254
207 228 254
142 211 211
62 197 172
62 196 171
61 196 168
62 197 171
62 196 164
63 199 175
62 197 171
62 197 168
62 197 168
62 198 172
62 197 170
62 196 164
62 197 165
62 197 170
60 194 161
62 197 165
62 197 170
62 196 162
62 196 163
62 196 166
62 196 164
62 196 163
61 196 166
63 198 168
62 198 171
62 197 165
61 195 166
62 197 163
62 196 164
61 195 162
63 198 169
61 195 161
62 196 163
61 195 162
62 197 169
62 196 159
62 196 164
62 196 166
62 198 170
62 197 164
62 196 165
62 197 172
62 197 170
61 195 163
62 197 168
62 197 165
63 198 172
61 195 164
62 196 166
62 198 171
61 194 161
61 195 170
61 195 161
62 197 173
61 195 168
60 192 164
62 195 172
62 195 166
61 194 169
61 194 171
61 194 173
62 194 172
61 193 173
62 195 177
151 210 216
208 228 254
208 228 254
208 228 254
208 228 254
208 228 254
208 228 254
208 228 254
208 228 254
208 228 254
208 228 254
208 228 254
208 228 254
208 228 254
209 228 254
209 228 254
209 228 254
209 228 254
209 228 254
209 228 254
209 228 254
209 228 254
209 228 254
209 228 254
209 228 254
209 228 254
209 228 254
209 228 254
209 228 254
209 228 254
209 228 254
209 228 254
209 228 254
209 228 254
209 228 254
209 228 254
209 228 254
209 229 254
209 229 254
196 211 243
167 162 233
176 171 252
176 171 254
174 171 254
172 170 254
171 169 254
170 169 254
170 169 254
169 168 254
168 168 254
167 167 254
166 167 254
166 167 254
166 167 254
165 167 254
165 167 254
164 166 254
164 166 254
164 166 254
164 166 254
164 166 254
164 166 254
163 166 254
163 166 254
163 166 254
163 166 254
163 166 254
163 166 254
163 166 254
163 166 254
163 166 254
163 166 254
163 166 254
163 166 254
163 166 254
163 166 254
163 166 254
163 166 254
163 166 254
163 166 254
163 166 254
163 166 254
163 166 254
163 166 254
164 166 254
164 166 254
164 166 254
164 166 254
164 166 254
164 166 254
164 166 254
164 166 254
164 166 254
165 166 254
165 166 254
165 167 254
165 167 254
165 167 254
165 167 254
165 167 254
166 167 254
166 167 254
166 167 254
166 167 254
166 167 254
166 167 254
167 167 254
167 168 254
167 167 254
167 167 254
167 168 254
167 168 254
168 168 254
168 168 254
168 168 254
169 168 254
168 168 254
168 168 254
169 168 254
169 169 254
169 169 254
169 168 254
170 169 254
170 169 254
170 169 254
170 169 254
171 169 254
171 169 254
171 169 254
172 170 254
172 170 254
172 170 254
172 170 254
172 170 254
173 170 254
173 170 254
173 170 254
173 170 254
173 170 254
172 170 254
173 170 254
174 171 254
174 170 254
174 171 254
175 171 254
174 171 254
175 171 254
175 171 254
175 171 254
175 171 254
175 171 254
176 172 254
176 172 254
176 172 254
177 172 254
177 172 254
177 172 254
176 172 254
177 172 254
178 172 254
177 172 254
178 173 254
178 173 254
178 173 254
179 173 254
179 173 254
180 173 254
179 173 254
205 226 254
204 226 254
204 226 254
203 225 254
203 225 254
203 225 254
202 225 254
202 224 254
202 224 254
201 224 254
201 224 254
200 224 254
200 223 254
200 223 254
199 223 254
199 223 254
199 223 254
198 222 254
198 222 254
198 222 254
197 222 254
198 222 252
201 224 251
201 223 244
201 223 247
199 222 239
203 225 251
202 224 251
201 223 241
201 223 243
202 224 248
203 225 252
202 224 247
202 224 244
204 225 251
204 226 253
202 224 247
201 223 244
200 223 244
199 222 237
199 222 240
200 222 237
200 222 243
200 222 240
199 222 243
200 222 243
199 222 243
201 223 243
201 223 244
200 222 241
201 223 247
200 222 243
200 223 245
201 223 244
198 221 236
201 224 251
200 223 244
199 222 243
199 222 243
200 222 240
200 222 237
198 221 236
202 224 248
200 223 247
201 224 251
200 222 243
199 222 244
200 223 244
201 224 249
199 222 243
200 223 247
200 223 248
198 220 232
197 221 240
198 221 241
199 222 241
199 222 244
200 223 251
197 221 243
198 221 240
199 222 244
198 221 243
198 221 241
199 221 243
197 220 237
199 222 244
196 220 236
197 221 243
197 221 241
197 220 240
195 219 236
197 221 244
197 221 240
196 220 237
195 219 237
196 220 244
198 222 248
195 219 237
194 219 240
196 221 247
195 220 248
196 220 244
195 220 243
198 222 248
196 221 249
196 220 243
196 220 245
194 219 244
193 219 248
194 220 253
190 218 253
187 216 254
187 217 254
188 217 254
188 217 254
190 218 254
190 218 254
191 219 254
193 220 254
194 220 254
195 221 254
197 222 254
199 223 254
200 223 254
201 224 254
203 225 253
205 226 254
207 227 254
206 226 251
209 228 253
210 229 254
210 229 254
210 229 254
210 229 254
209 229 254
209 229 254
209 229 254
209 229 254
209 228 254
209 228 254
209 228 254
209 228 254
209 228 254
209 228 254
209 228 254
209 228 254
209 228 254
209 228 254
209 228 254
209 228 254
209 228 254
209 228 254
209 228 254
209 228 254
209 228 254
209 228 254
209 228 254
209 228 254
209 228 254
209 228 254
209 228 254
209 228 254
209 228 254
208 228 254
208 228 254
205 227 252
119 206 195
61 197 172
61 194 160
62 197 166
62 198 171
62 197 169
63 199 174
62 198 169
62 198 169
61 196 166
62 196 167
62 196 164
62 197 166
61 195 162
62 197 166
63 198 168
61 195 167
61 196 171
62 197 166
62 197 166
61 195 163
62 196 160
62 196 165
61 195 158
62 197 167
61 196 160
62 197 164
62 196 163
62 198 170
62 197 171
62 197 169
62 196 160
62 195 157
63 199 174
62 196 164
61 195 162
62 196 159
62 197 167
61 195 166
61 196 167
62 197 161
62 196 168
62 197 167
62 198 172
62 196 167
62 196 165
62 197 172
62 197 172
62 196 168
62 195 159
62 195 165
61 193 159
62 197 166
62 196 171
61 194 161
62 194 168
62 196 170
62 194 166
61 195 166
61 194 170
62 196 172
61 193 165
61 193 169
63 197 172
61 194 172
61 194 172
61 194 169
115 200 195
206 227 253
208 228 254
208 228 254
209 228 254
209 228 254
209 228 254
209 228 254
209 228 254
209 228 254
209 228 254
209 228 254
209 228 254
209 228 254
209 228 254
209 228 254
209 228 254
209 228 254
209 228 254
209 228 254
209 228 254
209 228 254
209 228 254
209 228 254
209 228 254
209 228 254
209 228 254
209 228 254
209 228 254
209 229 254
209 229 254
209 229 254
210 229 254
210 229 254
210 229 254
210 229 254
210 229 254
196 207 249
165 160 232
176 171 252
175 171 254
174 170 254
172 170 254
171 170 254
171 169 254
170 169 254
169 169 254
168 168 254
168 168 254
167 168 254
166 167 254
166 167 254
166 167 254
165 167 254
165 166 254
164 166 254
164 166 254
164 166 254
164 166 254
164 166 254
164 166 254
164 166 254
164 166 254
163 166 254
163 166 254
163 166 254
163 166 254
163 166 254
163 166 254
163 166 254
163 166 254
163 166 254
163 166 254
163 166 254
163 166 254
163 166 254
163 166 254
163 166 254
163 166 254
164 166 254
163 166 254
164 166 254
164 166 254
164 166 254
164 166 254
164 166 254
164 166 254
164 166 254
164 166 254
164 166 254
165 166 254
165 167 254
165 167 254
165 167 254
166 167 254
166 167 254
166 167 254
166 167 254
166 167 254
166 167 254
166 167 254
167 167 254
167 167 254
167 167 254
167 168 254
167 167 254
167 168 254
167 168 254
168 168 254
168 168 254
168 168 254
168 168 254
169 168 254
169 168 254
169 168 254
169 168 254
169 168 254
170 169 254
170 169 254
170 169 254
170 169 254
170 169 254
170 169 254
171 169 254
170 169 254
171 169 254
171 169 254
171 169 254
171 169 254
172 170 254
172 170 254
173 170 254
172 170 254
172 170 254
173 170 254
173 170 254
173 170 254
174 171 254
173 170 254
174 171 254
174 171 254
174 171 254
175 171 254
174 171 254
175 171 254
175 171 254
176 172 254
175 171 254
175 171 254
176 172 254
176 172 254
176 172 254
176 172 254
177 172 254
177 172 254
177 172 254
178 172 254
177 172 254
177 172 254
178 173 254
179 173 254
179 173 254
179 173 254
179 173 254
178 173 254
180 173 254
180 173 254
205 226 254
204 226 254
204 225 254
203 225 254
203 225 254
203 225 254
202 225 254
202 224 254
201 224 254
201 224 254
201 224 254
200 224 254
200 224 254
200 223 254
199 223 254
199 223 254
199 223 254
199 223 254
198 222 254
199 223 254
201 224 249
203 225 251
203 225 251
203 224 248
203 224 248
204 225 252
202 223 244
203 224 245
202 224 248
203 225 251
202 223 245
204 225 248
200 222 240
201 223 241
203 225 251
203 224 244
203 224 248
199 221 236
199 221 236
201 223 241
199 221 237
199 221 237
199 221 239
201 223 244
199 221 235
200 223 241
200 222 239
201 223 243
200 222 240
202 224 249
200 222 240
202 224 245
199 222 241
200 222 239
202 224 248
202 223 245
202 224 249
201 223 247
203 224 248
200 222 243
199 221 236
200 222 239
200 222 243
201 223 248
201 224 248
199 222 241
201 223 241
202 224 247
201 224 252
199 222 243
201 222 240
197 220 233
200 222 244
201 223 244
200 223 247
201 224 249
198 221 237
201 223 245
201 223 247
199 221 239
201 223 243
200 223 245
200 223 248
198 221 240
200 223 249
200 222 247
199 222 245
198 221 243
200 223 248
200 223 248
199 222 243
198 221 240
198 222 248
198 221 243
198 221 243
198 221 245
194 220 241
197 221 244
195 219 239
197 221 243
194 219 237
195 219 235
195 219 240
195 219 239
197 221 245
197 221 248
197 221 249
196 220 247
197 221 248
196 221 247
196 221 248
193 219 249
189 217 252
187 217 254
188 217 254
189 218 254
190 218 254
191 218 254
192 219 254
193 220 254
194 220 254
195 221 254
197 222 254
199 223 254
200 223 254
202 225 254
204 226 254
206 227 254
208 227 254
207 227 249
211 229 254
210 229 254
210 229 254
210 229 254
210 229 254
210 229 254
210 229 254
210 229 254
210 229 254
210 229 254
210 229 254
210 229 254
209 229 254
209 229 254
209 229 254
209 228 254
209 228 254
209 228 254
209 228 254
209 228 254
209 228 254
209 228 254
209 228 254
209 228 254
209 228 254
209 228 254
209 228 254
209 228 254
209 228 254
209 228 254
209 228 254
209 228 254
209 228 254
209 228 254
198 225 246
106 203 190
63 199 172
62 196 164
62 196 169
62 197 169
63 198 170
62 197 170
62 196 163
61 195 161
61 195 164
63 198 168
62 196 166
61 195 161
61 196 167
62 197 166
61 195 161
62 198 171
62 197 165
62 196 167
62 197 165
61 195 162
62 197 168
61 195 161
62 196 165
62 196 163
62 196 162
62 196 165
62 196 165
62 198 169
61 196 163
62 196 161
61 196 166
62 196 160
61 195 160
60 194 159
61 195 158
62 196 164
62 197 164
62 198 169
62 197 169
62 197 167
62 196 163
61 196 165
62 197 165
63 196 167
62 197 169
61 194 167
62 196 168
62 196 163
62 196 163
62 197 169
61 196 167
61 194 166
61 194 164
61 192 160
61 194 161
62 196 170
62 195 172
61 194 160
61 194 165
61 193 163
61 193 163
62 194 170
62 196 170
61 194 168
61 193 168
60 192 167
61 192 167
61 193 173
106 199 193
203 226 251
209 228 254
209 228 254
209 228 254
209 228 254
209 228 254
209 228 254
209 228 254
209 228 254
209 228 254
209 228 254
209 228 254
209 228 254
209 228 254
209 228 254
209 228 254
209 228 254
209 228 254
209 228 254
209 228 254
209 229 254
209 229 254
209 229 254
210 229 254
210 229 254
210 229 254
210 229 254
210 229 254
210 229 254
210 229 254
210 229 254
210 229 254
210 229 254
210 229 254
183 191 236
169 163 239
176 171 252
175 171 254
174 171 254
172 170 254
171 169 254
170 169 254
170 169 254
170 169 254
169 168 254
168 168 254
167 168 254
166 167 254
167 167 254
166 167 254
165 167 254
165 167 254
165 167 254
165 166 254
165 167 254
165 166 254
164 166 254
164 166 254
164 166 254
164 166 254
164 166 254
164 166 254
164 166 254
164 166 254
164 166 254
164 166 254
163 166 254
164 166 254
163 166 254
163 166 254
164 166 254
164 166 254
164 166 254
164 166 254
164 166 254
164 166 254
164 166 254
164 166 254
164 166 254
164 166 254
164 166 254
164 166 254
165 166 254
165 166 254
165 167 254
164 166 254
165 167 254
165 167 254
165 167 254
166 167 254
166 167 254
165 167 254
166 167 254
166 167 254
166 167 254
166 167 254
167 167 254
167 167 254
167 167 254
168 168 254
167 168 254
167 168 254
168 168 254
168 168 254
167 168 254
167 168 254
169 168 254
168 168 254
169 168 254
169 169 254
169 169 254
169 168 254
169 169 254
169 169 254
169 169 254
170 169 254
170 169 254
170 169 254
171 169 254
171 169 254
171 169 254
171 169 254
171 170 254
171 169 254
172 170 254
172 170 254
172 170 254
172 170 254
172 170 254
173 170 254
172 170 254
173 170 254
173 170 254
173 170 254
173 170 254
174 171 254
174 171 254
174 171 254
175 171 254
174 171 254
174 171 254
175 171 254
175 171 254
175 171 254
176 172 254
175 171 254
176 172 254
176 172 254
176 171 254
176 172 254
177 172 254
177 172 254
177 172 254
177 172 254
178 173 254
178 173 254
178 173 254
178 173 254
179 173 254
179 173 254
179 173 254
179 173 254
180 173 254
179 173 254
179 173 254
205 226 254
204 226 254
204 225 254
203 225 254
203 225 254
203 225 254
202 225 254
202 225 254
202 224 254
201 224 254
201 224 254
201 224 254
200 224 254
200 223 254
200 223 254
199 223 254
199 223 254
199 223 254
200 223 253
199 222 245
203 225 251
202 224 247
204 225 248
204 225 251
202 224 244
201 224 247
203 224 247
204 225 252
202 223 244
203 224 245
203 224 247
204 225 248
206 226 251
204 225 248
202 224 243
200 222 236
202 223 243
200 222 237
198 221 233
201 223 241
202 224 245
201 222 235
201 223 239
202 224 247
200 222 240
199 221 239
201 223 241
203 224 245
201 223 243
201 223 240
202 223 243
200 221 235
202 224 245
201 223 243
199 221 235
202 223 244
202 223 244
201 223 244
202 224 248
203 224 245
202 224 248
200 223 243
202 224 247
202 224 247
200 223 245
203 225 248
201 223 244
202 224 247
200 223 243
202 224 251
201 223 247
202 224 249
202 224 247
200 223 243
201 223 241
201 223 245
201 223 245
202 224 247
200 223 243
201 223 243
201 223 249
201 223 244
200 222 244
200 223 243
200 223 247
201 223 245
202 224 249
201 223 244
200 222 243
199 222 241
198 221 241
201 223 248
198 220 236
198 220 237
198 221 240
199 222 244
198 221 245
199 222 244
199 222 243
198 221 239
197 221 244
198 222 247
196 220 245
198 222 248
196 220 244
193 217 228
197 221 247
199 223 249
196 221 247
198 222 251
196 221 249
197 221 252
195 220 249
192 219 247
189 218 253
188 217 254
189 218 254
190 218 254
191 218 254
192 219 254
192 219 254
194 220 254
196 221 254
197 222 254
199 223 254
200 224 254
202 225 254
203 225 254
206 226 254
207 227 254
209 228 252
209 228 252
210 229 254
210 229 254
210 229 254
210 229 254
210 229 254
210 229 254
210 229 254
210 229 254
210 229 254
210 229 254
210 229 254
210 229 254
210 229 254
210 229 254
210 229 254
210 229 254
210 229 254
209 229 254
209 229 254
209 229 254
209 229 254
209 228 254
209 228 254
209 228 254
209 228 254
209 228 254
209 228 254
209 228 254
209 228 254
209 228 254
209 228 254
200 225 247
116 206 195
61 196 167
62 197 169
62 197 168
63 199 172
61 196 165
62 197 164
62 197 169
61 196 163
62 196 164
62 197 167
62 196 164
61 196 163
61 195 165
62 196 163
62 197 171
63 199 170
62 196 162
62 197 162
62 197 167
61 195 160
62 196 163
62 196 165
62 197 165
62 196 160
62 196 161
62 196 162
63 198 165
62 195 159
62 197 165
62 197 166
61 194 157
62 197 168
61 194 154
62 196 159
61 195 157
61 194 158
62 197 168
63 197 163
62 197 167
63 197 159
61 195 163
62 196 163
61 195 160
62 196 160
61 194 162
62 197 170
62 195 163
62 196 167
60 192 161
61 193 156
62 197 166
61 195 165
61 194 159
61 193 161
61 196 167
61 195 164
61 195 164
61 194 163
61 195 164
61 195 172
62 196 163
62 194 160
62 196 165
61 194 163
61 194 164
61 195 169
62 196 174
61 192 170
61 193 172
61 192 168
102 196 189
201 225 249
209 228 254
209 228 254
209 228 254
209 228 254
209 228 254
209 228 254
209 228 254
209 228 254
209 228 254
209 228 254
209 229 254
209 229 254
209 229 254
209 229 254
210 229 254
210 229 254
210 229 254
210 229 254
210 229 254
210 229 254
210 229 254
210 229 254
210 229 254
210 229 254
210 229 254
210 229 254
210 229 254
210 229 254
210 229 254
210 229 254
210 229 254
186 192 240
177 170 249
177 172 254
176 172 254
174 171 254
173 170 254
172 170 254
171 169 254
170 169 254
169 169 254
169 168 254
168 168 254
168 168 254
167 168 254
167 167 254
166 167 254
166 167 254
166 167 254
165 167 254
165 167 254
165 167 254
165 166 254
165 166 254
164 166 254
164 166 254
164 166 254
164 166 254
164 166 254
164 166 254
164 166 254
164 166 254
164 166 254
164 166 254
164 166 254
164 166 254
164 166 254
164 166 254
164 166 254
164 166 254
164 166 254
164 166 254
164 166 254
164 166 254
164 166 254
164 166 254
165 166 254
165 167 254
165 166 254
165 166 254
165 167 254
165 167 254
165 167 254
165 167 254
166 167 254
166 167 254
166 167 254
166 167 254
167 167 254
167 167 254
166 167 254
167 167 254
167 167 254
167 167 254
167 168 254
167 168 254
167 168 254
167 168 254
168 168 254
167 168 254
169 168 254
168 168 254
168 168 254
169 168 254
168 168 254
169 168 254
169 169 254
169 168 254
170 169 254
170 169 254
170 169 254
170 169 254
170 169 254
170 169 254
171 169 254
171 169 254
170 169 254
171 169 254
171 169 254
172 170 254
172 170 254
172 170 254
172 170 254
173 170 254
172 170 254
173 170 254
173 170 254
173 170 254
173 170 254
173 170 254
174 171 254
174 171 254
174 171 254
174 171 254
174 171 254
175 171 254
174 171 254
175 171 254
175 171 254
175 171 254
175 171 254
175 171 254
176 172 254
176 172 254
176 172 254
176 172 254
177 172 254
177 172 254
177 172 254
177 172 254
177 172 254
178 173 254
178 173 254
178 173 254
178 173 254
178 173 254
179 173 254
179 173 254
179 173 254
179 173 254
179 173 254
180 173 254
180 174 254
204 226 254
204 226 254
204 225 254
203 225 254
203 225 254
203 225 254
202 225 254
202 224 254
202 224 254
201 224 254
201 224 254
201 224 254
200 224 254
200 223 254
200 223 254
200 223 254
200 223 251
204 225 253
203 225 251
202 224 245
202 224 244
203 225 248
204 225 249
204 225 249
201 223 241
203 224 244
204 225 249
205 225 247
203 224 247
204 225 247
203 224 247
201 223 244
202 223 240
201 223 240
200 222 236
200 222 235
200 222 237
200 222 237
201 222 236
201 223 239
202 224 247
203 224 243
203 224 248
202 223 239
203 225 249
203 224 243
201 223 240
202 224 251
202 224 241
203 224 241
202 223 244
201 223 243
202 224 248
203 224 247
200 221 233
202 224 249
201 222 236
202 224 249
202 224 248
202 223 244
202 224 248
202 224 247
202 224 247
204 225 249
202 224 245
202 223 243
202 224 247
203 225 249
202 224 244
203 224 247
202 223 243
203 225 248
203 224 249
202 224 247
203 224 247
199 221 235
201 224 248
201 223 244
203 224 247
201 223 247
199 222 241
201 222 239
201 223 247
202 224 248
200 223 244
199 222 239
202 223 244
200 222 243
200 222 240
200 222 245
200 222 240
200 223 245
201 223 248
200 222 244
199 222 241
197 221 240
199 222 247
197 221 240
200 223 249
199 223 252
198 222 245
198 222 244
198 221 243
197 221 240
197 221 241
197 221 243
196 220 241
196 220 240
195 219 236
196 220 243
198 221 248
198 221 245
196 221 248
197 221 248
196 221 249
190 218 251
189 217 254
189 217 254
190 218 254
191 218 254
192 219 254
193 220 254
195 221 254
196 221 254
197 222 254
198 222 254
200 223 254
201 224 254
203 225 254
206 227 254
207 227 253
209 228 253
209 228 252
210 229 254
210 229 254
210 229 254
210 229 254
210 229 254
210 229 254
210 229 254
210 229 254
210 229 254
210 229 254
210 229 254
210 229 254
210 229 254
210 229 254
210 229 254
210 229 254
210 229 254
210 229 254
210 229 254
210 229 254
210 229 254
210 229 254
210 229 254
210 229 254
210 229 254
209 229 254
209 229 254
209 229 254
209 229 254
202 226 249
101 201 185
61 195 165
61 196 165
61 195 160
61 194 158
62 197 166
61 195 162
62 197 167
62 198 170
60 193 156
62 197 167
62 197 168
61 194 154
61 195 160
61 195 159
62 198 167
61 194 155
62 196 163
62 197 167
61 195 158
61 195 159
61 195 163
61 195 157
61 195 159
62 196 163
62 197 159
62 197 165
62 196 164
62 197 165
62 196 163
61 194 162
62 197 162
62 196 161
62 197 166
61 194 158
62 197 170
61 195 160
62 196 162
61 195 164
61 194 160
61 193 161
61 194 156
61 194 159
62 196 162
62 197 164
62 196 162
62 196 162
61 195 161
61 195 161
61 195 164
61 194 162
62 196 164
62 195 158
62 195 161
62 195 165
61 195 159
61 194 162
62 196 165
61 193 165
62 196 167
60 192 157
61 193 159
62 195 166
62 195 167
61 194 168
62 194 164
61 194 169
61 193 171
61 193 163
62 196 172
61 192 164
60 190 165
60 191 172
102 198 188
199 225 247
209 229 254
209 229 254
209 229 254
209 229 254
210 229 254
210 229 254
210 229 254
210 229 254
210 229 254
210 229 254
210 229 254
210 229 254
210 229 254
210 229 254
210 229 254
210 229 254
210 229 254
210 229 254
210 229 254
210 229 254
210 229 254
210 229 254
210 229 254
210 229 254
210 229 254
210 229 254
210 229 254
210 229 254
210 229 254
182 187 236
172 166 243
177 172 254
177 172 254
174 171 254
173 170 254
172 170 254
171 169 254
171 169 254
170 169 254
169 168 254
169 168 254
168 168 254
167 168 254
167 167 254
167 167 254
167 167 254
166 167 254
166 167 254
166 167 254
166 167 254
165 167 254
165 167 254
165 167 254
165 166 254
165 167 254
164 166 254
164 166 254
164 166 254
164 166 254
165 166 254
165 166 254
164 166 254
164 166 254
164 166 254
164 166 254
164 166 254
164 166 254
165 166 254
165 167 254
165 166 254
165 167 254
165 167 254
165 167 254
165 167 254
165 167 254
165 167 254
166 167 254
165 167 254
165 167 254
165 167 254
166 167 254
166 167 254
166 167 254
167 167 254
166 167 254
167 167 254
167 167 254
167 168 254
167 167 254
167 168 254
167 168 254
167 168 254
167 168 254
168 168 254
168 168 254
168 168 254
168 168 254
168 168 254
168 168 254
168 168 254
169 168 254
169 168 254
169 169 254
169 169 254
169 168 254
170 169 254
170 169 254
170 169 254
170 169 254
170 169 254
170 169 254
170 169 254
171 169 254
171 169 254
171 169 254
172 170 254
172 170 254
172 170 254
172 170 254
172 170 254
172 170 254
173 170 254
173 170 254
172 170 254
173 170 254
174 171 254
173 170 254
174 170 254
174 171 254
174 171 254
173 170 254
174 171 254
175 171 254
175 171 254
175 171 254
175 171 254
175 171 254
175 171 254
176 171 254
176 172 254
176 172 254
176 172 254
176 172 254
177 172 254
178 172 254
177 172 254
177 172 254
178 172 254
177 172 254
178 172 254
178 172 254
178 173 254
178 173 254
179 173 254
179 173 254
179 173 254
180 173 254
179 173 254
179 173 254
179 173 254
180 173 254
180 173 254
204 226 254
204 226 254
204 226 254
203 225 254
203 225 254
203 225 254
203 225 254
202 225 254
202 224 254
202 224 254
201 224 254
201 224 254
201 224 254
200 224 254
200 223 253
202 224 249
204 225 249
204 225 249
203 224 245
205 225 249
205 225 248
204 225 245
203 224 244
205 225 248
203 224 243
206 227 253
205 226 252
206 226 248
205 225 247
204 225 244
201 222 236
200 221 232
201 223 239
201 223 237
201 222 236
200 222 237
201 223 240
202 224 243
203 224 247
203 224 241
202 223 241
203 224 243
202 224 244
204 225 248
201 223 239
202 223 243
203 224 245
204 225 248
204 225 249
202 223 237
202 224 244
203 224 248
205 226 249
203 224 244
203 224 244
203 224 243
201 222 239
203 224 243
205 225 249
201 223 241
201 223 243
203 224 247
203 225 248
201 223 243
199 221 236
202 224 244
202 224 245
204 225 247
202 224 245
204 225 247
203 224 245
203 224 247
203 224 245
201 224 247
202 224 247
204 225 251
202 224 249
201 223 243
202 224 245
200 222 240
202 224 245
200 222 239
204 225 247
200 223 243
202 224 251
202 224 245
199 222 244
201 223 244
202 224 247
200 222 240
200 223 248
200 222 244
198 221 235
200 222 241
200 222 243
197 220 237
202 225 253
200 223 245
199 221 239
199 222 240
197 221 243
199 222 244
199 222 244
198 221 239
198 221 244
196 220 241
196 220 243
197 220 240
195 220 240
197 221 247
198 222 247
199 223 251
197 221 248
197 221 248
198 222 249
196 220 247
195 221 252
190 218 254
189 218 254
190 218 254
191 219 254
193 220 254
193 220 254
194 220 254
196 221 254
197 222 254
199 223 254
201 224 254
202 224 254
204 225 253
205 226 254
207 227 254
208 228 252
210 229 253
211 229 254
211 229 254
210 229 254
210 229 254
210 229 254
210 229 254
210 229 254
210 229 254
210 229 254
210 229 254
210 229 254
210 229 254
210 229 254
210 229 254
210 229 254
210 229 254
210 229 254
210 229 254
210 229 254
210 229 254
210 229 254
210 229 254
210 229 254
210 229 254
210 229 254
210 229 254
210 229 254
203 227 250
105 202 182
62 197 168
62 197 163
62 196 164
62 196 163
61 196 167
62 196 166
61 195 161
63 198 170
62 197 163
61 193 152
62 197 165
62 196 165
61 194 160
62 196 159
62 197 165
62 195 159
61 195 163
62 197 165
62 197 164
62 195 155
62 197 165
62 196 160
61 194 158
61 195 164
61 194 152
61 195 161
61 194 155
62 197 169
63 197 166
63 198 168
62 197 164
63 198 166
62 195 161
62 195 161
63 197 161
61 194 161
62 196 163
62 197 163
61 194 157
62 196 164
61 194 158
61 194 156
61 194 159
61 195 157
62 196 164
62 197 169
61 195 159
61 195 160
61 194 160
62 197 167
61 193 154
62 196 167
61 194 158
62 196 164
61 194 160
61 194 164
62 195 164
62 195 162
62 195 166
61 195 163
61 193 163
61 194 164
60 191 149
61 193 159
61 194 168
61 192 161
61 192 162
61 192 170
60 191 167
61 195 171
61 192 158
61 193 170
61 192 172
61 192 161
108 199 190
202 225 249
210 229 254
210 229 254
210 229 254
210 229 254
210 229 254
210 229 254
210 229 254
210 229 254
210 229 254
210 229 254
210 229 254
210 229 254
210 229 254
210 229 254
210 229 254
210 229 254
210 229 254
210 229 254
210 229 254
210 229 254
210 229 254
210 229 254
210 229 254
210 229 254
210 229 254
211 229 254
209 228 253
175 178 230
176 169 247
178 173 254
177 172 254
175 171 254
173 170 254
173 170 254
172 170 254
171 169 254
170 169 254
170 169 254
169 168 254
168 168 254
168 168 254
168 168 254
167 168 254
167 168 254
167 167 254
166 167 254
166 167 254
166 167 254
166 167 254
166 167 254
166 167 254
165 167 254
165 167 254
166 167 254
166 167 254
165 167 254
165 167 254
165 167 254
166 167 254
164 166 254
165 167 254
165 167 254
165 167 254
165 167 254
165 167 254
165 167 254
165 167 254
165 167 254
165 167 254
165 167 254
165 167 254
165 167 254
165 167 254
166 167 254
166 167 254
166 167 254
166 167 254
166 167 254
166 167 254
166 167 254
166 167 254
167 167 254
167 167 254
167 167 254
167 168 254
168 168 254
167 168 254
168 168 254
168 168 254
168 168 254
168 168 254
168 168 254
168 168 254
168 168 254
168 168 254
169 169 254
169 168 254
169 169 254
169 169 254
169 168 254
170 169 254
169 169 254
170 169 254
170 169 254
170 169 254
170 169 254
170 169 254
171 169 254
171 169 254
171 169 254
171 169 254
171 170 254
172 170 254
171 169 254
171 169 254
172 170 254
173 170 254
173 170 254
173 170 254
174 170 254
173 170 254
174 170 254
173 170 254
174 171 254
174 171 254
174 171 254
174 171 254
174 171 254
174 171 254
174 171 254
175 171 254
175 171 254
175 171 254
175 171 254
176 171 254
175 171 254
176 172 254
177 172 254
177 172 254
176 172 254
177 172 254
176 172 254
176 172 254
177 172 254
178 172 254
178 173 254
178 173 254
178 172 254
178 172 254
178 173 254
179 173 254
179 173 254
179 173 254
179 173 254
179 173 254
180 173 254
179 173 254
181 174 254
180 174 254
180 174 254
181 174 254
205 226 254
204 226 254
204 226 254
204 225 254
204 225 254
203 225 254
203 225 254
202 225 254
202 225 254
202 224 254
202 224 254
201 224 254
201 224 254
202 224 253
205 226 252
204 225 247
205 225 249
205 225 244
204 225 247
204 225 247
203 223 240
204 225 249
205 225 248
203 224 244
203 224 244
205 225 247
204 225 249
207 227 251
202 224 244
203 224 244
199 220 229
201 223 240
202 223 239
201 223 239
203 224 244
203 224 240
201 222 236
203 224 247
203 223 237
201 222 235
202 224 244
204 225 248
202 223 240
203 224 244
203 224 241
203 224 239
203 224 245
203 224 241
204 225 247
205 226 249
204 225 249
205 226 248
202 223 240
205 225 248
205 225 247
203 224 244
204 225 245
205 226 249
203 225 247
203 224 244
205 226 251
205 226 251
203 224 241
206 226 251
202 224 245
201 222 241
203 225 248
204 224 245
204 224 244
204 225 248
205 226 249
203 224 241
202 224 244
204 225 249
201 223 243
203 224 245
204 225 247
205 226 251
204 225 245
203 225 248
202 224 245
203 224 247
203 224 247
201 223 240
204 225 251
202 224 247
202 224 247
202 224 244
203 224 248
201 223 244
202 224 247
203 224 249
202 223 245
199 221 239
200 223 244
201 223 243
200 223 247
202 224 248
201 223 245
201 223 247
201 224 249
199 222 243
199 222 241
199 222 240
198 220 239
197 220 237
198 221 240
199 222 241
199 222 247
198 221 241
197 221 243
198 222 245
199 222 244
199 223 252
197 221 244
198 221 244
198 222 249
197 221 249
192 219 249
190 218 254
191 218 254
191 219 254
192 219 254
194 220 254
195 221 254
196 221 254
197 222 254
199 223 254
201 224 254
203 225 254
205 226 254
205 226 254
207 227 249
208 227 251
211 229 253
211 229 254
211 229 254
211 229 254
211 229 254
211 229 254
211 229 254
211 229 254
211 229 254
211 229 254
210 229 254
210 229 254
210 229 254
210 229 254
210 229 254
210 229 254
210 229 254
210 229 254
210 229 254
210 229 254
210 229 254
210 229 254
210 229 254
210 229 254
210 229 254
210 229 254
210 229 254
116 204 195
62 198 172
61 196 162
62 198 167
61 196 168
61 195 160
61 194 152
61 194 158
62 197 172
62 197 169
61 195 164
62 196 161
62 196 157
62 196 165
62 196 163
61 195 156
62 197 168
62 196 162
62 196 164
62 196 164
61 195 157
62 195 158
62 196 159
61 195 161
61 194 157
62 196 161
62 196 160
61 194 156
62 196 163
63 197 162
61 195 158
62 196 166
62 197 166
62 196 160
62 196 165
62 196 162
61 194 157
63 198 168
61 195 152
62 197 161
62 196 159
61 195 159
62 197 162
62 196 166
63 197 163
62 195 157
62 197 165
61 195 161
61 195 157
62 195 157
61 195 162
63 197 164
61 194 155
61 194 160
61 195 159
60 192 151
61 194 162
62 196 166
61 194 160
61 193 160
62 193 161
62 197 166
62 197 165
61 193 164
61 194 164
61 195 166
61 193 162
61 194 161
61 194 165
62 195 170
62 194 168
61 191 167
62 193 168
60 189 163
61 191 167
61 193 172
59 187 167
109 194 184
208 228 253
210 229 254
210 229 254
210 229 254
210 229 254
210 229 254
210 229 254
210 229 254
210 229 254
210 229 254
210 229 254
210 229 254
210 229 254
210 229 254
210 229 254
210 229 254
210 229 254
211 229 254
211 229 254
211 229 254
211 229 254
211 229 254
211 229 254
211 229 254
211 229 254
211 229 254
174 180 225
170 163 239
179 173 254
177 172 254
175 171 254
174 171 254
173 170 254
173 170 254
171 169 254
171 169 254
170 169 254
169 169 254
169 169 254
169 168 254
168 168 254
168 168 254
168 168 254
167 168 254
167 168 254
166 167 254
167 167 254
166 167 254
166 167 254
166 167 254
166 167 254
166 167 254
166 167 254
165 167 254
166 167 254
165 167 254
166 167 254
166 167 254
165 167 254
166 167 254
165 167 254
165 167 254
166 167 254
166 167 254
166 167 254
166 167 254
166 167 254
166 167 254
166 167 254
166 167 254
166 167 254
166 167 254
166 167 254
166 167 254
166 167 254
167 167 254
167 167 254
167 168 254
167 167 254
167 168 254
167 168 254
167 168 254
167 168 254
167 168 254
167 168 254
168 168 254
168 168 254
168 168 254
168 168 254
169 168 254
168 168 254
169 168 254
169 168 254
169 168 254
169 168 254
169 169 254
169 169 254
170 169 254
170 169 254
170 169 254
170 169 254
170 169 254
171 169 254
170 169 254
171 169 254
171 169 254
171 169 254
171 169 254
172 170 254
172 170 254
172 170 254
172 170 254
172 170 254
172 170 254
172 170 254
173 170 254
173 170 254
173 170 254
173 170 254
173 170 254
174 171 254
174 171 254
174 171 254
174 171 254
174 171 254
174 171 254
174 171 254
175 171 254
175 171 254
175 171 254
175 171 254
175 171 254
175 171 254
176 172 254
176 172 254
177 172 254
176 171 254
176 172 254
177 172 254
177 172 254
177 172 254
178 172 254
178 172 254
178 173 254
178 172 254
178 173 254
178 172 254
179 173 254
179 173 254
180 173 254
178 173 254
179 173 254
179 173 254
179 173 254
179 173 254
180 173 254
180 174 254
181 174 254
181 174 254
180 174 254
182 174 254
205 226 254
205 226 254
204 226 254
204 226 254
204 225 254
203 225 254
203 225 254
203 225 254
202 225 254
202 225 254
202 224 254
202 224 254
203 225 249
204 225 245
205 226 251
206 226 251
205 226 248
204 225 244
207 227 251
204 224 241
206 226 249
204 225 245
205 225 245
206 227 252
206 226 245
207 227 252
205 225 247
202 223 236
203 224 241
203 224 245
203 224 243
202 223 240
202 223 239
202 223 239
204 224 244
205 225 247
203 224 241
202 223 239
206 226 249
202 223 237
204 224 244
204 224 241
205 226 247
205 226 248
204 225 244
204 225 248
205 226 249
203 224 244
204 225 247
204 225 245
205 226 248
203 224 243
203 224 243
204 225 247
201 223 243
205 226 247
206 226 248
204 225 245
204 225 245
204 224 243
203 224 240
205 226 249
204 225 247
206 226 252
203 224 243
202 224 241
203 224 243
203 224 241
204 225 247
204 225 248
205 226 251
203 224 245
204 225 247
205 226 251
204 225 244
204 225 249
204 225 248
202 224 244
204 225 247
203 224 244
204 225 248
203 224 245
201 223 243
203 224 247
203 225 248
203 225 251
203 224 245
203 225 245
203 225 247
201 223 241
203 224 244
202 224 247
201 224 245
202 224 245
202 224 245
204 225 248
202 224 245
202 224 245
202 224 247
201 223 244
201 222 241
202 224 252
201 224 248
199 222 241
201 223 244
200 222 239
199 221 241
200 223 247
199 222 241
198 221 239
199 222 245
196 219 235
198 221 240
196 220 240
199 222 243
201 224 253
197 221 241
199 222 248
199 222 251
196 221 249
192 219 254
191 219 254
192 219 254
193 220 254
194 220 254
195 221 254
196 221 254
199 223 254
200 223 254
201 224 254
203 225 254
203 225 254
206 227 253
209 228 252
209 228 252
212 230 254
211 229 254
211 229 254
211 229 254
211 229 254
211 229 254
211 229 254
211 229 254
211 229 254
211 229 254
211 229 254
211 229 254
211 229 254
211 229 254
211 229 254
211 229 254
211 229 254
211 229 254
210 229 254
210 229 254
210 229 254
210 229 254
210 229 254
210 229 254
210 229 254
140 210 206
61 195 162
62 197 168
61 194 160
62 197 166
63 199 169
63 198 171
62 197 164
61 194 160
61 193 154
61 195 160
62 196 164
61 194 156
61 195 163
62 196 160
61 194 160
60 194 161
61 194 157
61 194 157
62 196 163
62 198 172
61 195 158
61 196 164
62 196 164
62 196 162
62 196 156
62 195 157
62 198 167
60 193 152
61 195 158
61 194 151
62 196 158
61 194 152
62 196 161
62 197 167
62 195 161
63 198 165
61 195 163
61 194 152
63 197 163
62 195 152
62 196 159
61 194 155
62 197 169
61 194 160
61 195 160
61 194 161
61 194 158
61 192 152
62 196 160
62 196 162
61 195 159
61 194 158
61 194 158
61 194 157
62 196 163
62 197 168
63 197 165
60 192 156
61 194 155
62 195 158
61 193 152
61 194 160
61 194 162
61 193 162
60 192 159
61 194 165
61 195 168
61 192 160
60 191 162
62 194 167
61 193 167
61 193 165
61 191 164
61 194 168
60 191 165
61 192 167
60 190 168
60 187 164
136 204 207
210 229 254
210 229 254
210 229 254
210 229 254
210 229 254
210 229 254
210 229 254
211 229 254
211 229 254
211 229 254
211 229 254
211 229 254
211 229 254
211 229 254
211 229 254
211 229 254
211 229 254
211 229 254
211 229 254
211 229 254
211 229 254
211 229 254
211 229 254
211 229 254
187 196 237
164 157 230
179 172 253
178 173 254
176 171 254
175 171 254
174 171 254
173 170 254
172 170 254
172 170 254
171 169 254
170 169 254
169 169 254
170 169 254
169 168 254
168 168 254
168 168 254
168 168 254
168 168 254
167 168 254
167 168 254
167 168 254
167 167 254
166 167 254
167 167 254
167 167 254
166 167 254
166 167 254
166 167 254
166 167 254
166 167 254
166 167 254
166 167 254
166 167 254
166 167 254
166 167 254
166 167 254
166 167 254
166 167 254
166 167 254
166 167 254
167 167 254
166 167 254
167 167 254
167 168 254
167 167 254
167 168 254
167 167 254
167 168 254
167 168 254
167 168 254
167 168 254
168 168 254
168 168 254
167 168 254
168 168 254
168 168 254
168 168 254
168 168 254
168 168 254
169 168 254
169 168 254
169 169 254
169 168 254
169 168 254
169 168 254
169 168 254
170 169 254
170 169 254
170 169 254
170 169 254
170 169 254
170 169 254
170 169 254
171 169 254
171 169 254
171 169 254
171 169 254
171 169 254
171 169 254
171 170 254
171 170 254
171 170 254
172 170 254
172 170 254
172 170 254
173 170 254
173 170 254
173 170 254
173 170 254
173 170 254
174 170 254
173 170 254
174 171 254
174 171 254
174 171 254
174 171 254
175 171 254
175 171 254
175 171 254
175 171 254
176 171 254
175 171 254
176 172 254
176 171 254
175 171 254
176 172 254
177 172 254
177 172 254
176 172 254
176 172 254
177 172 254
177 172 254
177 172 254
177 172 254
178 172 254
178 172 254
178 173 254
178 173 254
179 173 254
178 173 254
178 173 254
179 173 254
179 173 254
179 173 254
179 173 254
179 173 254
180 174 254
180 174 254
181 174 254
181 174 254
180 173 254
180 174 254
181 174 254
181 174 254
182 174 254
205 226 254
205 226 254
205 226 254
204 226 254
204 225 254
204 225 254
203 225 254
203 225 254
203 225 254
203 225 254
203 225 254
204 225 248
205 225 249
206 226 248
206 226 248
206 226 248
207 227 251
204 225 243
207 227 251
206 226 251
208 227 252
206 226 247
205 226 245
208 227 251
207 227 251
203 224 243
202 223 235
203 223 239
205 225 245
204 225 247
204 224 241
205 226 247
204 225 244
203 224 241
205 225 244
205 225 245
205 225 247
205 226 247
204 225 244
205 226 248
205 225 244
205 225 243
205 226 248
205 225 247
201 222 235
203 224 244
205 226 247
204 225 245
205 225 244
205 225 247
205 225 245
203 224 243
205 225 247
206 226 249
203 224 241
202 224 240
204 224 241
203 224 240
204 225 244
207 227 252
206 226 248
205 225 241
206 226 247
204 225 243
204 224 243
204 224 245
205 225 248
204 225 241
204 225 244
206 227 253
205 225 247
206 226 248
204 225 244
204 225 244
204 225 245
203 224 245
205 225 248
205 225 247
204 225 248
205 226 251
204 225 245
205 226 251
204 225 244
203 225 248
204 225 247
205 226 249
201 223 237
204 225 244
203 224 243
204 225 248
203 224 244
201 222 236
202 223 239
202 224 244
203 225 247
204 225 249
202 224 245
203 225 249
201 223 244
201 223 243
201 222 240
201 223 244
201 223 244
200 222 239
200 222 237
201 223 245
202 224 245
201 223 248
198 221 235
198 221 237
198 220 236
199 222 243
197 220 237
198 222 247
196 220 235
198 222 244
199 222 247
200 223 252
197 221 240
198 222 247
198 222 249
192 219 254
191 219 254
193 220 254
193 220 254
195 221 254
196 221 254
197 222 254
198 223 254
199 223 254
201 224 254
204 225 254
205 226 254
207 227 254
210 229 253
209 228 252
211 229 253
211 230 254
211 230 254
211 229 254
211 229 254
211 229 254
211 229 254
211 229 254
211 229 254
211 229 254
211 229 254
211 229 254
211 229 254
211 229 254
211 229 254
211 229 254
211 229 254
211 229 254
211 229 254
211 229 254
211 229 254
211 229 254
211 229 254
174 218 228
61 195 161
61 195 162
61 194 157
62 196 166
62 197 165
62 197 163
62 197 165
61 193 150
62 196 161
61 194 155
62 196 167
61 195 160
63 198 165
62 196 159
61 195 159
63 197 161
62 195 154
62 197 165
61 195 160
62 196 160
61 195 157
62 196 163
62 196 163
61 195 155
62 196 160
62 197 164
61 194 154
63 198 166
61 195 159
61 194 155
61 195 160
62 196 159
62 196 161
62 197 164
61 195 161
61 195 160
62 197 161
61 194 157
61 194 155
61 194 160
61 193 149
62 196 167
61 194 159
62 197 166
61 195 159
61 195 155
61 195 160
61 194 159
61 195 161
61 194 160
61 194 159
62 195 160
61 194 159
62 195 157
62 194 154
61 193 162
60 192 155
63 197 162
61 194 156
62 196 159
61 194 155
61 194 158
61 194 160
61 193 160
61 193 156
62 196 168
61 194 166
61 193 162
61 193 164
61 193 168
61 195 166
61 192 164
61 193 163
62 195 171
62 194 167
61 192 169
61 190 161
59 188 160
60 188 170
60 192 171
165 212 223
211 229 254
211 229 254
211 229 254
211 229 254
211 229 254
211 229 254
211 229 254
211 229 254
211 229 254
211 229 254
211 229 254
211 229 254
211 229 254
211 229 254
211 229 254
211 229 254
211 229 254
211 229 254
211 229 254
211 229 254
211 230 254
211 230 254
199 212 247
166 159 232
180 174 254
178 173 254
177 172 254
175 171 254
175 171 254
174 171 254
173 170 254
172 170 254
171 169 254
170 169 254
171 169 254
170 169 254
169 169 254
169 169 254
169 168 254
168 168 254
168 168 254
168 168 254
168 168 254
168 168 254
168 168 254
168 168 254
167 168 254
167 168 254
167 167 254
167 168 254
167 167 254
168 168 254
167 167 254
167 167 254
167 167 254
167 167 254
167 167 254
167 168 254
167 167 254
167 168 254
167 168 254
167 168 254
167 167 254
167 168 254
167 168 254
167 167 254
167 168 254
167 168 254
168 168 254
168 168 254
168 168 254
168 168 254
168 168 254
168 168 254
168 168 254
168 168 254
168 168 254
168 168 254
169 168 254
169 168 254
169 168 254
169 168 254
169 169 254
170 169 254
169 169 254
169 168 254
170 169 254
170 169 254
170 169 254
170 169 254
170 169 254
171 169 254
171 169 254
171 169 254
171 169 254
171 169 254
171 169 254
171 169 254
171 169 254
172 170 254
172 170 254
172 170 254
172 170 254
172 170 254
172 170 254
172 170 254
173 170 254
173 170 254
173 170 254
173 170 254
173 170 254
174 171 254
174 171 254
174 171 254
174 171 254
174 171 254
174 171 254
174 171 254
175 171 254
175 171 254
175 171 254
175 171 254
176 172 254
175 171 254
175 171 254
175 171 254
176 172 254
176 172 254
176 172 254
177 172 254
177 172 254
177 172 254
177 172 254
177 172 254
177 172 254
178 172 254
178 172 254
178 172 254
178 173 254
178 173 254
178 173 254
178 173 254
178 173 254
179 173 254
180 173 254
180 173 254
180 173 254
180 173 254
180 173 254
180 174 254
180 174 254
180 173 254
180 174 254
180 174 254
181 174 254
181 174 254
181 174 254
182 174 254
182 174 254
205 226 254
205 226 254
205 226 254
204 226 254
204 226 254
204 225 254
204 225 254
203 225 254
203 225 254
204 225 254
206 226 249
207 227 251
206 226 245
206 226 245
207 227 251
207 227 249
206 226 245
206 226 245
207 227 251
205 225 243
207 227 251
208 227 252
206 226 247
206 226 247
205 225 244
202 223 237
204 224 241
205 225 244
204 225 243
203 223 236
204 224 240
203 224 237
203 224 240
204 225 241
205 226 247
205 225 243
206 226 245
203 224 237
205 225 243
205 225 243
205 225 245
204 225 243
203 224 244
205 226 247
203 223 239
207 226 248
206 226 245
206 226 245
203 224 239
205 225 240
206 226 248
203 225 244
207 227 251
208 227 252
206 226 248
205 226 248
207 227 248
204 225 243
204 225 244
206 226 248
205 225 245
205 225 244
206 226 247
206 227 251
206 226 249
203 224 244
205 225 241
206 226 244
205 226 249
207 227 249
205 226 249
203 224 239
203 224 244
205 225 243
204 225 245
205 225 245
205 226 251
204 224 240
206 226 247
202 224 243
205 225 244
204 224 243
204 225 249
202 223 243
204 225 245
205 226 249
205 225 249
205 225 248
203 224 241
205 226 249
202 223 241
205 225 247
204 225 248
203 224 243
204 225 247
204 225 249
204 224 243
202 224 248
202 224 244
203 224 247
199 221 232
203 224 247
203 225 251
202 224 245
202 224 248
203 224 247
201 223 240
200 223 243
200 222 245
201 223 243
200 222 244
198 221 239
201 223 247
199 222 244
198 221 239
196 219 235
198 221 239
202 223 244
197 220 241
200 222 245
198 222 247
197 221 244
194 219 248
192 219 254
193 220 254
194 220 254
195 221 254
197 222 254
198 222 254
199 223 254
200 224 254
202 224 254
203 225 253
205 226 253
207 227 254
210 229 254
209 228 248
212 230 254
212 230 254
211 230 254
211 230 254
211 230 254
211 230 254
211 230 254
211 230 254
211 230 254
211 230 254
211 230 254
211 229 254
211 229 254
211 229 254
211 229 254
211 229 254
211 229 254
211 229 254
211 229 254
211 229 254
211 229 254
197 225 245
64 193 151
60 192 151
61 195 159
62 196 158
62 198 166
61 196 164
61 195 163
62 196 162
62 197 160
62 196 162
61 196 164
62 197 162
62 197 164
62 196 164
60 192 149
62 197 164
62 196 165
61 195 158
61 194 152
62 197 164
62 195 160
62 195 157
63 198 165
61 194 155
62 197 163
62 197 163
62 196 160
62 196 158
62 198 169
62 196 161
61 194 152
62 197 162
62 196 165
61 194 158
62 195 156
62 196 163
61 195 158
61 194 158
62 196 161
61 195 159
61 194 157
61 195 161
62 196 158
62 196 157
62 196 158
62 195 158
62 196 160
61 195 157
62 196 161
61 196 163
61 194 156
62 196 163
61 193 151
62 196 165
62 195 158
62 195 160
61 194 154
62 195 160
61 193 150
61 191 155
62 196 163
62 195 166
61 193 157
61 194 163
62 196 162
60 190 155
61 193 155
61 194 159
61 193 160
61 193 164
61 193 157
60 191 157
61 192 159
61 194 167
61 192 161
60 187 160
62 195 167
61 193 166
60 189 170
61 191 170
60 189 167
66 188 172
187 221 238
211 229 254
211 229 254
211 229 254
211 229 254
211 229 254
211 229 254
211 229 254
211 229 254
211 229 254
211 230 254
211 230 254
211 230 254
211 230 254
211 230 254
211 230 254
211 230 254
211 230 254
211 230 254
211 230 254
212 230 254
198 212 243
168 161 233
180 173 253
179 173 254
177 172 254
175 171 254
175 171 254
174 171 254
173 170 254
173 170 254
172 170 254
172 170 254
171 169 254
171 169 254
171 169 254
170 169 254
170 169 254
169 169 254
169 168 254
169 168 254
169 168 254
169 168 254
168 168 254
168 168 254
168 168 254
168 168 254
168 168 254
167 168 254
168 168 254
167 168 254
168 168 254
167 168 254
167 168 254
167 168 254
167 168 254
168 168 254
167 168 254
168 168 254
168 168 254
167 168 254
168 168 254
168 168 254
168 168 254
168 168 254
168 168 254
168 168 254
168 168 254
168 168 254
168 168 254
169 168 254
169 168 254
168 168 254
169 168 254
169 168 254
169 168 254
169 169 254
169 168 254
170 169 254
170 169 254
169 169 254
170 169 254
169 169 254
170 169 254
170 169 254
170 169 254
170 169 254
171 169 254
171 169 254
171 169 254
171 169 254
172 170 254
171 170 254
172 170 254
172 170 254
172 170 254
172 170 254
172 170 254
172 170 254
173 170 254
172 170 254
173 170 254
172 170 254
173 170 254
173 170 254
174 171 254
173 170 254
173 170 254
173 170 254
174 171 254
174 171 254
175 171 254
175 171 254
175 171 254
175 171 254
175 171 254
176 171 254
175 171 254
175 171 254
175 171 254
176 172 254
176 172 254
176 172 254
176 172 254
176 172 254
176 172 254
176 172 254
177 172 254
177 172 254
177 172 254
177 172 254
178 172 254
177 172 254
177 172 254
178 173 254
178 172 254
178 173 254
178 173 254
179 173 254
179 173 254
178 173 254
179 173 254
179 173 254
179 173 254
179 173 254
180 173 254
180 173 254
180 173 254
180 174 254
180 173 254
181 174 254
180 174 254
180 174 254
181 174 254
182 174 254
181 174 254
181 174 254
182 174 254
182 174 254
206 226 254
205 226 254
205 226 254
205 226 254
204 226 254
204 226 254
204 225 254
204 225 254
205 226 253
207 226 251
206 226 248
207 227 251
204 224 241
207 227 249
207 227 248
207 227 249
206 226 244
206 225 248
205 225 244
205 225 247
208 227 252
209 228 253
206 226 245
203 223 236
204 225 244
202 222 233
201 222 232
204 224 240
203 224 237
204 225 241
206 226 247
207 227 251
204 224 240
204 224 239
205 225 244
207 226 248
206 226 248
205 226 245
206 226 248
207 227 248
208 227 252
204 224 240
206 226 247
205 225 244
207 227 251
204 225 245
206 226 248
205 226 247
205 226 245
207 227 251
206 226 245
204 224 241
204 224 237
205 225 244
205 225 244
204 224 244
207 227 248
205 225 243
206 226 247
209 228 254
203 224 244
202 223 243
206 226 248
206 226 251
205 225 244
207 227 248
207 227 252
206 225 244
205 225 244
207 226 249
206 226 247
205 226 248
206 226 247
205 225 244
204 225 241
204 224 243
207 227 251
206 226 249
204 225 244
205 225 247
204 225 245
204 224 241
206 226 249
203 224 241
205 225 245
206 226 249
203 223 235
205 225 243
205 225 244
206 226 251
205 225 245
203 223 235
203 224 244
205 226 252
205 225 248
203 224 245
204 224 243
202 224 243
204 225 247
204 225 249
205 226 251
201 222 236
204 225 249
202 223 243
205 226 253
203 225 248
203 225 249
201 222 239
201 223 241
201 223 243
201 223 240
200 222 243
199 221 237
201 223 244
200 222 241
198 221 236
199 222 241
199 222 247
201 224 248
202 224 251
201 224 249
200 223 248
198 222 251
195 220 247
193 220 254
194 220 254
195 221 254
196 221 254
197 222 254
198 223 254
200 223 254
201 224 254
202 224 253
204 226 254
206 227 254
208 228 254
210 229 253
211 229 253
212 230 254
212 230 254
212 230 254
212 230 254
212 230 254
212 230 254
212 230 254
212 230 254
212 230 254
212 230 254
211 230 254
211 230 254
211 230 254
211 230 254
211 230 254
211 230 254
211 230 254
211 230 254
211 230 254
209 229 253
83 196 163
61 196 165
62 197 162
62 196 159
61 196 163
61 195 163
62 196 158
62 195 162
61 196 162
62 195 159
62 197 161
62 195 158
61 194 155
61 194 151
61 195 158
62 195 159
61 194 159
60 192 154
62 197 164
62 195 151
61 195 161
62 197 162
61 193 152
61 195 159
63 198 163
61 194 151
62 195 157
61 195 160
61 194 155
62 196 161
62 196 158
61 195 159
62 196 158
61 194 150
61 194 152
61 195 157
61 195 154
61 194 160
61 194 147
62 196 159
62 197 168
61 195 159
62 196 161
63 198 165
62 195 159
62 196 162
61 195 160
61 196 162
63 198 170
62 195 161
62 196 157
61 194 152
61 194 155
62 197 162
61 194 159
62 196 162
62 195 164
61 192 155
61 192 144
62 196 157
61 193 157
61 194 156
61 193 159
61 194 157
61 192 160
61 193 165
61 194 159
61 195 164
62 194 165
61 194 155
60 190 158
60 190 161
62 195 165
61 192 160
61 192 151
61 191 164
61 194 168
61 191 161
61 191 160
60 190 167
61 191 167
60 188 169
60 188 168
77 188 178
200 225 246
211 230 254
211 230 254
211 230 254
211 230 254
211 230 254
211 230 254
211 230 254
211 230 254
211 230 254
212 230 254
212 230 254
212 230 254
212 230 254
212 230 254
212 230 254
212 230 254
212 230 254
212 230 254
207 223 252
171 166 233
178 171 249
180 173 254
178 172 254
177 172 254
175 171 254
174 171 254
175 171 254
173 170 254
173 170 254
172 170 254
172 170 254
171 169 254
170 169 254
170 169 254
170 169 254
170 169 254
169 169 254
169 169 254
169 168 254
169 169 254
169 168 254
168 168 254
169 168 254
168 168 254
169 168 254
168 168 254
168 168 254
168 168 254
169 168 254
168 168 254
168 168 254
168 168 254
168 168 254
168 168 254
169 168 254
168 168 254
169 168 254
168 168 254
169 168 254
169 168 254
169 168 254
169 168 254
168 168 254
169 168 254
169 168 254
169 168 254
169 169 254
169 168 254
170 169 254
169 169 254
170 169 254
170 169 254
170 169 254
169 169 254
170 169 254
170 169 254
170 169 254
171 169 254
170 169 254
171 169 254
171 169 254
170 169 254
170 169 254
171 169 254
171 169 254
171 169 254
172 170 254
171 170 254
172 170 254
172 170 254
172 170 254
173 170 254
172 170 254
172 170 254
173 170 254
173 170 254
173 170 254
173 170 254
173 170 254
173 170 254
173 170 254
174 171 254
174 171 254
174 171 254
174 171 254
174 171 254
174 171 254
174 171 254
174 171 254
175 171 254
175 171 254
175 171 254
175 171 254
175 171 254
175 171 254
176 172 254
176 172 254
176 172 254
176 172 254
176 172 254
177 172 254
176 172 254
176 172 254
177 172 254
176 172 254
178 173 254
177 172 254
178 172 254
178 173 254
178 172 254
178 173 254
178 173 254
178 172 254
179 173 254
178 173 254
179 173 254
179 173 254
180 173 254
179 173 254
179 173 254
179 173 254
180 174 254
181 174 254
180 174 254
181 174 254
180 174 254
181 174 254
181 174 254
181 174 254
181 174 254
181 174 254
182 174 254
181 174 254
181 174 254
181 174 254
182 174 254
182 174 254
206 227 254
206 226 254
205 226 254
205 226 254
205 226 254
204 226 254
204 226 254
205 226 254
208 227 253
207 227 248
209 228 253
207 226 245
208 227 252
205 224 243
207 227 248
208 227 248
207 227 245
208 227 249
207 226 248
207 227 247
209 228 249
208 227 252
206 226 245
205 225 241
202 222 228
204 224 237
204 224 240
204 224 240
203 224 236
202 224 238
205 225 240
206 226 247
205 225 243
206 225 243
206 225 243
206 226 247
208 227 251
207 227 252
204 224 241
207 226 245
204 224 239
206 226 247
206 225 244
205 225 241
205 225 243
204 225 240
205 225 239
206 226 247
205 226 244
206 226 248
203 224 237
207 227 249
208 228 251
207 227 252
204 224 237
207 227 249
206 226 245
206 225 241
205 226 245
206 226 245
206 226 247
208 228 252
207 226 247
205 225 241
205 225 241
207 227 249
203 224 240
208 227 249
205 226 247
208 227 252
207 226 244
206 226 248
205 225 243
207 226 245
201 222 236
207 227 252
204 225 245
206 225 244
206 226 248
207 227 251
206 226 249
206 226 245
206 226 244
203 224 240
206 226 247
204 224 244
204 225 245
206 226 249
206 226 248
204 225 247
205 225 244
206 226 251
206 226 248
205 225 245
204 225 244
204 225 244
205 225 247
203 224 243
204 225 243
202 223 243
204 225 247
204 225 245
202 224 243
204 225 245
202 224 243
204 225 249
202 223 243
202 224 244
203 224 245
202 224 247
202 224 247
201 223 241
202 223 245
198 220 229
199 222 237
200 222 241
199 222 239
200 223 247
196 219 235
200 222 240
200 223 244
201 223 249
201 224 251
200 223 251
197 221 249
194 220 254
195 220 254
195 221 254
197 222 254
197 222 254
199 223 254
200 224 254
202 224 254
203 225 254
205 226 254
207 227 254
209 228 254
210 229 254
212 230 253
212 230 254
212 230 254
212 230 254
212 230 254
212 230 254
212 230 254
212 230 254
212 230 254
212 230 254
212 230 254
212 230 254
212 230 254
212 230 254
212 230 254
212 230 254
212 230 254
212 230 254
212 230 254
150 212 211
62 198 169
62 196 164
61 194 155
61 195 163
62 196 161
63 197 161
61 194 159
61 194 155
62 196 162
61 194 156
61 194 154
60 192 151
61 196 164
62 195 155
62 196 161
61 195 160
62 196 160
61 194 155
61 194 156
61 194 156
61 195 159
61 195 160
61 194 155
62 197 158
62 195 156
61 194 154
61 193 152
61 193 150
62 196 167
62 196 160
61 195 159
61 193 146
61 194 154
61 195 159
60 193 152
62 196 158
61 195 157
61 195 156
62 195 158
62 195 156
61 194 154
62 197 165
61 194 154
61 193 152
61 194 152
61 194 154
61 194 157
61 192 151
61 195 155
61 194 158
62 196 162
62 196 162
61 193 150
61 195 162
62 197 165
61 195 157
60 193 159
61 193 155
61 195 160
61 194 158
61 195 166
62 195 166
61 192 157
61 191 151
61 193 158
61 192 156
61 191 150
60 190 154
61 192 157
60 189 157
60 189 151
62 195 163
60 191 163
60 191 158
60 190 155
61 192 164
60 190 156
60 190 161
61 193 162
60 189 164
60 190 160
61 190 166
59 184 161
60 187 162
143 206 210
212 230 254
212 230 254
212 230 254
212 230 254
212 230 254
212 230 254
212 230 254
212 230 254
212 230 254
212 230 254
212 230 254
212 230 254
212 230 254
212 230 254
212 230 254
212 230 254
212 230 254
212 229 254
177 178 233
179 171 249
181 174 254
180 173 254
178 172 254
177 172 254
176 171 254
175 171 254
174 171 254
174 171 254
173 170 254
172 170 254
172 170 254
172 170 254
171 169 254
171 170 254
171 169 254
171 169 254
170 169 254
170 169 254
170 169 254
170 169 254
170 169 254
170 169 254
169 168 254
169 169 254
170 169 254
169 168 254
169 169 254
169 168 254
169 168 254
169 168 254
169 168 254
169 168 254
169 169 254
169 168 254
169 169 254
169 168 254
169 168 254
169 169 254
169 169 254
169 169 254
169 168 254
169 169 254
169 168 254
169 169 254
169 169 254
170 169 254
170 169 254
170 169 254
170 169 254
170 169 254
170 169 254
170 169 254
170 169 254
170 169 254
170 169 254
170 169 254
171 169 254
171 169 254
171 169 254
171 169 254
171 169 254
171 170 254
171 169 254
172 170 254
171 170 254
172 170 254
172 170 254
173 170 254
172 170 254
173 170 254
172 170 254
173 170 254
173 170 254
173 170 254
173 170 254
174 171 254
173 170 254
174 171 254
174 171 254
174 171 254
174 171 254
174 171 254
175 171 254
175 171 254
175 171 254
175 171 254
175 171 254
175 171 254
175 171 254
175 171 254
175 171 254
176 172 254
176 172 254
176 172 254
177 172 254
177 172 254
176 172 254
177 172 254
177 172 254
178 172 254
177 172 254
177 172 254
178 172 254
177 172 254
177 172 254
178 172 254
178 173 254
179 173 254
178 173 254
179 173 254
179 173 254
178 173 254
179 173 254
179 173 254
179 173 254
179 173 254
180 174 254
180 174 254
180 173 254
180 174 254
180 174 254
180 174 254
181 174 254
181 174 254
181 174 254
181 174 254
181 174 254
181 174 254
181 174 254
182 174 254
182 174 254
182 174 254
182 175 254
183 175 254
182 174 254
182 174 254
182 175 254
206 227 254
206 227 254
206 227 254
205 226 254
205 226 254
205 226 254
207 227 253
209 228 252
208 227 252
207 227 248
207 227 248
208 228 252
206 226 244
208 227 248
209 228 252
206 226 243
208 227 249
207 227 248
208 228 251
209 228 252
208 227 248
204 224 236
205 225 241
205 225 240
205 225 241
207 226 247
206 226 241
206 226 244
205 225 240
205 225 241
206 226 244
205 225 237
206 226 244
207 227 245
206 226 244
205 224 236
207 227 249
204 225 241
206 226 244
205 225 241
206 226 247
208 227 248
206 226 244
206 226 247
207 226 243
207 227 248
207 227 248
208 227 251
207 226 245
206 226 244
206 226 245
205 225 244
207 227 248
205 225 243
205 225 241
207 227 248
207 227 247
206 226 245
207 227 251
207 227 249
208 227 249
206 226 247
206 226 244
207 227 248
206 226 245
207 227 248
207 226 247
207 226 244
205 225 244
204 225 244
205 224 240
204 225 245
204 225 241
207 227 251
205 225 244
204 225 243
204 224 241
204 225 243
205 225 243
206 226 248
206 226 247
205 225 243
206 226 244
207 227 251
205 225 243
206 226 247
204 225 244
207 226 248
205 226 248
205 225 248
205 225 244
205 225 247
206 226 248
203 224 241
206 226 244
205 225 244
206 227 251
205 226 249
206 226 248
204 225 245
205 225 248
204 225 243
205 225 247
204 225 244
202 223 239
204 224 240
204 225 249
201 222 237
203 224 243
204 225 245
203 224 243
203 224 241
202 223 240
202 223 241
203 224 247
201 223 244
202 223 243
201 223 243
201 223 247
199 222 240
199 221 236
201 223 245
201 223 247
203 224 251
200 223 249
197 221 245
195 220 254
195 221 254
197 222 254
197 222 254
199 223 254
200 223 254
201 224 254
203 225 254
204 226 254
206 227 254
208 227 254
210 229 254
211 229 251
212 230 253
212 230 254
212 230 254
212 230 254
212 230 254
212 230 254
212 230 254
212 230 254
212 230 254
212 230 254
212 230 254
212 230 254
212 230 254
212 230 254
212 230 254
212 230 254
212 230 254
187 222 237
61 195 164
61 196 164
61 195 162
62 196 163
60 193 152
63 199 170
61 194 150
61 194 149
62 196 162
62 196 161
62 196 160
62 197 166
62 197 166
61 194 156
60 193 155
62 195 155
62 197 165
60 193 157
61 194 156
61 195 152
61 193 149
61 194 152
61 194 152
62 196 164
62 197 159
62 197 164
61 194 149
62 195 154
61 194 160
61 193 148
63 196 154
61 193 149
61 194 154
61 194 152
62 195 156
61 193 147
62 196 160
62 195 161
61 195 157
61 193 149
63 197 160
62 196 161
62 195 155
62 197 166
63 197 165
62 195 159
61 194 146
61 194 152
61 194 154
60 193 154
61 194 150
61 195 156
62 195 155
61 194 157
61 193 157
60 191 143
61 193 151
62 195 161
61 191 149
60 191 155
61 193 155
61 193 155
61 193 150
61 193 155
60 190 145
62 194 157
62 194 160
61 192 150
61 193 157
61 193 158
61 192 159
61 190 164
61 194 160
61 193 160
62 195 161
61 191 163
60 188 160
60 189 149
60 190 157
61 191 163
59 188 161
60 190 162
61 191 169
59 186 165
60 188 171
59 186 171
187 218 237
212 230 254
212 230 254
212 230 254
212 230 254
212 230 254
212 230 254
212 230 254
212 230 254
212 230 254
212 230 254
212 230 254
212 230 254
212 230 254
212 230 254
212 230 254
212 230 254
187 193 239
178 170 248
181 174 254
180 173 254
179 173 254
177 172 254
176 171 254
176 171 254
175 171 254
174 171 254
174 171 254
173 170 254
173 170 254
172 170 254
172 170 254
172 170 254
171 169 254
172 170 254
172 170 254
170 169 254
170 169 254
170 169 254
170 169 254
170 169 254
170 169 254
170 169 254
170 169 254
170 169 254
170 169 254
169 169 254
169 169 254
170 169 254
170 169 254
170 169 254
169 169 254
170 169 254
169 169 254
170 169 254
170 169 254
170 169 254
170 169 254
170 169 254
170 169 254
170 169 254
170 169 254
170 169 254
170 169 254
170 169 254
171 169 254
170 169 254
171 169 254
171 169 254
171 169 254
171 169 254
170 169 254
172 170 254
171 169 254
171 169 254
171 169 254
172 170 254
171 169 254
172 170 254
172 170 254
172 170 254
172 170 254
172 170 254
172 170 254
173 170 254
173 170 254
174 171 254
173 170 254
173 170 254
173 170 254
174 171 254
173 170 254
174 171 254
174 171 254
174 171 254
174 171 254
174 171 254
174 171 254
174 171 254
175 171 254
175 171 254
175 171 254
175 171 254
175 171 254
176 171 254
176 172 254
176 172 254
176 172 254
177 172 254
176 172 254
177 172 254
176 172 254
176 172 254
177 172 254
177 172 254
177 172 254
177 172 254
177 172 254
177 172 254
178 172 254
178 172 254
178 173 254
178 172 254
178 173 254
178 173 254
178 173 254
179 173 254
178 173 254
179 173 254
179 173 254
179 173 254
179 173 254
179 173 254
180 173 254
180 174 254
180 173 254
180 173 254
180 173 254
180 174 254
181 174 254
180 174 254
182 174 254
181 174 254
181 174 254
182 174 254
181 174 254
182 174 254
182 174 254
182 175 254
183 175 254
182 174 254
182 175 254
183 175 254
183 175 254
183 175 254
183 175 254
183 175 254
206 227 254
206 227 254
206 227 254
206 226 254
206 226 254
206 226 252
208 227 248
207 227 248
207 227 248
208 228 249
208 228 251
210 229 254
207 227 249
209 228 251
206 226 241
208 227 248
208 227 248
209 228 248
206 225 245
208 228 248
204 224 235
205 225 241
205 224 235
203 224 237
206 226 241
206 226 241
208 227 251
204 224 235
205 225 239
209 228 251
206 226 243
206 226 241
209 228 252
207 227 245
202 222 230
206 225 240
206 226 245
208 227 245
206 225 245
206 226 247
205 225 244
207 227 247
207 226 244
209 228 252
205 225 240
206 226 243
208 227 248
208 227 248
207 226 245
208 227 248
205 225 240
204 225 244
208 227 251
207 227 248
208 227 249
209 228 252
207 227 247
206 225 243
206 226 244
208 227 248
208 227 249
204 224 236
205 225 240
206 226 247
207 226 243
206 225 239
207 227 247
205 225 243
206 226 247
205 225 244
206 225 243
204 225 243
207 227 248
207 227 248
208 227 249
208 227 247
206 226 249
208 227 247
208 228 251
208 227 252
208 228 252
207 227 249
206 226 243
207 226 245
205 225 241
204 224 240
206 226 245
207 226 249
204 225 244
206 225 247
207 227 249
204 224 243
206 225 243
208 227 252
206 226 248
205 225 244
205 225 244
206 226 249
206 226 249
204 225 244
207 227 249
205 225 247
204 224 243
205 225 247
205 226 247
207 227 252
205 225 247
204 225 247
205 226 249
202 223 232
204 225 248
201 223 239
204 225 245
202 223 241
203 224 248
202 223 241
202 224 245
201 223 241
201 223 240
202 224 248
199 222 239
201 222 235
201 223 243
201 223 247
201 224 252
202 224 249
199 223 251
195 221 253
196 221 254
197 222 254
198 222 254
199 223 254
201 224 254
202 225 254
203 225 254
205 226 254
206 227 253
208 228 254
211 229 254
212 230 253
212 230 254
213 230 254
213 230 254
212 230 254
212 230 254
212 230 254
212 230 254
212 230 254
212 230 254
212 230 254
212 230 254
212 230 254
212 230 254
212 230 254
212 230 254
207 229 251
109 203 190
61 194 158
60 193 157
62 196 161
61 195 162
61 195 159
62 195 157
61 195 157
61 195 155
62 196 160
62 197 165
61 195 159
62 196 162
61 195 158
62 195 157
61 194 154
62 195 155
62 196 157
62 196 160
61 193 155
61 194 157
61 194 150
62 195 150
62 197 164
60 193 147
62 195 155
60 193 154
60 193 154
61 194 157
61 193 150
61 194 154
61 194 155
62 196 159
61 195 152
60 193 156
62 195 152
61 195 157
60 192 144
61 195 156
61 194 154
61 194 151
61 195 161
62 196 155
61 193 152
61 194 156
62 197 163
60 193 154
60 191 154
61 194 154
62 194 156
60 191 148
62 196 159
62 197 165
62 196 157
61 193 151
62 196 162
61 193 148
61 194 157
61 194 160
61 192 152
60 191 154
61 194 157
61 193 159
61 192 159
61 192 151
62 196 163
61 192 159
60 192 156
62 194 157
62 195 163
61 193 157
61 191 155
62 195 162
61 191 152
60 189 160
61 191 157
60 191 162
60 189 157
59 188 156
62 192 163
60 188 159
60 190 164
60 188 161
60 188 163
60 188 163
59 187 164
60 187 167
88 192 180
204 227 249
212 230 254
212 230 254
212 230 254
212 230 254
212 230 254
212 230 254
212 230 254
212 230 254
212 230 254
212 230 254
212 230 254
212 230 254
213 230 254
213 230 254
200 212 245
177 168 243
183 175 254
180 174 254
179 173 254
178 172 254
177 172 254
176 172 254
176 172 254
175 171 254
175 171 254
174 171 254
173 170 254
173 170 254
173 170 254
172 170 254
173 170 254
172 170 254
171 169 254
171 169 254
171 170 254
171 169 254
171 169 254
171 169 254
171 169 254
170 169 254
171 169 254
171 169 254
170 169 254
171 169 254
171 169 254
171 169 254
171 169 254
171 169 254
170 169 254
171 169 254
171 169 254
171 169 254
171 169 254
171 169 254
171 169 254
171 169 254
171 169 254
171 169 254
171 169 254
171 169 254
171 169 254
171 170 254
171 170 254
171 169 254
171 170 254
172 170 254
172 170 254
172 170 254
172 170 254
172 170 254
172 170 254
173 170 254
172 170 254
172 170 254
173 170 254
173 170 254
173 170 254
173 170 254
173 170 254
173 170 254
174 170 254
173 170 254
174 170 254
174 171 254
174 171 254
174 171 254
174 171 254
175 171 254
175 171 254
174 171 254
174 171 254
175 171 254
174 171 254
175 171 254
175 171 254
175 171 254
175 171 254
176 171 254
176 172 254
176 172 254
176 172 254
175 171 254
176 172 254
176 172 254
176 172 254
177 172 254
177 172 254
177 172 254
177 172 254
177 172 254
178 172 254
177 172 254
177 172 254
177 172 254
178 173 254
178 173 254
178 173 254
178 173 254
179 173 254
179 173 254
179 173 254
179 173 254
179 173 254
179 173 254
179 173 254
179 173 254
180 173 254
180 173 254
180 174 254
179 173 254
180 173 254
179 173 254
180 174 254
181 174 254
181 174 254
180 174 254
181 174 254
181 174 254
181 174 254
181 174 254
182 174 254
182 174 254
181 174 254
182 175 254
182 174 254
182 174 254
183 175 254
183 175 254
183 175 254
183 175 254
183 175 254
184 175 254
183 175 254
183 175 254
184 175 254
207 227 254
207 227 254
206 227 254
206 227 254
208 228 254
209 228 253
208 228 249
208 228 252
208 226 243
208 227 244
208 226 243
208 227 247
208 227 245
208 228 249
210 228 248
207 226 244
209 227 247
210 229 251
208 227 248
206 225 240
204 224 233
207 227 245
206 225 240
206 225 240
206 225 239
205 225 244
205 225 241
205 225 239
205 225 241
208 227 247
208 226 244
207 226 243
207 226 243
205 225 241
205 224 241
206 226 241
208 227 247
207 227 245
205 225 241
208 227 248
206 225 240
207 226 243
206 226 241
207 227 247
206 226 244
206 226 243
207 227 245
207 227 245
205 225 239
207 226 245
208 227 247
208 227 244
207 227 248
208 227 244
208 227 248
207 226 248
209 228 247
206 226 244
205 226 243
205 225 239
206 226 241
208 227 245
208 227 248
209 228 249
206 226 247
207 226 243
205 225 241
205 225 237
210 229 253
208 227 248
208 227 245
207 226 245
208 227 245
206 226 241
206 226 244
206 226 243
207 226 240
206 226 245
208 227 248
208 227 249
208 227 248
207 226 247
205 225 244
206 226 241
206 226 247
206 226 245
207 227 248
207 226 244
208 227 252
207 227 247
206 226 245
205 225 241
203 224 243
207 227 248
205 224 241
205 225 243
207 227 248
206 225 245
204 225 244
206 226 248
206 226 247
206 226 245
206 226 247
205 225 245
205 225 243
205 225 245
205 225 247
207 227 252
206 226 249
206 226 248
203 224 244
204 224 241
202 224 240
204 225 247
204 225 245
204 225 245
204 225 245
203 224 244
202 224 245
201 223 239
200 221 232
199 221 236
202 224 248
203 224 248
202 224 247
199 222 243
203 224 251
200 223 254
196 221 254
197 222 254
198 222 254
199 223 254
200 224 254
201 224 254
203 225 254
205 226 254
206 227 254
207 227 254
209 228 253
212 230 254
213 230 253
213 230 254
213 230 254
213 230 254
213 230 254
213 230 254
213 230 254
213 230 254
213 230 254
213 230 254
213 230 254
213 230 254
213 230 254
213 230 254
212 230 254
155 213 210
61 194 159
61 194 149
61 195 158
61 195 160
61 194 158
60 193 147
61 194 150
61 195 158
61 194 154
61 194 155
61 195 155
62 195 155
61 194 156
61 194 152
61 195 159
61 195 159
62 196 159
61 193 145
62 195 152
63 198 167
61 194 155
60 193 157
61 195 155
62 196 159
62 196 161
59 191 147
62 195 155
61 195 157
61 194 156
61 195 162
61 194 150
62 195 155
61 194 154
61 193 147
61 193 151
62 197 161
61 194 152
60 193 152
61 195 154
61 195 159
62 196 158
60 192 146
62 196 160
61 193 148
62 195 158
60 193 152
62 195 158
59 189 146
61 193 150
61 195 157
61 194 155
60 193 151
61 193 151
61 193 154
60 192 147
61 194 150
61 194 155
61 194 156
61 194 158
61 194 154
61 193 147
62 195 159
60 191 152
60 192 151
61 193 156
61 193 158
60 191 151
61 193 151
61 193 160
63 197 162
61 193 156
61 194 163
61 191 156
61 192 160
60 191 155
61 192 159
61 193 158
62 193 164
60 190 150
61 193 165
60 190 152
62 194 168
60 186 162
60 190 163
60 187 161
60 187 163
59 185 155
57 179 165
145 205 209
212 230 254
213 230 254
213 230 254
213 230 254
213 230 254
213 230 254
213 230 254
213 230 254
213 230 254
213 230 254
213 230 254
213 230 254
213 230 254
210 228 252
172 169 230
182 173 252
182 174 254
180 174 254
179 173 254
178 172 254
177 172 254
176 172 254
176 172 254
175 171 254
175 171 254
174 171 254
174 171 254
174 171 254
174 171 254
173 170 254
172 170 254
172 170 254
173 170 254
172 170 254
172 170 254
172 170 254
172 170 254
172 170 254
172 170 254
172 170 254
171 169 254
172 170 254
172 170 254
171 169 254
171 170 254
171 169 254
172 170 254
171 169 254
172 170 254
171 169 254
171 169 254
171 170 254
171 169 254
172 170 254
172 170 254
171 170 254
172 170 254
172 170 254
171 169 254
172 170 254
172 170 254
172 170 254
172 170 254
173 170 254
172 170 254
172 170 254
173 170 254
173 170 254
172 170 254
173 170 254
173 170 254
173 170 254
173 170 254
173 170 254
173 170 254
173 170 254
174 170 254
174 171 254
174 171 254
173 170 254
174 171 254
174 171 254
174 171 254
174 171 254
174 171 254
175 171 254
174 171 254
175 171 254
175 171 254
174 171 254
175 171 254
176 171 254
176 171 254
176 172 254
176 172 254
176 172 254
176 172 254
176 172 254
176 172 254
176 172 254
178 172 254
177 172 254
177 172 254
177 172 254
177 172 254
178 173 254
178 172 254
178 172 254
178 173 254
178 172 254
177 172 254
178 172 254
178 173 254
178 173 254
178 172 254
179 173 254
179 173 254
179 173 254
179 173 254
179 173 254
180 173 254
180 173 254
179 173 254
180 173 254
180 173 254
180 174 254
180 173 254
180 174 254
181 174 254
180 174 254
181 174 254
181 174 254
181 174 254
181 174 254
181 174 254
181 174 254
181 174 254
181 174 254
181 174 254
182 174 254
182 175 254
182 175 254
182 175 254
182 175 254
183 175 254
183 175 254
183 175 254
183 175 254
183 175 254
183 175 254
183 175 254
183 175 254
184 175 254
184 176 254
184 175 254
207 227 254
207 227 254
207 227 254
208 228 254
208 228 249
208 227 245
210 228 252
208 227 247
209 228 251
207 226 243
209 228 251
208 226 243
209 228 249
208 227 245
209 228 249
210 229 253
209 228 248
209 228 251
205 225 236
205 224 236
206 225 237
206 225 240
205 225 236
206 226 243
207 226 239
208 228 249
206 226 243
208 227 243
209 228 248
209 228 248
207 226 241
206 225 243
208 227 248
207 227 247
206 226 244
209 227 245
209 228 247
209 228 248
209 227 247
207 226 243
209 227 247
210 228 252
209 227 247
207 226 241
206 226 241
208 227 245
207 227 247
208 227 244
209 228 249
208 227 245
207 226 245
206 225 241
206 226 243
208 227 244
211 229 254
206 226 244
209 228 251
208 227 247
209 228 248
207 226 243
207 227 245
209 227 245
207 227 244
209 228 249
207 227 247
208 227 247
208 227 247
208 227 247
207 227 245
207 226 243
207 227 251
209 228 251
207 227 247
207 227 247
206 226 244
207 226 243
207 226 245
207 226 247
207 226 244
206 226 244
209 228 251
207 226 245
206 226 244
205 225 240
207 226 243
208 227 245
207 226 245
207 226 244
207 227 248
207 226 245
207 226 245
207 226 245
207 226 247
206 226 245
204 224 241
206 226 248
205 224 245
207 226 247
208 227 248
205 225 243
205 225 244
207 227 251
206 226 245
205 225 243
206 226 245
206 226 248
205 225 244
205 225 243
204 224 239
206 226 245
206 226 251
203 223 237
204 224 237
204 225 243
204 225 244
204 224 243
203 224 240
204 224 241
204 224 244
202 223 239
202 224 244
200 222 235
201 223 240
202 223 241
203 225 248
203 224 245
202 224 249
204 225 247
200 223 251
197 222 254
198 222 254
199 223 254
200 223 254
201 224 254
202 225 254
204 226 254
205 226 254
207 227 253
209 228 254
210 229 254
211 229 251
213 231 254
213 231 254
213 231 254
213 231 254
213 230 254
213 230 254
213 230 254
213 230 254
213 230 254
213 230 254
213 230 254
213 230 254
213 230 254
206 228 248
67 195 157
62 196 161
60 193 151
62 195 159
61 194 157
62 195 158
61 193 151
60 193 151
62 195 157
60 193 151
60 193 154
61 195 159
61 194 151
61 193 146
61 193 148
61 193 148
61 194 154
61 194 154
61 195 157
61 194 154
61 194 155
61 194 155
61 194 154
62 196 159
61 193 150
61 195 156
61 194 149
62 195 157
62 197 165
61 193 152
62 196 158
61 194 156
61 194 150
62 195 154
61 193 148
61 194 152
62 195 158
61 194 154
61 195 159
62 195 152
60 192 148
61 194 158
61 195 156
62 195 154
61 193 152
61 195 157
62 196 156
61 194 149
61 193 147
62 196 158
61 195 156
62 195 158
60 193 150
61 194 156
62 197 162
62 197 167
60 191 141
61 194 156
61 194 155
59 190 140
61 194 154
61 194 160
60 189 139
61 192 155
61 193 151
61 194 164
62 194 160
61 193 150
60 190 151
62 194 162
60 189 147
62 194 160
61 193 162
61 190 152
60 190 150
61 193 156
61 192 163
60 191 160
60 189 152
60 191 145
61 192 162
60 189 158
59 186 148
59 185 155
59 186 148
59 185 157
60 187 159
60 186 167
59 183 160
65 180 170
202 226 246
213 230 254
213 230 254
213 230 254
213 230 254
213 230 254
213 230 254
213 230 254
213 230 254
213 230 254
213 231 254
213 231 254
213 231 254
190 194 243
180 172 249
183 175 254
181 174 254
179 173 254
179 173 254
178 173 254
178 172 254
177 172 254
176 172 254
176 171 254
173 171 253
172 170 252
173 170 253
172 170 253
173 170 253
173 170 254
172 170 254
173 170 254
173 170 254
173 170 254
173 170 254
173 170 254
172 170 254
172 170 254
173 170 254
172 170 254
172 170 254
172 170 254
172 170 254
172 170 254
172 170 254
172 170 254
173 170 254
172 170 254
172 170 254
172 170 254
172 170 254
172 170 254
173 170 254
172 170 254
172 170 254
172 170 254
172 170 254
172 170 254
173 170 254
172 170 254
173 170 254
173 170 254
173 170 254
172 170 254
173 170 254
173 170 254
173 170 254
173 170 254
173 170 254
174 171 254
174 171 254
173 170 254
174 170 254
174 171 254
174 171 254
174 171 254
174 171 254
175 171 254
175 171 254
175 171 254
175 171 254
174 171 254
175 171 254
175 171 254
175 171 254
175 171 254
176 171 254
175 171 254
175 171 254
176 172 254
175 171 254
176 171 254
177 172 254
177 172 254
176 172 254
177 172 254
176 172 254
177 172 254
177 172 254
177 172 254
177 172 254
178 172 254
177 172 254
178 173 254
178 173 254
178 173 254
179 173 254
178 173 254
178 173 254
179 173 254
178 173 254
179 173 254
179 173 254
179 173 254
179 173 254
179 173 254
180 173 254
179 173 254
180 173 254
179 173 254
180 174 254
180 174 254
180 174 254
181 174 254
180 173 254
181 174 254
181 174 254
181 174 254
181 174 254
181 174 254
181 174 254
181 174 254
182 174 254
182 174 254
182 174 254
182 174 254
183 175 254
183 175 254
183 175 254
182 175 254
183 175 254
184 175 254
183 175 254
183 175 254
183 175 254
183 175 254
184 175 254
184 175 254
184 175 254
184 175 254
184 175 254
184 176 254
184 175 254
184 175 254
184 175 254
208 227 254
207 227 254
208 228 254
210 229 252
209 228 251
208 227 247
209 228 247
210 229 249
210 229 251
210 228 251
210 228 249
210 228 251
211 229 253
210 228 249
209 228 248
209 227 245
209 228 248
207 227 245
207 226 241
204 223 232
209 228 247
208 227 245
206 226 240
206 226 240
207 226 241
207 226 241
206 225 239
206 226 240
208 227 244
206 225 240
209 227 245
206 226 243
208 227 243
208 227 245
208 227 247
206 226 244
208 227 247
208 227 245
209 228 247
207 226 241
209 228 248
208 226 240
211 229 252
208 227 243
205 225 237
207 226 241
211 229 251
207 226 243
209 228 248
209 228 249
207 227 243
207 227 244
209 227 245
207 227 247
208 227 248
209 228 248
206 226 241
208 227 245
208 227 244
204 225 240
208 228 249
210 229 251
207 227 244
208 227 244
208 227 249
210 228 249
204 225 241
208 227 249
208 227 248
207 226 243
210 229 252
209 228 248
204 224 239
208 227 248
206 225 240
208 227 247
209 228 249
208 227 247
208 227 248
205 225 243
206 225 243
205 225 243
207 227 248
209 228 251
208 227 247
207 227 247
209 228 249
206 226 243
207 226 245
207 226 243
206 225 243
209 227 249
206 225 240
207 227 249
208 227 248
209 228 249
208 227 249
208 227 247
207 226 244
208 227 245
205 225 241
207 226 248
207 226 247
207 226 244
206 226 247
207 227 249
206 226 248
207 227 249
206 226 245
205 225 245
206 226 244
205 225 241
206 226 245
205 225 245
206 225 247
205 225 240
205 225 244
204 224 241
203 224 241
201 222 237
203 224 243
203 224 244
203 224 245
201 222 236
201 223 239
204 225 249
204 225 247
203 225 248
203 224 247
200 223 253
198 223 254
199 223 254
200 223 254
201 224 254
202 225 254
204 225 254
205 226 254
206 227 254
208 228 254
209 229 254
211 230 254
212 229 249
213 231 254
213 231 254
213 231 254
213 231 254
213 231 254
213 231 254
213 231 254
213 231 254
213 231 254
213 231 254
213 231 254
213 231 254
134 209 200
60 193 154
61 194 159
61 194 154
60 193 149
61 194 154
61 194 155
61 194 161
61 194 157
61 195 156
61 195 154
62 197 164
62 195 157
61 194 151
62 196 163
62 197 161
60 192 147
62 196 157
61 193 147
62 196 159
61 194 148
61 193 148
61 194 152
61 195 156
61 194 152
62 195 155
61 194 151
62 196 161
61 194 148
60 193 148
61 192 145
61 194 155
62 195 156
61 193 149
61 195 154
62 195 157
60 192 144
62 195 151
61 193 144
62 195 151
61 193 150
62 195 156
62 195 156
62 195 155
62 197 164
61 194 150
61 194 154
62 196 157
61 194 152
61 194 152
60 191 144
61 194 159
63 197 163
61 192 154
60 192 149
62 196 160
61 194 159
61 193 154
61 192 146
62 194 158
62 195 152
60 192 149
62 195 161
61 194 158
61 193 151
61 193 151
61 192 148
61 193 156
61 194 157
61 192 154
62 194 160
60 190 146
61 192 157
62 194 161
60 191 155
60 190 150
61 194 161
60 191 158
61 192 156
60 188 152
61 192 165
59 187 156
60 189 159
61 191 160
61 190 162
61 190 158
59 185 157
59 185 160
59 184 166
58 181 156
58 183 158
138 201 203
213 231 254
213 231 254
213 231 254
213 231 254
213 231 254
213 231 254
213 231 254
213 231 254
213 231 254
213 231 254
213 231 254
200 213 243
172 164 235
184 175 254
182 174 254
181 174 254
180 173 254
179 173 254
178 173 254
176 172 253
175 172 253
173 171 252
166 169 247
164 168 245
163 168 245
165 168 247
162 168 244
171 170 252
168 169 250
169 169 250
171 170 253
173 171 254
173 170 254
174 171 254
173 170 254
174 171 254
173 170 254
173 170 254
173 170 254
173 170 254
173 170 254
173 170 254
173 170 254
173 170 254
173 170 254
173 170 254
173 170 254
173 170 254
173 170 254
173 170 254
173 170 254
173 170 254
173 170 254
173 170 254
174 171 254
173 170 254
173 170 254
174 171 254
174 171 254
173 170 254
174 171 254
174 171 254
174 171 254
175 171 254
174 171 254
174 171 254
174 171 254
175 171 254
174 171 254
175 171 254
175 171 254
174 171 254
175 171 254
175 171 254
175 171 254
175 171 254
176 171 254
176 172 254
176 171 254
176 171 254
176 172 254
175 171 254
176 172 254
176 172 254
176 172 254
176 172 254
176 172 254
177 172 254
177 172 254
177 172 254
177 172 254
177 172 254
177 172 254
177 172 254
177 172 254
177 172 254
178 173 254
178 173 254
178 172 254
178 173 254
178 173 254
179 173 254
178 173 254
179 173 254
179 173 254
178 173 254
178 173 254
179 173 254
180 173 254
179 173 254
179 173 254
179 173 254
180 173 254
179 173 254
181 174 254
180 174 254
181 174 254
180 173 254
181 174 254
181 174 254
181 174 254
181 174 254
180 174 254
181 174 254
181 174 254
181 174 254
181 174 254
182 174 254
182 174 254
182 174 254
182 174 254
183 175 254
182 174 254
182 175 254
182 174 254
182 175 254
183 175 254
183 175 254
183 175 254
183 175 254
184 175 254
183 175 254
184 176 254
183 175 254
184 175 254
184 175 254
184 175 254
184 175 254
184 176 254
184 175 254
185 176 254
185 176 254
185 176 254
185 176 254
208 228 254
208 228 254
209 228 251
210 229 249
210 228 249
208 227 244
209 227 247
210 229 249
209 228 247
210 229 251
210 229 251
209 228 248
209 228 247
210 229 249
210 228 249
211 229 252
210 228 247
209 227 245
207 226 241
207 226 240
209 227 241
208 226 240
209 227 247
208 227 247
207 226 240
205 224 236
209 228 247
209 227 244
209 228 247
208 227 244
207 226 244
208 226 243
209 227 245
208 227 245
208 228 247
206 225 239
209 228 245
208 227 243
206 226 240
209 227 245
209 228 245
209 227 245
208 227 245
209 228 248
210 228 249
209 228 249
210 228 251
206 225 236
210 228 247
209 227 244
207 226 244
209 228 247
209 228 251
210 228 249
209 228 247
207 226 244
209 228 247
209 228 248
209 228 247
209 228 247
208 227 245
209 228 251
208 227 244
208 227 245
206 226 243
210 228 248
208 227 245
210 228 249
209 228 251
207 227 245
208 227 247
209 227 247
210 229 252
207 226 244
211 229 251
208 227 248
207 226 244
209 227 245
208 227 247
207 227 247
206 225 243
207 227 249
208 227 245
208 227 245
208 227 251
206 225 244
208 227 249
208 227 247
207 226 243
206 226 243
207 226 244
209 228 248
207 226 244
208 227 248
209 228 251
208 227 247
207 226 244
207 227 248
208 227 249
208 227 248
207 226 248
207 226 245
210 229 254
207 226 244
206 226 245
204 225 243
205 225 244
206 226 245
207 226 245
208 227 252
206 226 247
205 225 241
206 226 247
204 225 247
205 225 243
207 226 248
206 226 248
205 225 245
205 226 248
205 225 245
203 224 237
204 225 247
203 224 241
201 223 239
201 222 235
203 224 243
206 226 248
205 225 249
203 225 249
204 225 248
200 223 251
199 223 254
200 224 254
201 224 254
202 225 254
204 225 254
205 226 254
206 226 254
208 228 254
209 228 254
211 229 254
212 230 253
213 231 253
214 231 254
214 231 254
214 231 254
214 231 254
214 231 254
214 231 254
213 231 254
213 231 254
213 231 254
213 231 254
195 225 241
64 193 152
62 196 160
61 194 152
61 194 156
61 194 155
62 196 162
62 196 161
62 196 160
60 193 152
60 192 150
61 194 154
60 192 147
61 193 151
61 193 146
62 196 161
61 194 150
61 194 155
62 196 159
62 195 156
60 193 145
62 195 156
62 195 151
61 194 156
62 196 160
61 194 151
61 195 152
62 195 157
61 195 155
62 195 156
62 196 159
62 194 152
61 193 149
62 196 158
62 196 150
61 193 148
62 195 156
61 193 143
60 192 144
62 195 149
62 197 163
61 193 151
61 194 156
61 193 148
62 196 156
62 194 146
61 194 151
62 196 157
62 194 154
61 193 149
61 193 149
60 192 141
62 194 151
61 192 147
62 195 155
61 193 144
61 193 149
61 194 149
60 192 151
61 194 152
61 192 149
61 193 154
60 190 144
61 193 152
60 192 147
61 191 146
61 193 151
61 192 151
61 194 157
61 193 154
61 190 151
60 188 140
61 194 161
60 189 151
61 191 152
60 190 151
61 193 160
60 189 157
60 188 150
60 191 150
60 192 152
61 189 154
59 187 156
60 187 152
59 187 150
60 190 159
59 186 154
59 187 157
59 187 157
59 183 161
60 186 159
58 181 167
61 182 170
197 225 243
213 231 254
213 231 254
213 231 254
213 231 254
214 231 254
214 231 254
214 231 254
214 231 254
214 231 254
214 231 254
174 173 228
182 173 251
183 175 254
182 174 254
181 174 254
180 173 254
178 173 254
171 170 249
163 168 243
164 168 245
158 167 238
151 164 235
157 167 238
147 164 233
161 168 244
155 167 238
159 167 241
159 167 241
161 167 244
164 168 246
169 170 250
171 170 251
174 171 254
174 171 254
174 171 254
174 171 254
174 171 254
174 171 254
174 171 254
175 171 254
174 171 254
174 171 254
174 171 254
174 171 254
174 171 254
174 171 254
174 171 254
174 171 254
174 171 254
174 171 254
174 171 254
174 171 254
174 171 254
175 171 254
175 171 254
175 171 254
175 171 254
175 171 254
175 171 254
174 171 254
174 171 254
175 171 254
175 171 254
175 171 254
175 171 254
175 171 254
176 171 254
175 171 254
175 171 254
175 171 254
175 171 254
176 171 254
176 171 254
176 172 254
176 172 254
176 172 254
176 172 254
176 172 254
176 172 254
177 172 254
177 172 254
177 172 254
178 172 254
177 172 254
177 172 254
177 172 254
177 172 254
178 172 254
178 172 254
178 173 254
178 173 254
178 173 254
178 173 254
178 173 254
179 173 254
178 173 254
178 173 254
179 173 254
179 173 254
179 173 254
178 173 254
179 173 254
179 173 254
179 173 254
179 173 254
179 173 254
180 173 254
180 173 254
180 174 254
180 174 254
181 174 254
180 173 254
181 174 254
180 174 254
181 174 254
181 174 254
181 174 254
180 174 254
181 174 254
181 174 254
182 174 254
182 174 254
181 174 254
181 174 254
182 174 254
182 174 254
183 175 254
182 174 254
182 174 254
183 175 254
182 174 254
182 175 254
183 175 254
183 175 254
183 175 254
183 175 254
183 175 254
184 175 254
184 175 254
184 175 254
184 175 254
184 175 254
184 175 254
185 176 254
184 175 254
184 175 254
184 175 254
184 176 254
186 176 254
186 176 254
185 176 254
185 176 254
185 176 254
208 228 254
209 228 249
211 229 251
211 229 251
209 228 245
210 229 251
210 228 247
211 229 251
210 228 248
212 229 252
211 229 251
209 227 244
210 229 249
210 228 245
210 228 245
209 228 245
207 226 239
208 226 240
209 228 245
206 225 233
208 226 240
209 228 248
207 226 240
208 226 240
208 226 239
207 226 241
209 228 245
205 225 236
207 227 243
209 228 248
210 229 249
207 226 240
210 228 247
209 228 247
209 228 245
207 226 240
208 227 243
209 228 244
209 227 245
207 225 240
209 228 248
209 227 243
211 229 247
210 228 249
210 229 249
206 226 240
210 228 249
210 229 251
208 227 244
208 227 245
209 228 247
210 228 249
211 229 251
209 228 248
210 228 248
210 228 245
210 228 247
208 227 243
210 229 251
209 228 249
208 227 244
208 227 243
209 227 245
208 227 247
206 226 244
209 227 243
206 226 243
210 228 247
207 226 244
207 227 245
207 227 247
209 228 249
207 226 244
209 228 247
208 227 245
207 226 243
206 225 239
210 228 251
210 228 249
209 228 249
209 228 247
208 227 247
208 227 245
209 227 245
206 225 241
208 227 247
208 227 247
207 226 243
207 226 243
208 227 244
207 226 243
206 225 243
209 228 249
208 227 245
209 228 252
209 228 249
209 228 248
209 227 248
206 226 240
205 224 236
207 226 244
207 226 243
207 226 244
208 227 249
209 228 248
207 227 247
208 227 248
207 226 240
208 227 247
208 227 249
208 227 249
207 227 251
207 227 248
207 227 245
207 227 247
205 225 243
206 226 244
208 227 249
205 225 244
204 224 240
205 225 243
204 225 244
203 224 240
204 225 243
202 223 237
202 223 239
205 226 249
203 224 243
203 224 245
203 224 245
203 224 248
200 223 253
200 224 254
201 224 254
203 225 254
203 225 254
204 226 254
206 226 254
207 227 254
209 228 254
210 229 254
212 230 254
214 231 254
213 230 252
214 231 254
214 231 254
214 231 254
214 231 254
214 231 254
214 231 254
214 231 254
214 231 254
214 231 254
153 213 211
61 195 161
60 193 152
61 196 161
61 195 158
61 195 157
61 194 159
62 196 161
61 194 151
61 194 154
61 195 151
60 192 144
61 193 151
62 196 161
61 194 148
61 195 159
62 195 152
61 195 154
61 194 151
61 195 155
61 193 149
61 194 149
61 194 154
62 195 152
61 195 155
61 192 141
62 196 161
62 196 159
60 192 146
62 196 155
61 194 150
61 192 149
60 193 150
61 193 154
60 191 141
60 193 151
62 195 156
61 193 146
61 194 154
62 195 154
60 192 144
62 196 159
61 193 147
61 194 152
61 193 146
61 193 149
61 194 151
61 192 146
60 192 148
60 192 148
61 193 151
61 193 147
61 193 148
61 194 150
61 194 152
61 193 147
60 191 145
61 192 148
60 190 149
60 191 146
62 196 160
61 193 152
61 193 149
62 196 160
62 195 156
62 195 159
63 197 163
60 191 145
61 193 156
62 194 160
60 188 149
62 195 162
61 193 160
61 193 157
60 190 151
61 193 155
60 190 146
61 191 152
60 189 147
61 193 156
60 190 159
62 193 157
60 190 150
59 185 150
60 189 147
60 189 159
60 189 152
60 189 159
59 182 155
59 184 158
58 183 158
59 184 153
56 174 161
146 201 205
214 231 254
214 231 254
214 231 254
214 231 254
214 231 254
214 231 254
214 231 254
214 231 254
214 231 254
198 207 245
182 172 248
184 175 254
184 175 254
182 174 254
178 173 253
176 172 251
170 170 247
162 168 242
147 164 232
149 164 233
137 161 225
142 161 228
147 163 231
130 159 220
146 163 230
146 163 230
156 166 239
155 166 239
159 167 242
157 166 239
167 169 249
170 170 249
173 170 253
175 171 254
176 171 254
175 171 254
175 171 254
175 171 254
174 171 254
175 171 254
175 171 254
175 171 254
175 171 254
175 171 254
175 171 254
175 171 254
174 171 254
175 171 254
175 171 254
175 171 254
175 171 254
175 171 254
175 171 254
176 171 254
175 171 254
176 171 254
175 171 254
175 171 254
176 172 254
176 172 254
176 171 254
176 171 254
176 172 254
176 171 254
176 172 254
176 172 254
176 172 254
176 172 254
177 172 254
176 172 254
176 172 254
177 172 254
177 172 254
176 172 254
177 172 254
176 172 254
177 172 254
177 172 254
178 173 254
176 172 254
177 172 254
178 173 254
178 173 254
178 173 254
178 172 254
178 173 254
178 173 254
178 173 254
179 173 254
178 173 254
179 173 254
179 173 254
179 173 254
178 173 254
180 173 254
179 173 254
180 173 254
179 173 254
179 173 254
180 173 254
180 174 254
179 173 254
180 173 254
180 173 254
181 174 254
181 174 254
181 174 254
180 174 254
180 174 254
181 174 254
180 174 254
181 174 254
181 174 254
182 174 254
181 174 254
182 174 254
182 174 254
181 174 254
182 174 254
182 174 254
183 175 254
181 174 254
182 174 254
183 175 254
183 175 254
183 175 254
182 175 254
183 175 254
183 175 254
183 175 254
183 175 254
183 175 254
184 175 254
183 175 254
183 175 254
184 175 254
184 175 254
184 176 254
184 175 254
185 176 254
184 175 254
184 176 254
184 175 254
185 176 254
185 176 254
185 176 254
186 176 254
185 176 254
185 176 254
186 176 254
186 176 254
186 176 254
186 176 254
210 229 252
211 229 252
210 229 251
211 229 251
210 228 248
211 229 251
211 229 251
211 229 252
213 230 254
213 230 252
212 229 249
209 227 241
210 228 244
209 228 245
211 229 251
209 227 243
207 226 240
207 226 239
206 225 233
208 227 244
208 227 243
209 227 244
209 227 241
210 228 247
209 227 243
206 225 236
209 227 243
210 228 244
208 227 245
210 228 244
209 228 245
207 226 237
210 228 247
211 229 249
211 229 249
211 229 247
207 226 240
210 228 247
211 229 247
211 229 248
212 229 249
209 227 243
210 228 247
211 229 251
209 228 245
209 228 248
211 229 249
210 228 245
208 227 244
211 229 251
211 229 251
210 228 247
208 227 245
209 227 244
209 228 248
209 227 244
210 228 249
209 227 245
208 227 241
211 229 247
207 226 241
209 227 244
210 229 251
208 227 243
210 228 248
208 227 245
209 227 247
209 228 244
206 226 243
207 226 243
207 227 244
208 227 244
209 228 247
208 227 245
211 229 251
211 229 249
207 227 244
210 228 249
208 227 245
205 225 240
208 227 247
208 226 241
207 226 243
208 227 244
209 228 245
209 227 244
209 227 244
211 229 251
209 227 245
207 226 241
209 227 243
208 227 248
209 227 244
210 228 249
208 227 245
208 227 248
207 226 243
208 227 244
210 229 252
208 227 247
207 226 243
209 228 251
207 227 245
207 227 245
208 226 243
211 229 253
207 226 239
208 227 247
207 226 243
209 228 248
207 226 244
206 226 241
207 226 244
207 227 245
207 226 244
206 226 243
203 224 240
205 225 245
205 225 241
207 227 249
205 225 243
205 225 244
205 225 245
205 225 243
205 226 248
204 225 243
203 224 240
206 226 245
205 225 244
204 225 248
203 226 251
203 224 249
200 223 254
200 224 253
203 225 254
203 225 254
205 226 254
205 226 254
206 227 253
208 228 254
210 229 253
211 230 254
213 231 254
215 231 254
214 231 254
214 231 254
214 231 254
214 231 254
214 231 254
214 231 254
214 231 254
214 231 254
200 226 243
71 196 162
63 198 165
61 193 150
61 194 154
61 195 159
61 194 155
61 193 154
61 194 154
61 195 157
61 194 156
61 192 146
60 191 143
61 194 154
61 194 148
60 192 150
60 193 149
63 197 161
61 194 151
60 192 147
61 193 150
61 194 148
62 196 162
61 193 147
61 193 147
61 194 155
60 192 147
62 196 158
60 192 145
61 193 147
61 194 154
61 193 150
60 192 147
61 194 155
61 195 156
61 193 145
62 195 154
61 193 147
62 195 157
62 195 154
61 193 143
60 192 148
61 193 148
61 193 149
62 196 154
62 195 156
61 194 150
61 193 149
61 192 149
61 194 156
61 195 160
61 193 152
61 194 157
60 190 143
61 194 149
61 194 155
62 196 156
61 194 151
61 193 154
62 194 154
62 197 158
60 191 146
61 193 152
60 189 140
60 193 156
60 190 144
61 194 157
61 193 146
61 191 152
62 195 155
61 191 155
61 192 155
61 191 149
61 191 144
60 190 149
60 190 147
60 189 144
61 192 152
61 192 157
61 193 152
60 188 148
60 189 146
60 189 147
60 188 150
61 189 161
60 186 161
61 189 157
60 186 155
61 191 157
60 187 158
59 185 151
61 189 167
59 182 155
58 182 156
65 182 166
196 222 242
214 231 254
214 231 254
214 231 254
214 231 254
214 231 254
214 231 254
214 231 254
212 229 252
175 168 235
186 176 254
184 175 254
183 175 254
181 174 253
175 171 249
163 168 241
147 164 230
147 162 231
145 164 230
131 158 218
122 157 213
127 156 217
136 160 224
136 159 222
138 160 226
131 160 221
132 160 220
137 162 224
147 163 230
157 166 237
161 167 241
162 169 243
167 169 247
170 169 248
175 171 254
176 172 254
176 171 254
176 172 254
176 172 254
176 172 254
176 172 254
175 171 254
176 172 254
176 172 254
176 171 254
176 172 254
176 172 254
176 171 254
175 171 254
176 171 254
176 172 254
176 171 254
176 172 254
176 171 254
176 172 254
177 172 254
176 172 254
176 172 254
176 172 254
177 172 254
176 172 254
176 172 254
176 172 254
177 172 254
177 172 254
177 172 254
177 172 254
177 172 254
177 172 254
177 172 254
177 172 254
177 172 254
177 172 254
178 173 254
177 172 254
178 173 254
178 173 254
177 172 254
178 172 254
179 173 254
179 173 254
179 173 254
179 173 254
179 173 254
179 173 254
178 173 254
180 173 254
179 173 254
179 173 254
179 173 254
179 173 254
180 174 254
180 173 254
179 173 254
180 174 254
180 174 254
181 174 254
180 174 254
180 173 254
180 173 254
181 174 254
180 174 254
181 174 254
181 174 254
180 174 254
181 174 254
181 174 254
181 174 254
181 174 254
182 174 254
181 174 254
182 174 254
182 175 254
182 174 254
182 174 254
183 175 254
182 174 254
183 175 254
183 175 254
183 175 254
183 175 254
182 175 254
183 175 254
183 175 254
183 175 254
183 175 254
183 175 254
184 175 254
183 175 254
184 175 254
184 175 254
183 175 254
183 175 254
184 176 254
185 176 254
184 175 254
185 176 254
185 176 254
185 176 254
185 176 254
185 176 254
185 176 254
185 176 254
185 176 254
185 176 254
185 176 254
186 176 254
186 176 254
186 176 254
185 176 254
187 177 254
186 177 254
187 177 254
210 229 251
212 229 252
212 230 252
212 229 251
213 230 254
211 229 248
211 229 249
212 229 249
212 229 251
211 229 249
211 229 248
212 230 251
212 230 251
211 229 248
212 229 251
208 227 240
210 228 245
207 226 238
208 226 240
211 229 248
208 227 244
209 227 241
210 228 245
208 227 241
210 229 247
210 228 244
210 228 247
208 226 237
209 227 243
210 228 245
210 228 247
210 229 248
207 226 236
208 227 240
211 229 251
211 228 245
210 228 247
211 229 249
211 229 249
211 229 248
210 228 247
212 230 253
211 229 249
209 228 247
209 228 243
210 228 247
209 228 243
208 227 241
210 228 247
210 228 245
209 227 244
210 228 244
211 229 251
213 230 253
212 230 251
210 229 249
210 228 247
211 229 247
206 225 236
212 229 251
210 228 247
208 227 244
209 228 248
209 228 247
208 227 245
212 230 253
210 229 249
207 227 243
206 226 239
207 226 241
210 228 247
207 226 240
208 227 244
211 229 249
208 227 244
209 228 247
211 229 248
205 225 239
208 227 247
207 226 237
211 229 248
208 227 247
207 226 240
211 229 249
209 227 244
211 229 251
208 226 240
210 228 248
207 226 243
209 227 244
210 229 248
209 227 247
209 228 247
211 229 249
211 229 253
208 227 243
207 226 245
209 227 245
210 228 251
208 226 243
210 228 248
209 227 245
209 227 244
209 228 249
210 228 251
209 228 249
209 227 245
209 227 244
208 227 249
209 228 251
206 226 243
209 228 249
208 227 245
208 227 249
207 226 245
208 227 247
206 226 245
206 226 243
208 227 249
207 227 245
205 225 241
207 226 243
207 226 247
205 225 243
206 226 245
203 224 241
199 223 238
195 221 233
203 226 247
200 225 245
203 226 249
204 226 249
197 223 248
199 224 253
194 223 249
200 224 251
202 225 253
205 226 254
207 227 254
208 228 254
210 229 254
211 229 254
212 230 254
212 230 252
214 231 254
214 231 254
214 231 254
214 231 254
214 231 254
214 231 254
214 231 254
214 231 254
145 210 202
61 195 156
61 193 147
61 194 158
61 195 156
62 195 158
61 195 156
61 193 151
61 195 154
61 194 151
61 195 156
62 196 163
62 196 160
60 192 140
62 196 157
61 195 156
61 194 150
62 196 161
61 193 149
61 195 152
62 196 159
61 193 151
62 196 158
60 192 143
62 196 152
61 193 146
60 192 143
61 193 150
61 193 146
61 194 151
62 194 148
62 196 157
60 192 150
61 194 152
61 193 151
61 194 151
62 194 148
61 194 152
61 194 149
61 193 147
60 192 147
61 193 148
63 197 158
61 192 141
62 196 158
61 194 154
62 196 160
61 194 150
62 195 158
61 194 147
61 194 154
62 195 151
61 194 152
62 196 159
61 193 147
61 193 149
60 191 140
62 196 159
60 192 148
61 194 154
61 194 154
62 197 163
60 191 149
60 190 146
61 193 154
60 192 148
61 191 141
62 193 149
62 193 155
61 193 158
62 194 159
61 191 150
60 189 150
60 190 143
61 193 154
60 190 150
61 191 156
60 189 149
61 191 152
61 192 152
60 188 151
60 190 149
60 188 154
60 189 147
60 189 149
60 188 152
59 185 149
60 189 150
60 186 160
60 189 157
59 185 159
59 185 160
57 179 149
57 178 158
57 180 160
157 207 212
214 231 254
214 231 254
214 231 254
214 231 254
214 231 254
214 231 254
214 231 254
194 203 239
179 169 244
185 176 254
184 175 254
180 174 253
171 170 245
159 166 238
145 162 229
134 158 220
142 160 226
123 156 214
112 154 205
119 153 209
119 155 211
115 153 207
120 158 212
117 156 208
123 157 212
122 159 211
140 163 225
139 161 221
143 164 228
150 165 233
158 167 239
160 168 241
171 171 250
172 171 251
177 172 254
176 172 254
176 172 254
176 172 254
177 172 254
176 172 254
177 172 254
177 172 254
177 172 254
177 172 254
177 172 254
177 172 254
176 172 254
177 172 254
177 172 254
177 172 254
177 172 254
177 172 254
177 172 254
178 172 254
177 172 254
177 172 254
177 172 254
177 172 254
177 172 254
178 172 254
177 172 254
178 172 254
178 172 254
178 172 254
178 172 254
178 173 254
177 172 254
178 173 254
179 173 254
178 173 254
178 173 254
178 173 254
179 173 254
179 173 254
178 173 254
178 173 254
178 173 254
179 173 254
179 173 254
179 173 254
180 173 254
179 173 254
180 173 254
179 173 254
180 174 254
179 173 254
180 174 254
180 174 254
180 174 254
180 174 254
180 173 254
180 174 254
180 174 254
181 174 254
180 174 254
181 174 254
182 174 254
181 174 254
181 174 254
182 174 254
181 174 254
182 174 254
181 174 254
182 174 254
181 174 254
181 174 254
181 174 254
182 175 254
183 175 254
183 175 254
182 175 254
182 174 254
183 175 254
183 175 254
184 175 254
182 175 254
183 175 254
183 175 254
183 175 254
184 175 254
183 175 254
183 175 254
184 175 254
184 175 254
184 175 254
184 176 254
185 176 254
184 176 254
185 176 254
184 175 254
184 176 254
184 175 254
185 176 254
184 175 254
185 176 254
185 176 254
185 176 254
185 176 254
185 176 254
185 176 254
185 176 254
185 176 254
185 176 254
186 176 254
186 176 254
186 176 254
187 177 254
186 176 254
186 176 254
187 177 254
186 177 254
186 176 254
212 230 252
211 229 249
213 230 252
211 229 249
214 231 254
209 228 243
212 230 251
211 229 247
212 229 249
211 229 247
213 231 253
213 230 253
211 229 245
212 230 249
211 229 247
210 228 244
210 228 244
210 228 244
209 227 241
209 227 243
209 227 237
210 228 244
208 226 237
210 228 245
210 228 245
211 228 247
211 229 247
209 228 244
211 229 248
210 228 245
210 228 244
208 227 241
207 227 241
208 227 239
211 229 251
211 229 247
211 229 245
210 228 244
210 229 247
211 228 245
210 228 244
207 226 243
211 228 245
210 228 245
213 230 252
211 229 248
211 229 248
211 229 249
210 228 247
211 229 248
211 229 248
208 227 240
208 227 244
210 228 241
210 228 245
207 226 240
207 226 241
209 227 244
212 229 248
211 229 248
210 229 251
209 228 244
210 228 245
208 226 241
211 229 249
208 228 247
211 229 251
211 229 248
210 228 248
210 228 245
209 228 249
208 227 241
208 227 243
211 229 247
209 227 243
208 227 243
209 228 248
208 227 244
211 229 249
210 228 248
207 226 243
211 229 251
212 230 249
210 228 245
206 225 237
210 228 249
209 227 244
206 225 243
211 228 247
208 227 248
210 228 248
208 226 243
208 226 239
210 228 249
210 228 248
209 228 247
208 226 241
209 228 248
208 227 245
210 228 248
211 229 251
208 226 241
209 227 247
209 228 251
210 228 251
209 228 251
207 226 244
208 227 243
208 227 244
207 226 244
210 228 249
208 227 241
209 227 245
209 228 248
208 227 247
206 225 240
208 227 244
210 229 252
207 226 244
209 228 249
207 227 247
206 226 243
208 227 247
206 226 244
203 225 243
203 224 239
200 224 241
202 225 243
204 225 242
202 226 247
201 224 242
204 226 247
198 224 245
194 222 249
199 224 251
201 225 252
198 224 249
198 224 248
206 227 254
208 228 254
209 228 254
210 229 254
211 230 254
213 231 253
214 231 251
215 231 254
215 231 254
215 231 254
215 231 254
215 231 254
215 231 254
213 231 253
81 197 165
60 192 150
61 194 150
60 191 144
61 194 158
61 194 150
61 194 152
62 195 155
61 194 149
61 193 154
60 191 138
60 192 144
62 195 156
61 194 151
62 196 160
62 195 151
61 193 150
60 192 143
61 195 155
61 195 152
62 194 154
61 193 144
61 194 146
60 193 148
62 195 151
62 196 157
61 193 144
61 195 154
60 193 151
61 193 149
62 195 156
62 196 158
62 197 162
60 191 136
61 193 149
61 194 152
61 195 158
61 193 146
60 192 145
61 194 149
60 192 141
62 194 148
60 191 133
62 195 151
61 194 152
61 194 149
61 193 146
61 193 149
61 194 154
62 196 158
60 190 144
61 194 150
60 190 140
62 195 158
62 195 156
61 194 156
60 191 144
59 190 145
60 192 145
61 193 145
61 193 151
60 191 141
61 193 151
61 192 146
60 189 143
61 194 157
60 191 149
59 186 130
60 190 146
60 191 149
62 195 156
59 189 144
61 193 155
61 191 149
61 193 156
60 190 149
60 189 149
61 193 157
61 192 154
61 190 149
60 190 154
60 191 155
60 189 151
59 187 151
60 189 158
61 190 158
61 188 159
61 189 158
58 183 143
60 186 160
60 187 161
59 183 152
58 180 149
57 180 162
58 181 159
81 181 176
212 229 251
215 231 254
215 231 254
215 231 254
215 231 254
215 231 254
213 230 253
175 169 232
183 174 251
186 176 254
183 175 253
167 170 242
152 164 232
144 160 224
130 155 217
122 155 212
100 149 199
105 153 202
103 149 199
108 154 201
94 150 192
104 153 200
114 154 206
113 153 205
122 158 214
112 155 203
120 155 211
129 160 215
141 164 225
147 165 230
151 166 233
161 168 241
164 168 241
167 170 245
169 170 247
177 172 254
178 173 254
178 172 254
178 172 254
178 173 254
177 172 254
177 172 254
177 172 254
178 173 254
177 172 254
178 172 254
178 172 254
178 172 254
178 173 254
178 172 254
178 172 254
178 172 254
178 173 254
178 172 254
177 172 254
178 173 254
178 173 254
178 172 254
178 173 254
178 172 254
179 173 254
179 173 254
179 173 254
179 173 254
179 173 254
178 173 254
179 173 254
179 173 254
179 173 254
179 173 254
179 173 254
180 173 254
179 173 254
180 173 254
179 173 254
180 173 254
180 174 254
180 174 254
180 173 254
180 174 254
181 174 254
181 174 254
181 174 254
180 174 254
180 173 254
181 174 254
181 174 254
181 174 254
181 174 254
181 174 254
181 174 254
182 174 254
182 174 254
181 174 254
182 174 254
182 174 254
182 174 254
182 175 254
182 174 254
182 174 254
182 174 254
182 174 254
183 175 254
182 174 254
183 175 254
182 175 254
182 175 254
183 175 254
183 175 254
183 175 254
183 175 254
183 175 254
183 175 254
184 175 254
184 175 254
184 175 254
184 175 254
184 175 254
185 176 254
183 175 254
184 176 254
185 176 254
184 175 254
185 176 254
185 176 254
185 176 254
184 176 254
185 176 254
185 176 254
184 175 254
186 176 254
185 176 254
185 176 254
186 176 254
186 176 254
186 176 254
186 176 254
186 176 254
186 176 254
186 176 254
186 176 254
186 176 254
187 177 254
187 177 254
186 176 254
187 177 254
186 176 254
187 177 254
187 177 254
187 177 254
187 177 254
187 177 254
211 229 247
213 230 252
211 229 247
212 230 249
213 230 252
212 229 248
210 228 244
211 229 248
213 230 252
212 230 249
212 230 250
212 229 247
214 231 254
213 230 249
211 228 245
209 227 239
209 227 239
209 227 241
212 230 251
211 229 247
209 227 240
211 229 245
212 229 248
208 227 241
211 229 248
211 229 245
209 227 241
208 227 239
211 229 248
210 228 243
212 229 247
208 227 240
210 228 245
211 228 244
211 229 245
211 228 245
211 228 244
211 228 245
211 229 248
212 230 251
211 229 248
211 229 245
210 228 244
211 228 245
212 229 248
209 228 243
208 226 240
212 229 248
209 227 240
211 228 244
207 227 241
210 228 247
210 228 245
211 229 245
208 227 243
211 229 247
211 229 248
212 230 252
212 230 252
212 229 247
208 228 244
207 226 241
210 228 247
211 229 251
206 226 239
210 228 248
210 227 243
210 229 245
213 230 252
209 228 245
207 227 244
207 226 240
209 228 247
208 227 243
210 228 244
212 230 251
211 229 248
210 228 248
210 228 248
210 228 245
209 228 245
211 229 251
211 229 247
210 228 247
210 228 245
208 227 245
210 228 244
209 227 244
209 227 244
209 228 248
209 227 245
210 228 249
209 227 244
210 228 245
207 226 240
209 228 248
210 228 248
208 227 245
211 229 248
209 228 245
209 228 247
210 229 249
210 227 244
209 227 240
211 229 252
209 228 247
208 227 244
208 227 243
209 228 247
209 227 244
210 228 249
208 227 245
208 227 244
209 228 248
210 228 251
209 228 247
208 227 245
209 228 249
207 227 244
209 227 247
206 225 240
207 226 240
207 226 243
203 225 243
207 227 247
205 226 243
203 224 238
198 223 237
200 222 233
208 227 244
204 226 247
201 225 244
203 226 247
201 225 247
200 224 251
201 225 251
196 223 247
202 226 251
195 223 245
206 227 253
209 228 254
211 229 254
212 230 254
214 231 254
215 232 254
215 231 252
215 232 254
215 232 254
215 232 254
215 232 254
215 232 254
176 220 227
62 195 157
59 191 146
61 195 158
60 193 150
60 192 145
61 195 151
60 192 141
61 194 152
61 194 150
59 190 139
62 196 151
61 194 151
60 193 151
60 192 144
61 193 145
62 196 158
61 193 149
61 193 152
62 194 147
61 193 145
62 195 158
62 196 155
61 192 137
62 195 154
61 193 151
61 193 147
61 192 144
62 195 149
61 192 150
60 191 140
60 193 149
60 191 146
61 194 145
61 193 144
61 192 140
60 191 144
61 193 146
60 191 143
61 192 140
60 191 141
61 194 155
61 193 151
61 193 147
62 195 151
61 193 147
59 190 139
60 191 140
61 193 152
61 192 144
60 190 136
61 192 143
60 190 138
61 194 147
62 195 152
61 193 147
61 192 145
61 193 149
61 191 144
61 192 148
60 191 145
60 192 146
60 191 144
61 193 143
61 191 140
61 192 151
60 191 144
60 191 155
61 191 148
60 189 144
60 190 147
60 190 143
61 191 150
60 189 141
60 189 150
60 189 149
61 190 151
60 190 146
61 192 152
59 188 147
60 188 148
61 192 148
61 189 155
60 190 147
61 191 157
61 188 152
61 190 158
60 189 158
60 186 152
60 188 163
59 185 155
58 181 145
59 184 157
58 182 159
57 180 160
57 179 148
56 173 160
174 211 223
215 232 254
215 232 254
215 232 254
215 232 254
215 232 254
198 206 243
179 169 243
187 177 254
183 175 253
167 169 241
143 160 225
142 159 223
123 153 210
102 144 194
103 148 196
91 144 188
74 145 182
84 146 183
94 150 196
77 143 184
82 145 181
103 153 197
103 148 197
112 156 205
99 151 194
109 156 201
125 159 212
131 160 218
140 160 223
151 165 233
148 164 228
159 167 238
161 168 241
167 170 245
171 171 248
179 173 254
179 173 254
179 173 254
178 173 254
179 173 254
178 173 254
178 173 254
178 173 254
179 173 254
179 173 254
179 173 254
179 173 254
179 173 254
179 173 254
179 173 254
179 173 254
180 173 254
179 173 254
179 173 254
179 173 254
179 173 254
179 173 254
180 173 254
180 173 254
179 173 254
180 173 254
179 173 254
179 173 254
180 173 254
180 173 254
179 173 254
180 173 254
180 174 254
180 174 254
180 174 254
181 174 254
180 174 254
180 174 254
181 174 254
180 173 254
180 174 254
180 174 254
181 174 254
181 174 254
181 174 254
182 174 254
182 174 254
182 174 254
181 174 254
181 174 254
182 174 254
182 174 254
182 174 254
182 174 254
182 174 254
181 174 254
182 174 254
183 175 254
183 175 254
183 175 254
182 175 254
183 175 254
182 175 254
182 175 254
183 175 254
183 175 254
183 175 254
183 175 254
183 175 254
183 175 254
183 175 254
184 175 254
184 175 254
183 175 254
184 175 254
183 175 254
184 175 254
184 176 254
185 176 254
184 175 254
185 176 254
184 175 254
185 176 254
184 175 254
185 176 254
185 176 254
185 176 254
185 176 254
186 176 254
185 176 254
185 176 254
186 176 254
186 176 254
186 176 254
185 176 254
186 176 254
186 176 254
187 177 254
186 176 254
186 176 254
187 177 254
186 176 254
187 177 254
187 177 254
186 177 254
187 177 254
187 177 254
187 177 254
187 177 254
187 177 254
187 177 254
187 177 254
188 177 254
188 177 254
188 177 254
188 177 254
212 229 248
213 230 248
213 230 248
214 231 254
212 230 249
212 230 249
214 231 252
213 230 251
212 229 248
211 229 246
212 230 249
212 229 248
211 229 245
213 230 249
210 228 241
211 229 245
210 228 243
209 227 239
211 229 245
210 228 243
211 229 245
212 230 249
209 227 239
210 228 243
212 230 250
210 228 243
210 228 245
207 226 237
213 230 251
212 229 244
212 229 247
210 227 239
209 227 240
212 230 248
212 230 251
212 229 248
210 228 241
212 229 247
210 228 244
211 229 244
212 229 245
210 228 243
210 227 243
208 227 243
212 229 245
211 229 245
212 229 247
210 228 244
210 228 245
213 230 252
211 228 244
209 227 244
208 227 241
209 227 241
212 230 249
209 228 245
208 226 240
209 228 245
210 228 248
211 229 249
208 227 243
211 229 248
210 228 244
210 228 248
208 226 241
211 229 249
211 229 245
206 225 237
209 228 243
210 228 248
210 228 243
213 230 252
208 227 243
210 228 245
210 228 244
213 230 251
209 228 245
208 226 241
209 228 245
211 229 248
210 228 244
212 229 249
211 229 247
208 227 244
210 228 244
210 228 243
209 228 249
208 227 239
210 228 245
211 229 248
210 228 245
210 228 244
209 227 240
210 229 251
210 229 248
213 230 253
208 226 239
211 229 251
211 229 248
210 228 243
210 228 245
210 228 247
209 227 244
209 227 241
211 229 249
209 227 243
210 228 247
211 229 248
210 228 248
210 229 248
211 229 251
208 226 239
208 227 240
210 228 249
210 228 245
209 228 245
207 226 239
210 228 249
209 228 245
209 228 247
208 227 245
207 227 245
202 226 242
199 223 231
201 224 237
202 225 241
197 223 235
196 223 235
195 222 230
203 224 235
193 222 235
205 226 246
201 225 242
202 225 240
201 224 250
199 224 249
199 224 249
197 224 246
202 225 249
202 226 248
206 227 252
210 229 254
212 230 254
213 231 254
214 231 254
214 231 252
215 232 254
215 232 254
215 232 254
215 232 254
215 232 254
128 204 186
61 193 150
60 193 150
61 194 150
61 193 147
61 194 151
60 193 148
61 193 148
60 191 141
60 192 147
62 195 157
60 190 139
60 192 146
61 193 149
61 193 150
61 193 152
60 191 140
61 194 154
61 193 149
61 194 154
61 193 145
61 194 146
60 192 147
60 191 144
61 193 145
61 193 148
62 196 156
59 191 141
60 191 148
60 191 141
60 191 140
62 194 154
60 192 147
60 192 143
60 191 141
62 194 146
61 194 148
60 192 141
60 192 141
61 195 156
61 193 147
61 195 157
61 195 158
61 193 146
60 192 146
61 194 150
62 195 158
60 192 141
60 192 145
59 191 146
60 191 145
61 194 154
61 193 146
60 191 145
61 194 149
61 193 151
61 193 148
61 193 149
61 194 154
60 191 141
60 191 143
62 195 158
61 193 147
61 193 152
62 195 156
62 194 155
61 192 150
61 192 150
60 191 151
60 191 143
61 190 147
59 187 137
60 191 148
61 192 144
61 192 148
60 191 147
61 191 146
60 189 140
60 188 148
59 188 144
61 191 151
61 191 154
60 189 152
61 190 149
60 188 150
60 188 152
59 186 145
60 188 153
59 187 157
58 182 144
59 184 149
60 186 153
60 189 158
57 180 145
59 184 164
58 179 154
58 178 163
144 201 205
215 232 254
215 232 254
215 232 254
215 232 254
215 232 254
182 181 233
187 176 253
187 177 254
176 172 246
150 165 229
134 155 214
114 149 203
104 145 197
95 145 193
67 139 170
72 142 176
60 138 169
62 143 177
59 140 173
64 144 173
65 145 180
72 145 172
90 149 188
90 151 188
99 152 193
111 155 197
109 157 202
128 160 213
123 158 207
136 163 220
140 163 220
155 166 235
158 168 236
170 171 247
169 170 245
177 173 253
179 173 254
180 173 254
180 173 254
179 173 254
179 173 254
180 173 254
180 173 254
180 173 254
179 173 254
179 173 254
180 173 254
179 173 254
180 173 254
180 173 254
180 173 254
180 173 254
179 173 254
180 173 254
181 174 254
181 174 254
180 174 254
180 173 254
180 174 254
180 174 254
181 174 254
181 174 254
181 174 254
181 174 254
181 174 254
180 174 254
181 174 254
181 174 254
181 174 254
181 174 254
181 174 254
182 174 254
182 174 254
181 174 254
182 174 254
181 174 254
182 174 254
182 174 254
182 174 254
182 174 254
182 174 254
183 175 254
182 174 254
182 175 254
182 174 254
182 174 254
182 175 254
183 175 254
183 175 254
183 175 254
182 175 254
183 175 254
183 175 254
183 175 254
184 175 254
184 175 254
183 175 254
184 175 254
183 175 254
184 175 254
183 175 254
184 175 254
184 175 254
184 175 254
184 175 254
184 175 254
184 175 254
184 175 254
184 175 254
184 175 254
185 176 254
185 176 254
185 176 254
185 176 254
185 176 254
185 176 254
185 176 254
186 176 254
185 176 254
186 176 254
185 176 254
186 176 254
186 176 254
186 176 254
186 176 254
186 176 254
185 176 254
186 176 254
187 177 254
186 176 254
186 176 254
187 177 254
186 176 254
186 177 254
187 177 254
187 177 254
187 177 254
186 177 254
187 177 254
187 177 254
187 177 254
188 177 254
187 177 254
188 177 254
188 177 254
188 177 254
188 177 254
188 177 254
189 178 254
188 177 254
189 178 254
212 230 251
213 230 252
214 231 253
214 231 252
213 230 251
215 231 253
214 231 253
213 230 251
213 230 248
212 230 249
213 230 248
212 229 243
213 230 249
212 230 247
210 228 241
211 228 241
205 224 230
211 228 241
210 228 241
211 229 245
212 229 248
212 229 247
212 229 245
210 228 243
210 228 243
211 228 244
212 230 248
208 227 242
212 229 245
213 230 249
212 229 245
210 228 243
212 230 249
211 228 241
212 230 249
211 229 247
213 230 249
209 228 243
213 230 251
212 229 249
213 230 249
214 231 252
213 230 248
212 229 247
208 226 236
213 230 249
210 229 247
211 228 244
212 230 249
212 230 249
209 228 243
211 229 247
211 228 244
210 228 245
208 226 239
207 226 243
211 229 245
213 230 249
211 229 244
210 229 245
210 227 247
211 229 249
213 230 249
209 227 240
207 227 240
212 230 251
211 228 244
212 229 248
212 229 248
208 226 240
211 229 247
209 228 248
210 228 241
212 230 251
209 227 241
209 228 244
206 225 240
209 227 245
212 230 249
210 228 244
209 228 245
212 229 249
212 230 249
209 227 244
210 228 244
207 227 244
210 228 244
210 227 244
211 229 248
211 229 249
208 227 243
210 228 247
211 229 245
211 228 244
212 229 249
211 229 248
211 228 244
208 226 236
208 227 240
212 230 249
210 228 244
209 228 245
212 229 249
211 229 248
211 229 249
207 226 237
211 229 249
211 229 247
210 228 245
209 228 244
211 229 249
210 228 244
209 227 243
209 228 245
209 227 240
208 227 241
209 227 243
211 229 249
206 227 242
206 227 243
203 227 244
205 226 241
197 224 235
201 225 239
199 224 238
197 224 234
199 223 229
198 224 235
195 222 231
199 224 237
207 227 245
195 223 234
202 225 243
199 225 241
200 225 245
201 225 250
199 225 250
198 224 247
200 225 248
201 226 248
198 225 245
204 227 248
212 230 254
213 231 254
215 231 254
215 232 254
216 232 254
216 232 254
216 232 254
216 232 254
210 230 249
71 196 166
62 195 154
61 194 157
61 193 148
61 195 158
60 192 150
62 195 160
60 190 145
61 193 148
60 192 146
61 194 150
60 192 144
60 192 143
60 192 143
61 193 150
60 193 149
61 194 146
60 192 145
61 194 147
61 193 151
62 195 151
61 192 144
60 192 148
61 192 140
61 193 145
61 193 146
62 195 155
60 193 146
61 193 150
61 193 145
61 191 141
61 194 148
62 195 150
61 194 143
60 192 148
61 194 147
61 194 154
62 195 151
61 193 147
61 194 152
61 194 147
62 195 155
62 194 152
61 195 152
61 193 144
60 192 144
60 193 147
61 194 151
61 195 151
61 193 147
61 192 138
60 190 141
60 192 143
60 192 147
59 191 146
60 190 137
61 193 144
60 191 138
60 192 143
61 194 149
60 192 146
61 192 145
61 194 151
61 193 144
59 188 136
60 191 143
61 192 147
60 189 143
62 196 162
60 191 149
59 188 145
61 192 149
60 189 143
59 187 137
60 188 138
60 189 141
60 189 145
60 189 148
61 192 151
60 188 150
59 186 145
60 189 145
61 190 150
60 188 147
60 190 148
60 188 151
60 186 149
60 187 150
59 185 144
59 186 147
59 184 150
59 183 152
60 186 157
58 180 145
56 176 147
57 181 157
54 169 144
64 177 162
213 231 253
216 232 254
216 232 254
216 232 254
205 217 245
181 171 244
188 177 254
178 173 247
162 166 236
140 158 222
117 153 205
90 143 188
82 135 180
57 134 169
52 134 169
48 132 162
50 136 167
50 136 159
50 136 160
52 141 169
52 140 164
52 141 166
65 146 173
59 143 177
86 150 186
100 152 191
102 152 197
114 156 200
132 158 214
135 162 216
128 160 215
142 163 222
161 167 237
162 169 239
166 170 242
175 172 250
180 174 254
180 174 254
180 174 254
180 174 254
180 174 254
181 174 254
181 174 254
181 174 254
181 174 254
181 174 254
180 174 254
180 174 254
180 174 254
181 174 254
180 174 254
180 173 254
181 174 254
180 174 254
181 174 254
181 174 254
181 174 254
181 174 254
181 174 254
182 174 254
181 174 254
182 174 254
182 174 254
181 174 254
181 174 254
181 174 254
182 174 254
183 175 254
182 174 254
181 174 254
182 175 254
182 174 254
182 175 254
182 175 254
182 175 254
182 175 254
183 175 254
183 175 254
183 175 254
183 175 254
183 175 254
183 175 254
183 175 254
183 175 254
182 175 254
183 175 254
184 175 254
183 175 254
184 175 254
183 175 254
184 175 254
183 175 254
184 175 254
184 176 254
184 175 254
184 176 254
185 176 254
184 176 254
184 175 254
185 176 254
184 175 254
185 176 254
185 176 254
185 176 254
185 176 254
185 176 254
185 176 254
185 176 254
186 176 254
186 176 254
186 176 254
185 176 254
185 176 254
186 176 254
186 176 254
186 176 254
186 176 254
186 176 254
186 176 254
186 176 254
186 177 254
187 177 254
186 176 254
187 177 254
187 177 254
186 177 254
188 177 254
186 176 254
187 177 254
187 177 254
187 177 254
187 177 254
187 177 254
187 177 254
187 177 254
187 177 254
187 177 254
188 177 254
188 177 254
188 177 254
188 177 254
187 177 254
188 177 254
188 177 254
188 177 254
188 177 254
189 178 254
189 178 254
188 177 254
188 177 254
189 178 254
214 231 251
213 230 248
215 232 254
215 231 252
213 230 248
214 230 251
215 231 253
211 229 246
212 229 245
213 230 248
213 230 249
213 230 248
212 229 245
212 230 247
208 226 232
213 230 248
212 230 248
212 229 247
210 228 241
210 228 241
212 229 247
211 228 241
211 229 244
211 229 243
213 230 251
213 230 248
213 230 248
211 229 244
210 228 241
211 229 243
211 229 247
211 229 247
213 230 247
213 230 249
211 228 243
214 230 249
213 230 249
214 231 251
211 229 245
212 229 247
212 230 248
213 230 251
213 230 248
212 230 247
212 229 247
207 226 235
213 230 247
211 229 245
212 229 245
214 231 253
210 228 244
212 229 245
211 229 249
211 229 245
211 229 247
211 228 245
207 226 237
214 231 252
211 229 247
210 228 245
210 228 243
211 229 248
209 227 244
209 227 243
212 229 244
209 228 245
208 227 245
211 229 248
207 226 240
208 226 240
210 228 245
212 229 247
214 230 251
209 228 243
208 227 244
212 230 248
209 228 244
211 229 247
211 229 247
211 229 248
208 227 245
212 229 245
212 229 245
211 229 248
208 227 244
210 228 244
210 227 243
210 228 243
211 228 245
212 230 249
212 229 248
212 229 247
212 229 249
212 229 247
213 231 252
211 228 243
211 229 247
212 229 247
212 230 251
209 227 243
211 229 247
209 227 241
211 228 245
210 228 243
212 229 248
209 227 243
211 228 245
211 229 245
211 229 248
211 229 247
210 228 247
209 227 240
211 228 244
209 227 241
211 229 249
209 227 241
211 229 250
210 228 246
207 228 245
208 228 246
207 227 239
198 224 234
201 225 235
193 223 235
200 224 231
202 226 241
200 224 236
198 224 235
202 225 239
197 223 230
198 224 238
203 226 244
201 225 241
202 225 239
200 225 244
200 224 249
206 227 253
202 225 250
204 226 251
202 226 249
202 226 248
198 226 245
208 229 252
213 230 254
214 231 254
215 232 254
216 232 254
216 232 254
216 232 254
216 232 254
183 221 227
59 191 140
60 191 146
61 194 152
61 194 151
60 193 149
60 192 145
61 194 151
61 193 154
61 195 157
61 193 149
60 193 145
61 194 147
61 194 151
61 193 146
61 194 156
61 193 148
61 194 157
61 194 150
61 192 143
61 194 148
61 194 150
62 195 154
60 193 152
61 194 147
61 194 150
62 195 150
61 192 140
59 190 143
61 192 147
60 190 140
62 195 155
61 194 152
61 193 148
62 195 154
61 193 148
60 192 143
61 193 144
60 190 137
60 193 148
59 190 143
60 191 139
60 193 148
61 194 150
61 194 149
60 191 143
61 194 149
60 190 134
61 192 148
61 193 143
61 193 149
62 196 161
59 190 143
60 191 146
60 191 145
60 191 146
61 193 150
61 193 147
62 194 148
60 190 141
62 194 146
61 192 145
61 193 152
61 192 146
60 191 146
61 192 150
62 195 155
61 192 147
61 193 149
59 189 141
61 192 156
60 191 141
60 190 138
59 188 145
61 192 152
60 191 144
61 190 143
60 191 154
60 189 145
61 192 150
60 190 148
60 190 146
61 192 152
60 190 149
61 191 149
60 190 145
60 189 140
60 187 147
59 185 144
60 187 146
59 185 147
58 182 140
60 187 149
58 180 144
60 187 160
57 179 141
59 180 152
56 172 149
56 177 148
183 213 230
216 232 254
216 232 254
216 232 254
189 192 235
184 173 248
187 177 254
165 167 236
133 152 212
119 148 203
90 138 183
68 133 174
51 132 172
48 132 167
49 132 162
49 135 159
51 137 164
52 140 169
50 137 163
51 138 167
49 134 160
51 141 162
53 143 163
52 142 169
59 142 166
81 149 178
88 149 178
94 152 189
113 157 199
124 159 209
140 161 221
141 163 222
155 167 233
157 168 235
169 171 243
169 170 242
178 173 251
182 174 254
181 174 254
181 174 254
181 174 254
181 174 254
181 174 254
182 174 254
182 174 254
182 174 254
182 174 254
182 175 254
182 174 254
182 174 254
182 175 254
182 174 254
183 175 254
182 175 254
183 175 254
182 174 254
182 174 254
183 175 254
183 175 254
183 175 254
182 175 254
183 175 254
182 174 254
183 175 254
183 175 254
183 175 254
183 175 254
183 175 254
183 175 254
183 175 254
184 175 254
183 175 254
183 175 254
184 175 254
183 175 254
184 175 254
183 175 254
183 175 254
184 175 254
183 175 254
184 175 254
184 176 254
184 176 254
184 175 254
184 175 254
184 175 254
184 175 254
184 175 254
184 175 254
185 176 254
185 176 254
184 175 254
184 175 254
184 175 254
185 176 254
185 176 254
185 176 254
185 176 254
185 176 254
186 176 254
185 176 254
185 176 254
185 176 254
186 176 254
186 176 254
186 176 254
185 176 254
186 176 254
186 176 254
186 176 254
186 176 254
186 176 254
187 177 254
187 177 254
186 176 254
187 177 254
187 177 254
186 177 254
186 176 254
187 177 254
187 177 254
187 177 254
187 177 254
187 177 254
188 177 254
187 177 254
187 177 254
187 177 254
188 177 254
188 177 254
188 177 254
188 177 254
187 177 254
187 177 254
188 177 254
188 177 254
188 177 254
188 177 254
188 177 254
188 177 254
188 177 254
189 178 254
188 177 254
189 178 254
188 177 254
189 178 254
189 178 254
189 178 254
189 178 254
189 178 254
189 178 254
214 230 249
213 230 249
214 231 251
213 230 249
213 230 248
213 230 248
214 231 249
215 232 254
212 229 245
213 230 247
214 231 251
214 231 251
214 230 248
214 230 248
210 227 236
212 229 241
207 225 230
210 228 241
211 228 240
211 228 239
210 228 240
212 229 246
212 229 243
210 228 242
211 229 246
212 230 247
209 227 237
214 231 251
210 229 244
212 229 244
208 227 240
213 230 245
214 231 252
212 229 245
213 229 245
213 230 245
210 228 243
213 230 247
213 230 248
212 229 244
214 230 248
214 230 249
213 230 248
211 229 244
213 230 249
212 229 247
214 230 249
213 230 247
214 231 252
211 229 248
212 229 247
215 231 253
209 227 243
214 231 251
214 231 252
212 229 247
213 230 248
212 229 247
210 228 247
210 228 248
209 228 245
213 230 252
213 230 251
212 229 247
210 229 247
210 228 248
206 226 239
211 228 244
212 229 247
209 227 241
211 228 244
210 228 245
209 227 247
212 229 248
212 229 248
210 228 245
209 228 247
210 228 243
211 229 248
214 231 252
214 231 252
213 230 248
210 228 244
210 228 245
207 226 239
212 229 245
209 227 241
210 228 244
212 229 249
212 229 248
214 230 251
213 230 248
210 228 243
214 231 252
211 229 245
210 228 243
213 230 252
211 228 243
212 229 247
209 227 237
210 228 245
210 228 247
212 230 252
213 230 249
213 230 249
212 229 249
210 228 241
213 230 252
211 229 247
210 228 244
210 228 241
212 229 248
213 231 253
209 227 240
211 229 248
211 229 249
209 228 243
207 227 240
206 227 243
206 227 245
206 228 245
202 225 237
205 228 245
204 225 237
203 226 241
201 224 233
200 225 239
199 224 235
200 223 229
205 226 239
199 223 231
205 226 242
205 227 244
205 228 247
204 227 246
201 226 246
199 225 248
202 226 250
205 226 250
204 227 251
202 226 248
197 225 243
200 227 247
211 230 253
214 231 254
215 232 254
216 232 253
216 232 254
216 232 254
216 232 254
150 212 205
61 193 147
61 195 156
61 193 151
61 193 148
60 193 150
61 193 145
60 192 144
60 192 146
61 193 144
61 193 144
60 192 144
60 192 146
60 192 146
61 193 147
61 193 144
61 193 148
61 192 138
61 193 141
62 195 155
61 193 143
61 193 148
61 193 144
61 193 147
60 191 138
61 193 143
61 193 148
60 191 139
61 193 141
61 192 143
60 192 143
59 190 140
61 194 148
61 194 148
61 192 145
61 193 145
61 193 146
60 190 134
62 195 150
60 193 146
60 193 147
60 193 148
60 191 138
60 192 147
61 192 143
60 190 139
61 193 148
59 190 136
59 190 137
61 193 151
61 191 139
60 191 145
61 194 147
60 191 144
60 191 138
62 196 158
61 194 149
61 192 146
61 192 145
61 193 151
60 192 148
59 188 132
60 192 155
60 191 144
61 193 146
62 194 154
60 191 137
61 193 150
60 191 139
61 194 149
60 192 145
61 193 152
61 191 150
60 189 148
61 192 152
61 191 151
60 190 137
61 192 148
60 191 145
61 191 150
60 189 141
60 190 144
60 190 148
61 192 155
59 187 141
60 187 144
60 188 149
59 187 148
60 187 144
58 184 143
59 187 148
58 185 151
59 185 144
60 185 144
58 181 150
56 177 147
59 182 165
57 177 156
57 176 152
145 201 204
216 232 254
216 232 254
216 232 254
178 171 233
189 178 254
176 172 244
153 161 228
120 149 205
79 138 182
50 130 163
46 125 162
46 126 159
48 134 165
47 130 158
48 132 160
48 131 161
49 134 163
51 138 161
52 138 169
51 136 166
53 142 163
52 140 162
52 143 162
55 144 164
60 145 163
71 146 170
81 151 179
104 153 193
114 156 199
119 158 202
137 162 215
143 164 223
157 167 232
163 169 239
170 172 244
174 173 248
181 175 253
183 175 254
182 175 254
183 175 254
183 175 254
183 175 254
182 175 254
183 175 254
183 175 254
183 175 254
183 175 254
182 175 254
183 175 254
182 175 254
183 175 254
184 175 254
183 175 254
183 175 254
183 175 254
182 175 254
183 175 254
183 175 254
183 175 254
183 175 254
183 175 254
183 175 254
183 175 254
184 175 254
184 175 254
183 175 254
184 175 254
184 175 254
184 175 254
184 175 254
183 175 254
184 175 254
184 175 254
185 176 254
185 176 254
184 175 254
185 176 254
185 176 254
185 176 254
185 176 254
185 176 254
185 176 254
185 176 254
185 176 254
186 176 254
185 176 254
185 176 254
185 176 254
186 176 254
185 176 254
185 176 254
186 176 254
185 176 254
185 176 254
185 176 254
186 176 254
186 176 254
186 176 254
186 176 254
186 176 254
185 176 254
187 177 254
186 176 254
187 177 254
187 177 254
187 177 254
187 177 254
186 176 254
187 177 254
187 177 254
187 177 254
187 177 254
187 177 254
187 177 254
187 177 254
187 177 254
187 177 254
187 177 254
188 177 254
188 177 254
188 177 254
188 177 254
188 177 254
188 177 254
188 177 254
188 177 254
188 177 254
188 177 254
188 177 254
189 178 254
188 177 254
188 177 254
188 177 254
188 177 254
189 178 254
188 177 254
189 178 254
188 177 254
188 177 254
189 178 254
189 178 254
189 178 254
189 178 254
189 178 254
189 178 254
189 178 254
190 178 254
189 178 254
189 178 254
189 178 254
215 232 252
214 231 252
215 232 253
214 230 248
214 231 251
216 232 254
215 231 249
216 232 253
214 231 249
215 232 252
215 232 253
213 230 245
213 230 245
214 231 251
210 228 239
212 229 243
213 230 245
212 229 243
213 229 244
211 228 240
212 229 245
212 229 244
212 229 241
212 229 245
211 229 246
213 230 248
214 230 249
209 228 241
211 228 243
213 230 245
212 229 243
211 228 239
213 230 245
213 230 247
212 230 247
214 230 248
215 231 251
213 230 245
213 230 248
213 230 245
213 229 244
214 230 248
213 229 244
211 227 237
214 230 247
212 229 241
211 229 244
212 229 245
210 228 241
208 226 240
213 230 248
212 229 249
211 229 248
212 229 245
209 227 243
211 229 248
211 228 245
211 229 245
213 230 248
208 226 244
213 230 249
213 231 252
210 228 247
209 227 245
206 225 243
211 229 245
208 226 240
210 228 245
213 230 249
213 230 249
210 228 241
211 229 247
209 227 239
213 230 248
211 229 245
207 226 239
211 229 248
213 230 249
210 228 241
210 228 243
212 229 248
211 229 245
213 230 248
211 229 248
210 228 240
213 230 249
210 228 243
213 230 248
209 227 241
213 230 247
210 228 245
212 229 247
211 229 245
211 229 244
211 228 243
212 230 247
211 228 243
212 229 245
213 230 249
212 229 247
212 229 248
212 229 247
212 229 247
211 229 248
211 229 247
211 229 245
212 229 244
211 229 244
211 229 245
210 228 241
212 229 245
212 229 248
211 229 247
211 229 245
210 228 246
209 227 241
211 229 247
208 227 243
205 226 236
204 226 234
204 226 236
207 227 241
200 224 233
206 227 242
202 226 239
203 226 239
203 225 236
201 223 223
203 226 241
206 226 238
201 225 240
200 225 239
202 226 243
205 226 239
201 225 241
199 224 240
177 219 230
204 227 251
207 228 253
203 227 250
199 225 246
198 225 244
201 227 246
197 225 241
213 231 253
216 232 254
216 232 254
216 232 253
216 232 254
216 232 254
84 196 159
60 192 150
60 192 142
61 194 148
61 195 155
61 195 152
60 192 146
60 191 138
61 194 151
61 192 140
59 190 143
60 191 141
61 193 147
61 194 149
61 193 147
59 190 139
61 193 147
60 192 138
60 192 143
60 190 138
61 193 141
59 189 139
61 192 141
61 192 146
60 191 143
62 194 150
59 188 130
61 194 146
60 192 145
61 193 144
60 191 136
60 191 140
61 193 145
61 193 149
59 190 136
62 196 154
61 192 146
61 192 145
60 192 147
61 194 149
61 194 155
59 189 134
61 194 145
61 192 145
61 193 148
61 194 147
61 194 149
62 195 148
61 193 151
60 190 134
61 194 150
60 192 143
61 192 140
61 194 149
60 191 143
60 191 139
60 192 138
60 191 144
61 194 149
61 193 148
60 191 136
60 191 139
61 193 152
61 191 150
61 193 150
60 191 140
59 189 140
61 191 145
61 194 150
62 194 149
60 189 148
60 191 147
59 190 143
60 191 151
60 190 136
61 191 151
61 192 151
61 190 148
59 188 147
60 190 148
61 190 144
60 191 148
58 187 139
59 188 142
59 185 149
58 183 136
61 189 154
58 185 147
59 183 142
58 184 141
58 180 139
58 180 136
58 184 149
58 180 155
58 181 153
58 182 148
56 174 133
55 172 138
57 174 154
92 173 169
216 232 254
216 232 254
202 213 241
181 169 241
182 175 249
155 160 225
109 136 189
86 132 179
46 119 157
45 124 160
43 120 153
45 123 156
46 127 160
49 132 162
49 131 166
47 130 151
48 131 154
50 137 163
50 136 163
51 141 163
53 144 167
53 141 167
53 143 172
51 140 156
53 144 164
62 144 163
82 149 180
93 150 184
107 156 195
121 157 203
137 163 217
140 162 216
143 164 219
155 168 231
164 169 237
178 174 251
178 174 250
183 175 254
184 175 254
183 175 254
183 175 254
184 175 254
184 176 254
184 175 254
184 175 254
184 175 254
184 175 254
183 175 254
184 175 254
184 175 254
183 175 254
184 175 254
184 175 254
184 175 254
184 175 254
184 176 254
183 175 254
184 176 254
184 175 254
184 176 254
185 176 254
184 176 254
185 176 254
184 175 254
185 176 254
185 176 254
185 176 254
185 176 254
185 176 254
185 176 254
185 176 254
185 176 254
185 176 254
184 176 254
185 176 254
185 176 254
186 176 254
186 176 254
185 176 254
186 176 254
185 176 254
186 176 254
186 176 254
186 176 254
186 176 254
186 176 254
186 176 254
186 176 254
186 176 254
186 176 254
187 177 254
186 176 254
187 177 254
186 177 254
186 176 254
186 176 254
187 177 254
187 177 254
187 177 254
186 176 254
187 177 254
187 177 254
187 177 254
187 177 254
187 177 254
188 177 254
187 177 254
187 177 254
187 177 254
188 177 254
188 177 254
188 177 254
188 177 254
188 177 254
188 177 254
188 177 254
188 177 254
188 177 254
188 177 254
188 177 254
189 178 254
188 177 254
188 177 254
188 177 254
189 178 254
189 178 254
188 177 254
189 178 254
188 177 254
189 178 254
189 178 254
189 178 254
190 178 254
189 178 254
189 178 254
189 178 254
189 178 254
189 178 254
189 178 254
190 178 254
189 178 254
190 178 254
189 178 254
190 178 254
190 178 254
190 178 254
190 178 254
190 178 254
190 178 254
190 178 254
215 232 252
216 232 252
216 232 253
215 231 251
216 232 254
215 232 252
215 232 253
215 232 252
215 231 251
213 230 245
212 229 241
215 231 251
214 230 247
215 231 252
211 228 237
209 226 235
212 229 244
213 230 244
213 229 244
213 230 247
215 231 251
214 231 250
215 231 251
213 230 245
215 232 253
212 229 243
213 230 245
212 229 245
213 229 243
214 230 247
214 230 247
212 229 247
215 231 251
212 229 241
213 230 248
214 231 249
214 231 248
215 231 249
215 231 249
214 230 245
212 229 240
211 228 243
215 231 251
212 229 244
211 229 243
215 231 252
213 230 248
213 230 245
211 229 247
213 230 247
214 231 251
213 230 247
216 232 254
210 229 245
211 228 244
212 229 249
211 229 248
213 230 251
209 228 247
209 226 243
210 228 247
215 232 253
208 225 241
212 230 249
209 227 245
213 230 251
212 229 248
208 226 239
212 229 249
207 226 241
208 226 241
211 229 247
211 229 247
208 227 237
213 230 249
211 228 245
214 231 251
212 230 248
209 228 245
211 229 245
211 228 245
211 228 241
211 228 243
212 229 248
212 230 248
212 229 244
212 229 243
211 228 243
212 229 245
211 228 243
213 230 249
209 228 240
213 230 249
210 229 245
211 228 240
212 229 247
213 229 245
214 230 251
210 228 244
212 229 244
212 229 247
212 229 245
213 230 248
212 229 247
212 229 247
211 228 243
210 227 237
213 230 248
213 230 247
213 230 249
211 229 244
213 230 249
212 229 244
214 231 251
210 229 247
210 229 243
205 226 234
210 229 246
208 228 241
206 227 241
202 227 239
203 227 239
206 227 241
205 227 241
199 224 233
197 224 235
207 228 243
200 224 235
202 226 236
204 225 235
198 224 234
203 225 235
203 226 243
198 225 237
205 227 245
204 227 243
141 211 207
167 216 221
202 226 248
204 227 250
205 228 250
204 227 246
207 228 249
195 224 239
209 230 251
215 232 254
216 232 254
217 233 254
217 233 254
200 227 242
61 194 151
60 191 143
62 196 156
60 192 141
60 192 144
61 192 145
60 190 143
60 191 137
59 190 141
60 191 137
61 193 145
61 192 140
61 194 149
59 190 138
61 194 154
61 193 145
62 195 155
61 193 148
60 192 144
61 193 140
62 195 154
60 191 145
61 194 149
60 192 143
60 192 146
61 193 144
59 190 138
61 193 148
60 192 141
61 193 147
62 195 151
60 192 143
60 191 140
61 192 146
62 195 154
60 191 136
60 192 143
61 192 141
61 195 154
61 193 149
60 191 140
61 193 143
62 196 157
60 192 141
59 191 140
60 190 141
60 191 144
60 192 140
61 192 144
61 195 152
60 192 144
61 193 144
61 193 147
60 192 141
61 193 144
60 190 136
60 191 140
61 192 144
60 191 137
60 192 148
60 189 139
61 191 145
62 194 147
61 192 144
61 191 146
60 191 146
61 194 157
60 190 144
62 195 155
59 186 130
60 190 141
62 195 149
60 189 138
60 189 140
59 189 145
61 191 146
60 188 139
59 188 144
61 190 148
61 191 152
61 191 147
60 190 145
59 188 141
60 190 152
61 190 159
60 189 149
59 186 139
60 188 148
60 189 156
59 184 141
60 187 150
59 186 151
59 183 146
59 183 148
56 177 147
59 182 151
57 177 146
55 170 150
55 175 146
55 175 159
195 219 236
217 233 254
196 201 241
183 171 244
177 173 244
128 146 204
100 137 188
63 126 160
42 120 153
44 119 156
45 126 158
46 124 158
44 123 159
47 129 160
47 125 158
49 133 160
50 135 164
47 133 156
48 131 152
50 137 155
51 139 157
51 138 158
53 142 160
51 138 160
53 143 162
53 143 160
68 145 171
79 150 173
99 153 189
121 159 205
133 160 211
132 161 208
138 162 210
156 167 228
167 171 239
167 171 239
178 174 250
184 176 254
184 175 254
185 176 254
185 176 254
185 176 254
185 176 254
185 176 254
185 176 254
184 175 254
184 176 254
185 176 254
185 176 254
185 176 254
185 176 254
186 176 254
185 176 254
185 176 254
186 176 254
185 176 254
185 176 254
185 176 254
185 176 254
185 176 254
185 176 254
185 176 254
185 176 254
186 176 254
186 176 254
185 176 254
185 176 254
186 176 254
185 176 254
185 176 254
186 176 254
186 176 254
185 176 254
185 176 254
186 176 254
186 176 254
186 176 254
186 176 254
186 176 254
186 177 254
187 177 254
186 176 254
186 176 254
186 176 254
186 176 254
186 177 254
187 177 254
187 177 254
187 177 254
187 177 254
187 177 254
186 176 254
187 177 254
187 177 254
187 177 254
187 177 254
187 177 254
188 177 254
189 178 254
187 177 254
188 177 254
188 177 254
187 177 254
187 177 254
187 177 254
189 178 254
188 177 254
188 177 254
188 177 254
188 177 254
188 177 254
188 177 254
188 177 254
188 177 254
189 178 254
189 178 254
189 178 254
188 177 254
189 178 254
190 178 254
189 178 254
189 178 254
189 178 254
189 178 254
190 178 254
189 178 254
189 178 254
190 178 254
189 178 254
189 178 254
189 178 254
190 178 254
189 178 254
190 178 254
191 178 254
190 178 254
189 178 254
190 178 254
190 178 254
189 178 254
190 178 254
190 178 254
191 179 254
190 178 254
191 179 254
190 178 254
190 178 254
191 179 254
190 178 254
191 179 254
216 232 252
215 231 249
216 232 252
215 232 252
215 231 249
215 231 251
215 231 249
216 232 253
216 232 252
214 230 246
215 231 249
215 231 248
215 231 251
216 232 252
214 230 245
213 230 244
212 229 241
213 229 243
214 230 247
210 227 235
213 230 244
213 230 245
209 227 235
212 229 240
210 229 242
214 231 249
214 230 247
211 229 242
215 231 248
215 231 251
213 230 243
215 231 249
214 231 251
214 231 248
213 230 246
215 232 252
215 231 248
214 230 245
216 232 252
214 230 245
211 228 240
212 229 243
214 230 249
212 229 244
212 229 243
215 231 251
213 230 248
214 231 251
211 229 244
210 228 241
213 230 247
212 229 245
210 227 239
211 228 245
215 231 252
209 227 243
210 228 247
213 230 249
212 229 249
214 230 249
210 228 247
211 228 248
211 228 247
212 230 248
212 228 249
209 227 246
209 226 244
207 225 241
211 228 247
215 232 253
212 229 247
209 228 244
211 228 245
212 229 248
215 232 253
213 229 245
213 230 248
211 229 244
210 228 243
214 231 248
212 230 247
213 230 248
214 230 248
210 228 240
213 230 245
211 228 241
214 230 248
212 229 245
213 230 248
214 230 248
215 232 253
212 229 243
212 229 244
214 230 248
213 230 247
212 229 244
213 230 249
210 228 237
211 228 241
213 230 247
212 229 241
212 229 245
210 227 239
213 230 248
214 230 249
213 230 247
208 226 235
212 230 247
211 228 241
212 229 245
212 229 244
213 230 248
213 230 247
211 229 246
209 229 246
207 227 238
209 228 241
203 226 235
204 226 239
204 227 241
208 228 243
199 225 236
207 227 241
201 227 242
206 228 242
203 226 237
206 226 236
206 227 238
207 228 244
204 226 238
198 223 227
200 224 233
202 225 238
195 224 236
198 226 242
202 227 245
190 223 235
82 194 156
196 224 243
203 227 248
206 228 250
205 228 248
203 227 245
201 227 245
204 228 246
212 231 253
216 232 254
217 233 254
217 233 254
169 216 215
59 190 138
60 192 144
59 190 138
59 190 139
61 193 149
61 193 150
61 193 148
60 192 145
60 192 141
59 189 136
60 191 140
60 192 145
61 195 152
60 193 146
60 192 141
61 194 147
60 192 144
61 193 146
60 192 141
61 194 151
60 192 139
61 193 141
62 196 158
59 190 137
61 192 146
61 194 150
61 194 149
61 192 145
60 192 147
61 193 152
61 193 144
61 193 146
61 193 144
61 194 151
61 193 148
60 192 143
61 194 148
61 193 144
61 192 146
60 191 141
61 192 138
60 192 141
60 192 144
59 190 136
60 190 140
62 194 151
61 195 150
60 191 145
61 193 145
60 193 146
62 194 151
60 190 145
61 192 143
62 194 152
60 192 144
60 190 139
61 194 145
61 193 150
60 190 138
60 191 137
60 192 144
60 190 132
60 190 143
60 190 140
60 191 148
60 189 134
61 194 149
60 191 141
61 193 147
61 192 149
60 191 144
60 188 137
59 190 140
60 191 145
60 189 152
59 187 145
59 188 131
59 187 133
59 187 138
60 189 140
60 190 147
60 189 146
59 187 147
60 187 147
59 183 137
59 187 141
58 183 136
58 181 139
58 181 134
60 188 157
60 187 148
58 185 146
60 186 155
59 184 143
58 184 157
56 175 139
58 179 149
57 177 147
57 177 149
55 169 147
188 218 232
217 233 254
184 180 236
187 175 249
167 166 235
117 146 198
79 128 170
43 121 156
41 118 152
43 120 155
42 118 148
47 128 160
46 127 158
44 125 148
46 126 147
45 125 151
48 128 157
48 131 152
48 133 151
50 136 155
51 138 152
51 136 150
52 142 157
52 141 161
52 142 159
51 139 148
59 146 164
70 145 160
95 153 183
112 157 195
119 157 198
128 159 204
151 166 223
163 169 232
169 171 239
168 171 239
175 173 244
184 176 253
185 176 254
185 176 254
186 176 254
186 176 254
185 176 254
186 176 254
185 176 254
186 177 254
186 176 254
186 176 254
185 176 254
186 176 254
186 176 254
186 176 254
186 176 254
186 176 254
186 176 254
186 176 254
186 176 254
186 176 254
187 177 254
186 176 254
187 177 254
187 177 254
186 177 254
187 177 254
187 177 254
186 177 254
187 177 254
187 177 254
186 176 254
186 176 254
187 177 254
187 177 254
187 177 254
187 177 254
188 177 254
187 177 254
187 177 254
187 177 254
188 177 254
187 177 254
187 177 254
187 177 254
187 177 254
187 177 254
188 177 254
188 177 254
187 177 254
187 177 254
188 177 254
188 177 254
188 177 254
188 177 254
188 177 254
188 177 254
187 177 254
188 177 254
189 177 254
189 178 254
189 178 254
188 177 254
189 178 254
189 178 254
189 178 254
188 177 254
189 178 254
189 178 254
189 178 254
189 178 254
189 178 254
189 178 254
189 178 254
189 178 254
189 178 254
189 178 254
189 178 254
188 177 254
189 178 254
189 178 254
189 178 254
190 178 254
189 178 254
189 178 254
190 178 254
190 178 254
190 178 254
190 178 254
190 178 254
189 178 254
190 178 254
190 178 254
190 178 254
190 178 254
190 178 254
190 178 254
190 178 254
190 178 254
190 178 254
191 178 254
191 178 254
190 178 254
191 179 254
191 179 254
191 179 254
191 179 254
192 179 254
191 179 254
191 179 254
191 179 254
191 179 254
191 179 254
216 232 253
215 231 249
216 232 252
216 232 252
215 231 249
216 232 253
216 232 252
216 232 251
217 233 253
216 232 252
215 231 251
216 232 251
217 232 253
215 231 248
214 230 248
216 232 251
212 229 240
213 229 240
211 229 241
213 229 241
213 230 245
214 230 245
212 229 244
214 231 247
214 231 249
213 229 241
212 229 241
214 231 249
214 230 244
212 229 240
214 230 247
214 230 247
213 229 241
216 232 252
215 231 251
210 227 235
215 231 248
213 230 243
215 231 248
214 230 244
214 231 247
215 231 248
213 230 247
213 229 241
215 231 248
214 230 244
212 230 244
215 231 251
213 230 247
212 229 244
212 229 244
210 228 241
209 228 242
211 229 245
210 229 245
208 228 242
210 229 245
212 230 245
207 226 240
208 228 245
206 226 243
213 230 251
211 230 249
209 228 245
206 226 241
212 230 249
209 227 246
214 231 252
213 230 249
211 228 247
210 228 245
208 227 244
212 229 247
206 226 241
212 230 247
210 228 243
212 229 244
214 231 251
212 229 245
212 229 244
212 229 245
214 231 249
212 230 245
213 230 247
214 230 249
211 229 245
212 229 245
213 230 247
214 230 247
214 230 248
212 229 244
212 229 245
213 230 245
212 229 240
213 230 245
211 229 243
213 230 245
214 231 248
213 230 247
212 229 240
212 229 244
213 230 244
215 231 252
214 231 249
214 230 249
212 230 245
212 229 243
213 230 244
213 230 248
211 229 245
211 229 243
213 230 248
214 231 252
207 227 237
213 231 251
209 228 243
208 228 241
206 228 241
205 227 237
205 227 237
206 228 242
208 228 241
203 227 237
205 227 237
201 226 237
210 229 243
204 226 239
200 224 230
201 226 236
200 224 230
208 228 241
206 227 241
205 227 242
207 228 246
207 228 245
208 229 249
204 227 246
116 203 182
95 199 175
206 227 249
206 228 249
207 227 249
204 227 245
205 227 247
198 226 242
208 230 249
216 232 254
217 233 254
217 233 254
153 213 206
60 192 148
61 194 156
61 195 156
61 194 150
60 192 144
61 194 148
60 191 139
60 192 140
61 194 155
60 191 138
60 193 148
61 193 150
60 191 141
60 192 140
60 192 139
61 192 143
59 189 128
59 189 138
61 193 143
59 190 138
61 192 143
59 189 132
61 194 151
60 191 137
61 193 143
61 193 145
60 190 136
60 191 138
60 192 146
60 192 141
61 192 141
61 192 145
61 193 145
61 194 144
60 192 141
61 192 140
62 194 146
60 192 143
61 193 148
60 192 143
61 193 144
61 193 148
61 194 150
61 192 140
60 191 140
60 191 137
61 194 148
60 192 146
60 191 136
60 191 141
61 194 150
61 192 143
61 193 148
62 195 151
61 193 148
61 192 143
60 190 136
60 192 139
59 188 136
60 191 144
60 191 140
60 190 133
59 189 133
61 193 147
60 190 145
62 194 154
60 189 139
60 190 144
61 195 152
59 186 136
61 191 144
60 191 140
62 194 152
60 190 138
61 191 146
60 187 144
59 189 144
60 189 141
59 187 139
60 189 148
60 190 146
59 189 144
61 192 156
59 186 138
60 189 144
59 185 141
59 187 136
59 184 146
60 188 147
58 181 138
59 184 147
60 188 152
58 180 145
57 179 151
58 184 150
57 177 150
56 174 148
56 173 147
55 172 143
55 172 151
153 195 205
214 229 252
176 165 233
182 175 246
140 152 213
100 131 180
51 116 153
37 110 141
40 114 143
41 116 152
42 118 148
44 121 153
43 122 150
44 122 148
46 129 148
46 128 152
48 131 156
50 135 158
50 136 157
50 136 152
50 136 154
50 137 152
51 137 154
51 137 148
53 141 159
54 144 163
53 144 153
70 148 168
74 147 163
98 152 177
119 158 199
134 161 210
143 164 215
153 166 221
160 168 231
165 170 234
176 174 245
179 174 247
187 177 254
186 177 254
186 176 254
187 177 254
187 177 254
187 177 254
186 176 254
188 177 254
187 177 254
187 177 254
187 177 254
186 176 254
187 177 254
187 177 254
187 177 254
187 177 254
187 177 254
187 177 254
186 177 254
187 177 254
188 177 254
187 177 254
187 177 254
187 177 254
187 177 254
187 177 254
188 177 254
188 177 254
188 177 254
188 177 254
187 177 254
188 177 254
188 177 254
188 177 254
188 177 254
188 177 254
188 177 254
188 177 254
188 177 254
188 177 254
189 178 254
188 177 254
187 177 254
188 177 254
188 177 254
189 178 254
189 178 254
188 177 254
188 177 254
189 178 254
189 178 254
188 177 254
188 177 254
189 178 254
189 178 254
188 177 254
188 177 254
189 178 254
189 178 254
189 178 254
189 178 254
189 178 254
189 178 254
189 178 254
190 178 254
189 178 254
189 178 254
189 178 254
189 178 254
190 178 254
190 178 254
189 178 254
190 178 254
190 178 254
190 178 254
189 178 254
190 178 254
191 179 254
190 178 254
190 178 254
190 178 254
190 178 254
190 178 254
190 178 254
190 178 254
190 178 254
190 178 254
191 179 254
191 179 254
191 179 254
190 178 254
191 179 254
191 179 254
191 179 254
191 179 254
191 178 254
191 179 254
191 179 254
191 179 254
191 179 254
191 179 254
191 179 254
191 179 254
191 179 254
192 179 254
192 179 254
191 179 254
193 179 254
192 179 254
192 179 254
192 179 254
191 179 254
215 231 249
216 232 251
217 233 254
217 232 252
217 232 253
216 232 251
216 232 251
216 232 249
218 233 253
217 233 254
215 231 247
215 231 249
213 230 243
214 230 244
215 231 249
216 232 252
213 229 240
215 231 248
212 229 241
212 229 239
214 231 247
212 230 245
214 230 244
215 231 249
215 231 248
214 230 241
214 231 247
215 231 247
214 231 247
213 229 241
215 231 247
213 229 241
214 230 245
215 231 251
214 231 248
215 231 248
215 231 247
211 228 239
215 231 248
215 231 249
215 231 245
215 231 247
216 231 249
215 231 249
215 231 248
213 230 245
216 232 251
215 231 249
215 231 248
210 227 239
214 230 247
213 230 244
213 230 249
212 230 247
215 232 251
210 229 245
213 231 247
210 228 245
211 230 249
215 232 253
207 228 242
212 231 249
210 230 247
212 231 249
208 228 244
211 230 249
215 232 252
214 232 252
213 230 250
211 229 247
211 228 245
214 230 249
210 227 245
212 229 245
214 230 247
212 229 247
213 230 244
210 228 241
214 230 247
211 228 244
213 230 245
213 230 248
215 231 248
213 230 245
215 231 249
214 230 247
214 230 247
213 230 248
213 230 247
211 228 241
214 231 248
214 230 244
214 231 249
214 230 245
211 228 243
214 230 248
214 231 248
213 230 245
213 229 243
212 229 244
213 229 243
214 230 247
214 231 248
215 231 249
213 230 248
215 231 249
215 232 252
213 229 245
213 229 243
214 231 249
214 230 247
212 230 248
213 230 245
210 229 243
213 230 249
209 228 241
210 228 239
205 227 239
205 227 239
204 225 233
200 224 230
210 229 245
209 229 243
202 225 231
206 228 244
204 227 239
209 229 244
203 226 236
193 223 229
203 225 232
202 225 230
207 227 241
204 227 239
202 226 239
209 229 249
207 228 246
204 227 239
156 212 205
78 194 157
158 213 211
203 227 246
208 229 250
204 228 245
199 226 239
197 226 240
200 226 241
217 233 254
217 233 254
218 233 254
111 201 172
60 192 146
59 190 138
60 191 143
61 193 147
59 190 137
59 188 133
59 190 143
60 193 150
60 192 140
60 191 137
60 192 147
61 194 152
60 193 150
59 189 130
59 190 136
60 191 139
60 191 138
60 192 140
60 192 145
60 192 146
60 192 140
61 195 149
62 194 149
60 192 140
61 192 140
60 191 143
60 192 144
61 194 147
60 192 139
62 196 156
60 192 141
61 193 143
60 191 143
62 194 147
61 194 149
60 192 147
60 192 137
60 192 148
60 192 141
60 191 140
61 192 141
61 194 150
61 193 148
61 194 151
60 191 139
60 190 134
60 190 139
61 193 144
61 193 147
61 192 147
61 193 147
61 193 148
60 190 140
60 191 137
61 194 147
61 194 147
61 192 143
61 192 141
61 193 144
60 190 143
61 191 144
60 191 139
60 190 140
59 190 140
60 191 144
60 192 144
59 187 136
59 187 136
60 190 143
59 189 136
60 190 132
59 188 131
61 193 145
60 189 143
60 189 146
60 188 141
59 185 136
60 187 143
60 189 137
60 189 146
59 188 141
59 185 140
60 190 147
61 189 150
60 190 150
59 187 140
58 183 138
59 186 143
61 188 144
60 186 152
59 186 147
60 189 155
59 184 146
58 180 145
57 177 139
58 183 155
58 179 147
55 174 135
56 177 141
53 168 146
97 178 161
204 215 243
185 173 245
175 170 238
117 137 187
79 121 161
37 110 144
41 116 154
38 108 141
40 113 144
44 121 152
44 122 155
43 121 148
45 125 152
44 123 143
46 126 149
49 131 158
47 128 148
49 131 157
49 133 154
51 139 155
50 135 151
50 135 149
50 137 147
51 138 152
52 142 148
52 141 147
53 143 152
66 146 165
93 151 173
115 156 196
132 160 202
132 162 205
141 163 211
160 168 228
163 170 235
171 172 239
178 174 247
187 177 254
187 177 254
188 177 254
188 177 254
188 177 254
188 177 254
188 177 254
188 177 254
188 177 254
188 177 254
188 177 254
188 177 254
188 177 254
187 177 254
189 178 254
189 178 254
187 177 254
188 177 254
189 178 254
187 177 254
188 177 254
188 177 254
188 177 254
188 177 254
188 177 254
188 177 254
188 177 254
188 177 254
189 178 254
189 178 254
189 178 254
189 178 254
189 178 254
188 177 254
189 178 254
189 178 254
189 178 254
189 178 254
189 178 254
189 178 254
189 178 254
188 177 254
189 178 254
189 178 254
189 178 254
190 178 254
190 178 254
190 178 254
190 178 254
190 178 254
190 178 254
190 178 254
190 178 254
189 178 254
189 178 254
190 178 254
190 178 254
190 178 254
190 178 254
191 179 254
190 178 254
190 178 254
190 178 254
190 178 254
190 178 254
191 179 254
191 179 254
190 178 254
190 178 254
190 178 254
191 179 254
190 178 254
191 178 254
191 179 254
191 179 254
192 179 254
191 178 254
190 178 254
191 178 254
190 178 254
191 178 254
191 179 254
191 179 254
191 179 254
191 179 254
191 179 254
191 179 254
191 179 254
191 179 254
191 179 254
191 179 254
192 179 254
191 179 254
191 179 254
192 179 254
191 179 254
191 179 254
191 179 254
192 179 254
192 179 254
193 180 254
192 179 254
192 179 254
192 179 254
192 179 254
192 179 254
192 179 254
192 179 254
192 179 254
192 179 254
193 179 254
193 179 254
217 232 252
217 233 253
217 233 252
218 233 253
216 232 253
218 233 254
217 232 252
217 233 253
216 232 249
216 232 251
217 232 252
218 233 254
216 232 249
215 231 247
214 231 247
216 232 251
215 231 249
215 231 249
214 231 246
216 232 249
215 231 247
213 229 240
212 229 241
216 232 249
213 230 246
215 231 245
212 229 242
214 230 241
214 230 244
214 231 245
211 228 240
217 232 252
216 232 249
213 229 241
214 230 245
216 232 249
217 232 252
212 229 241
215 231 248
214 230 240
213 229 243
216 232 249
215 230 245
217 232 252
216 232 252
215 231 245
216 232 249
215 231 247
214 231 247
212 230 245
214 230 245
210 229 244
213 231 248
216 232 253
212 230 247
212 230 249
210 228 245
212 230 249
210 228 247
215 232 252
215 232 252
203 226 237
214 231 251
206 228 242
211 230 247
209 228 244
212 231 249
212 230 249
211 230 249
209 230 246
206 228 240
209 227 243
207 226 241
212 228 244
210 228 240
213 229 243
213 229 247
212 229 244
213 229 245
215 231 248
214 230 247
213 230 247
213 230 244
213 229 243
213 230 245
213 230 247
215 231 248
216 232 252
213 230 247
213 229 245
216 232 251
213 230 244
214 230 248
214 230 247
214 230 247
213 229 241
215 231 248
214 231 251
215 231 248
214 230 245
214 231 248
214 231 247
214 230 245
216 232 252
213 230 244
213 230 244
215 231 249
212 229 240
214 230 245
215 231 249
212 229 243
210 228 239
208 228 240
212 231 249
213 230 245
210 229 245
209 227 237
204 228 240
204 227 239
201 227 237
204 227 235
202 226 235
209 229 242
210 229 243
205 227 238
207 228 240
204 226 234
205 227 238
203 225 232
205 227 239
206 226 236
207 227 237
209 230 248
212 230 247
203 228 241
202 227 243
203 227 242
185 221 227
72 192 148
89 198 169
203 227 246
200 227 244
202 226 242
204 227 243
198 226 242
202 227 242
208 230 249
218 233 254
218 233 254
86 194 158
60 191 144
58 188 137
60 192 142
61 192 143
61 193 151
60 191 141
59 189 136
59 189 131
61 194 148
59 189 133
61 193 144
61 193 145
60 192 144
60 192 140
62 195 149
61 192 146
61 194 149
61 194 147
61 194 148
61 194 147
60 191 139
60 192 143
61 193 144
61 193 145
59 190 137
61 193 147
60 192 138
61 192 141
59 189 127
59 189 134
61 194 152
59 190 133
60 190 139
62 194 145
61 193 148
60 192 145
61 192 139
60 191 138
61 192 144
60 191 141
60 189 131
61 193 145
59 188 131
60 191 128
61 193 141
61 192 141
61 192 141
60 192 146
60 190 139
60 191 146
60 190 143
59 188 127
60 192 140
59 189 127
59 190 138
60 190 143
60 191 140
61 193 141
59 189 137
60 190 139
61 193 155
61 192 141
62 194 148
60 190 139
60 190 133
61 191 146
61 194 151
59 188 131
61 191 140
61 192 144
61 193 149
61 191 148
59 189 138
59 186 134
60 188 141
58 186 132
61 191 145
61 191 146
60 189 141
59 186 139
61 191 145
59 186 133
59 187 144
59 185 137
59 185 131
59 186 138
59 187 143
58 184 140
60 186 145
59 185 146
58 180 144
59 183 142
59 184 138
58 180 145
57 176 141
59 183 141
56 176 137
57 181 149
55 171 139
54 169 147
68 170 158
194 198 237
187 176 248
162 163 227
90 124 171
48 108 137
37 110 141
35 102 132
38 109 134
41 114 139
42 115 149
43 120 153
44 122 155
45 125 154
45 123 147
46 128 144
45 123 148
48 128 141
48 130 147
48 131 147
51 138 151
50 135 140
51 138 152
52 141 153
51 138 139
52 141 151
52 140 152
52 142 153
77 147 167
96 153 181
106 152 187
124 159 190
138 163 212
148 166 218
149 165 217
168 171 237
164 170 233
179 175 246
187 177 253
189 178 254
189 178 254
189 178 254
189 178 254
189 178 254
189 178 254
189 178 254
189 178 254
189 178 254
189 178 254
189 178 254
189 178 254
189 178 254
189 178 254
189 178 254
190 178 254
188 177 254
189 178 254
189 178 254
189 178 254
190 178 254
189 178 254
189 178 254
190 178 254
189 178 254
189 178 254
189 178 254
190 178 254
188 177 254
189 178 254
190 178 254
190 178 254
189 178 254
189 178 254
189 178 254
190 178 254
190 178 254
189 178 254
190 178 254
190 178 254
190 178 254
190 178 254
190 178 254
191 178 254
191 178 254
190 178 254
191 179 254
190 178 254
190 178 254
190 178 254
191 179 254
190 178 254
190 178 254
191 179 254
190 178 254
190 178 254
190 178 254
191 178 254
191 179 254
190 178 254
191 179 254
191 179 254
191 179 254
191 179 254
191 179 254
191 179 254
192 179 254
191 179 254
191 179 254
191 179 254
191 178 254
191 179 254
191 179 254
192 179 254
191 179 254
191 179 254
192 179 254
192 179 254
191 179 254
191 178 254
191 179 254
192 179 254
191 179 254
191 179 254
192 179 254
192 179 254
192 179 254
192 179 254
192 179 254
192 179 254
192 179 254
192 179 254
192 179 254
192 179 254
191 179 254
192 179 254
192 179 254
192 179 254
192 179 254
192 179 254
192 179 254
193 179 254
192 179 254
192 179 254
192 179 254
192 179 254
192 179 254
193 180 254
192 179 254
192 179 254
194 180 254
218 233 254
218 233 254
218 233 254
217 233 253
218 233 254
217 233 252
217 233 252
218 233 254
218 233 254
218 233 253
218 233 253
217 233 253
217 232 249
217 233 252
217 232 251
217 232 249
216 232 250
216 232 249
217 232 251
214 231 245
211 229 238
215 231 245
215 230 244
215 231 247
216 231 247
212 229 241
214 230 241
215 231 245
216 232 249
215 231 247
217 233 254
213 230 241
216 232 248
214 230 244
215 231 247
214 230 241
212 229 237
216 231 249
216 232 251
216 232 248
214 230 244
215 230 244
214 230 243
213 229 240
216 232 249
214 230 241
215 231 247
213 230 243
214 231 245
212 230 245
212 230 247
209 227 239
211 230 245
212 231 248
212 230 248
214 232 251
215 232 252
211 230 247
213 231 248
211 230 247
213 231 249
209 229 245
213 231 249
208 229 245
207 228 241
211 230 248
208 229 245
211 230 248
210 230 247
212 230 248
209 229 245
208 229 244
208 228 243
209 228 241
214 229 247
216 232 252
217 232 251
208 227 239
217 233 253
213 230 245
216 231 248
215 231 248
213 230 245
212 229 243
213 229 244
213 230 247
216 231 249
214 230 247
215 231 247
215 231 247
215 231 249
215 231 251
214 231 247
214 230 244
214 230 244
214 230 244
214 230 245
216 232 249
213 230 243
216 232 249
214 230 244
214 230 244
215 231 245
214 230 244
213 230 243
214 230 244
212 229 239
214 230 244
214 230 244
213 229 239
214 230 244
210 229 241
211 230 245
211 229 243
210 229 243
214 231 249
203 227 239
208 228 237
205 227 238
210 229 241
210 229 242
208 229 243
200 226 236
204 227 235
209 229 242
204 226 235
205 228 241
202 226 236
207 228 243
206 227 236
209 228 240
203 225 229
210 229 244
207 228 242
208 228 243
201 226 241
204 228 243
203 226 239
87 194 157
67 193 147
168 216 217
211 230 252
208 229 248
200 227 243
206 229 247
200 226 241
207 229 246
218 233 254
210 231 247
60 192 144
60 192 143
61 194 151
60 192 143
59 192 146
60 191 138
61 194 149
60 191 136
62 195 149
60 191 143
61 193 140
60 192 139
61 193 140
60 191 138
59 190 137
62 194 147
59 190 133
61 193 144
61 192 140
59 188 131
62 195 150
60 192 143
61 192 141
59 189 131
60 192 140
59 189 137
61 194 147
60 190 134
62 194 147
61 193 149
60 192 144
60 192 144
62 195 151
61 193 144
61 192 138
61 192 139
60 191 144
60 191 137
60 191 140
59 188 134
61 193 144
61 192 145
60 192 139
61 192 143
60 191 137
59 189 138
61 192 146
60 190 133
61 192 139
60 191 136
59 189 133
60 190 139
61 193 144
61 193 141
59 187 128
61 192 143
60 192 139
62 195 145
61 191 141
60 190 133
61 193 145
60 190 134
60 190 145
60 191 144
60 190 146
59 188 139
60 190 138
59 189 147
58 186 126
59 188 138
60 191 141
60 189 143
60 191 139
59 186 137
60 190 144
60 190 146
61 191 141
60 187 139
59 187 139
60 188 143
60 188 137
60 188 148
59 185 134
60 188 137
59 185 137
59 187 136
59 186 144
60 187 149
60 188 146
60 188 149
59 184 137
59 186 148
60 187 146
59 186 146
58 182 140
58 181 148
57 176 145
57 177 142
55 172 137
55 173 139
54 169 134
49 158 134
181 183 229
183 173 244
136 147 201
69 115 149
34 101 131
35 105 131
36 105 134
38 108 133
37 106 134
40 113 127
42 113 140
44 124 145
44 121 140
44 124 146
45 126 137
46 124 147
46 127 146
47 129 141
49 134 142
49 131 146
52 140 148
51 137 157
51 138 153
51 138 148
51 139 146
52 142 148
53 144 154
56 146 155
72 143 154
108 155 187
119 156 191
136 161 211
138 163 209
152 167 222
159 170 229
177 173 242
181 175 247
186 177 251
188 177 254
190 178 254
190 178 254
190 178 254
190 178 254
190 178 254
190 178 254
189 178 254
191 179 254
190 178 254
190 178 254
190 178 254
190 178 254
190 178 254
191 179 254
190 178 254
190 178 254
191 179 254
190 178 254
190 178 254
190 178 254
190 178 254
190 178 254
190 178 254
190 178 254
190 178 254
190 178 254
191 179 254
190 178 254
191 179 254
190 178 254
190 178 254
191 179 254
190 178 254
191 179 254
191 179 254
191 179 254
191 179 254
192 179 254
191 179 254
191 179 254
191 179 254
191 179 254
191 179 254
191 179 254
191 179 254
191 179 254
191 179 254
191 179 254
191 179 254
192 179 254
192 179 254
192 179 254
191 179 254
191 179 254
192 179 254
191 179 254
192 179 254
191 179 254
192 179 254
192 179 254
191 179 254
192 179 254
192 179 254
192 179 254
191 179 254
191 179 254
192 179 254
192 179 254
192 179 254
192 179 254
192 179 254
192 179 254
192 179 254
192 179 254
192 179 254
192 179 254
192 179 254
192 179 254
192 179 254
192 179 254
191 179 254
193 179 254
192 179 254
193 180 254
192 179 254
193 180 254
194 180 254
192 179 254
193 180 254
192 179 254
193 179 254
193 180 254
193 180 254
192 179 254
193 179 254
192 179 254
192 179 254
193 179 254
194 180 254
193 180 254
193 180 254
193 180 254
193 180 254
193 180 254
193 179 254
193 180 254
194 180 254
194 180 254
193 180 254
193 180 254
218 234 254
217 233 252
218 233 254
218 233 253
218 234 254
218 233 254
218 233 254
218 233 254
217 233 253
218 233 253
218 233 253
218 234 254
217 233 253
217 233 252
219 234 254
217 233 252
218 233 253
214 231 247
217 233 251
215 232 249
217 233 252
216 232 249
215 231 245
215 231 244
212 229 238
216 231 245
215 231 245
215 231 245
216 232 247
215 231 243
213 229 237
216 232 248
214 231 245
216 232 249
214 230 241
217 233 252
215 231 245
216 232 251
215 231 244
216 231 247
216 232 248
215 231 245
216 231 247
215 231 244
215 231 244
215 231 244
216 231 247
216 232 249
216 232 251
212 230 246
214 231 247
214 231 248
213 230 246
206 228 241
209 229 245
210 230 245
214 232 251
213 231 249
215 232 252
208 229 244
211 230 246
206 228 244
211 231 249
213 231 249
210 230 247
209 230 245
209 229 245
207 228 242
211 229 246
212 231 249
209 230 245
214 231 250
207 229 245
215 232 249
212 230 245
214 229 244
213 230 244
217 232 251
212 228 239
213 229 244
215 231 248
218 233 253
216 232 248
214 230 245
215 231 247
215 231 248
216 231 248
214 230 244
215 231 248
216 232 249
214 230 243
216 232 249
215 231 245
213 229 240
214 230 245
216 232 249
214 230 243
214 230 244
216 232 249
215 231 248
215 231 245
214 230 243
215 231 245
217 232 251
215 232 249
215 231 248
216 232 251
214 230 241
213 230 243
213 230 242
217 233 253
211 229 239
212 229 239
213 230 243
210 229 241
210 229 245
208 228 244
209 229 241
203 226 230
211 230 245
206 227 239
209 228 237
202 227 238
205 227 236
209 229 243
206 227 238
207 228 241
210 229 241
209 228 237
204 227 238
200 224 231
210 229 242
206 228 242
209 229 243
209 229 244
211 230 246
205 228 242
207 229 245
116 201 173
71 191 146
111 202 176
204 228 245
206 229 247
208 229 247
205 228 244
200 227 241
199 227 240
218 233 254
203 227 240
59 191 141
60 193 147
60 190 137
60 191 144
61 193 150
60 191 143
60 191 139
60 192 139
59 190 136
60 191 139
60 192 145
59 189 127
59 190 138
60 191 136
60 191 137
60 189 130
60 191 137
61 193 144
60 190 136
60 190 137
60 192 144
61 193 146
60 190 132
60 192 141
61 192 139
60 191 145
60 191 137
60 192 141
60 192 141
60 190 140
60 189 132
61 192 147
61 192 140
60 192 139
60 191 134
61 194 148
59 191 140
60 192 143
61 193 144
59 190 137
60 190 137
60 190 136
59 189 138
61 191 139
61 192 145
59 189 131
59 189 134
62 195 152
60 189 137
60 191 141
61 194 149
60 191 139
60 190 138
60 191 139
60 192 145
59 189 131
61 191 139
61 192 140
60 189 130
60 191 143
60 190 141
60 191 139
60 190 139
61 194 151
60 192 144
60 190 141
60 192 146
60 190 138
59 189 140
60 189 134
59 187 136
58 185 130
60 189 144
60 189 140
59 188 137
59 186 139
59 188 134
60 188 139
59 186 137
59 188 137
61 191 151
61 191 140
60 188 143
61 191 157
60 188 145
59 184 136
60 188 150
60 189 145
59 186 137
58 184 140
60 185 145
59 184 146
58 183 143
57 182 141
57 180 144
57 179 137
57 179 139
58 179 146
55 171 135
55 172 141
54 167 136
51 160 137
150 152 198
175 168 234
112 131 177
52 99 127
31 98 129
33 99 125
37 107 135
36 109 135
38 112 138
39 112 134
39 114 131
41 117 138
42 114 129
44 124 139
47 128 144
47 126 144
48 128 140
48 132 153
48 130 140
49 131 137
48 130 141
50 134 139
50 132 144
50 137 145
51 137 150
52 140 148
52 141 155
55 140 149
81 151 163
88 151 174
113 154 181
129 162 202
146 165 213
151 165 217
161 170 227
166 171 232
181 175 246
186 177 251
190 178 254
191 179 254
191 179 254
191 179 254
191 179 254
192 179 254
190 178 254
191 179 254
191 179 254
191 179 254
191 179 254
191 179 254
191 179 254
191 179 254
192 179 254
191 179 254
192 179 254
191 179 254
190 178 254
191 179 254
191 179 254
192 179 254
191 178 254
192 179 254
191 179 254
191 179 254
191 179 254
192 179 254
192 179 254
191 179 254
191 179 254
191 179 254
191 179 254
191 179 254
192 179 254
191 179 254
191 179 254
193 179 254
191 179 254
192 179 254
192 179 254
192 179 254
191 179 254
191 179 254
192 179 254
192 179 254
192 179 254
192 179 254
192 179 254
192 179 254
192 179 254
192 179 254
192 179 254
192 179 254
192 179 254
192 179 254
193 179 254
192 179 254
192 179 254
192 179 254
192 179 254
192 179 254
193 179 254
192 179 254
192 179 254
193 179 254
192 179 254
192 179 254
192 179 254
192 179 254
193 180 254
193 179 254
194 180 254
194 180 254
193 180 254
193 180 254
193 180 254
193 179 254
193 179 254
193 179 254
194 180 254
193 180 254
193 180 254
193 180 254
193 180 254
193 179 254
193 180 254
193 180 254
194 180 254
194 180 254
193 180 254
193 180 254
194 180 254
194 180 254
194 180 254
194 180 254
194 180 254
194 180 254
194 180 254
194 180 254
194 180 254
194 180 254
193 180 254
194 180 254
194 180 254
194 180 254
193 180 254
194 180 254
194 180 254
194 180 254
194 180 254
219 234 254
219 234 254
219 234 254
219 234 254
219 234 254
219 234 254
218 233 253
219 234 254
219 234 254
219 234 254
219 234 254
219 234 254
218 233 254
219 234 254
219 234 254
219 234 254
217 233 253
219 233 253
219 234 254
219 233 253
219 234 254
218 233 253
217 232 249
217 233 251
215 231 245
216 232 248
217 232 248
216 231 247
215 231 244
216 231 245
213 230 242
214 230 240
216 232 247
217 233 251
214 230 241
214 230 240
215 231 244
216 231 245
214 230 241
215 231 244
215 231 247
216 232 247
217 232 249
216 231 247
218 233 253
215 230 243
216 232 248
208 228 239
215 232 250
212 231 247
216 232 251
210 229 243
212 231 249
208 229 244
209 229 246
206 228 241
209 230 244
214 232 250
214 231 250
212 231 249
209 229 246
208 229 244
212 231 249
211 230 247
207 228 241
215 232 251
216 233 253
211 231 247
211 230 248
213 231 249
212 231 249
207 228 243
213 231 249
215 232 250
214 231 247
216 231 248
217 232 248
213 229 244
216 232 251
217 233 251
216 232 248
216 231 247
215 231 244
217 232 251
215 231 247
215 230 247
213 229 240
218 233 253
214 230 241
216 232 247
216 231 247
215 230 243
214 230 243
214 230 240
215 231 245
215 231 245
216 231 247
215 231 245
216 232 248
215 231 245
214 230 243
217 232 251
217 232 249
216 231 247
215 231 247
217 232 249
215 231 247
216 232 249
215 231 244
216 231 247
213 230 243
210 229 243
213 231 245
208 229 241
212 230 243
207 227 237
206 228 241
209 229 239
210 229 237
209 229 241
206 228 241
208 229 242
206 228 239
208 228 239
204 227 237
206 229 243
208 229 243
202 226 233
207 228 240
210 229 243
210 230 246
207 228 242
208 230 245
208 229 243
209 230 245
208 230 247
207 230 247
205 228 243
134 206 190
65 190 138
68 190 143
198 225 235
212 231 251
206 228 245
208 229 245
205 227 243
198 225 234
217 233 254
187 222 226
60 193 146
60 191 143
61 194 146
60 191 141
61 192 137
60 191 136
58 186 123
59 188 131
60 192 143
60 191 140
61 194 146
61 192 141
60 190 136
60 191 139
60 190 140
59 189 137
60 192 139
61 193 140
61 194 147
60 192 139
61 193 146
60 190 133
61 193 145
58 187 127
60 192 140
61 193 141
63 197 157
61 193 146
60 190 136
61 192 139
59 189 138
61 192 137
60 191 144
60 192 146
60 190 138
60 190 132
60 192 137
60 192 139
61 192 137
60 191 137
60 192 146
60 190 134
60 191 139
61 192 141
60 190 137
61 194 151
59 189 134
60 191 136
61 192 140
61 194 147
61 193 146
60 190 138
62 193 145
61 192 145
61 191 137
61 193 149
60 190 137
60 193 140
59 189 138
62 194 141
61 192 149
59 189 133
60 190 134
60 189 139
59 189 133
61 191 144
61 192 146
61 192 146
61 190 143
59 188 131
60 190 140
60 190 144
58 186 130
60 190 145
59 188 140
61 192 141
60 190 140
59 186 130
59 185 134
60 188 136
60 189 144
59 189 136
59 187 143
59 185 145
59 188 136
58 186 137
60 188 151
59 184 140
59 186 137
59 184 137
59 184 139
59 184 141
58 181 133
59 183 141
58 182 142
58 183 150
55 173 122
56 174 136
56 176 133
57 174 145
53 167 132
49 159 131
146 164 202
161 160 218
104 128 172
37 101 131
33 97 121
29 94 120
36 104 123
37 106 133
39 112 134
42 116 133
43 119 142
42 117 132
44 120 141
46 126 145
45 124 138
47 128 141
45 123 131
47 127 145
47 127 141
49 133 141
49 132 150
49 135 149
50 136 136
50 135 145
51 137 140
52 141 145
51 140 139
52 141 143
76 145 158
99 152 169
117 156 186
135 161 202
141 163 207
143 163 207
159 168 221
174 173 236
178 175 242
189 178 253
191 179 253
191 179 254
192 179 254
192 179 254
192 179 254
192 179 254
192 179 254
192 179 254
192 179 254
191 179 254
191 179 254
192 179 254
192 179 254
192 179 254
192 179 254
192 179 254
191 179 254
192 179 254
192 179 254
192 179 254
192 179 254
193 180 254
192 179 254
192 179 254
192 179 254
193 180 254
192 179 254
193 179 254
192 179 254
192 179 254
193 180 254
193 179 254
192 179 254
193 180 254
192 179 254
193 180 254
192 179 254
193 180 254
193 179 254
192 179 254
193 180 254
193 180 254
193 180 254
193 179 254
192 179 254
193 180 254
193 179 254
192 179 254
193 180 254
193 179 254
193 179 254
193 180 254
193 180 254
193 180 254
193 180 254
193 180 254
193 180 254
194 180 254
193 180 254
194 180 254
193 180 254
193 179 254
193 180 254
194 180 254
193 180 254
194 180 254
193 180 254
194 180 254
193 180 254
193 180 254
193 180 254
193 180 254
193 180 254
193 180 254
194 180 254
194 180 254
193 180 254
194 180 254
193 180 254
194 180 254
194 180 254
194 180 254
194 180 254
194 180 254
194 180 254
194 180 254
194 180 254
194 180 254
194 180 254
193 180 254
194 180 253
194 180 254
195 181 254
193 180 253
193 180 251
194 180 253
194 180 253
194 180 253
193 180 253
194 180 253
194 180 254
193 179 251
194 180 253
194 180 251
194 180 253
193 179 251
194 180 254
194 180 253
194 180 249
194 180 254
194 180 253
219 234 254
219 234 254
219 234 254
218 233 253
219 234 254
219 234 254
219 234 254
218 233 253
218 233 253
219 234 254
219 234 254
219 234 254
219 234 254
219 234 254
218 233 253
219 234 254
219 234 254
217 233 253
218 234 253
217 233 253
219 234 254
219 234 254
219 234 254
219 234 254
218 233 253
219 234 254
219 234 254
219 234 253
218 233 252
219 234 254
219 234 253
215 231 243
218 233 251
217 232 248
216 232 247
217 232 248
217 232 248
217 232 248
217 232 248
215 231 243
216 231 245
214 230 241
217 232 248
217 232 248
217 232 248
214 229 237
211 229 239
217 233 250
214 231 245
211 230 245
212 230 245
210 230 246
217 233 253
211 230 247
213 231 247
213 232 249
212 230 247
212 231 248
212 231 247
211 230 247
212 231 248
214 232 250
209 229 245
211 230 247
213 231 248
209 230 245
213 232 249
214 231 249
212 231 247
211 231 247
213 231 248
211 231 247
212 231 248
208 229 243
212 231 247
215 231 245
215 231 245
216 231 248
215 230 245
216 231 245
216 232 245
215 230 243
217 232 248
214 230 240
214 230 241
215 231 244
216 231 247
215 230 241
215 231 243
217 232 249
216 231 245
217 232 248
217 232 249
217 232 248
215 231 244
216 231 247
215 231 244
217 232 248
216 231 247
215 231 244
216 231 247
216 232 248
216 232 247
216 231 247
216 232 248
217 232 249
215 231 244
214 229 240
218 233 252
214 230 241
215 230 247
212 230 241
216 232 247
211 229 241
213 230 245
210 228 242
213 230 244
212 231 245
205 226 232
210 229 238
208 229 241
209 229 239
207 228 239
203 228 237
209 229 242
202 225 230
207 228 239
209 229 239
212 230 246
210 230 243
211 231 249
209 230 244
210 230 248
207 228 243
212 231 249
214 232 249
211 231 249
203 228 241
157 212 203
72 193 152
83 194 150
171 218 219
207 229 244
209 229 246
210 230 247
202 227 239
196 225 235
213 231 249
156 211 199
58 189 134
61 193 149
59 189 131
59 188 124
59 190 139
60 191 133
60 192 140
61 193 144
59 189 134
60 191 136
60 192 145
60 192 141
60 190 137
59 189 135
60 193 145
60 192 136
59 189 134
60 190 137
61 194 141
61 193 143
60 192 137
60 192 138
60 191 136
60 191 138
59 190 133
60 190 134
61 192 140
60 190 134
60 191 133
60 192 140
60 191 134
60 191 139
60 192 143
60 191 134
60 189 137
61 192 140
60 190 132
59 188 127
60 191 134
60 191 137
60 192 137
60 191 141
61 194 150
61 193 143
60 191 137
61 192 140
59 189 130
60 191 138
59 189 136
59 190 139
61 192 136
61 193 141
60 192 141
60 189 134
59 189 136
59 188 134
60 191 133
60 190 137
59 187 137
59 188 128
58 185 120
60 189 139
61 193 148
61 192 139
59 189 138
60 190 143
60 190 139
61 192 141
59 186 131
60 190 132
61 192 146
60 190 140
61 192 146
58 185 127
60 189 138
61 192 145
59 184 133
61 190 144
59 188 139
58 186 139
59 187 133
59 187 142
59 187 140
60 188 140
59 187 140
60 187 138
59 186 144
59 184 136
58 180 134
59 186 141
60 188 145
58 179 128
57 180 137
59 181 137
59 181 140
57 175 125
58 179 148
57 177 137
56 173 140
54 168 135
53 165 140
51 162 137
149 168 206
155 154 214
87 109 143
26 86 109
28 86 103
31 97 121
35 103 121
36 107 121
37 108 119
36 107 128
39 112 131
41 117 135
43 119 126
45 125 141
44 118 133
46 123 132
47 129 143
48 131 134
50 136 136
49 133 145
51 136 149
51 137 148
50 134 141
51 136 147
49 133 136
53 142 149
53 142 149
52 142 140
67 146 151
88 148 164
112 153 178
119 157 188
138 162 204
152 167 219
153 167 217
169 171 228
175 173 236
183 176 245
192 179 254
192 179 254
193 180 254
192 179 254
193 180 254
193 180 254
193 180 254
193 180 254
193 180 254
194 180 254
193 180 254
193 180 254
192 179 254
193 180 254
193 180 254
193 180 254
193 180 254
193 180 254
193 180 254
193 180 254
193 180 254
194 180 254
193 179 254
193 180 254
193 180 254
193 180 254
193 180 254
193 180 254
193 180 254
193 180 254
193 180 254
193 180 254
194 180 254
193 180 254
193 180 254
193 180 254
193 180 254
194 180 254
193 180 254
193 180 254
194 180 254
194 180 254
194 180 254
194 180 254
194 180 254
194 180 254
193 180 254
193 180 254
194 180 254
194 180 254
193 180 254
194 180 253
194 180 253
194 180 254
193 180 254
194 180 254
193 180 254
193 180 254
194 180 254
193 179 251
194 180 253
192 179 252
195 180 253
193 179 251
194 180 254
194 180 254
193 179 252
193 180 252
193 180 254
194 180 254
193 180 254
193 179 249
194 180 253
193 179 252
193 180 253
193 180 252
193 180 253
193 180 252
193 180 252
192 179 251
193 179 252
193 179 251
194 180 254
194 180 253
193 179 248
193 180 251
193 179 249
193 179 248
194 180 252
192 179 248
192 178 247
193 180 251
193 179 248
191 178 244
192 179 247
193 179 249
191 178 245
192 179 247
193 179 249
192 179 248
194 180 253
193 179 251
194 180 252
193 179 249
193 180 249
193 180 252
192 179 248
192 179 245
193 179 249
191 178 241
193 179 249
219 234 254
219 234 254
219 234 254
219 234 254
219 234 254
218 234 254
219 234 254
218 234 253
217 233 253
219 234 254
220 234 254
219 234 254
219 234 254
219 234 254
218 234 254
219 234 254
219 234 254
220 234 254
218 234 253
218 234 254
220 234 254
218 234 253
219 234 254
220 234 254
219 234 254
219 234 254
220 234 254
219 234 254
219 234 254
218 234 254
219 234 254
219 234 254
220 234 254
220 234 254
220 234 254
219 234 253
218 233 251
219 234 253
219 234 253
218 233 251
218 233 249
219 234 253
219 234 252
219 233 252
216 232 245
218 233 251
212 230 246
216 233 251
214 231 244
214 231 246
213 232 250
213 231 248
216 233 251
212 231 248
213 231 248
214 232 249
211 230 245
217 233 252
216 233 252
212 231 248
212 231 247
215 232 251
210 231 247
211 231 247
205 227 241
213 231 249
215 232 251
208 229 244
215 232 251
214 232 249
214 232 251
213 232 250
210 229 245
213 231 248
215 232 249
215 231 248
217 232 248
216 232 245
217 232 248
217 232 247
216 231 245
216 231 243
218 233 251
217 232 248
215 230 243
216 231 245
217 232 247
215 231 244
216 231 244
217 232 248
216 231 243
217 232 247
216 231 245
216 231 245
216 231 245
216 231 244
217 233 251
215 231 244
215 230 241
216 231 245
213 229 237
217 232 248
217 232 248
216 231 245
216 231 245
218 233 252
217 232 248
217 232 248
215 231 244
216 231 245
215 230 248
207 230 244
217 233 251
211 229 241
210 229 239
209 227 240
209 229 240
208 228 238
203 226 229
211 230 241
209 229 241
209 228 236
209 230 245
211 230 242
209 230 241
206 228 239
209 230 243
213 231 248
209 230 245
209 230 245
211 231 247
210 230 245
212 231 249
211 231 248
207 229 244
211 230 246
215 232 251
209 229 245
158 210 199
63 192 147
72 191 140
161 212 201
213 231 251
210 231 248
205 228 243
203 228 241
193 225 234
209 230 245
153 209 197
60 190 136
59 190 135
61 193 143
58 187 119
60 192 139
61 191 130
60 190 133
59 191 140
58 188 131
60 191 134
60 191 137
61 193 146
59 190 133
61 193 145
60 192 140
60 192 145
60 192 138
61 192 136
58 188 126
59 190 138
60 190 137
59 189 128
60 190 135
60 190 138
60 192 140
61 193 141
61 194 147
61 193 143
60 191 139
60 192 138
61 192 140
60 191 132
59 189 133
61 194 145
59 190 136
59 189 128
59 189 130
59 190 138
60 190 133
61 193 151
61 192 136
61 193 146
59 190 133
59 190 132
60 189 136
60 190 138
60 191 140
61 192 145
60 190 132
59 188 128
61 192 141
60 192 145
59 190 138
60 189 133
59 189 132
60 190 133
61 193 147
60 191 141
60 191 136
59 188 128
58 185 120
60 190 143
61 193 146
60 189 133
60 190 134
60 190 137
58 185 115
59 188 139
60 190 138
60 191 139
59 189 133
58 185 122
60 189 144
60 188 137
60 188 147
59 186 140
59 188 136
60 191 141
58 186 132
60 188 141
60 190 144
59 188 138
59 187 139
59 186 133
59 185 136
57 184 129
59 184 138
59 184 131
59 187 143
57 180 137
58 181 131
58 183 138
57 183 140
59 183 143
59 186 145
58 182 142
57 180 138
55 172 121
55 172 133
54 168 129
56 172 143
51 162 128
129 157 187
146 148 199
63 99 125
27 84 107
30 95 120
30 94 112
33 99 116
36 104 121
36 106 118
36 104 114
38 109 127
41 115 128
40 114 127
42 117 135
44 120 136
46 125 142
46 126 138
47 128 138
47 129 135
48 129 133
49 133 144
49 134 141
51 137 142
51 137 145
51 137 142
50 135 132
51 138 142
51 139 141
57 139 133
85 147 159
97 148 163
119 157 183
111 155 177
151 166 211
160 167 212
175 173 230
177 173 233
182 176 241
191 178 247
193 180 253
193 180 252
193 179 252
193 179 252
193 179 251
193 179 249
192 179 249
191 178 248
192 179 249
193 180 252
193 180 252
192 179 249
193 180 252
195 180 254
194 180 252
193 180 253
193 180 252
193 180 253
193 180 252
192 179 251
192 179 249
192 179 249
194 180 253
193 179 249
193 180 251
193 179 248
193 179 252
193 179 248
192 179 247
193 179 248
191 178 245
191 178 248
192 179 247
192 179 248
193 180 252
193 179 249
194 180 252
192 179 248
192 179 251
193 180 252
192 179 245
191 178 244
193 179 251
192 179 248
191 178 244
192 178 245
194 180 252
194 180 253
191 178 244
191 178 243
193 179 247
191 178 241
193 179 249
193 179 248
193 179 251
191 178 243
193 179 248
191 178 243
192 179 245
194 180 253
192 179 248
191 178 243
192 179 245
193 179 251
193 179 249
193 179 251
192 179 248
193 179 251
192 179 247
192 178 245
193 179 248
192 178 244
193 180 251
192 179 245
191 178 245
192 179 247
193 179 249
190 177 237
191 178 240
191 178 243
190 177 237
193 179 247
190 177 240
191 178 241
191 178 240
190 177 236
191 178 243
191 178 241
193 179 248
192 178 244
193 179 245
191 177 239
192 179 247
193 179 248
192 179 247
191 178 241
191 178 240
191 178 240
192 179 247
190 177 240
192 179 245
192 179 245
191 178 240
191 178 243
190 177 240
193 179 248
191 177 239
191 178 241
192 178 241
190 177 236
220 234 254
220 234 254
220 234 254
220 234 254
220 234 254
220 234 254
220 234 254
219 234 253
220 234 254
220 234 254
220 234 254
220 234 254
220 234 254
220 234 254
220 234 254
219 234 254
219 234 254
220 234 254
220 234 254
218 233 252
220 234 254
220 234 254
220 234 254
219 234 254
219 234 254
220 234 254
220 234 254
218 234 253
220 234 254
219 234 254
220 234 254
220 234 254
220 234 254
220 234 254
220 234 254
220 234 254
220 234 254
220 234 254
220 234 254
220 234 254
220 234 254
220 234 254
220 234 254
220 234 254
220 234 254
220 234 254
219 234 254
215 232 251
219 234 253
215 232 249
213 232 248
212 232 249
208 230 243
212 231 247
213 232 249
214 232 251
212 231 247
214 231 249
212 231 247
211 231 247
210 230 244
210 230 245
217 233 252
215 232 249
212 231 247
216 232 250
211 231 246
210 230 245
211 231 247
211 231 247
214 233 251
213 231 247
210 231 246
215 232 250
214 232 251
214 231 247
216 232 245
217 232 248
219 234 253
218 233 248
218 234 253
216 231 244
216 232 245
217 232 247
219 233 252
218 233 251
217 232 248
218 233 251
218 233 249
216 231 243
218 233 249
218 233 249
215 231 241
217 232 247
218 233 249
218 233 248
217 232 248
217 232 245
219 233 252
218 233 249
216 232 245
218 233 252
218 233 249
217 232 245
218 233 249
218 232 248
218 233 251
218 233 249
218 233 251
217 232 250
216 233 252
212 231 246
213 231 246
214 231 247
214 229 251
212 230 250
209 230 244
208 230 244
211 231 247
209 231 245
213 232 249
214 232 249
213 232 250
211 231 248
209 230 245
217 233 252
210 230 245
215 233 251
212 231 247
211 231 248
210 230 245
209 230 245
216 233 252
211 231 247
213 232 249
208 230 245
216 233 251
209 230 244
183 222 227
67 188 140
75 191 143
129 200 170
215 232 251
212 231 249
210 231 247
208 230 245
192 223 229
204 228 239
157 214 204
60 191 140
59 189 133
57 185 128
58 189 136
59 188 140
60 190 127
60 191 145
60 190 139
59 188 122
59 188 127
58 188 134
60 191 137
59 190 141
60 190 130
60 189 137
60 190 137
60 190 137
60 191 134
59 190 132
60 191 134
61 192 143
61 193 143
60 191 140
60 191 138
58 188 122
59 189 128
61 192 138
60 191 134
61 193 141
59 190 133
60 190 131
59 189 134
61 193 143
60 191 131
60 191 141
60 192 143
60 191 136
61 192 136
60 191 139
60 189 130
59 189 132
60 190 137
59 189 134
60 191 134
59 188 126
60 190 137
58 188 128
59 188 128
62 196 152
59 188 132
60 191 134
59 189 130
61 192 141
60 190 136
60 190 140
60 191 133
61 192 140
61 192 144
60 191 140
60 191 140
61 192 141
61 191 139
61 193 144
60 191 139
59 189 136
58 185 122
60 191 138
59 189 134
59 188 141
59 187 128
61 192 145
59 186 133
58 186 132
59 186 136
59 187 132
59 187 137
59 188 131
59 187 137
60 189 140
60 188 132
60 188 141
60 188 134
59 188 138
60 188 143
59 186 138
58 184 137
59 183 137
59 183 134
59 184 137
58 184 137
57 179 136
56 180 140
58 184 133
57 179 134
58 182 141
56 175 130
57 179 137
56 175 135
55 173 132
52 167 126
54 169 128
49 154 134
128 167 177
138 143 181
51 82 101
23 81 97
31 92 109
27 89 98
32 98 108
35 101 115
38 109 127
38 110 125
41 116 131
40 115 129
41 115 125
46 123 136
43 118 129
45 124 134
47 128 137
47 130 136
45 123 121
47 128 127
50 136 144
49 133 139
50 133 139
49 134 143
51 138 138
50 137 134
50 137 129
52 141 141
58 141 139
82 145 155
114 155 180
116 155 181
144 164 196
150 166 207
157 168 209
160 168 207
169 171 222
182 174 229
190 177 241
191 178 245
190 177 240
191 178 245
190 177 240
189 176 237
191 178 243
191 178 243
192 178 245
188 176 235
188 176 232
191 178 240
190 177 239
191 178 241
191 178 244
191 178 243
188 176 236
191 178 239
190 177 240
191 178 240
191 178 241
192 178 244
190 177 240
190 177 239
190 177 237
192 178 243
191 178 243
190 178 241
190 177 236
192 178 244
193 179 247
190 177 239
191 177 239
190 177 240
190 177 237
188 175 230
192 178 243
192 178 244
191 178 244
191 178 241
192 179 244
192 178 247
190 177 237
190 177 235
191 178 243
192 178 244
191 178 243
190 177 240
192 178 244
189 177 236
188 176 232
192 178 244
190 177 240
192 179 245
190 177 239
191 178 241
191 177 239
190 177 235
189 177 236
191 178 241
188 176 230
191 178 241
192 179 245
192 178 243
189 176 233
191 178 243
192 178 243
191 178 241
190 177 236
188 176 230
190 177 236
190 177 240
191 178 237
190 177 237
191 177 239
191 178 241
190 177 241
189 177 235
193 179 247
190 177 237
191 177 236
190 177 237
189 176 235
190 177 239
189 176 233
191 177 236
191 177 236
192 178 243
191 178 239
190 177 237
188 175 229
190 177 237
188 176 230
190 177 236
191 178 241
190 177 237
191 178 240
190 177 233
188 175 230
189 176 233
189 176 232
189 176 236
190 177 237
191 178 240
190 177 235
191 178 239
190 177 239
191 178 239
190 177 236
190 177 239
191 178 239
219 234 254
220 234 254
220 234 254
220 234 254
220 234 254
218 233 252
218 234 253
220 234 254
220 234 254
219 234 253
220 234 254
220 234 254
220 234 254
219 234 253
220 234 254
219 234 254
220 234 254
220 234 254
219 234 253
220 234 254
219 234 253
219 234 253
218 234 253
220 234 254
220 234 254
219 234 253
220 234 254
218 234 253
219 234 254
220 234 254
220 234 254
220 234 254
220 234 254
220 234 254
220 234 254
220 234 254
220 234 254
220 234 254
220 234 254
220 234 254
220 234 254
220 234 254
220 234 254
220 234 254
220 234 254
220 234 254
218 233 253
220 234 254
217 233 251
214 232 248
210 231 245
210 231 246
213 232 248
215 232 249
218 233 253
211 230 245
209 230 245
215 232 250
216 233 251
214 232 250
207 229 240
214 232 248
218 234 253
210 231 247
214 232 248
218 233 253
216 233 252
212 231 247
214 232 249
207 230 244
212 231 247
214 232 249
209 230 244
216 233 251
216 232 251
213 231 247
218 234 253
220 235 254
218 233 252
220 234 254
220 234 254
220 234 254
220 234 254
220 235 254
220 234 254
220 234 254
220 234 254
220 234 254
220 234 254
220 234 254
220 235 254
220 234 254
220 234 254
220 234 254
220 235 254
220 234 254
220 234 254
220 234 254
220 234 254
220 234 254
220 234 254
220 234 254
220 234 254
220 234 254
220 234 254
220 234 254
220 234 254
220 234 254
220 234 254
219 232 254
213 231 248
218 233 253
215 232 249
214 232 249
215 230 252
214 231 251
212 232 248
210 231 246
209 229 245
214 233 250
213 232 249
211 230 245
210 230 245
214 232 249
211 230 245
212 231 247
217 233 251
215 233 251
207 230 244
214 232 248
214 232 247
209 230 245
214 232 249
211 231 247
209 230 246
205 230 243
210 230 245
215 233 251
183 221 226
63 191 137
84 193 148
111 198 165
211 231 248
205 229 242
207 229 243
211 231 247
203 228 241
202 227 239
152 211 198
61 193 145
59 188 127
59 190 136
60 190 134
60 191 139
60 192 138
60 191 143
59 188 127
59 191 143
59 188 127
59 189 132
58 187 122
60 191 134
61 193 144
61 192 138
60 192 140
60 191 139
60 190 128
58 188 128
61 192 141
60 191 139
60 189 130
61 192 138
61 193 144
60 191 137
59 190 134
59 190 137
61 193 143
58 187 123
60 190 140
60 190 134
60 192 141
60 189 130
59 188 132
61 193 144
59 190 133
59 190 140
60 191 139
60 191 140
61 192 138
60 191 133
61 192 143
59 189 124
59 188 132
59 187 132
60 190 134
60 190 133
59 188 131
61 193 145
60 190 130
60 192 137
59 188 127
60 192 140
60 191 136
60 192 141
59 188 130
60 190 141
59 188 130
59 188 134
60 190 136
59 188 133
61 192 138
60 189 137
58 186 127
61 191 138
59 189 136
60 191 145
59 189 130
60 191 149
59 189 137
60 190 136
59 188 133
60 190 143
60 190 144
60 191 139
58 184 134
60 188 137
59 187 139
61 191 144
61 191 144
59 186 134
60 189 139
58 184 133
58 185 133
58 186 130
58 183 131
58 181 133
59 184 135
59 183 138
58 180 130
59 185 131
58 182 131
58 181 139
56 177 124
59 183 149
56 176 133
56 178 134
56 175 140
54 169 127
53 168 127
54 171 130
51 161 132
113 150 151
122 128 162
58 94 112
26 82 97
28 87 102
29 90 112
33 97 106
32 97 102
33 99 103
37 107 125
40 113 129
44 118 123
42 114 118
42 118 132
45 121 125
46 125 139
47 128 133
47 128 139
46 128 141
47 127 131
47 126 128
49 134 130
47 132 123
48 133 123
50 136 143
52 140 133
50 136 129
52 142 143
60 142 133
97 149 157
111 151 168
120 154 178
136 159 184
152 164 201
151 164 197
164 167 209
170 169 214
178 172 225
185 174 227
185 174 220
187 175 225
186 174 220
188 175 228
187 175 228
187 175 229
188 176 230
185 174 217
188 175 229
188 175 230
187 175 226
187 175 229
189 176 232
189 177 235
186 174 228
187 175 228
184 173 216
187 175 226
187 175 226
188 176 229
189 177 233
186 174 222
191 177 236
190 177 235
190 177 235
191 178 240
189 176 232
189 177 237
189 176 230
188 175 229
189 176 232
188 176 228
188 175 223
189 176 233
188 176 230
190 177 237
188 175 228
189 176 230
188 175 226
188 175 225
186 174 222
188 176 235
189 176 232
186 174 223
189 176 232
188 175 228
190 177 233
188 176 229
187 175 225
188 175 229
189 176 230
188 175 228
187 175 228
190 177 237
188 175 228
188 175 225
188 176 229
187 175 226
189 176 230
190 177 235
187 175 223
190 177 235
188 176 229
187 176 230
188 176 229
185 174 220
188 176 228
190 177 235
191 178 239
192 178 243
187 175 225
190 177 233
190 177 233
190 177 236
186 175 226
186 174 223
189 176 230
187 175 228
190 177 236
187 175 225
185 174 222
189 176 229
187 175 225
189 176 233
189 176 228
184 173 216
189 176 232
189 176 232
189 176 235
187 175 228
190 177 233
189 177 236
188 176 229
191 178 239
187 175 226
188 175 228
189 176 232
189 176 232
188 176 228
187 175 228
185 174 219
190 177 235
188 176 229
190 177 233
188 175 228
190 177 235
190 177 237
189 177 235
189 176 232
190 177 235
220 235 254
220 235 254
220 235 254
220 235 254
220 235 254
220 235 254
220 235 254
220 235 254
220 235 254
220 235 254
220 235 254
219 234 254
220 235 254
220 235 254
220 235 254
220 235 254
220 235 254
220 235 254
218 234 253
216 233 251
220 235 254
219 234 253
220 235 254
219 234 254
219 234 254
220 235 254
220 235 254
220 235 254
219 234 254
220 235 254
219 234 254
220 235 254
220 235 254
220 235 254
220 235 254
220 235 254
220 235 254
220 235 254
220 235 254
220 235 254
220 235 254
220 235 254
220 235 254
220 235 254
220 235 254
219 234 253
219 234 253
218 234 252
218 234 253
218 234 253
213 232 249
216 233 251
210 231 245
210 230 243
213 232 247
209 229 243
211 231 247
211 231 247
214 232 249
207 230 245
210 231 247
211 231 245
208 230 243
215 232 249
213 231 247
213 231 247
214 233 249
215 233 250
214 232 250
218 233 252
215 231 249
214 232 249
215 233 250
214 232 249
217 233 252
213 232 249
216 233 251
220 235 254
219 234 254
220 235 254
220 235 254
220 235 254
220 235 254
220 235 254
220 235 254
220 235 254
220 235 254
220 235 254
220 235 254
220 235 254
220 235 254
220 235 254
220 235 254
220 235 254
220 235 254
220 235 254
220 235 254
220 235 254
220 235 254
220 235 254
220 235 254
220 235 254
220 235 254
220 235 254
220 235 254
220 235 254
220 235 254
219 234 254
219 234 253
219 233 252
219 233 252
215 233 251
217 234 252
219 233 254
216 233 251
213 231 248
208 230 243
213 232 247
211 230 244
210 231 245
212 232 248
210 230 245
211 231 246
209 230 243
214 232 249
209 230 245
213 231 247
215 232 250
218 234 253
211 231 247
209 230 244
208 229 241
210 231 247
213 231 247
209 230 245
211 231 247
212 232 248
213 232 247
178 219 217
70 190 138
70 193 144
109 198 164
217 233 252
209 230 244
209 230 244
207 230 243
205 229 240
206 230 243
150 210 193
59 190 138
59 188 127
59 189 134
59 189 133
59 190 134
60 190 131
59 189 130
59 190 132
58 188 133
61 193 143
60 191 138
60 189 128
60 191 140
59 189 132
60 190 131
61 192 140
59 189 128
59 187 131
60 192 146
61 192 143
59 189 131
60 190 131
61 192 139
60 191 133
61 192 139
60 192 141
61 192 140
59 189 127
60 191 134
60 190 134
59 190 139
60 190 132
59 188 127
60 189 133
60 191 136
60 191 132
60 192 141
59 189 130
60 190 133
60 189 127
60 190 138
60 190 131
61 191 133
60 191 138
61 193 137
60 192 139
60 191 131
60 190 141
59 188 137
60 191 139
60 191 139
60 191 144
59 190 133
61 192 146
60 190 138
60 190 138
60 191 139
59 190 140
60 191 133
59 189 132
60 190 132
60 191 138
59 185 131
60 190 140
59 190 134
59 187 130
60 189 134
59 187 130
60 189 132
60 189 139
59 187 136
60 190 140
60 188 133
59 187 131
59 188 134
59 188 138
59 188 136
57 183 126
59 186 137
59 187 134
59 188 141
57 182 128
60 188 136
59 184 138
58 182 131
58 184 138
59 185 138
57 180 122
58 183 132
58 184 134
58 180 126
58 183 136
58 181 128
58 182 132
56 177 137
57 179 144
55 172 119
55 171 135
55 174 138
55 171 131
53 166 133
50 158 131
111 159 153
132 139 170
50 86 98
25 79 84
23 85 89
30 94 107
34 99 113
33 98 99
34 99 101
38 110 121
40 112 126
41 117 128
40 113 110
45 120 130
44 121 124
47 125 137
44 120 126
48 129 134
47 128 131
49 130 132
48 127 129
47 129 130
49 134 137
50 135 138
48 131 136
50 135 132
52 139 135
50 134 121
55 140 133
90 146 154
100 151 161
111 153 162
132 157 171
134 158 176
160 165 191
161 165 184
163 168 204
177 172 217
185 174 217
184 173 211
185 173 217
188 175 226
182 171 204
189 176 230
187 174 217
185 174 217
188 175 225
187 175 222
186 174 223
188 175 226
186 174 220
186 174 216
181 171 200
188 175 228
187 175 223
183 172 208
186 174 220
184 173 210
184 173 211
185 174 217
184 173 213
189 176 230
189 176 232
187 175 222
185 173 216
187 175 223
184 173 211
186 174 223
187 175 225
186 174 220
185 174 217
188 175 226
187 175 225
185 173 213
188 176 228
188 175 228
185 173 216
186 174 219
187 175 222
183 172 210
188 175 225
185 174 217
185 173 220
188 175 225
185 173 213
185 174 219
188 175 225
190 177 236
187 175 225
186 174 220
185 174 219
189 176 230
185 174 217
186 174 222
184 172 208
186 174 222
186 174 219
186 174 220
185 174 217
185 173 216
188 175 226
187 174 220
187 175 222
190 177 237
187 175 225
185 173 216
184 173 214
186 174 219
187 175 222
185 173 217
188 175 225
188 176 228
186 174 217
187 175 225
189 176 229
189 176 230
188 175 223
187 175 225
185 173 216
189 176 233
189 176 229
186 174 217
185 173 211
185 174 217
183 172 208
187 175 225
186 174 223
187 175 223
184 173 214
191 177 236
187 175 223
190 177 233
186 174 223
188 175 228
187 175 222
187 175 222
190 177 232
186 174 222
184 173 213
187 175 225
188 176 229
186 174 219
187 174 222
185 174 217
189 176 230
189 176 230
186 174 222
183 172 211
187 175 222
221 235 254
221 235 254
221 235 254
221 235 254
221 235 254
221 235 254
221 235 254
221 235 254
221 235 254
221 235 254
221 235 254
221 235 254
221 235 254
221 235 254
220 234 253
220 235 254
220 234 253
221 235 254
221 235 254
221 235 254
221 235 254
221 235 254
221 235 254
220 234 254
219 234 253
220 234 253
220 234 253
221 235 254
221 235 254
219 234 253
220 234 254
221 235 254
221 235 254
220 234 253
221 235 254
221 235 254
221 235 254
221 235 254
221 235 254
221 235 254
221 235 254
221 235 254
221 235 254
221 235 254
221 235 254
219 234 253
215 233 250
218 234 253
220 234 254
220 234 253
213 232 247
214 233 249
210 231 246
214 233 250
215 233 249
208 231 244
212 232 248
212 232 247
213 232 249
214 232 249
211 231 247
218 233 251
218 233 251
217 233 251
220 234 253
213 232 247
220 234 254
212 232 249
216 233 250
213 232 248
212 231 247
211 232 248
212 232 249
216 233 251
212 232 247
216 233 251
221 235 254
221 235 254
220 235 254
221 235 254
220 234 253
221 235 254
220 234 253
221 235 254
221 235 254
221 235 254
221 235 254
221 235 254
221 235 254
221 235 254
221 235 254
221 235 254
221 235 254
221 235 254
221 235 254
221 235 254
221 235 254
221 235 254
220 234 253
221 235 254
220 234 253
221 235 254
221 235 254
220 235 254
221 235 254
221 235 254
221 235 254
221 235 254
221 235 254
220 234 253
218 233 251
214 232 248
217 233 250
216 233 250
217 231 249
216 232 248
214 232 247
210 231 245
215 233 251
214 232 248
215 232 249
216 233 250
214 232 248
211 231 247
211 231 245
207 229 243
209 230 244
214 232 250
212 232 247
208 230 245
216 233 250
215 233 249
212 232 248
208 230 243
216 233 251
210 230 244
214 232 249
215 232 248
174 218 215
77 191 142
64 188 135
109 198 163
211 231 245
215 232 249
216 233 251
207 229 241
201 227 236
202 227 238
152 209 191
58 189 131
58 187 130
59 191 136
59 189 130
59 191 139
59 188 124
58 187 131
60 190 132
59 188 132
59 188 124
60 190 134
59 189 127
62 194 146
61 193 140
61 193 146
58 186 126
60 192 137
60 191 141
61 192 139
59 190 131
61 192 140
61 193 148
61 191 134
59 190 137
60 192 139
59 189 132
60 192 145
60 191 138
59 189 131
58 188 127
59 189 133
60 190 137
59 190 133
60 192 145
61 192 138
59 189 136
61 193 141
60 190 131
60 190 136
59 189 130
60 190 133
60 191 133
59 188 132
61 192 141
59 190 132
61 193 145
59 188 130
59 189 131
60 191 139
60 190 132
60 190 131
59 188 133
57 184 116
58 186 122
60 191 138
61 192 140
58 187 130
57 185 123
59 190 138
60 191 138
60 190 138
60 189 136
59 187 131
58 187 136
60 189 130
60 190 139
58 185 128
59 188 132
59 188 131
59 188 134
59 188 133
60 189 138
61 192 149
59 187 132
59 187 126
61 191 143
58 185 127
59 187 132
59 185 132
59 185 136
59 188 138
58 183 128
59 187 136
58 184 124
58 184 130
58 185 128
57 181 130
58 183 133
59 182 137
57 181 129
58 182 129
56 178 129
58 182 136
56 177 122
57 180 133
57 179 128
57 181 142
55 171 132
55 172 128
54 169 127
53 165 130
50 158 132
125 154 168
126 130 158
64 97 106
25 79 82
26 80 80
24 83 87
33 96 104
34 99 101
34 102 108
34 99 102
38 109 116
42 115 114
42 114 113
42 117 118
40 113 112
47 128 127
44 123 119
43 119 118
46 124 126
46 126 130
48 129 124
48 128 120
51 136 134
50 135 131
48 131 124
52 138 134
51 140 141
53 142 128
57 141 137
81 148 150
100 149 154
110 152 148
124 152 152
148 162 176
156 165 192
162 164 185
162 164 179
177 170 204
180 170 199
180 170 197
183 172 208
181 170 197
187 174 219
184 173 211
179 169 190
182 171 202
182 171 205
182 171 205
184 173 216
181 171 204
183 171 204
187 175 220
180 170 199
180 169 192
185 174 216
184 173 213
185 173 214
181 170 197
182 171 202
182 172 207
187 175 219
182 171 202
182 171 200
184 172 211
183 172 207
186 174 217
182 171 200
179 169 190
184 173 213
183 172 205
185 173 214
183 172 210
182 171 208
185 173 213
185 173 213
185 173 214
185 173 211
187 174 220
186 174 219
182 171 204
186 174 220
182 172 207
182 171 204
184 172 208
186 174 220
187 174 220
184 172 211
184 172 211
186 174 217
186 174 217
184 173 211
185 174 219
184 172 207
183 172 210
184 173 208
186 174 216
185 173 213
183 172 208
185 173 217
183 172 207
189 176 230
185 173 214
184 172 210
188 175 225
184 172 211
183 171 202
184 172 210
190 177 232
182 171 205
186 174 220
185 173 216
183 172 205
184 173 211
182 171 204
185 173 216
183 172 208
181 171 200
181 171 200
185 173 214
188 176 228
184 172 210
187 175 222
185 173 216
180 170 199
185 173 213
186 174 220
186 174 220
185 173 216
185 173 216
188 175 226
183 171 207
188 176 228
185 174 217
184 173 210
183 172 207
184 172 208
184 173 214
187 175 223
186 174 220
184 173 211
184 173 213
189 176 226
186 174 217
185 173 213
184 173 213
182 171 202
182 171 202
185 174 217
185 173 214
221 235 254
221 235 254
221 235 254
221 235 254
221 235 254
221 235 254
221 235 254
221 235 254
221 235 254
221 235 254
221 235 254
221 235 254
221 235 254
221 235 254
221 235 254
221 235 254
221 235 254
221 235 254
221 235 254
220 235 254
221 235 254
220 235 254
221 235 254
221 235 254
221 235 254
221 235 254
220 234 253
221 235 254
221 235 254
220 235 254
220 235 254
221 235 254
221 235 254
221 235 254
221 235 254
221 235 254
221 235 254
221 235 254
221 235 254
221 235 254
221 235 254
221 235 254
221 235 254
221 235 254
221 235 254
220 234 253
218 234 252
218 234 253
220 234 253
218 234 251
217 233 251
214 232 247
209 230 243
214 232 248
212 231 247
215 232 248
216 233 250
211 231 245
217 234 252
217 233 250
216 233 249
215 233 249
214 232 247
210 231 244
215 233 250
214 233 249
213 232 248
219 234 253
212 232 246
219 234 253
211 231 245
214 232 246
210 231 245
217 234 251
218 234 251
216 233 249
218 234 251
221 235 254
221 235 254
219 234 253
220 235 253
221 235 254
221 235 254
221 235 254
221 235 254
220 234 253
221 235 254
221 235 254
221 235 254
221 235 254
220 234 253
220 235 253
221 235 253
219 234 251
221 235 254
221 235 253
221 235 254
221 235 254
220 235 253
221 235 254
220 234 253
220 235 253
221 235 253
221 235 254
221 235 254
221 235 254
221 235 254
221 235 254
219 234 252
220 233 252
219 234 253
218 234 251
212 230 245
217 233 251
212 227 240
213 230 245
215 233 249
207 230 242
215 232 248
215 233 249
217 233 251
209 230 243
213 232 246
214 232 248
208 229 242
213 232 246
210 231 245
210 231 245
212 231 247
213 231 245
214 232 248
218 234 251
215 233 249
215 233 249
216 233 250
213 232 249
217 234 251
216 233 249
159 212 199
66 189 128
81 193 139
136 207 186
215 232 247
205 229 240
211 231 245
209 230 243
207 230 244
212 231 246
146 209 189
59 189 131
60 191 144
59 190 133
59 189 132
61 193 145
59 189 131
58 188 133
59 187 118
58 189 131
60 190 130
59 188 123
59 189 126
58 188 127
59 190 131
60 190 132
59 189 132
59 188 131
60 192 140
60 190 136
60 191 136
60 191 137
59 187 118
60 191 137
61 192 143
59 190 132
60 190 133
60 190 130
60 190 127
59 188 130
59 188 133
59 188 126
59 188 130
60 191 138
60 189 131
60 192 138
61 192 139
59 189 137
61 193 145
59 188 126
61 191 134
59 190 130
60 190 137
60 190 133
58 186 122
58 188 132
60 190 130
59 187 128
59 189 133
60 191 138
59 187 128
60 190 136
59 189 127
59 189 133
60 190 134
60 191 138
60 190 131
61 193 145
59 186 130
59 187 126
60 189 130
60 189 134
59 188 130
59 187 134
59 186 127
60 191 137
59 188 130
58 185 131
60 190 141
58 186 128
59 188 138
60 189 141
59 187 131
60 189 139
59 188 136
59 189 141
59 187 136
59 187 136
60 186 137
58 183 128
60 189 141
58 182 133
59 185 132
57 182 130
58 182 120
59 187 133
59 185 131
59 185 144
58 185 131
57 178 131
58 181 127
56 177 119
57 180 128
56 178 132
58 181 137
57 178 130
56 174 120
56 176 134
53 167 124
55 171 138
54 169 125
54 168 132
50 154 117
140 158 172
125 134 144
73 96 104
25 78 75
26 84 87
30 90 87
30 93 102
34 99 102
33 97 104
38 106 104
34 102 96
41 112 118
43 117 123
41 115 105
38 110 104
45 123 121
45 122 131
43 119 117
46 126 128
47 127 132
48 130 134
48 129 124
46 126 120
49 133 123
49 133 121
50 135 130
50 137 129
52 142 140
59 142 130
76 142 138
97 148 143
119 150 148
139 161 177
127 155 159
150 159 159
148 160 171
160 163 171
166 163 166
176 166 181
180 170 194
178 169 190
180 170 197
183 172 205
182 172 207
183 172 204
181 171 202
179 169 187
179 169 189
184 172 210
184 172 211
183 171 202
179 169 185
179 169 194
182 171 202
180 169 187
184 172 205
179 169 189
182 171 199
182 171 200
182 171 202
182 171 202
181 170 195
180 170 192
177 168 183
178 168 182
183 172 207
178 168 185
179 169 190
182 171 202
182 171 199
181 170 195
183 172 208
184 172 205
181 171 200
183 171 202
183 172 204
179 169 187
178 169 189
184 172 208
181 170 197
180 170 194
178 168 182
185 173 214
180 170 192
182 171 199
185 173 211
181 171 199
185 173 216
182 171 204
178 168 190
181 171 199
183 172 208
182 171 199
185 173 213
184 172 207
180 170 195
180 170 194
184 172 208
182 171 202
183 172 205
182 171 199
185 173 214
181 171 197
181 170 197
183 172 208
183 172 205
186 174 216
182 171 207
183 172 204
182 171 202
184 173 213
180 170 192
182 171 200
183 172 207
183 172 207
186 174 214
186 174 216
181 170 199
184 172 208
182 171 204
182 171 204
183 172 207
180 170 199
183 172 205
184 172 210
186 174 219
187 175 219
182 171 200
183 171 204
186 174 217
184 173 213
184 172 208
186 174 216
183 172 205
180 170 192
186 174 220
181 170 199
182 171 202
183 172 205
186 174 214
185 173 213
184 172 211
187 174 219
182 171 205
185 173 213
184 173 210
185 173 213
180 170 195
182 171 205
221 235 254
221 235 254
221 235 254
221 235 254
219 234 253
221 235 254
221 235 254
221 235 254
221 235 254
221 235 254
220 235 254
221 235 254
221 235 254
221 235 254
221 235 254
220 235 254
221 235 254
221 235 254
221 235 254
221 235 254
221 235 254
221 235 254
218 234 251
220 234 253
219 234 253
221 235 254
219 234 253
220 235 254
221 235 254
221 235 254
220 234 253
221 235 254
220 234 253
221 235 254
221 235 254
221 235 254
221 235 254
221 235 254
221 235 254
221 235 254
221 235 254
221 235 254
221 235 254
221 235 254
221 235 254
221 235 254
216 234 251
219 234 253
219 235 253
220 235 253
219 234 253
211 231 246
211 230 243
213 232 247
212 231 245
219 234 253
217 233 251
217 233 251
215 232 248
215 233 249
211 231 244
214 232 245
212 231 244
215 233 249
214 233 248
212 231 247
215 232 245
214 232 247
214 232 248
218 234 250
217 233 249
215 232 247
211 230 240
214 232 245
209 230 241
218 233 251
218 233 249
221 235 253
220 234 251
220 234 251
221 235 253
221 235 253
218 233 247
220 234 251
220 234 252
219 233 249
219 233 248
219 233 247
221 235 253
218 233 245
221 235 253
218 233 247
219 234 249
219 233 248
217 232 244
219 233 247
219 234 249
217 232 244
219 234 251
220 234 251
219 233 248
215 230 237
219 234 251
219 233 247
218 232 244
215 230 240
217 232 243
221 235 252
218 232 244
218 233 247
214 231 245
218 233 247
215 233 249
216 233 248
215 232 248
216 231 247
214 232 247
211 231 245
208 230 243
211 231 245
217 233 250
217 233 251
209 230 243
215 233 249
215 233 249
213 232 247
211 231 245
209 231 244
213 232 246
218 234 251
217 233 249
214 231 247
215 233 249
214 233 249
209 230 243
215 232 247
215 233 248
215 233 249
165 214 204
72 190 135
69 189 130
151 208 189
220 235 253
214 233 249
216 233 249
215 233 248
207 230 243
204 228 239
164 213 202
57 186 118
57 188 131
59 191 136
60 191 130
58 187 124
59 189 137
60 191 139
60 190 133
60 191 136
59 189 131
60 189 133
60 190 133
60 191 131
59 188 127
59 189 131
59 188 124
61 193 139
59 188 131
60 191 138
59 189 130
59 187 124
60 190 134
58 188 134
59 188 130
60 190 134
60 191 136
59 189 132
59 188 126
61 193 140
59 189 130
59 188 120
60 190 139
60 191 139
60 190 134
59 188 122
60 191 134
59 188 130
60 191 141
58 189 130
59 188 126
60 190 128
60 191 136
59 190 128
60 190 138
60 190 130
59 189 131
59 188 126
58 186 126
59 189 128
60 190 137
59 190 134
60 189 132
60 190 136
59 188 126
59 189 139
61 192 141
61 192 146
59 188 128
60 189 131
58 186 122
59 188 131
59 186 127
58 188 130
59 189 131
59 189 132
59 188 132
60 187 128
60 190 143
60 191 139
59 187 128
60 189 134
60 189 134
59 185 128
58 185 128
59 187 132
59 185 130
59 186 126
59 185 130
59 186 131
57 181 116
58 183 134
58 182 119
59 185 128
58 182 124
59 185 131
58 183 130
59 185 136
58 181 124
57 178 131
59 184 133
58 181 129
57 176 133
57 178 129
59 182 133
55 175 128
56 178 133
57 178 131
54 169 118
54 171 131
54 168 130
53 164 128
48 155 115
142 159 168
129 134 149
75 98 97
27 83 84
26 83 87
27 83 77
28 87 85
34 97 96
31 93 97
37 107 100
38 108 117
39 108 108
42 114 118
40 115 117
42 114 112
43 121 117
45 124 119
46 126 124
44 121 109
48 131 132
44 121 107
50 134 137
49 131 121
49 133 122
49 134 126
49 132 115
48 131 118
52 140 134
55 137 124
77 142 129
100 146 130
116 150 138
129 156 159
144 159 165
132 156 158
158 165 182
162 166 189
169 164 166
173 166 171
174 165 167
177 168 182
180 170 194
176 167 180
172 164 169
176 167 180
177 167 178
181 170 197
178 168 183
180 170 192
176 166 178
175 166 174
179 169 187
176 168 183
180 169 190
179 169 192
177 168 182
180 170 195
176 167 176
179 169 189
177 168 182
180 170 194
178 168 180
176 167 178
178 168 183
179 169 190
178 168 185
178 168 185
180 170 195
177 168 182
174 166 178
178 169 189
175 166 178
177 167 174
179 169 185
176 167 174
177 167 178
180 170 192
181 170 194
179 169 190
180 169 189
178 169 189
182 171 204
179 169 187
177 168 183
181 170 195
179 169 190
181 170 195
181 170 192
180 170 195
184 172 208
180 170 190
178 168 183
175 166 172
179 169 189
183 172 202
182 171 197
182 171 195
181 170 197
183 171 202
181 170 199
181 170 195
176 167 178
177 167 182
182 171 200
180 169 190
179 169 189
181 170 199
181 170 195
182 171 197
183 172 207
180 170 194
183 171 207
182 171 199
179 169 189
180 170 195
180 169 194
180 169 189
180 170 197
184 172 208
183 172 205
179 169 189
178 168 183
180 170 192
187 174 217
183 171 202
182 171 197
185 173 210
185 173 211
185 173 211
184 172 208
181 170 197
182 171 204
180 170 197
183 172 205
183 172 204
185 173 211
184 172 208
184 172 207
181 170 200
183 172 205
184 172 205
183 171 204
182 171 202
180 170 195
186 173 211
187 175 222
183 172 205
181 171 200
184 173 210
222 235 254
222 235 254
222 235 254
221 235 254
222 235 254
222 235 254
220 235 254
222 235 254
222 235 254
221 235 253
222 235 254
222 235 254
221 235 254
220 235 253
222 235 254
221 235 254
222 235 254
221 235 253
222 235 254
219 235 253
222 235 254
222 235 254
222 235 254
221 235 253
222 235 254
221 235 254
219 234 253
220 235 254
219 235 253
221 235 254
222 235 254
220 235 254
221 235 253
222 235 254
221 235 253
221 235 253
221 235 254
221 235 254
221 235 253
221 235 252
219 234 249
221 235 253
220 234 252
221 235 253
220 235 253
220 234 252
220 234 251
214 232 247
220 235 253
215 232 247
215 231 241
214 232 246
214 232 246
211 230 238
213 232 244
213 231 241
208 228 233
211 230 237
208 228 233
215 232 247
215 232 245
210 230 239
209 230 240
214 231 244
210 229 237
203 227 234
214 231 240
213 231 243
215 231 241
211 230 237
213 230 238
206 227 230
208 228 232
213 231 240
213 231 241
216 231 241
219 233 248
216 231 240
219 233 248
216 231 240
219 233 248
219 234 248
217 232 243
218 232 244
217 232 243
219 233 247
217 232 243
217 231 240
218 233 247
218 232 243
219 233 247
215 230 237
217 232 243
217 232 243
218 232 245
218 232 244
218 233 245
217 232 243
215 230 237
217 232 245
219 233 247
219 233 247
218 233 245
217 231 240
218 233 245
218 232 244
216 230 237
215 230 236
214 230 235
219 233 248
214 229 241
216 232 243
215 231 243
217 232 245
218 233 250
216 230 245
215 233 249
213 232 246
215 232 248
215 233 249
211 231 245
213 232 247
216 233 249
218 234 251
209 230 242
212 232 247
216 233 250
217 234 251
212 232 247
217 234 250
210 231 243
216 233 248
213 232 247
214 232 247
214 232 246
211 231 244
216 233 248
212 232 244
141 202 165
67 186 128
68 188 127
178 216 199
217 233 247
220 235 251
204 228 237
202 228 237
197 226 233
212 231 246
174 216 211
59 189 129
58 187 121
57 188 125
60 191 136
61 193 141
59 189 132
60 190 132
59 189 127
59 189 131
60 191 141
59 191 141
59 189 124
59 189 134
60 191 136
59 189 137
60 191 132
60 190 132
58 188 126
60 191 132
61 191 137
58 188 130
59 188 120
60 190 132
61 192 144
58 188 123
59 189 133
59 188 126
60 192 140
61 193 136
59 190 136
59 190 130
59 188 128
59 190 130
60 191 137
60 191 137
60 189 132
59 188 131
60 189 130
59 189 128
59 189 130
60 190 133
61 193 138
60 190 136
59 188 127
60 190 134
60 190 130
60 190 137
59 188 127
59 187 122
60 190 133
59 187 128
60 190 133
58 187 126
60 190 137
59 186 126
59 189 137
58 187 124
59 188 131
59 187 128
58 187 131
60 190 139
60 189 133
60 191 141
59 188 132
59 188 139
58 186 124
60 188 138
60 188 133
59 187 131
59 188 132
59 188 133
60 190 137
59 186 132
59 189 132
58 184 124
59 185 122
59 186 130
59 187 132
58 184 123
58 185 132
59 186 132
59 186 132
58 183 123
58 182 120
59 187 137
57 182 127
58 182 132
60 188 131
56 176 113
56 175 118
58 182 131
57 179 128
57 180 128
56 175 128
58 177 133
56 178 131
54 171 120
57 179 132
56 174 133
54 169 117
52 162 119
51 157 129
127 155 148
134 138 146
84 107 115
23 77 71
26 81 81
30 91 74
29 92 83
28 86 69
34 101 95
34 102 99
38 108 92
41 115 108
38 109 111
40 111 113
43 117 114
43 117 110
46 125 120
44 119 116
45 124 111
46 126 121
46 126 126
46 126 113
46 127 116
48 132 125
51 137 136
49 134 118
49 132 114
48 130 118
61 137 122
73 144 126
97 146 130
112 151 132
130 153 140
140 157 148
140 157 144
159 162 166
157 161 157
163 163 158
172 165 161
174 165 163
175 166 165
174 166 169
174 166 169
173 165 159
172 164 163
174 165 163
173 164 148
176 167 180
174 165 167
172 164 159
175 166 172
171 163 152
170 163 155
173 165 161
175 166 169
175 166 172
171 163 155
171 163 155
177 168 176
174 166 169
172 164 157
175 166 169
176 167 176
175 166 167
170 163 148
173 164 165
177 168 180
175 165 169
177 167 176
176 167 178
176 167 172
176 167 174
176 167 176
177 167 178
179 169 187
175 166 174
176 167 174
174 165 167
175 167 174
176 167 172
175 166 172
173 165 163
179 169 187
174 166 167
178 168 183
176 166 174
177 168 180
176 167 176
173 164 163
180 169 192
178 168 180
176 167 172
174 166 172
180 170 194
177 168 182
177 167 180
179 169 190
177 167 174
176 167 176
179 168 189
183 171 204
175 166 169
179 169 187
177 167 178
179 169 190
176 167 180
175 167 178
181 170 195
184 172 202
180 169 190
181 170 194
178 168 185
177 167 180
182 171 199
178 168 185
181 170 192
181 170 195
179 169 185
182 171 202
181 170 197
184 172 207
181 170 195
179 169 189
177 167 178
182 171 202
180 170 192
180 169 190
182 171 199
182 171 202
178 169 187
178 168 183
182 171 200
181 170 202
180 170 195
183 171 205
180 170 194
182 171 197
180 169 190
182 171 199
179 169 187
182 170 202
182 171 204
179 169 187
181 171 200
181 170 197
180 170 194
182 171 204
182 171 202
180 170 192
222 236 254
222 236 254
221 235 253
221 235 254
222 235 254
221 235 253
222 235 254
221 235 254
222 236 254
221 235 254
221 235 254
222 235 254
222 235 254
222 235 254
222 235 254
221 235 254
222 235 254
222 235 253
220 234 251
220 234 252
221 235 253
220 234 251
221 234 251
221 235 252
219 234 251
220 234 251
219 233 248
216 232 242
220 234 251
217 232 244
219 234 251
219 233 247
217 231 240
218 232 243
217 232 240
220 234 248
219 233 248
220 234 249
219 233 245
218 233 245
218 232 244
219 234 249
217 232 243
215 230 237
219 233 245
217 231 241
218 233 245
216 231 244
214 231 239
214 232 243
214 231 238
218 233 249
215 231 239
207 228 230
209 228 232
213 230 235
213 231 240
211 230 237
211 230 240
214 231 243
207 228 233
209 229 235
217 233 245
211 230 238
214 230 239
212 230 239
211 229 232
209 229 235
208 229 235
209 229 237
211 231 242
208 228 231
212 230 235
214 231 243
213 231 242
217 232 242
218 233 245
219 233 247
216 231 239
217 232 243
216 231 239
220 234 251
218 232 244
217 232 244
217 232 241
218 233 245
217 231 240
216 231 240
217 232 245
216 231 239
218 232 244
217 231 241
217 231 240
218 232 244
219 233 248
217 232 243
218 232 244
218 232 243
218 232 244
216 231 240
219 233 245
218 232 243
216 231 239
216 231 239
218 232 245
216 231 239
217 231 243
220 234 249
216 231 241
216 231 240
219 233 247
216 231 241
216 233 248
215 232 247
215 232 245
217 232 246
215 233 249
212 231 243
217 234 250
213 231 244
213 232 247
214 232 247
212 231 244
215 232 247
208 229 241
209 230 243
217 234 251
212 231 247
215 233 248
213 232 245
211 232 245
211 231 244
212 232 246
213 232 246
212 231 240
200 222 212
190 212 161
188 212 162
116 195 133
65 186 119
62 188 121
162 196 67
175 202 98
198 220 195
217 234 249
200 227 233
201 227 234
221 235 251
188 222 222
57 187 124
60 191 138
60 189 130
61 192 134
59 189 128
59 190 136
59 187 127
59 189 137
60 190 133
58 187 123
60 191 133
60 189 128
61 192 140
59 188 126
60 191 137
60 192 141
60 190 130
60 190 134
59 188 127
59 188 128
60 191 137
58 187 122
60 189 130
58 188 128
59 190 132
60 191 137
59 189 124
59 188 126
60 191 134
60 190 137
60 189 132
61 192 136
60 190 131
57 185 118
58 187 124
60 191 133
59 190 134
60 189 131
59 190 138
60 190 138
59 188 128
61 193 141
59 191 139
59 189 130
59 190 136
60 192 140
58 186 130
59 189 132
59 188 130
60 190 133
58 187 123
59 187 128
59 187 124
59 187 127
59 189 131
59 187 124
58 186 120
59 187 131
61 193 145
58 186 130
59 186 130
59 188 134
58 185 118
58 187 126
59 188 136
59 188 134
59 189 124
58 185 122
59 187 130
59 187 132
59 186 126
57 182 115
59 187 127
60 189 136
60 190 140
58 184 133
60 189 134
60 189 137
58 186 123
59 187 136
59 184 132
60 188 136
58 185 130
60 187 138
58 182 131
58 185 137
57 181 127
57 178 127
56 178 126
57 180 118
58 183 132
57 180 132
57 181 127
55 172 112
59 183 135
53 171 111
56 175 126
55 174 123
51 160 110
53 167 115
50 159 119
47 151 105
144 154 167
152 151 160
101 120 118
23 75 53
26 84 54
29 88 76
31 90 91
32 95 89
35 101 89
39 107 105
37 105 91
39 107 87
41 115 104
39 109 96
42 113 100
45 122 110
45 118 106
43 119 111
44 118 97
45 125 113
47 129 114
48 127 119
47 128 111
49 132 118
49 132 115
50 137 127
48 132 123
51 138 120
69 138 108
76 143 125
94 143 109
113 145 127
124 152 124
138 157 145
140 154 132
148 158 144
157 158 134
157 156 111
169 162 141
168 162 139
170 162 150
170 163 152
167 161 139
168 161 139
170 163 155
171 164 157
167 160 132
173 165 159
168 161 137
170 163 161
173 164 152
173 165 163
172 164 163
171 163 155
167 161 132
169 162 132
174 165 163
174 165 163
174 165 157
171 164 159
172 164 157
173 164 159
170 163 150
174 166 169
168 161 148
171 163 152
171 163 148
176 167 176
173 165 161
175 166 171
173 164 159
172 164 157
176 166 167
172 165 163
175 166 169
174 165 163
171 163 148
173 164 159
174 165 165
175 165 171
175 166 171
175 166 169
175 166 172
175 166 163
175 166 169
171 163 161
173 164 157
173 165 165
177 167 176
177 167 178
175 166 169
175 166 167
178 168 178
175 166 174
179 169 183
177 168 180
175 167 172
173 164 159
176 167 174
176 167 176
177 167 178
173 165 161
177 167 176
174 166 169
176 167 171
174 165 161
176 167 176
173 165 161
177 167 174
175 166 174
177 167 178
178 168 182
177 168 183
177 167 182
175 166 172
177 167 180
178 168 183
176 167 178
178 168 185
175 166 171
180 169 192
175 166 174
180 169 194
178 168 183
173 164 155
179 169 187
179 169 189
177 168 183
179 169 187
176 167 176
177 167 178
175 166 167
177 168 182
179 169 185
180 170 192
177 168 180
180 169 192
181 170 194
177 168 180
178 168 183
180 170 194
182 171 202
180 170 192
180 169 189
180 170 192
180 169 190
179 168 187
181 170 197
178 168 185
222 236 254
222 236 254
222 236 254
221 235 253
222 236 254
221 235 252
221 234 249
220 234 247
220 234 250
218 232 243
220 234 247
221 235 251
220 234 248
221 235 251
219 233 244
216 231 237
219 233 245
219 233 245
219 233 247
217 232 241
218 233 244
218 233 247
219 233 247
218 233 244
219 233 247
220 234 251
216 231 239
216 231 236
216 231 237
220 234 251
218 232 244
218 233 244
218 233 247
219 233 248
215 230 236
218 232 243
219 233 245
216 230 237
217 231 240
220 234 251
217 232 241
219 233 247
217 231 239
220 234 249
218 233 245
218 232 243
218 232 244
218 233 245
219 234 249
217 232 244
208 229 237
212 230 237
215 232 243
216 231 236
213 231 243
212 230 236
217 233 245
212 230 238
210 230 241
214 231 241
205 226 226
212 230 237
213 231 242
213 231 240
204 226 228
212 230 239
214 231 239
211 230 237
213 231 240
209 229 236
208 229 234
217 232 244
213 230 237
215 231 240
219 233 248
219 233 247
217 231 243
220 234 249
218 232 244
220 234 249
218 233 245
219 233 248
219 234 251
220 234 248
218 232 243
217 232 243
215 231 240
219 233 245
218 233 245
217 232 243
218 232 243
218 232 243
217 232 240
218 232 243
218 232 245
215 231 237
218 232 241
219 233 248
216 231 239
219 233 245
216 231 239
213 229 236
220 234 251
216 231 239
220 234 249
219 233 247
216 231 240
218 232 241
216 230 239
219 233 247
218 233 244
216 232 243
214 231 241
215 231 241
214 230 240
216 232 247
213 231 244
215 232 245
215 233 248
214 233 247
212 231 244
216 233 249
210 231 243
215 232 247
215 233 247
209 229 240
214 232 245
208 230 242
215 233 247
215 232 245
215 232 243
199 222 207
196 219 199
181 208 147
173 202 114
179 204 120
174 204 124
188 212 164
88 188 116
60 186 120
100 189 103
171 197 47
169 197 62
163 197 76
190 212 166
208 230 239
204 228 234
212 227 222
203 228 236
60 190 134
57 187 131
58 187 122
60 191 136
58 187 124
58 187 120
61 194 145
58 186 124
59 188 123
60 191 137
58 187 118
60 190 133
59 190 132
58 187 120
59 188 116
58 186 118
59 189 127
61 192 138
60 190 130
59 189 127
59 188 127
60 190 136
58 186 116
60 190 130
58 187 122
59 187 124
59 188 123
59 190 134
59 188 122
59 188 127
60 189 126
58 187 120
59 188 120
58 187 123
60 192 140
58 186 120
59 188 120
60 191 133
60 190 134
59 189 130
59 188 133
59 189 128
59 187 127
60 190 131
58 187 116
60 189 130
59 188 127
60 191 133
59 188 127
60 191 145
60 190 133
59 188 128
60 189 131
58 187 122
59 186 118
60 190 136
59 188 130
59 188 123
59 188 130
59 188 126
60 190 131
57 187 131
60 189 133
59 187 127
61 192 141
60 189 132
60 190 132
60 190 139
59 188 132
61 190 140
59 186 126
59 188 127
59 189 131
59 188 137
59 188 137
57 181 126
59 185 133
59 187 133
59 185 131
59 185 128
58 184 128
57 181 127
56 180 124
57 180 123
57 179 124
58 182 133
58 182 126
55 174 117
57 183 132
58 183 133
54 170 111
56 175 122
58 180 135
56 177 120
56 173 117
56 177 128
55 174 130
54 170 121
52 165 107
53 165 116
51 162 126
48 149 117
142 150 159
155 152 151
95 113 87
50 98 79
26 80 62
28 89 71
34 99 88
30 93 80
32 94 99
37 104 95
35 102 93
41 115 106
37 108 101
43 118 105
43 118 113
45 124 119
41 114 103
44 121 104
45 122 115
47 131 107
44 122 114
47 126 107
47 130 119
47 126 111
48 131 115
48 131 122
49 134 122
50 130 103
72 140 115
83 137 97
83 142 111
103 145 106
119 148 108
131 152 108
136 152 105
152 157 122
158 159 131
158 157 124
162 157 105
164 159 130
165 159 127
161 157 111
166 160 134
163 158 119
170 162 141
170 163 152
168 161 132
163 159 122
165 160 124
168 162 152
169 162 144
167 161 130
162 157 122
165 159 119
167 160 130
168 161 134
167 161 139
167 160 124
171 163 152
168 161 141
168 161 132
171 163 148
169 162 144
168 161 130
171 164 157
170 163 148
169 162 148
169 162 144
169 162 139
170 163 155
170 162 146
170 163 144
172 164 163
166 160 127
170 162 144
169 163 146
174 165 165
170 163 150
173 165 161
171 163 148
171 164 152
174 165 171
171 163 155
171 163 150
175 166 171
168 160 130
170 163 144
173 164 152
170 163 146
174 165 167
167 161 139
173 165 161
168 160 130
172 164 159
167 160 132
171 163 150
176 166 167
174 165 167
174 165 163
175 166 169
175 166 165
171 163 146
177 167 174
176 166 167
172 164 159
176 166 172
177 168 182
169 162 146
171 163 155
175 166 174
172 164 152
171 163 152
175 166 171
176 167 176
176 167 176
175 166 171
178 168 178
180 169 189
174 166 167
174 165 167
175 166 169
177 167 174
178 168 180
176 166 174
174 165 165
178 168 180
174 165 169
175 165 163
177 167 180
180 170 190
176 167 176
175 166 174
178 168 187
178 168 185
179 169 187
182 171 195
176 166 172
173 165 165
182 171 199
181 170 199
177 167 174
176 166 174
177 167 176
174 165 161
180 169 189
180 169 195
178 168 183
176 167 174
181 170 195
220 234 247
220 233 245
217 233 245
219 233 243
219 233 243
217 232 243
219 233 245
218 232 243
218 233 243
217 232 239
221 234 249
219 233 247
219 234 247
216 231 237
218 232 241
220 233 245
217 232 240
218 233 243
218 232 241
220 234 247
219 234 247
218 233 246
216 231 240
222 235 253
217 232 239
216 231 238
217 232 242
217 232 243
216 231 240
218 232 243
219 233 247
219 233 247
219 233 247
219 233 245
218 232 240
220 234 248
218 232 243
218 232 243
220 234 249
218 232 243
218 232 241
218 232 244
219 233 248
218 233 244
218 232 243
216 231 237
218 233 245
218 233 244
218 233 245
215 231 241
217 232 241
217 232 243
217 232 242
216 232 243
207 229 235
210 230 240
212 231 241
212 230 237
211 231 239
215 231 239
217 233 245
217 233 246
212 231 241
209 229 237
217 232 241
210 230 239
211 230 238
214 232 243
213 231 241
209 229 237
215 232 243
210 230 236
213 230 238
218 232 245
218 232 243
220 234 248
218 232 244
218 232 245
217 232 243
217 232 241
215 230 236
222 235 253
216 231 240
219 233 245
218 232 243
218 232 243
220 234 247
219 233 244
218 232 244
216 231 237
217 231 239
219 233 247
215 230 239
216 232 243
217 232 245
217 232 244
217 231 241
216 231 240
219 234 248
218 232 245
219 233 248
219 233 244
218 232 243
221 234 248
217 232 241
219 233 245
220 234 248
217 231 241
217 232 244
216 230 239
219 233 246
217 233 245
215 232 245
214 232 244
218 233 247
217 232 247
212 232 243
206 229 240
212 231 243
217 234 250
218 233 249
211 231 245
218 234 250
209 231 243
211 229 234
203 224 214
193 216 183
191 212 165
188 210 147
176 203 108
171 199 76
174 201 91
172 201 100
177 203 105
173 203 114
175 202 111
177 205 123
182 209 151
64 184 111
62 186 118
129 191 78
169 196 28
172 198 57
170 198 63
167 197 57
194 219 199
208 228 232
204 221 200
206 227 233
59 190 136
57 184 112
58 188 126
58 187 130
59 188 125
60 191 133
57 185 116
58 188 118
59 190 131
59 189 130
59 189 131
60 190 131
60 191 137
59 189 132
60 190 131
59 187 126
61 192 140
59 189 134
60 190 132
59 190 132
60 190 131
59 189 126
58 188 132
59 188 130
60 190 130
58 187 122
58 187 124
60 189 124
60 191 134
58 186 118
58 187 124
60 189 131
58 189 136
60 191 131
59 188 119
60 191 134
59 190 133
61 192 133
57 184 115
59 189 127
59 189 126
59 189 122
58 185 114
59 190 128
59 189 131
60 190 136
59 187 120
60 192 140
59 187 132
60 190 131
59 188 127
58 187 126
59 188 133
59 187 132
58 187 123
59 187 126
58 185 118
57 183 111
59 187 124
60 189 136
60 189 133
59 187 128
60 191 144
58 184 118
57 184 114
59 188 131
61 192 134
57 182 122
60 190 140
58 185 123
58 183 118
58 184 126
59 186 126
58 184 123
57 183 118
58 184 123
58 185 131
58 184 123
58 182 127
58 185 127
58 183 126
59 186 137
58 183 130
59 186 134
58 183 131
58 181 123
58 182 136
58 182 133
58 183 124
57 178 122
58 183 131
56 175 119
57 179 124
56 176 119
57 178 126
58 178 134
56 176 128
54 168 119
55 173 127
55 170 130
50 159 116
47 153 107
171 176 185
168 162 172
123 134 123
67 100 76
27 82 48
28 86 58
30 91 70
35 98 82
34 99 89
37 107 91
39 109 97
39 111 103
40 110 98
38 107 102
37 103 77
39 110 89
45 123 103
43 119 102
44 123 112
44 122 109
46 123 116
46 126 105
48 130 121
48 130 116
46 125 99
50 132 117
49 136 116
62 136 116
76 135 100
82 140 105
92 139 84
97 140 95
112 146 98
132 152 108
135 148 77
145 152 90
150 154 105
162 157 105
158 154 84
163 158 108
161 157 98
162 158 111
161 157 95
162 158 114
160 156 111
163 158 114
161 158 127
161 158 116
163 159 122
161 156 105
165 159 122
167 160 116
163 158 116
165 159 116
164 159 124
163 158 111
157 154 67
167 160 127
164 158 111
164 159 119
163 158 108
164 159 122
166 160 122
166 160 124
169 162 137
162 158 116
166 160 122
167 160 127
166 159 127
165 160 127
166 160 130
167 160 130
161 157 105
166 160 130
168 161 141
164 159 119
162 157 114
164 159 122
168 161 132
161 157 105
165 159 119
170 162 144
169 161 137
169 162 141
167 161 132
167 160 130
165 159 116
171 163 152
163 158 116
166 160 122
172 163 148
170 162 144
170 163 150
171 163 148
172 164 157
169 162 146
169 162 139
172 164 150
171 163 150
164 158 111
170 162 144
174 166 165
172 163 152
170 162 144
171 163 152
171 163 148
168 161 132
172 164 152
174 165 163
173 164 152
171 164 152
171 163 152
169 162 144
174 165 165
173 165 161
174 165 161
173 164 157
175 166 167
175 166 174
171 163 155
174 165 161
172 164 157
176 166 169
175 166 171
173 164 157
173 164 155
177 168 180
176 167 172
173 165 163
179 168 182
173 165 161
176 166 172
177 167 182
176 167 171
173 165 161
177 168 183
175 166 172
174 165 161
178 168 180
176 166 176
178 168 185
178 168 178
174 165 165
178 168 178
177 168 180
179 169 187
182 171 202
175 166 172
177 168 178
220 234 245
219 233 245
220 234 247
221 234 249
219 233 244
220 234 248
219 233 247
219 233 244
216 231 235
219 233 244
219 233 243
219 233 244
218 232 241
219 233 245
221 234 249
218 232 243
216 232 242
219 233 245
216 230 235
217 232 240
221 234 249
219 233 244
218 232 243
216 232 242
221 235 249
221 235 251
220 234 248
218 233 243
218 233 243
221 234 249
217 232 239
221 235 249
219 233 245
219 233 244
218 232 243
219 233 245
220 234 247
218 232 241
216 231 239
218 233 244
219 233 245
217 232 240
220 234 248
217 232 243
218 232 243
218 232 240
219 233 247
217 231 240
219 233 244
215 231 241
218 233 245
219 234 248
215 232 241
219 233 245
213 230 235
210 230 239
215 232 243
206 227 230
214 232 244
211 230 237
214 231 240
208 230 238
213 231 242
213 230 236
211 229 235
207 229 236
212 230 236
211 231 241
205 228 235
214 230 238
212 231 240
216 232 245
217 232 240
219 233 244
218 232 243
218 232 243
218 232 244
220 234 247
218 233 243
218 233 245
217 231 240
220 234 248
217 232 244
220 234 248
216 231 237
219 233 244
220 234 249
220 234 247
217 232 240
220 234 247
219 233 245
218 233 247
216 231 240
221 234 251
218 233 245
219 233 245
219 233 245
219 233 244
217 231 245
219 233 244
220 234 249
219 233 247
220 234 249
220 233 247
219 233 243
219 233 245
218 232 245
219 232 247
217 232 245
217 231 243
215 229 237
218 232 244
217 233 248
218 233 247
215 232 244
218 232 245
214 229 233
202 224 214
200 220 196
196 217 182
193 215 173
183 208 150
180 204 118
168 198 86
174 200 90
171 197 54
167 199 72
175 200 78
171 198 69
171 199 74
173 201 91
173 200 90
173 199 76
170 200 87
176 203 112
179 206 127
182 207 137
153 197 102
63 184 105
80 188 112
161 196 57
167 196 40
174 198 51
165 196 51
170 196 31
168 199 90
214 230 235
206 222 204
214 229 230
75 189 130
57 186 118
58 187 122
59 188 127
59 188 130
61 191 134
59 188 124
58 188 128
59 188 116
60 189 124
59 189 127
59 189 128
58 189 128
60 191 134
60 190 136
58 186 116
58 187 124
59 189 130
60 190 131
59 190 131
60 190 139
59 188 120
56 183 112
60 190 133
61 193 144
60 189 136
59 188 126
60 189 123
60 191 131
59 188 130
59 188 126
58 186 123
57 184 120
60 190 130
59 188 127
60 191 136
58 184 109
58 187 127
57 184 112
58 186 115
59 189 126
60 190 134
60 191 136
59 186 123
58 186 120
59 186 124
59 187 124
59 187 122
57 186 123
58 186 132
59 189 133
59 188 128
59 189 136
58 186 123
59 188 132
60 189 131
59 187 123
59 189 130
58 186 126
60 189 136
58 187 123
57 183 114
59 187 120
59 187 122
57 184 115
57 183 115
59 187 128
59 185 119
61 191 140
59 187 131
59 187 124
59 186 128
59 187 132
58 185 122
58 184 123
58 186 124
59 186 120
59 184 130
59 187 134
59 185 131
58 183 128
57 180 119
59 185 138
59 186 134
58 182 127
58 181 120
58 181 123
56 178 122
57 180 122
56 174 122
56 177 128
59 183 140
56 180 125
56 178 128
55 172 118
55 177 118
55 169 111
55 172 132
54 170 120
52 163 114
50 157 110
64 153 118
185 188 199
162 156 142
127 138 115
86 115 75
28 85 59
26 81 51
29 90 78
30 91 75
30 91 73
35 102 74
33 100 85
33 96 76
39 111 99
39 111 95
42 116 97
42 118 103
43 118 105
44 120 102
44 121 104
45 124 117
46 125 109
46 127 109
48 128 124
46 127 112
48 130 110
48 129 102
48 131 115
51 132 111
72 140 106
86 138 88
106 142 86
94 139 86
114 143 78
130 149 80
133 149 72
131 147 67
151 153 90
152 154 91
158 155 84
155 154 80
152 151 36
154 153 84
153 153 80
153 152 51
153 153 76
159 156 88
156 154 67
158 156 102
157 155 80
155 153 72
157 155 80
156 153 72
160 156 84
153 153 57
161 157 108
160 156 98
162 157 102
160 156 88
163 157 108
156 155 95
166 159 116
162 157 102
160 155 88
160 156 114
163 157 102
161 156 95
161 156 95
160 156 95
162 158 116
165 159 119
165 159 130
164 159 111
157 154 76
163 157 108
165 159 122
165 159 122
164 158 105
161 156 91
164 159 116
164 159 119
169 161 134
164 158 111
163 158 108
164 159 122
168 161 132
169 162 144
163 158 108
165 160 122
165 159 111
167 160 130
168 161 130
167 160 132
163 158 114
171 163 144
168 161 134
169 162 139
167 160 124
166 160 119
169 162 144
166 160 127
169 162 139
166 160 127
164 158 124
169 162 139
172 164 150
168 161 134
174 165 157
170 162 141
170 163 144
171 163 144
170 162 139
170 163 146
172 163 150
171 163 150
170 163 146
168 161 130
170 162 144
169 162 148
171 163 146
170 163 148
170 162 141
171 163 152
174 165 163
171 164 157
173 164 161
171 163 150
168 161 132
173 164 157
170 163 152
172 164 161
175 166 169
174 165 161
172 164 159
174 165 163
173 165 163
171 163 152
171 163 152
172 163 152
171 163 148
174 165 167
176 167 174
173 165 161
172 164 155
178 168 183
175 166 167
177 167 176
179 169 187
177 167 178
172 164 159
214 229 228
219 233 243
220 233 244
217 232 242
220 233 243
220 233 245
220 234 245
217 232 239
219 232 241
218 232 241
220 234 247
219 233 244
219 233 243
218 232 240
220 235 250
219 233 244
221 234 247
220 234 248
219 232 243
219 233 244
220 234 247
219 233 245
218 232 241
219 233 246
222 235 251
217 232 241
219 234 248
217 231 237
219 234 247
220 234 247
220 234 245
217 232 239
216 231 239
218 233 244
217 231 239
218 232 241
219 233 245
218 232 241
219 233 247
218 232 243
219 233 244
219 233 244
220 234 249
219 233 247
217 232 241
218 233 244
219 233 245
217 232 243
220 234 249
219 233 247
218 232 240
219 233 245
214 230 236
215 231 241
216 232 243
217 233 246
213 231 238
215 232 243
209 229 233
215 233 247
216 232 242
215 232 241
218 233 245
212 231 238
208 228 233
205 228 233
211 231 240
214 232 241
211 230 237
215 233 245
218 232 243
219 233 244
219 233 248
217 232 240
216 231 237
220 234 248
218 233 244
218 232 243
217 232 245
219 233 248
218 232 243
218 233 244
219 233 245
218 232 243
218 232 243
217 232 241
220 233 244
219 233 247
217 232 243
216 231 240
217 232 240
221 234 248
220 234 247
218 232 245
217 231 240
214 229 232
220 234 245
217 231 239
217 231 239
219 233 245
220 233 247
215 230 239
220 233 248
221 234 248
215 229 233
209 225 222
206 222 205
203 220 199
206 222 204
195 214 178
197 215 178
192 211 160
185 208 146
180 203 109
176 200 78
174 198 66
170 194 54
166 196 57
171 200 82
167 197 72
168 196 65
171 199 74
173 198 54
169 197 54
169 198 76
171 199 72
172 199 78
171 198 59
173 200 88
172 200 91
171 198 67
178 203 105
172 199 74
173 201 103
176 203 109
182 205 126
176 203 120
126 192 102
60 184 110
137 192 72
167 196 38
160 195 40
166 196 44
168 198 72
169 198 57
164 196 67
209 225 211
205 222 200
218 232 240
118 198 158
60 189 124
58 186 124
58 187 124
60 191 139
59 188 123
57 186 123
58 189 131
59 188 131
58 187 123
58 188 124
60 189 130
59 190 130
58 188 131
60 189 130
59 188 124
57 186 124
59 187 119
59 189 130
59 189 124
59 189 130
59 187 128
60 190 128
60 191 134
60 190 132
60 190 126
59 189 131
60 190 131
60 191 139
60 192 137
59 189 127
59 188 128
59 188 124
59 190 137
59 189 128
59 187 126
58 187 122
60 191 138
59 187 127
59 190 132
59 187 119
58 187 126
59 187 119
60 190 127
59 186 119
57 186 123
60 189 131
58 187 122
60 191 134
58 187 132
59 187 128
60 189 128
58 187 123
59 188 119
60 190 134
58 185 123
59 187 123
59 188 127
59 188 124
58 185 124
58 186 118
60 190 136
58 187 124
59 186 131
59 189 137
59 189 139
59 186 127
58 185 124
59 188 130
57 180 116
58 187 137
57 182 122
59 188 132
58 184 130
59 186 124
58 184 128
58 182 122
58 186 127
59 185 131
59 186 132
58 184 130
57 180 124
57 183 118
57 180 119
58 185 123
59 186 144
57 180 122
57 177 118
57 181 122
57 178 130
54 172 114
57 179 123
55 176 118
57 177 118
53 169 111
53 169 115
55 172 119
55 170 125
52 164 107
53 165 116
50 159 114
124 180 160
203 214 228
159 152 139
149 149 133
98 119 81
51 97 60
29 88 58
29 86 55
31 94 65
34 98 78
35 101 84
38 106 95
39 107 85
38 108 90
40 114 106
41 116 96
41 113 105
41 115 87
44 120 94
40 115 80
44 121 92
44 120 89
47 126 111
45 125 95
47 128 106
46 127 103
48 132 97
48 131 114
62 131 90
82 134 78
95 141 91
110 143 78
105 139 67
114 143 82
128 144 51
132 147 51
139 148 47
146 150 31
147 150 0
147 150 25
152 152 44
146 149 0
152 152 44
150 150 36
154 152 44
153 152 44
153 152 44
153 152 36
155 153 62
155 152 51
154 152 36
156 153 72
154 153 51
153 152 51
158 155 88
156 155 88
154 152 51
158 154 67
152 152 62
152 151 44
152 153 51
156 153 72
156 153 67
156 154 72
156 153 51
157 154 72
153 152 57
159 155 91
154 151 44
158 155 72
159 155 84
159 156 80
159 155 84
155 152 67
156 154 91
159 155 88
159 155 72
159 155 76
161 157 95
158 155 84
163 158 102
163 157 98
159 155 84
160 156 102
159 155 88
159 155 80
161 156 102
162 157 102
159 156 84
161 157 105
165 159 122
164 158 108
163 158 111
161 156 102
167 160 119
166 160 130
163 158 114
166 160 114
164 158 108
165 159 119
166 160 127
164 159 122
162 158 102
165 159 119
163 158 108
171 163 148
169 162 141
168 161 132
165 159 122
168 161 132
169 162 141
169 161 134
169 161 137
168 161 134
168 161 139
168 161 130
165 159 114
165 159 122
172 164 155
167 161 130
162 157 108
167 161 132
170 162 144
168 160 134
171 163 148
169 162 139
168 161 137
172 164 148
167 161 132
168 161 146
170 163 150
173 164 155
174 165 165
168 161 137
168 161 134
173 164 155
172 164 157
171 163 146
174 165 165
174 165 167
173 164 163
173 164 157
168 161 130
171 163 150
174 165 161
176 167 176
175 166 165
174 165 159
174 165 167
174 165 159
186 207 133
189 209 146
191 211 148
192 211 148
199 217 180
201 219 187
206 222 202
207 223 202
211 227 217
220 233 244
218 232 241
222 235 251
219 233 241
220 234 245
220 234 247
220 234 248
219 233 244
216 231 235
220 234 245
220 234 247
220 234 247
219 233 243
217 232 241
222 235 249
220 234 248
220 234 247
222 235 251
215 230 236
216 231 236
219 233 244
219 233 243
219 233 246
220 233 244
221 234 248
217 232 242
222 235 251
220 234 247
221 234 249
219 233 243
219 233 245
220 234 248
218 232 244
219 233 245
219 233 245
219 233 243
221 235 252
218 232 241
217 232 241
221 235 248
218 232 240
219 233 243
219 233 244
219 233 246
217 231 238
218 233 243
213 230 239
208 228 230
217 232 243
215 232 243
219 234 247
214 231 240
216 233 245
208 229 236
214 231 243
214 232 241
215 232 242
211 230 238
213 231 242
215 231 237
219 233 245
221 235 251
218 233 244
219 233 244
218 232 244
220 233 245
218 232 241
218 232 244
218 232 241
221 234 249
220 234 248
219 233 241
217 231 240
218 232 241
218 232 239
221 234 249
222 235 249
216 231 240
216 231 237
210 225 219
208 224 216
210 226 220
209 224 216
203 219 197
201 218 187
201 219 190
199 217 174
192 211 165
187 207 139
188 208 141
186 207 127
181 203 105
180 203 98
175 198 67
177 200 84
172 196 36
175 198 67
173 196 67
174 197 80
173 197 57
177 199 84
172 196 36
173 196 62
175 199 67
174 198 62
174 198 59
173 198 76
171 196 54
172 197 54
169 198 72
168 196 54
171 198 65
175 200 84
170 199 80
168 197 62
167 197 78
170 201 102
172 198 57
171 198 82
174 202 100
173 200 90
169 198 86
174 200 91
176 201 97
168 199 83
178 203 106
176 204 123
171 201 105
90 184 97
93 187 102
165 195 25
169 195 18
167 195 25
164 195 36
170 198 65
161 196 57
169 196 40
202 219 183
198 216 172
222 235 251
155 209 192
58 187 117
56 183 111
59 188 130
58 186 120
58 186 114
58 186 119
56 183 111
57 184 116
58 189 136
58 188 126
59 189 130
59 188 128
58 187 127
59 189 137
58 187 119
59 188 124
59 188 124
60 189 128
58 187 122
58 188 127
61 191 128
59 189 132
60 191 132
60 190 133
60 189 132
59 188 118
60 190 131
59 188 120
60 189 126
59 187 124
58 187 127
59 188 123
60 191 134
60 190 131
59 189 127
59 188 132
58 185 118
59 189 132
59 188 123
60 189 133
60 191 132
60 190 131
60 190 133
59 189 130
58 186 120
60 190 133
59 187 123
58 186 120
58 187 123
59 189 130
59 187 126
58 186 119
59 188 127
60 188 131
60 191 133
58 186 115
61 191 138
59 188 123
60 189 130
57 185 118
60 191 137
60 188 133
58 185 122
58 186 126
60 188 132
59 188 127
58 186 127
59 187 132
57 184 115
58 187 122
58 187 131
59 185 130
59 187 134
57 182 118
58 185 128
59 185 123
58 184 126
58 184 123
58 181 119
59 186 131
58 183 126
58 184 133
57 181 126
57 182 123
58 182 120
57 179 123
56 178 126
56 177 124
58 182 133
56 176 119
56 179 121
58 182 133
54 172 115
56 178 119
53 169 112
56 174 128
52 167 115
51 160 99
51 158 121
48 154 107
157 195 189
218 230 248
161 154 148
162 158 138
124 137 76
78 110 43
36 93 53
31 94 64
28 88 65
33 100 62
35 95 65
37 104 83
36 101 84
37 102 75
40 111 84
42 116 95
44 120 103
40 113 80
43 119 96
42 116 91
43 117 99
47 128 113
47 125 102
45 124 87
46 128 109
48 134 118
47 129 101
53 130 104
71 133 106
82 138 101
83 135 82
92 138 82
118 144 69
116 142 67
127 146 57
125 146 67
140 149 51
145 150 31
148 150 0
144 148 0
148 150 0
146 148 0
145 149 0
148 150 0
149 149 0
148 149 0
151 151 0
151 150 0
150 150 0
152 152 0
151 150 0
151 150 0
148 149 0
151 151 0
152 151 0
151 151 0
153 151 0
152 151 0
151 150 0
149 150 0
153 152 0
152 150 36
153 151 25
152 151 0
155 152 36
155 153 44
151 151 36
154 151 36
156 153 44
154 153 57
153 152 25
153 152 51
153 151 36
154 153 51
156 153 44
157 154 76
157 153 67
157 154 57
159 155 67
160 155 76
156 153 62
158 154 62
157 154 76
158 154 67
158 154 76
158 155 80
161 156 95
158 155 88
159 156 88
157 154 76
156 154 84
158 155 67
159 155 80
161 156 88
163 157 102
160 156 88
163 158 105
163 158 105
160 156 88
159 154 84
166 160 127
163 157 102
162 157 105
164 158 114
163 158 105
163 158 108
166 159 122
167 160 124
166 160 122
164 159 111
166 159 119
163 158 102
161 157 102
162 158 111
163 158 102
165 159 114
168 161 130
166 159 122
167 160 127
168 161 127
170 163 146
166 159 127
165 159 119
169 162 141
165 159 122
168 161 130
167 160 130
164 159 132
170 163 150
170 162 137
169 161 137
167 161 130
170 162 150
170 163 144
170 162 139
170 162 141
172 164 150
169 162 134
169 162 141
170 162 141
167 160 132
174 165 165
169 162 139
171 163 152
172 163 152
172 164 152
167 161 132
172 164 155
170 162 146
173 165 165
181 203 105
186 206 119
186 207 127
183 204 111
180 203 98
181 203 105
179 201 84
179 201 80
177 200 80
178 200 72
179 201 76
183 204 111
186 207 122
192 212 152
195 214 165
194 214 164
201 218 180
201 219 187
205 222 200
208 224 208
206 223 206
209 226 218
212 227 222
209 226 215
213 228 225
214 229 231
214 229 229
214 230 235
217 231 239
219 233 245
220 234 248
217 232 243
219 233 244
220 234 245
217 231 236
217 232 241
219 233 241
219 233 241
219 233 245
218 232 241
220 233 244
221 235 251
219 233 244
218 232 241
221 235 249
220 234 247
217 231 239
221 235 249
220 234 245
219 233 244
219 233 246
219 233 244
220 234 245
216 230 236
219 233 244
219 233 245
217 232 241
221 234 247
217 233 243
215 232 241
208 228 232
214 229 230
209 226 220
214 230 233
211 226 222
209 226 220
217 231 237
206 223 207
208 225 216
204 221 197
209 225 213
199 217 189
201 219 187
200 218 183
199 217 183
195 214 169
193 212 155
192 211 150
190 211 155
189 210 150
188 208 124
186 207 132
183 205 116
180 202 98
180 202 102
177 201 88
177 200 67
177 199 62
174 198 62
176 199 51
176 199 72
174 198 62
178 202 102
175 199 72
175 198 51
173 197 51
173 197 51
174 198 57
172 196 51
175 199 76
176 200 84
174 198 84
176 200 76
176 199 84
173 197 76
175 199 76
176 199 84
172 196 67
172 196 72
172 196 57
171 196 44
170 195 62
175 199 84
173 198 65
173 198 69
174 198 76
173 198 86
174 198 72
170 198 72
171 199 72
169 198 74
169 199 86
168 197 69
169 198 84
170 198 72
169 197 65
165 197 69
165 197 80
171 200 98
170 199 84
171 200 97
168 198 74
172 199 80
174 203 116
181 205 127
174 202 105
155 197 111
78 185 106
144 192 67
163 195 44
167 195 25
159 193 47
161 194 40
163 196 44
165 195 51
173 198 54
199 217 183
199 217 178
215 229 226
170 214 192
59 188 124
58 186 118
59 189 129
57 187 124
59 189 126
58 185 119
61 191 130
58 187 124
58 187 127
57 186 118
59 189 136
59 187 122
59 188 122
59 189 126
58 188 130
60 190 130
59 189 130
59 189 131
58 186 116
60 189 124
58 188 124
57 184 116
58 187 132
60 191 137
59 187 122
59 189 131
58 187 126
58 186 128
59 187 120
58 187 122
59 188 127
60 190 134
57 185 114
59 190 134
58 187 118
59 187 128
60 190 132
59 187 122
59 188 127
59 188 127
59 188 128
60 190 126
59 188 132
59 188 124
58 187 130
58 186 123
59 190 133
58 186 123
59 188 130
57 184 115
59 188 128
59 189 127
60 189 130
58 186 126
59 189 126
59 188 131
58 187 126
59 187 123
60 189 119
58 186 116
61 192 133
58 187 124
59 187 126
58 185 120
59 186 127
58 185 126
59 188 134
58 184 118
58 186 123
59 183 126
59 188 133
59 187 128
58 185 115
58 186 126
59 184 126
58 183 118
57 179 105
57 180 106
58 185 131
56 179 119
57 179 115
57 180 109
57 181 113
58 183 120
57 182 123
57 181 126
57 180 130
55 176 116
56 178 111
54 172 112
55 173 116
57 180 119
56 175 115
55 174 121
55 173 118
56 174 127
53 169 108
53 164 116
50 160 117
48 150 102
168 200 189
213 228 222
161 161 141
165 160 139
126 138 89
90 117 67
52 98 52
36 93 52
31 93 40
33 96 69
34 101 59
37 105 82
36 103 84
35 103 70
39 111 91
40 111 79
38 104 79
42 116 83
42 114 95
45 120 97
43 116 92
46 128 105
46 126 102
45 123 95
46 123 87
47 129 103
48 127 97
59 131 91
67 135 88
80 136 93
100 138 76
108 143 72
114 141 54
114 142 57
125 141 51
132 145 44
139 147 31
135 148 25
147 148 25
142 145 0
142 146 0
145 148 0
145 148 0
149 149 0
145 148 0
150 150 0
146 149 0
149 149 0
148 150 0
150 150 0
148 149 0
149 150 0
146 149 0
149 149 0
151 151 0
150 150 0
151 150 0
151 150 0
150 150 0
150 150 0
151 151 0
150 150 0
153 151 0
151 150 0
148 149 0
151 150 0
153 151 0
149 150 0
152 150 0
152 151 0
152 151 0
152 151 0
150 150 0
151 151 0
154 152 0
151 151 0
154 152 0
154 151 36
153 151 0
156 153 36
154 151 25
155 152 25
154 152 25
155 153 44
154 152 0
155 153 44
155 153 25
154 151 51
158 154 67
156 153 57
155 153 44
155 153 51
157 153 67
157 154 57
158 154 67
158 154 67
158 154 67
160 156 76
161 156 98
157 154 62
161 156 91
155 152 51
159 155 80
161 156 91
162 157 102
162 157 95
158 154 67
162 157 91
163 157 95
162 157 102
155 152 57
163 157 98
166 159 116
161 156 102
162 157 98
163 158 108
164 159 111
162 157 102
165 159 119
164 158 108
164 158 105
163 158 102
167 160 130
165 159 114
164 159 111
163 158 111
163 157 102
165 159 119
166 160 124
163 157 102
163 157 114
168 160 124
172 164 152
167 160 127
167 160 127
169 162 144
167 160 130
167 160 124
166 159 124
174 165 159
167 160 134
170 162 139
169 161 134
166 160 116
169 162 132
163 158 114
172 164 146
169 162 146
170 162 144
168 161 127
187 207 127
188 208 137
184 205 114
186 207 127
184 205 111
179 201 76
179 201 84
178 200 76
178 201 80
178 201 88
180 203 100
179 201 84
180 202 91
174 199 65
179 201 80
178 201 84
178 200 84
177 201 78
176 199 67
177 201 76
177 200 74
179 201 80
178 201 88
177 200 82
178 200 72
175 200 74
178 201 84
175 199 78
175 199 80
175 198 57
176 200 84
178 201 76
180 202 98
179 201 88
183 204 108
183 205 119
180 202 98
181 203 105
186 206 119
184 205 116
181 203 105
186 207 127
182 203 102
188 208 132
185 206 122
182 204 108
180 203 102
184 205 116
180 202 91
183 205 111
183 204 111
179 202 84
179 201 88
179 201 80
179 201 88
180 202 105
177 200 84
176 199 67
178 201 84
176 199 80
177 200 67
175 198 51
174 198 67
176 200 76
176 199 72
177 200 76
175 198 62
176 199 67
176 199 67
178 202 105
176 199 67
177 199 62
174 198 62
177 199 57
173 198 76
174 198 57
173 197 44
176 199 67
175 199 67
176 199 80
174 198 62
173 197 57
174 198 76
175 199 80
176 198 62
176 199 76
176 199 51
176 199 76
174 197 51
175 198 57
175 198 51
174 198 80
174 198 67
172 195 57
174 199 80
175 198 36
174 198 57
175 198 72
176 199 72
173 197 36
172 197 72
176 200 76
175 198 62
175 199 84
175 198 62
175 198 57
171 197 76
172 196 51
170 194 57
172 196 57
173 196 51
173 197 62
174 198 76
171 196 57
171 196 44
173 197 67
169 196 69
170 197 59
172 197 65
169 199 93
172 199 74
169 198 74
172 198 74
173 198 72
166 197 76
170 199 76
171 199 72
172 200 91
169 198 74
167 198 90
165 196 67
167 198 90
168 202 109
174 201 106
175 202 106
166 198 97
140 194 111
126 189 72
166 195 25
171 196 18
165 194 31
166 195 25
160 194 40
154 194 65
166 197 67
175 198 36
202 220 194
181 203 95
174 197 0
158 194 36
58 188 126
57 185 114
58 186 112
56 184 116
59 188 116
60 192 137
59 189 118
59 187 124
57 185 116
59 189 131
57 186 122
58 187 122
57 186 116
59 189 128
60 188 124
60 190 131
59 187 128
60 191 132
59 189 128
58 187 122
58 186 119
59 187 119
59 187 116
59 189 127
59 188 122
60 190 136
60 190 130
59 188 126
59 187 122
59 189 126
57 186 122
58 187 120
58 186 111
59 190 132
59 189 123
59 189 131
59 188 124
57 184 116
58 187 123
59 187 123
60 190 127
58 186 115
59 187 115
59 189 131
57 184 112
57 185 126
58 186 124
58 186 123
58 187 123
58 186 119
59 185 122
58 186 124
60 190 134
58 187 126
59 189 122
58 185 120
58 185 119
57 183 112
58 186 122
58 184 114
57 182 122
60 190 141
59 186 124
59 188 126
59 187 124
59 187 128
58 186 124
59 188 128
58 185 128
57 183 118
59 185 119
58 185 126
58 187 124
59 188 123
56 180 111
55 176 112
57 182 111
59 186 120
57 183 119
57 181 109
57 181 118
58 182 126
58 182 130
57 181 119
57 184 126
56 179 124
57 179 130
57 180 108
56 179 122
56 177 121
57 180 124
55 172 111
57 178 122
55 173 114
55 175 122
54 168 115
53 162 113
50 159 108
53 162 114
48 152 99
160 189 33
173 197 0
159 172 72
158 153 119
144 147 74
123 132 64
77 109 54
43 95 41
32 95 55
31 91 53
36 102 72
33 97 68
35 99 66
36 105 72
37 104 69
40 111 82
39 108 75
41 112 80
42 116 97
45 122 92
43 117 85
43 117 91
44 119 90
46 127 102
48 132 105
48 131 116
50 129 98
58 127 98
80 134 82
79 134 95
93 138 76
102 141 72
102 139 67
113 142 62
118 144 59
128 145 51
141 148 36
142 147 0
144 147 0
139 147 0
143 147 0
142 147 0
147 149 0
146 147 0
146 149 0
146 149 0
147 149 0
147 149 0
147 148 0
150 151 0
147 147 0
148 150 0
145 148 0
147 150 0
148 150 0
153 151 0
152 151 0
148 149 0
148 148 0
148 150 0
153 151 0
152 151 0
155 152 0
155 152 0
152 151 0
153 151 0
153 151 0
153 151 0
151 150 0
153 151 0
152 151 0
155 152 0
153 151 0
150 150 0
155 153 0
154 152 0
154 151 0
153 151 0
154 152 0
153 151 0
149 149 0
154 151 0
154 152 0
152 151 0
154 152 0
155 152 0
152 150 0
154 152 0
155 152 0
154 152 0
156 152 25
153 151 0
153 151 0
156 153 36
157 153 25
153 151 0
156 152 36
155 152 44
154 151 25
157 153 36
154 151 51
155 152 44
156 153 44
156 153 51
158 154 51
158 155 76
158 153 51
156 152 51
160 155 84
158 154 62
160 155 72
158 155 88
159 155 72
158 154 76
157 154 72
162 156 88
160 155 80
159 155 84
159 155 80
160 156 91
158 153 76
160 156 108
161 156 91
161 156 95
163 158 108
162 157 98
164 158 108
166 159 122
160 156 84
165 159 116
163 158 108
167 160 124
163 158 108
167 160 124
163 158 102
165 159 116
166 160 122
165 159 119
172 164 150
163 157 108
165 159 119
166 159 119
169 162 137
169 162 134
166 160 127
167 161 127
172 164 152
168 161 130
164 158 116
165 159 114
185 206 123
186 206 122
186 207 124
181 203 98
181 203 105
180 202 88
180 202 91
180 202 84
176 199 67
178 200 84
179 202 88
181 203 98
180 203 97
178 201 80
179 201 67
176 199 67
177 200 72
179 202 95
177 200 80
179 201 76
178 201 76
175 199 59
176 199 72
178 201 76
178 201 88
174 198 62
176 199 51
176 199 67
177 200 72
179 202 95
177 200 72
176 199 62
174 198 62
175 198 51
177 200 78
178 200 76
176 198 62
178 201 84
177 200 72
177 200 72
177 200 72
174 198 51
178 200 76
175 198 51
175 198 57
176 199 62
176 199 72
175 198 44
179 201 80
174 197 36
175 198 51
175 199 67
175 199 67
177 200 72
177 200 72
175 199 72
174 199 72
175 198 57
176 198 57
175 198 62
176 199 62
175 198 44
172 196 36
176 199 62
177 200 72
175 198 51
178 201 80
174 198 76
173 198 57
176 199 72
175 199 62
175 198 44
176 199 57
176 199 72
175 199 80
174 198 67
177 200 76
178 201 95
176 199 62
174 199 80
174 198 72
176 199 72
174 198 51
179 201 91
176 199 62
178 200 84
177 200 80
177 200 84
176 199 67
174 197 62
173 197 62
175 199 80
174 197 62
175 199 80
173 198 76
174 198 67
174 198 57
171 196 67
175 199 67
175 199 72
175 200 98
174 198 62
175 198 44
174 199 88
169 196 80
172 196 62
174 197 62
171 196 51
173 197 57
176 199 57
171 195 57
176 200 95
171 196 76
173 197 80
172 197 72
172 198 67
173 199 88
172 198 76
172 198 80
170 197 72
169 198 72
170 198 67
176 200 72
169 196 54
166 197 78
163 196 76
170 198 78
174 199 86
166 197 69
172 199 90
171 200 95
173 200 100
170 200 111
177 205 127
174 202 111
165 198 93
143 190 61
164 194 31
158 191 36
160 193 25
163 195 47
162 193 40
165 195 40
173 200 80
169 195 36
174 198 51
200 218 185
175 198 44
173 197 0
175 198 0
82 187 114
58 186 120
59 189 130
60 189 126
56 182 104
58 186 116
58 187 121
58 187 123
58 187 124
58 186 114
59 188 130
58 188 126
58 186 118
57 186 116
58 187 120
57 186 120
58 186 116
59 188 122
57 185 123
58 187 118
58 187 126
60 190 134
60 191 132
59 188 120
59 189 128
59 189 132
57 185 119
59 189 128
58 186 124
60 190 133
59 187 126
56 184 112
59 188 126
58 185 112
57 185 120
58 187 116
58 186 122
58 187 118
58 187 127
58 186 122
57 184 116
59 189 133
59 189 127
59 188 127
60 189 124
58 185 115
58 187 122
58 185 124
58 187 126
57 184 111
58 187 130
58 184 118
58 186 119
60 189 131
58 184 124
59 189 128
59 187 123
58 185 123
59 187 130
59 187 126
58 187 124
58 187 126
60 189 132
57 185 115
58 184 120
59 189 131
57 186 130
59 187 122
58 184 116
58 183 118
59 185 122
59 186 122
56 181 111
57 182 119
57 182 111
59 184 126
57 181 120
58 183 120
58 184 122
57 176 122
59 188 131
56 180 111
58 182 126
57 181 124
58 182 134
57 180 115
57 182 128
56 178 108
56 177 115
56 177 124
55 176 119
56 175 124
56 175 116
58 180 128
54 169 107
53 167 125
54 166 120
51 162 102
50 159 103
67 148 89
175 198 0
175 197 0
166 184 44
155 149 122
153 152 84
120 132 62
99 122 46
67 106 34
51 104 44
36 103 68
34 99 61
38 104 67
38 106 71
39 109 61
37 110 85
39 106 59
41 112 82
40 109 77
43 116 87
44 119 91
45 123 97
42 118 81
44 121 88
46 125 97
45 124 97
48 127 97
55 126 79
66 128 69
81 133 85
81 131 72
88 130 62
119 144 67
113 138 62
115 137 51
123 143 36
127 142 31
133 144 18
136 143 0
134 145 0
142 146 0
144 148 0
140 146 0
150 151 0
143 148 0
149 150 0
141 147 0
142 146 0
147 148 0
145 148 0
146 149 0
146 148 0
151 150 0
150 150 0
147 149 0
147 147 0
151 150 0
148 149 0
151 150 0
148 148 0
152 150 0
147 148 0
148 149 0
152 151 0
151 150 0
150 150 0
152 151 0
150 151 0
153 151 0
151 149 0
152 150 0
149 149 0
151 150 0
151 150 0
150 149 0
153 151 0
149 150 0
152 150 0
153 151 0
154 151 0
152 151 0
155 152 0
152 150 0
152 151 0
155 152 0
154 151 0
156 153 0
151 149 0
153 151 0
152 151 0
151 149 0
153 152 0
154 152 0
154 152 0
154 151 0
152 151 0
150 150 0
154 151 0
151 150 0
155 152 0
153 152 0
153 151 0
154 152 0
155 152 0
153 152 0
154 152 36
154 152 25
154 152 25
157 154 51
153 152 25
156 153 51
153 151 0
154 151 57
156 152 44
157 153 57
158 154 57
158 154 57
158 155 76
157 153 57
158 155 76
159 154 67
159 155 76
158 154 72
157 154 62
161 156 95
160 156 84
160 155 91
160 156 84
163 157 98
157 154 76
159 154 84
158 154 76
160 156 88
162 157 98
163 157 102
160 156 91
163 157 114
165 158 119
163 158 108
164 158 111
165 159 119
165 159 116
165 159 111
166 159 130
163 158 108
167 161 130
166 159 124
167 161 132
166 160 122
166 159 122
169 161 139
188 209 139
186 206 122
184 205 111
182 204 108
182 204 111
184 205 116
183 204 108
181 203 98
177 200 76
179 202 102
182 204 108
178 200 67
178 200 72
180 202 95
176 199 72
179 202 90
177 200 62
178 200 84
178 200 80
177 200 80
177 200 62
178 201 80
174 198 51
173 198 57
176 199 67
178 201 93
176 199 54
174 198 54
175 199 74
177 200 67
176 199 62
176 201 84
176 199 69
176 199 67
174 200 76
175 198 67
175 199 69
172 196 51
175 198 57
177 200 80
177 200 76
178 200 80
175 198 44
178 200 62
177 199 62
176 199 67
178 201 88
175 198 44
176 199 72
174 199 76
173 197 25
175 199 62
177 200 95
178 201 84
173 197 44
175 199 57
175 199 76
174 198 57
174 198 72
176 199 67
175 198 62
175 199 67
173 197 44
174 197 62
174 197 57
174 198 44
176 199 62
174 198 57
176 199 76
175 198 62
176 199 67
176 199 76
175 198 36
176 199 80
176 200 84
174 198 62
173 198 57
177 200 67
175 199 67
175 198 67
177 200 80
173 197 51
173 198 72
177 200 72
174 198 57
175 198 62
175 198 36
175 199 62
174 197 51
175 198 57
172 196 57
176 199 62
177 200 84
175 199 76
175 198 72
174 198 67
173 198 57
173 197 44
175 199 80
174 198 57
175 199 95
171 196 51
175 199 91
173 197 44
171 196 51
173 197 57
173 197 72
169 195 25
175 199 62
173 198 57
174 198 57
174 197 80
172 196 72
173 198 80
166 192 36
171 195 62
174 198 67
171 197 67
175 198 67
172 199 80
171 198 72
172 200 97
171 197 76
168 197 78
167 197 54
171 196 57
172 198 82
172 199 78
171 199 78
169 197 80
170 200 91
170 198 82
175 202 112
169 200 103
166 197 74
172 199 103
156 189 18
160 193 31
156 191 31
165 196 42
159 194 31
162 194 40
164 196 65
173 198 57
173 197 44
183 203 105
193 212 159
174 197 0
173 197 0
174 197 0
119 190 85
57 184 106
58 186 112
59 187 116
57 185 116
58 186 119
59 188 124
57 185 109
57 185 117
59 187 123
58 189 123
60 190 132
60 188 127
58 186 114
60 190 132
58 186 120
58 187 116
59 188 123
57 183 108
60 190 131
58 186 119
59 186 114
59 187 124
59 188 123
60 189 127
59 187 122
58 188 134
58 186 120
57 186 120
59 188 127
59 187 126
57 185 115
59 189 120
57 183 106
59 187 120
58 186 119
59 188 130
58 184 112
59 188 123
58 187 120
57 185 112
57 185 112
59 188 123
58 187 130
57 184 116
59 188 131
59 188 128
60 190 133
59 188 120
58 187 130
57 184 111
58 186 122
57 185 114
58 184 116
58 187 123
59 187 124
57 182 105
58 185 122
60 188 137
57 186 132
59 188 133
58 185 115
59 186 130
60 188 137
57 185 123
57 185 122
60 190 136
58 184 120
57 180 118
57 181 116
58 186 131
58 183 123
57 183 119
58 182 124
57 184 119
58 186 124
59 186 130
58 184 123
58 185 126
56 176 105
56 179 114
57 181 122
55 179 111
57 177 112
57 181 131
56 177 123
55 176 111
55 174 114
56 178 124
58 180 130
54 175 106
55 174 120
55 172 122
54 168 108
55 173 118
53 171 109
51 163 104
51 160 108
48 155 93
108 167 90
173 196 0
173 196 0
172 196 0
155 154 132
154 152 80
139 143 51
120 131 31
86 118 44
65 113 61
48 104 68
34 100 59
36 102 65
39 106 76
38 108 87
39 107 80
38 107 63
38 109 70
41 113 72
43 116 88
43 118 76
45 122 86
43 119 80
44 120 100
41 117 87
43 119 85
61 129 85
61 125 90
60 125 86
72 128 54
92 132 67
89 132 57
93 136 62
102 133 40
116 139 51
124 140 31
133 144 18
135 143 18
140 146 0
143 145 0
138 144 0
137 146 0
136 143 0
139 145 0
140 146 0
146 148 0
145 147 0
148 149 0
145 148 0
146 148 0
146 148 0
145 148 0
149 149 0
149 150 0
149 150 0
146 148 0
150 150 0
149 149 0
149 148 0
149 150 0
145 147 0
151 148 0
148 149 0
150 148 0
151 151 0
149 149 0
148 147 0
149 149 0
150 150 0
149 149 0
149 149 0
151 151 0
149 149 0
152 151 0
149 148 0
150 150 0
152 150 0
152 151 0
151 151 0
150 148 0
150 151 0
152 150 0
151 151 0
153 150 0
151 150 0
151 150 0
152 151 0
153 150 0
155 152 0
154 151 0
151 150 0
153 150 0
152 151 0
154 152 0
154 151 0
153 151 0
151 150 0
153 151 0
151 150 0
153 151 0
151 149 0
152 150 0
153 151 0
152 151 0
156 153 0
152 150 0
152 151 0
152 150 0
153 151 0
154 151 0
153 150 0
155 151 0
153 151 0
155 152 0
152 150 0
155 152 25
154 152 25
154 151 51
155 152 36
155 152 44
156 153 44
155 152 51
155 152 51
158 154 57
155 152 36
158 154 80
157 153 62
157 153 44
159 154 76
160 156 80
158 153 67
156 153 51
161 156 88
159 155 72
158 155 84
158 154 67
158 154 72
162 157 102
164 158 108
164 158 108
159 155 80
162 157 102
162 157 108
159 154 84
163 158 111
164 158 105
165 159 122
162 156 98
166 159 108
168 161 124
167 160 132
191 210 144
185 206 124
183 204 114
181 203 108
182 203 102
181 203 114
181 203 102
178 200 72
178 201 88
177 200 80
179 201 84
179 201 84
178 201 90
177 200 72
180 202 84
178 200 80
177 200 67
177 200 72
178 200 76
179 202 88
178 201 82
175 198 62
177 200 72
177 200 62
177 200 67
177 199 62
176 199 72
177 200 72
176 199 67
177 200 80
172 197 54
174 198 51
176 200 69
176 200 78
172 198 57
176 199 67
175 198 44
176 199 80
173 197 51
177 200 76
176 199 72
175 199 76
177 199 62
175 199 67
176 199 62
177 200 72
176 199 51
177 200 72
173 197 57
175 199 62
177 199 67
176 199 57
176 199 67
175 198 62
174 198 67
175 199 76
176 199 67
177 200 84
175 199 67
174 198 44
173 197 44
175 199 67
174 198 57
175 198 62
175 198 72
175 199 76
174 198 62
177 201 91
172 197 62
177 200 80
176 199 57
174 197 44
175 198 57
176 200 80
175 198 67
173 198 72
175 199 67
175 199 76
176 199 67
173 198 57
174 198 51
172 197 72
176 200 84
174 197 51
174 198 57
174 198 67
174 198 72
175 199 67
175 199 76
175 198 62
176 199 76
176 199 57
175 199 84
172 197 57
173 198 57
175 199 57
173 197 57
174 198 67
175 199 72
175 199 76
173 197 67
175 199 67
174 197 80
173 198 67
176 198 67
175 198 67
175 199 84
172 197 51
174 198 62
172 197 62
172 197 67
174 198 72
176 199 72
175 198 95
168 194 57
173 197 84
165 193 44
167 196 62
172 199 93
170 196 67
169 197 67
171 198 78
162 195 67
165 195 54
169 198 86
170 198 80
172 198 67
176 201 103
169 198 69
174 200 86
172 201 102
171 198 91
168 200 114
171 201 112
171 200 105
150 188 44
156 190 25
155 190 25
165 194 18
160 193 0
157 193 44
167 196 25
167 194 25
171 197 57
173 199 67
192 212 155
184 206 119
172 196 0
174 197 0
172 196 0
148 195 74
58 186 118
58 187 114
57 185 114
58 186 118
59 187 120
58 187 126
58 186 116
57 184 108
59 189 130
57 185 108
58 187 126
58 187 120
56 184 118
59 188 123
56 182 111
60 189 126
59 188 122
58 188 126
58 186 114
58 185 118
56 183 112
59 189 131
60 190 130
58 186 119
58 187 126
56 183 111
57 185 116
58 187 118
58 187 122
57 185 115
57 183 105
56 183 114
58 187 126
58 187 118
57 185 109
58 187 123
59 187 122
59 187 126
59 188 123
59 187 133
60 190 130
59 188 122
59 189 127
58 186 118
58 187 119
58 187 130
58 185 115
59 188 126
59 187 122
57 187 118
60 190 134
59 187 128
58 185 120
58 186 127
59 186 127
58 184 119
59 186 124
59 188 127
58 185 122
58 186 122
58 184 118
59 187 132
58 187 130
58 185 130
56 182 116
58 186 130
58 185 114
57 181 120
58 186 124
58 185 124
59 187 126
58 184 116
59 186 127
55 177 109
56 180 114
58 183 123
57 182 119
57 181 118
55 176 108
57 180 118
56 178 116
54 174 105
55 173 115
57 180 128
54 172 105
55 176 116
54 172 103
56 177 116
58 179 130
55 170 105
56 174 122
54 170 114
54 167 111
53 166 106
51 165 95
52 162 107
50 157 106
48 153 92
152 187 54
174 197 0
172 196 0
173 196 0
152 164 57
157 151 91
148 149 36
128 140 42
104 127 39
85 115 36
59 106 50
48 107 61
38 106 69
37 105 46
37 107 54
39 107 62
39 112 74
42 115 83
39 106 72
40 112 61
40 112 81
44 119 80
43 119 87
45 125 95
49 123 80
51 118 85
53 123 70
56 118 59
70 132 82
87 131 62
84 132 69
99 134 62
100 133 54
105 138 59
116 135 40
129 142 31
131 141 18
139 145 0
138 145 0
141 146 0
138 145 0
140 146 0
139 144 0
138 146 0
141 145 0
143 147 0
141 146 0
145 146 0
141 147 0
149 149 0
147 148 0
142 146 0
147 147 0
142 145 0
145 147 0
148 148 0
148 149 0
148 149 0
150 150 0
151 148 0
148 149 0
147 149 0
147 147 0
147 149 0
148 149 0
145 148 0
150 150 0
152 151 0
150 149 0
152 151 0
151 149 0
148 148 0
148 148 0
152 151 0
150 150 0
152 150 0
150 149 0
152 151 0
152 151 0
152 151 0
150 150 0
150 149 0
151 150 0
150 149 0
151 151 0
152 150 0
153 150 0
153 151 0
151 151 0
153 150 0
150 148 0
154 152 0
154 151 0
153 151 0
152 150 0
151 150 0
153 151 0
154 152 0
153 151 0
154 151 0
154 151 0
155 152 0
154 151 0
153 151 0
153 151 0
153 150 0
153 151 0
154 151 0
154 151 0
152 150 0
156 152 0
155 152 0
155 151 0
156 152 0
155 152 0
155 152 0
153 151 0
153 150 0
152 151 0
155 152 0
153 151 0
154 152 0
155 151 0
155 151 36
154 152 0
156 153 36
156 153 36
154 150 25
155 153 25
157 153 67
154 152 36
155 152 36
158 154 67
158 155 67
160 155 76
159 154 72
158 154 72
159 155 72
158 154 80
156 153 57
158 154 67
163 158 105
161 156 80
162 157 91
162 157 98
164 158 108
159 155 80
160 155 91
162 157 91
160 155 88
161 157 102
178 201 88
186 207 124
182 203 105
183 204 108
185 206 116
189 209 139
181 203 105
183 205 108
181 203 98
181 203 98
179 202 90
180 202 91
179 201 88
180 202 98
178 200 84
178 200 80
177 199 67
179 202 93
180 202 102
177 200 76
176 199 69
179 201 84
176 199 57
178 201 88
174 198 69
176 200 65
176 200 74
176 200 67
175 199 67
176 200 74
175 199 65
173 197 62
176 199 76
175 199 78
175 199 72
177 200 80
175 198 62
176 199 44
174 198 54
177 200 80
175 199 62
175 199 57
176 199 72
175 199 72
176 199 67
175 198 62
176 200 72
175 198 67
175 198 57
175 199 62
176 199 57
176 199 72
176 199 76
173 197 57
174 198 44
174 198 51
175 198 51
176 199 62
175 199 72
175 198 51
174 198 67
174 198 44
174 199 57
175 199 67
175 199 72
174 198 62
174 198 67
175 199 72
176 199 76
174 199 80
176 199 76
177 200 80
174 198 51
176 199 67
177 200 88
173 198 72
174 198 76
176 199 72
174 198 57
176 199 76
175 199 67
174 198 67
175 198 62
174 199 80
176 199 72
175 198 62
174 199 91
175 199 67
174 198 76
174 198 62
171 197 76
176 199 67
174 198 67
173 198 72
176 198 36
174 198 72
173 197 57
175 199 88
172 197 72
174 197 51
173 198 76
173 197 62
173 197 51
173 198 67
172 197 57
172 197 67
172 197 72
173 198 76
176 200 91
170 195 36
170 194 51
169 195 57
170 196 62
169 196 67
172 197 67
171 196 51
170 194 44
166 192 44
173 199 74
174 198 80
169 195 57
169 197 72
174 199 78
167 197 86
170 197 40
174 201 106
171 198 69
166 199 103
171 198 88
170 200 103
170 200 103
171 201 109
172 201 115
169 200 91
161 194 67
149 188 44
156 189 18
161 193 18
156 193 31
157 193 44
163 196 40
165 193 18
171 197 44
172 197 36
168 195 25
190 209 144
175 199 67
175 198 0
174 197 0
173 197 0
169 196 31
60 182 103
58 188 122
58 185 114
57 185 118
59 187 119
57 185 119
56 181 102
57 185 115
58 187 126
59 188 123
59 188 123
58 187 120
58 186 116
57 185 119
58 187 120
57 185 119
58 188 127
60 189 126
58 187 124
59 186 114
59 187 119
56 183 105
59 188 124
59 189 131
58 188 127
57 185 116
57 186 116
60 188 122
58 186 118
59 189 124
57 186 116
59 187 126
58 186 126
59 188 122
59 187 124
59 188 130
58 187 120
57 183 106
58 186 127
58 186 118
57 183 118
60 190 132
58 185 127
58 187 126
57 184 112
59 190 131
57 186 118
57 184 116
58 186 123
58 185 119
60 189 124
59 186 122
58 186 120
58 187 124
59 186 124
59 186 119
58 185 116
58 186 120
59 186 123
58 186 127
59 189 128
58 185 114
59 186 128
58 184 120
58 184 115
58 185 111
57 183 128
58 186 126
58 184 123
56 181 103
58 185 122
57 183 124
57 181 120
57 182 115
59 185 119
57 182 116
57 181 118
57 181 112
55 177 108
56 179 112
56 177 114
58 182 120
57 179 126
56 177 108
55 178 109
56 177 108
52 168 98
57 181 122
55 171 106
54 168 103
56 173 124
53 168 112
54 172 109
55 172 116
54 170 110
51 160 97
51 161 111
60 153 79
160 189 36
172 196 0
174 197 0
173 197 0
167 188 44
148 146 84
150 151 0
137 145 25
107 126 25
96 121 41
92 117 44
59 109 42
53 107 60
36 102 52
36 102 61
38 107 65
38 108 68
36 105 47
40 115 59
38 111 57
38 111 68
43 119 82
46 121 90
42 113 72
53 126 82
53 123 77
69 126 69
77 128 68
67 123 67
70 126 47
92 129 54
104 135 40
101 134 47
109 133 25
119 137 25
121 138 25
126 138 0
126 141 0
133 143 0
135 142 0
132 140 0
129 141 0
133 142 0
138 143 0
139 147 0
131 142 0
135 144 0
141 146 0
140 146 0
145 146 0
144 147 0
143 147 0
147 147 0
143 148 0
145 148 0
145 147 0
144 147 0
144 147 0
145 146 0
145 148 0
152 150 0
154 152 0
150 150 0
150 150 0
149 148 0
149 149 0
146 146 0
150 148 0
147 148 0
152 151 0
147 149 0
153 151 0
150 150 0
151 150 0
150 150 0
148 148 0
152 150 0
148 149 0
146 147 0
151 150 0
150 148 0
152 149 0
151 150 0
150 149 0
153 151 0
152 150 0
152 150 0
151 150 0
152 151 0
152 150 0
153 151 0
153 152 0
150 148 0
151 150 0
152 151 0
154 151 0
149 149 0
154 152 0
153 151 0
152 150 0
153 151 0
152 151 0
151 151 0
152 150 0
154 152 0
153 150 0
153 151 0
154 151 0
153 151 0
155 151 0
154 151 0
151 150 0
154 151 0
153 151 0
155 152 0
152 151 0
154 152 0
154 152 0
153 151 0
153 152 0
153 151 0
153 151 0
154 152 0
154 151 0
155 152 0
154 152 0
153 151 0
153 151 0
154 151 0
155 152 0
154 151 0
153 150 0
154 150 25
155 152 25
155 152 36
155 152 36
155 152 36
157 153 57
158 154 67
158 154 62
154 152 36
155 152 57
159 154 72
159 155 80
160 156 80
158 154 76
157 153 57
163 157 95
161 156 91
164 158 102
164 158 108
182 203 105
180 202 84
189 209 137
186 207 127
184 205 116
184 205 116
186 206 124
181 203 95
176 200 84
183 204 102
178 201 82
177 200 76
179 201 95
177 200 67
178 200 76
178 201 76
176 200 74
177 200 62
178 200 76
176 200 67
179 201 80
176 199 76
176 199 65
179 202 95
172 197 40
176 199 59
175 199 78
175 200 86
179 201 82
176 199 76
178 201 84
174 198 44
172 197 51
177 200 88
176 199 62
178 201 84
175 199 62
178 201 88
175 198 51
179 201 72
178 200 72
174 198 67
176 199 76
175 198 44
176 199 62
176 199 57
177 200 84
177 199 57
174 198 62
173 197 62
177 200 80
178 200 76
176 199 72
175 198 72
173 197 76
176 199 57
175 199 67
174 198 51
174 198 57
176 199 76
175 199 67
174 198 76
173 198 72
174 198 62
173 197 62
175 199 84
175 199 72
175 199 72
172 196 36
175 199 80
176 199 76
175 198 62
173 197 44
173 198 76
174 198 67
174 198 67
174 198 62
173 199 95
176 199 72
173 198 57
174 197 62
174 198 80
173 197 57
172 197 72
173 197 57
172 196 51
174 198 51
174 198 62
174 199 72
171 197 72
173 197 57
173 197 57
173 198 57
174 198 57
175 198 57
172 197 51
176 199 67
172 197 62
172 198 72
174 198 67
172 198 80
176 200 84
173 197 51
173 197 51
174 198 62
173 197 76
172 196 44
174 198 62
173 198 67
170 196 67
172 196 51
171 197 51
171 197 76
173 198 80
170 197 62
171 196 62
169 196 57
170 196 62
173 197 84
172 196 62
171 196 69
169 196 78
168 196 54
166 196 57
160 193 57
167 197 72
168 197 69
169 199 98
168 198 86
169 197 97
176 201 106
178 203 122
170 199 84
163 197 91
145 186 54
154 188 25
153 190 25
155 189 25
159 193 31
161 193 36
162 194 25
171 196 25
176 200 72
170 196 36
177 200 67
191 211 150
172 196 0
174 197 0
172 196 0
172 196 0
174 197 0
110 189 92
56 181 100
59 189 124
57 187 123
58 186 114
59 188 124
58 186 109
59 188 122
57 184 114
59 188 126
57 184 111
58 187 120
58 186 114
57 185 114
59 188 124
59 187 120
57 185 116
59 190 130
57 186 126
59 187 119
58 186 118
58 184 115
58 187 122
57 186 119
60 190 128
57 184 108
57 184 115
58 187 126
58 186 115
59 188 118
60 191 133
58 188 124
58 187 124
59 187 128
59 189 124
57 185 115
58 186 122
59 188 128
59 187 123
58 186 118
59 189 126
57 185 116
57 183 109
59 186 120
58 185 116
56 182 112
57 184 118
57 184 116
58 186 120
58 186 120
59 187 114
58 185 124
59 189 132
57 185 114
59 188 124
58 186 120
58 187 127
58 184 112
58 185 116
58 187 128
58 186 119
57 182 116
57 183 118
57 185 120
58 186 126
57 184 116
58 185 116
58 185 115
57 182 105
58 183 119
57 184 122
58 184 118
57 183 123
57 182 118
57 181 115
57 183 116
55 175 108
57 181 115
56 178 114
57 180 120
56 176 118
55 176 108
58 185 131
55 174 106
56 179 122
56 175 108
56 177 112
56 177 112
54 171 105
55 174 117
56 175 124
52 167 103
53 170 110
51 165 103
52 162 103
52 160 104
49 153 95
104 165 80
171 196 0
176 198 0
171 196 0
173 196 0
174 197 0
144 146 57
145 146 36
148 149 0
133 141 18
119 131 36
96 126 49
73 119 65
71 117 40
48 108 56
46 107 40
43 105 46
34 100 56
41 107 59
42 111 72
39 110 59
37 111 69
47 114 70
49 113 65
52 116 74
54 119 66
61 122 69
65 120 67
78 126 69
79 123 47
76 126 67
87 124 36
92 130 44
96 127 25
111 135 36
118 138 25
130 140 25
130 141 0
130 142 0
125 138 0
130 140 0
133 141 0
133 140 0
137 145 0
131 142 0
136 142 0
136 143 0
136 144 0
138 143 0
140 146 0
146 148 0
140 145 0
141 144 0
136 145 0
143 145 0
143 146 0
145 147 0
144 145 0
148 148 0
150 149 0
148 148 0
143 146 0
147 147 0
145 147 0
148 148 0
147 148 0
149 149 0
149 149 0
148 149 0
148 147 0
150 149 0
152 151 0
151 151 0
147 149 0
153 150 0
152 150 0
153 150 0
152 150 0
151 149 0
149 148 0
154 151 0
152 151 0
151 149 0
149 149 0
152 150 0
149 149 0
151 150 0
151 150 0
154 150 0
152 150 0
150 149 0
152 150 0
152 150 0
154 150 0
149 149 0
152 148 0
152 149 0
153 151 0
153 151 0
154 152 0
154 151 0
152 151 0
153 151 0
153 151 0
152 150 0
154 150 0
154 151 0
153 151 0
153 150 0
153 151 0
151 150 0
153 151 0
152 150 0
152 150 0
156 152 0
152 151 0
153 152 0
155 152 0
151 151 0
153 151 0
155 152 0
152 150 0
153 150 0
153 150 0
153 151 0
155 151 0
153 151 0
154 151 0
153 150 0
155 152 0
154 151 0
153 150 0
154 151 0
152 149 0
154 151 0
154 152 0
155 152 0
156 152 0
155 152 0
151 150 0
155 152 0
155 153 44
154 152 0
157 153 57
159 154 72
157 153 62
157 153 44
157 153 57
159 155 72
160 155 76
159 155 76
159 155 67
181 203 105
182 204 105
184 205 111
183 204 111
189 209 137
189 209 141
181 203 105
180 202 95
182 203 88
177 200 80
179 201 76
179 202 95
179 201 84
177 201 88
177 200 80
181 203 98
176 199 72
176 200 84
177 201 93
177 200 80
180 202 95
175 198 51
178 201 76
176 199 76
175 199 65
176 200 74
177 200 67
177 200 76
177 200 80
177 201 76
175 200 76
174 199 78
175 198 44
178 201 80
176 198 62
174 199 69
177 200 76
175 199 65
176 199 57
174 198 62
176 199 62
175 198 62
177 200 67
175 199 62
176 199 62
174 198 62
174 198 67
177 199 67
176 199 62
175 198 44
176 199 62
176 200 84
174 198 51
175 199 62
174 197 72
174 198 76
173 198 62
173 198 67
175 198 67
175 199 76
177 200 80
171 196 51
175 199 80
177 199 62
175 199 62
175 198 72
173 198 57
173 197 57
174 198 62
173 198 51
173 198 62
175 198 67
175 199 88
176 199 80
175 199 80
175 198 57
173 197 57
175 198 67
172 196 62
175 198 62
174 198 67
171 196 51
172 197 57
175 199 84
176 199 72
173 198 62
174 198 67
174 198 44
172 198 67
174 198 62
173 198 62
174 197 51
175 198 51
173 197 67
174 198 57
173 198 76
173 197 62
172 197 67
173 197 67
176 200 72
176 200 80
170 196 62
171 196 57
170 195 72
174 198 67
172 197 76
168 195 72
172 197 57
170 196 76
171 196 72
174 198 57
171 197 80
172 197 76
168 194 62
169 195 67
172 197 91
174 198 67
171 196 57
169 195 80
167 195 76
169 194 62
172 198 84
169 195 80
166 195 78
173 199 86
167 195 86
170 199 95
168 196 74
165 196 78
168 197 84
169 197 103
169 198 76
161 193 67
158 192 62
147 186 25
146 186 25
156 190 18
159 191 0
159 192 36
160 192 0
167 195 0
170 195 36
169 195 44
173 198 51
186 208 137
176 200 76
175 198 0
174 197 0
172 196 0
176 198 0
174 197 0
148 191 51
56 182 103
59 186 115
57 183 108
56 181 108
57 184 114
58 186 113
56 182 98
56 184 114
59 186 115
58 186 115
58 186 114
56 183 105
57 185 112
58 187 128
58 186 114
58 185 105
58 188 124
59 188 118
59 190 137
59 188 119
59 189 124
59 187 118
57 186 119
59 189 130
58 185 106
59 188 119
58 186 119
57 185 120
59 187 119
58 186 114
58 185 115
56 182 109
59 187 120
60 191 136
58 188 124
58 185 114
59 188 128
57 187 130
59 187 128
59 189 132
58 186 123
58 186 128
57 185 119
57 183 105
59 187 122
59 188 124
59 188 126
55 181 106
59 187 126
57 184 115
58 186 119
58 185 116
58 185 114
58 185 115
56 182 109
57 186 127
58 185 122
57 184 112
58 187 126
57 184 112
58 184 118
56 181 118
59 185 123
58 186 122
58 184 116
57 182 112
59 186 124
58 184 119
57 185 130
56 180 119
56 180 112
57 183 120
58 184 120
58 184 123
56 178 111
55 178 115
59 186 128
57 181 116
57 181 112
58 185 122
56 178 114
58 180 124
57 180 122
57 180 123
56 176 111
56 176 122
54 176 103
55 175 110
56 177 114
56 173 114
53 168 111
51 164 99
54 168 114
50 157 90
49 154 82
48 151 88
152 183 42
173 197 0
173 197 0
170 195 0
173 197 0
174 197 0
165 180 57
140 138 25
145 147 0
141 144 0
124 137 25
106 126 18
100 128 32
82 117 42
72 110 38
69 116 49
59 114 59
53 104 45
59 112 65
47 110 61
56 117 57
44 108 63
43 108 59
60 115 72
50 109 75
58 116 54
67 121 65
60 117 66
73 120 59
81 120 38
96 127 40
91 127 62
103 133 57
101 129 47
103 134 47
110 130 0
126 139 18
117 136 0
125 137 0
116 133 0
131 139 0
134 143 0
136 144 0
135 143 0
134 140 0
138 144 0
138 144 0
135 142 0
139 144 0
139 145 0
134 141 0
140 146 0
134 141 0
137 142 0
145 145 0
141 145 0
142 145 0
142 146 0
144 148 0
141 146 0
148 148 0
150 148 0
144 146 0
149 149 0
145 146 0
148 149 0
142 146 0
149 149 0
151 148 0
148 147 0
148 147 0
150 149 0
148 148 0
145 148 0
149 148 0
150 148 0
150 149 0
147 147 0
150 150 0
152 150 0
150 149 0
148 148 0
148 149 0
148 148 0
145 147 0
153 150 0
152 150 0
151 149 0
149 148 0
153 150 0
150 149 0
153 151 0
151 150 0
151 149 0
154 151 0
154 151 0
154 150 0
152 151 0
153 150 0
152 150 0
151 148 0
153 150 0
154 151 0
152 151 0
154 151 0
151 151 0
152 151 0
150 149 0
153 150 0
152 150 0
155 152 0
152 149 0
152 150 0
156 151 0
155 152 0
153 151 0
152 150 0
152 151 0
153 150 0
152 150 0
153 151 0
152 150 0
152 150 0
153 151 0
152 149 0
154 151 0
154 151 0
150 150 0
155 152 0
153 151 0
153 150 0
156 152 0
155 151 0
154 151 0
153 151 0
153 150 0
154 152 0
155 152 0
152 150 0
154 151 0
154 151 0
153 150 0
154 152 0
154 150 0
153 150 0
154 151 0
156 153 44
157 152 51
156 153 36
158 154 62
159 155 72
158 154 57
182 204 116
183 204 114
185 206 119
177 200 84
182 204 111
185 206 122
182 204 105
184 206 122
181 203 102
179 202 88
179 202 102
180 203 98
181 203 98
177 201 80
177 201 82
177 201 90
179 201 84
179 201 76
179 201 84
180 202 98
175 198 57
174 198 57
178 201 88
177 200 76
175 199 76
177 200 67
175 199 69
174 197 51
176 200 88
173 198 47
175 199 72
172 197 36
178 201 80
175 199 59
175 199 59
175 200 76
175 199 62
176 199 72
177 200 76
175 198 57
178 201 88
178 200 80
175 198 62
174 198 72
175 198 67
174 198 67
175 199 72
176 199 76
175 199 67
177 200 88
175 199 67
174 198 67
177 199 62
177 200 76
174 198 51
177 200 67
173 197 51
174 198 67
173 197 44
172 196 25
174 198 62
172 197 62
172 197 57
175 199 67
172 197 57
175 198 57
176 199 88
177 200 76
174 199 76
177 199 67
172 197 36
176 199 67
174 198 84
174 198 51
174 198 57
175 199 91
175 199 80
173 198 67
174 198 80
172 198 72
171 197 57
172 197 67
173 197 57
174 199 72
174 199 76
177 200 95
175 199 62
174 199 91
174 198 62
173 198 57
172 198 80
174 198 67
173 197 57
173 197 72
175 199 76
174 198 72
174 198 76
173 197 44
174 198 76
172 197 51
171 197 72
172 197 72
171 197 72
174 199 76
170 196 72
174 199 80
173 197 62
174 198 72
168 194 62
168 196 76
168 195 72
166 194 62
173 198 67
171 196 57
169 196 51
173 198 62
173 198 80
168 195 67
171 197 88
172 198 80
168 194 57
169 196 76
170 195 76
172 197 88
168 196 82
174 200 95
173 199 86
169 197 91
165 194 69
164 194 76
167 198 93
163 194 84
167 197 91
141 185 36
147 185 0
149 190 36
150 189 18
151 188 18
166 193 0
158 190 0
169 195 0
168 195 57
173 196 25
175 198 57
188 208 134
173 197 0
174 197 0
175 197 0
173 196 0
176 198 0
170 195 0
171 196 0
67 185 105
57 184 112
57 183 109
58 186 123
58 186 115
57 185 112
57 186 112
58 185 114
55 181 95
59 188 124
58 186 111
56 182 112
59 188 120
57 186 119
57 184 115
58 187 118
57 184 111
59 187 119
58 184 103
57 185 120
58 186 116
58 187 126
58 186 120
58 186 123
58 185 109
59 187 127
60 190 127
58 185 124
59 188 126
57 186 120
58 185 115
57 185 127
56 182 111
59 189 126
56 181 95
58 185 122
58 189 128
58 187 118
58 187 120
60 191 143
59 188 122
57 185 116
59 186 122
56 181 111
57 184 115
59 189 124
57 184 115
58 184 115
59 187 123
58 185 116
59 187 119
59 188 131
56 182 111
58 185 119
58 186 118
57 185 118
58 184 116
56 184 112
57 184 114
57 183 119
57 183 109
58 183 112
55 183 114
58 184 114
57 181 116
57 184 118
57 181 111
56 179 106
57 182 111
57 182 115
56 181 108
57 181 116
56 179 114
57 181 116
58 184 116
57 180 115
57 181 112
55 179 106
57 182 118
57 180 116
56 176 118
56 179 116
56 175 120
54 170 103
53 169 103
54 175 106
55 175 98
55 174 120
53 166 99
55 171 109
54 171 104
51 162 99
53 166 97
52 162 100
49 157 98
67 154 79
171 195 0
171 196 0
174 197 0
173 197 0
172 196 0
171 196 0
169 192 25
137 142 25
145 146 0
142 146 0
141 144 0
123 136 18
98 122 27
84 115 31
81 117 39
77 110 27
59 107 28
56 101 25
51 104 45
50 105 28
55 108 57
59 108 47
55 105 47
55 109 54
54 115 49
64 112 45
64 112 47
73 118 44
82 120 40
86 118 36
88 123 44
92 127 44
98 127 36
106 129 36
116 134 0
118 133 0
118 133 0
111 129 0
129 138 0
120 136 0
124 138 0
128 140 0
125 140 0
132 140 0
140 144 0
139 144 0
136 144 0
139 143 0
135 142 0
142 145 0
136 141 0
148 148 0
139 145 0
141 144 0
141 145 0
145 147 0
146 147 0
149 148 0
146 147 0
145 146 0
142 145 0
141 144 0
145 145 0
144 146 0
145 146 0
143 146 0
147 147 0
145 145 0
149 149 0
142 145 0
148 147 0
148 149 0
150 149 0
152 150 0
152 150 0
146 146 0
148 148 0
149 148 0
148 148 0
150 148 0
150 150 0
150 149 0
154 151 0
149 149 0
149 149 0
151 149 0
152 151 0
151 150 0
147 149 0
152 150 0
152 149 0
150 148 0
153 150 0
150 147 0
152 149 0
149 148 0
154 152 0
150 149 0
148 148 0
151 150 0
149 146 0
151 150 0
154 151 0
149 148 0
150 149 0
154 151 0
150 148 0
152 149 0
153 151 0
152 151 0
151 150 0
153 149 0
154 151 0
153 150 0
154 152 0
155 152 0
153 150 0
152 149 0
154 151 0
153 151 0
154 152 0
153 151 0
153 149 0
154 151 0
152 150 0
155 152 0
155 152 0
155 152 0
153 151 0
154 151 0
153 151 0
152 150 0
153 150 0
155 152 0
154 152 0
152 151 0
154 152 0
154 151 0
152 150 0
153 150 0
156 152 0
153 151 0
154 151 0
155 152 0
154 151 0
155 152 0
154 151 0
154 152 0
154 152 0
153 150 0
154 151 0
156 153 36
179 201 88
182 203 98
182 204 108
179 202 95
180 202 95
187 208 130
180 202 111
186 207 122
182 203 95
181 203 98
178 201 80
181 204 109
180 202 102
179 201 84
179 201 88
178 201 80
177 200 74
176 199 62
177 200 80
178 201 80
174 198 44
177 200 67
180 202 98
175 199 72
174 198 74
175 198 62
176 199 72
173 198 76
175 199 76
176 199 72
177 200 72
176 199 80
176 200 80
176 199 67
176 199 72
176 199 67
177 200 88
175 199 57
175 199 76
177 199 51
176 199 62
177 199 57
176 199 84
175 199 62
177 200 88
174 199 72
176 199 72
175 198 57
176 200 72
174 198 36
176 199 84
175 199 84
174 198 51
175 198 67
174 197 36
174 198 67
174 198 76
173 197 44
174 198 62
176 199 76
174 198 62
172 197 62
175 198 62
175 198 67
173 198 57
174 197 36
176 199 80
174 198 72
174 198 62
173 197 62
174 198 67
178 200 67
175 199 67
176 199 67
173 198 57
173 198 72
174 197 44
174 198 51
175 199 57
172 196 57
174 198 80
175 198 25
175 200 91
173 198 62
175 199 67
175 199 67
174 198 51
173 197 57
173 198 62
171 197 67
174 198 51
174 198 51
174 198 51
171 198 80
173 198 67
173 198 57
173 197 57
172 197 72
174 198 72
172 197 72
172 197 88
173 197 67
174 199 80
167 194 57
172 197 51
170 196 44
171 197 62
172 196 51
171 197 84
171 197 62
172 197 84
172 198 67
171 197 88
172 197 57
171 197 62
172 197 76
173 197 67
169 195 62
170 196 88
168 194 44
172 197 88
171 197 67
172 197 62
168 195 72
162 191 80
165 193 88
165 195 84
162 193 84
171 198 88
170 198 102
171 199 105
164 195 82
152 188 51
146 187 31
144 184 0
148 188 18
157 191 0
162 192 0
161 192 0
166 193 0
166 193 0
170 198 62
173 198 57
182 204 111
177 200 95
174 197 0
173 197 0
171 196 0
175 197 0
172 196 0
173 197 0
173 197 0
118 189 75
55 180 93
56 182 105
58 185 111
55 182 108
57 184 104
56 182 111
56 183 109
59 188 122
57 184 111
57 183 116
57 184 109
57 186 116
57 186 123
58 185 111
57 184 109
57 185 109
57 185 105
57 183 111
58 186 119
56 184 112
57 185 116
56 183 108
58 187 114
57 185 116
55 180 100
58 186 111
57 184 105
58 186 120
60 190 132
55 180 100
56 185 116
58 185 114
57 185 123
58 187 120
59 186 122
58 186 123
58 185 109
59 188 130
58 186 124
58 186 118
59 188 123
59 187 124
58 186 122
58 186 112
56 182 109
57 185 115
58 186 119
56 183 119
58 185 114
57 186 126
58 186 128
58 187 133
57 183 105
59 188 123
58 185 115
57 184 114
56 181 116
58 184 119
57 182 118
56 182 120
57 184 116
57 183 118
56 179 108
56 182 119
56 180 119
56 180 109
58 185 127
56 178 108
58 184 123
57 183 116
56 180 115
56 180 108
58 184 119
57 182 116
56 180 118
55 176 105
57 181 119
56 179 105
56 180 115
55 176 100
56 176 109
54 174 102
56 179 116
54 173 111
52 167 102
54 172 109
54 171 105
53 168 101
55 173 108
54 174 114
53 170 100
51 162 95
54 168 111
49 154 99
122 176 63
173 196 0
174 196 0
172 196 0
170 195 0
173 196 0
173 196 0
171 196 0
157 172 44
143 143 25
142 145 0
141 144 0
128 139 0
122 134 33
107 126 18
91 116 31
84 112 28
72 115 49
66 110 25
56 111 36
58 106 40
50 99 47
53 106 44
51 103 57
49 104 36
50 104 40
65 112 51
65 111 31
76 118 62
83 122 44
85 122 59
90 122 31
98 126 31
106 131 31
104 129 18
107 122 0
110 131 0
103 128 0
119 133 0
120 134 0
123 135 0
133 142 0
131 141 0
131 139 0
134 141 0
135 140 0
129 142 0
127 139 0
133 141 0
138 144 0
130 139 0
141 144 0
141 143 0
143 145 0
143 146 0
137 143 0
143 143 0
138 142 0
143 146 0
144 147 0
143 147 0
142 147 0
144 146 0
139 142 0
146 147 0
149 148 0
148 147 0
144 146 0
146 146 0
147 146 0
151 149 0
148 148 0
149 148 0
146 148 0
149 148 0
145 146 0
149 149 0
143 143 0
149 149 0
147 148 0
148 148 0
149 147 0
152 149 0
151 149 0
152 149 0
149 148 0
151 148 0
151 149 0
146 147 0
149 148 0
149 149 0
147 147 0
150 149 0
148 148 0
151 149 0
151 149 0
152 150 0
153 150 0
153 151 0
151 151 0
154 150 0
151 149 0
150 149 0
151 149 0
151 148 0
155 151 0
151 151 0
150 149 0
153 150 0
153 150 0
149 149 0
149 148 0
154 151 0
151 150 0
152 151 0
154 150 0
154 149 0
155 151 0
154 152 0
154 151 0
155 151 0
155 152 0
154 151 0
153 150 0
154 150 0
153 150 0
154 151 0
153 151 0
154 151 0
152 150 0
153 150 0
152 150 0
153 151 0
154 152 0
155 152 0
155 151 0
152 149 0
153 151 0
151 149 0
153 150 0
153 151 0
155 152 0
154 151 0
154 150 0
152 150 0
153 150 0
152 151 0
152 150 0
154 151 0
154 151 0
155 152 0
155 152 0
155 152 0
178 201 76
179 201 98
181 203 91
180 202 84
177 200 67
181 203 95
181 203 105
183 205 114
184 205 114
183 204 102
181 203 105
180 202 98
180 202 95
178 201 103
180 202 91
177 200 67
178 200 62
177 200 80
177 200 72
177 201 80
177 200 62
179 201 88
177 200 80
174 198 67
174 198 62
175 199 72
178 201 76
176 200 82
177 200 84
171 196 44
173 198 51
176 200 74
175 199 67
176 200 86
176 199 67
175 200 84
176 199 72
176 200 90
175 199 69
175 199 72
178 201 80
175 199 72
175 199 76
173 197 44
174 198 51
177 200 72
174 198 67
176 199 62
174 198 62
174 198 44
175 199 76
176 199 72
173 198 62
175 199 76
173 198 62
174 198 67
174 198 57
176 200 84
174 199 76
173 198 88
173 198 67
175 198 57
175 199 67
175 199 72
174 197 44
176 199 76
173 198 67
173 198 57
172 197 62
172 197 67
174 199 72
174 199 76
173 197 57
175 199 95
171 196 57
174 198 62
175 199 76
176 199 72
173 197 51
175 199 72
172 198 80
173 198 67
172 197 62
173 197 51
170 195 57
174 198 67
172 197 57
174 197 51
172 197 62
174 198 62
173 198 72
173 197 25
173 197 62
173 198 80
172 198 84
173 198 67
173 197 62
172 198 67
173 198 62
169 195 57
172 197 67
171 197 67
172 198 62
171 196 72
171 196 51
175 199 84
173 198 72
173 197 62
172 197 62
171 196 57
171 197 62
174 198 51
169 196 72
176 200 88
169 195 51
171 196 44
172 198 76
166 194 62
164 194 76
170 196 72
172 198 105
171 197 72
166 194 51
167 195 80
166 193 44
171 197 95
170 197 84
170 197 102
172 199 111
163 193 67
165 195 78
156 189 72
140 183 0
143 184 0
135 181 0
150 188 0
153 190 0
161 192 0
165 193 0
160 190 0
169 195 44
172 197 57
171 197 36
188 208 134
173 196 0
171 196 0
171 196 0
171 196 0
171 194 0
170 196 0
173 196 0
172 195 0
162 194 25
59 184 112
58 186 116
56 182 106
56 183 112
55 181 100
55 182 111
59 188 130
56 185 115
57 185 115
57 184 111
57 186 118
57 185 108
56 183 105
58 185 116
58 188 122
56 182 105
57 185 119
58 187 123
56 182 112
57 183 105
58 185 109
58 187 119
57 184 108
59 187 122
57 184 106
58 185 118
59 189 126
58 185 119
58 185 108
55 183 106
57 185 118
57 182 102
59 188 122
57 185 111
58 186 111
57 182 103
55 180 109
58 186 118
55 181 102
57 183 109
58 187 124
57 185 118
59 189 124
57 183 116
59 188 124
59 187 122
57 183 112
57 184 112
57 186 116
57 185 119
59 187 123
57 185 114
55 179 106
57 184 115
58 185 116
58 183 116
57 182 105
57 184 112
58 183 114
56 183 116
57 183 109
58 187 119
58 185 127
57 183 108
56 178 102
59 186 122
59 186 128
58 184 128
55 177 108
58 184 122
57 183 119
57 181 122
55 178 102
56 179 109
56 178 115
55 179 116
59 184 122
56 176 108
56 179 111
55 175 112
55 177 109
55 173 116
55 175 112
56 175 103
54 171 100
55 171 112
54 171 110
54 170 103
54 169 110
51 163 93
52 164 97
52 163 113
47 149 72
49 146 92
158 189 25
170 195 0
173 197 0
172 195 0
172 197 0
172 195 0
171 196 0
172 196 0
171 194 25
138 144 44
144 144 0
140 142 0
137 142 0
120 134 0
112 129 0
93 120 25
96 119 31
85 114 20
92 115 18
73 113 47
58 107 31
63 105 18
61 102 40
69 105 25
66 112 49
67 103 31
75 111 36
67 111 31
79 113 36
69 115 36
103 127 47
84 118 25
96 120 25
100 121 18
94 117 0
107 125 0
106 127 0
112 131 0
114 129 0
122 135 0
122 133 0
124 139 0
121 133 0
129 139 0
139 145 0
133 142 0
132 139 0
141 143 0
125 138 0
133 142 0
139 145 0
139 142 0
135 143 0
135 142 0
129 138 0
142 146 0
139 143 0
142 144 0
144 146 0
141 145 0
141 143 0
144 146 0
144 147 0
142 145 0
145 148 0
137 142 0
147 147 0
144 145 0
144 145 0
145 144 0
148 148 0
146 147 0
150 149 0
147 147 0
147 147 0
147 147 0
145 147 0
143 144 0
147 147 0
151 149 0
147 147 0
148 148 0
146 145 0
148 148 0
151 149 0
147 146 0
151 149 0
152 149 0
151 150 0
151 149 0
153 149 0
147 148 0
152 150 0
149 149 0
152 149 0
149 148 0
150 149 0
150 150 0
153 149 0
151 150 0
152 150 0
150 149 0
150 149 0
152 150 0
150 149 0
152 150 0
151 148 0
153 151 0
150 149 0
152 149 0
153 151 0
153 150 0
154 152 0
154 150 0
154 151 0
153 150 0
150 148 0
155 152 0
153 150 0
156 152 0
150 150 0
153 151 0
152 150 0
153 151 0
152 150 0
152 150 0
152 149 0
156 152 0
153 150 0
153 150 0
153 151 0
152 150 0
154 151 0
156 152 0
153 151 0
153 151 0
153 149 0
154 152 0
155 151 0
154 152 0
154 152 0
155 152 0
153 151 0
153 151 0
156 152 0
156 151 0
154 152 0
153 150 0
155 152 0
155 152 0
154 152 0
155 152 0
155 152 0
171 196 25
179 201 88
181 203 98
183 204 102
179 202 91
178 200 76
183 205 114
181 203 105
183 205 114
184 206 124
182 204 108
181 203 114
178 201 84
179 202 91
177 200 80
178 201 88
177 201 84
179 201 84
178 201 84
177 200 76
180 202 98
175 199 69
178 201 84
175 199 76
178 201 80
177 199 67
176 199 72
176 200 62
173 197 51
176 199 76
173 197 74
174 198 62
175 199 67
175 199 74
174 198 47
175 199 59
178 200 84
173 197 47
173 198 54
177 200 76
175 199 76
176 199 80
176 200 84
174 198 44
174 198 67
175 199 67
174 197 44
175 199 72
174 198 67
175 199 76
174 198 51
176 199 62
175 198 57
176 200 88
174 198 72
175 199 62
174 198 51
174 198 72
173 197 36
173 197 51
173 198 76
173 198 67
172 197 51
171 197 62
175 199 76
173 197 51
174 198 57
174 197 57
172 197 57
173 197 57
175 198 57
173 198 57
172 198 80
176 200 95
173 198 62
173 198 62
174 199 80
173 198 80
172 197 57
173 197 44
170 195 44
173 198 51
173 197 36
173 198 72
174 198 72
172 196 36
172 197 57
171 196 51
174 198 57
172 197 72
172 197 57
171 196 36
172 197 62
171 197 62
173 197 67
173 197 62
173 197 67
169 195 67
174 198 80
170 196 57
173 198 80
170 197 62
171 198 84
171 197 72
174 199 80
172 197 72
167 194 57
170 195 51
172 197 62
173 198 84
169 196 51
165 194 67
171 196 72
168 195 72
170 196 51
170 196 76
168 196 62
165 194 62
171 197 62
172 198 76
169 197 76
169 198 91
170 197 84
169 196 80
166 193 76
171 198 84
167 198 91
171 199 95
175 200 114
166 196 72
165 195 84
148 185 25
148 187 0
151 188 0
156 188 0
144 185 0
156 189 25
164 192 25
162 192 0
162 192 0
168 195 51
169 195 25
178 201 108
180 202 80
172 196 0
171 196 0
173 197 0
170 195 0
173 197 0
170 195 0
171 196 0
171 196 0
171 196 0
115 188 80
56 183 98
56 182 107
55 182 102
56 183 108
58 186 116
56 182 103
55 182 102
55 181 97
55 181 106
58 186 120
57 184 109
59 186 114
56 181 100
59 188 124
58 187 119
57 184 109
55 181 97
57 184 119
57 186 119
58 187 119
56 182 106
56 183 108
57 185 115
56 183 105
58 185 119
58 185 112
57 185 124
58 186 123
58 188 127
58 185 114
57 183 112
59 188 126
58 186 122
58 187 127
58 187 122
56 182 114
58 186 122
58 186 118
59 189 126
56 184 114
58 186 122
57 183 116
59 187 123
58 187 118
57 184 109
56 183 108
57 184 105
59 186 119
59 189 127
56 183 111
58 188 127
57 182 108
58 184 122
57 183 115
56 181 109
58 185 115
56 181 106
58 185 119
57 184 116
57 183 115
56 182 106
57 182 118
55 178 102
58 183 119
57 184 118
56 178 112
59 185 127
58 184 118
57 181 111
56 182 118
57 184 120
58 183 127
56 181 115
55 176 111
56 177 102
56 179 102
57 180 116
56 178 114
56 178 112
56 178 115
52 168 95
59 182 122
55 173 102
54 176 114
53 169 111
54 171 100
51 164 97
51 163 96
52 165 102
52 162 88
52 161 92
50 155 81
112 162 62
172 195 0
170 194 0
171 196 0
169 194 0
171 196 0
169 195 0
173 196 0
168 194 0
171 195 0
157 175 36
132 134 0
142 143 0
128 138 0
126 134 0
120 133 0
121 133 0
100 120 18
90 118 25
84 113 31
79 113 36
73 110 31
75 108 36
75 114 42
70 106 36
85 115 31
73 110 31
70 110 25
78 115 31
73 111 31
89 114 25
90 114 18
83 116 31
99 123 0
108 123 0
92 116 0
106 127 0
119 136 0
108 126 0
122 127 0
113 129 0
120 133 0
122 137 0
122 136 0
128 138 0
130 142 0
136 145 0
130 139 0
135 141 0
127 136 0
125 136 0
135 141 0
129 138 0
142 144 0
141 146 0
138 140 0
140 143 0
142 145 0
134 141 0
136 143 0
146 146 0
145 143 0
144 144 0
139 145 0
143 146 0
141 145 0
140 144 0
146 146 0
144 146 0
148 148 0
147 146 0
146 145 0
146 148 0
147 148 0
148 147 0
144 146 0
147 145 0
147 147 0
149 147 0
144 145 0
148 146 0
146 146 0
150 149 0
149 149 0
149 148 0
149 147 0
146 147 0
151 150 0
151 148 0
148 150 0
148 148 0
152 149 0
148 146 0
151 150 0
153 151 0
148 148 0
149 148 0
153 149 0
152 148 0
150 148 0
148 147 0
149 147 0
150 148 0
150 149 0
151 149 0
153 150 0
149 148 0
152 150 0
149 148 0
153 150 0
152 149 0
150 148 0
152 150 0
152 149 0
150 148 0
152 148 0
152 149 0
152 150 0
153 150 0
152 150 0
151 149 0
150 148 0
151 150 0
152 150 0
153 151 0
154 151 0
153 150 0
155 152 0
153 150 0
153 150 0
152 150 0
154 151 0
151 150 0
152 150 0
153 150 0
153 150 0
155 152 0
154 151 0
150 149 0
154 151 0
153 151 0
152 149 0
154 151 0
155 151 0
153 150 0
155 151 0
154 151 0
154 151 0
154 151 0
154 151 0
155 152 0
154 151 0
153 151 0
154 152 0
174 197 0
173 197 25
177 200 80
183 204 108
184 205 114
179 201 80
177 200 67
182 204 105
188 208 137
186 206 122
176 201 91
179 203 105
181 203 91
182 203 102
178 200 76
180 202 95
179 201 91
180 202 102
178 201 84
176 199 84
176 200 84
176 200 76
177 200 76
177 199 67
177 200 72
173 198 59
175 198 62
179 202 111
174 198 67
174 198 40
174 198 69
174 198 62
175 199 76
177 200 76
174 198 65
175 199 72
177 200 80
173 197 44
178 201 95
175 199 72
175 198 57
175 199 76
177 200 72
175 199 88
171 196 36
175 199 80
176 199 67
173 198 67
175 198 67
174 198 72
176 199 76
174 198 62
174 198 51
174 199 76
175 198 62
175 198 51
173 198 67
172 198 76
175 199 84
175 199 72
172 197 44
176 199 62
174 198 62
173 197 62
174 197 51
173 198 57
173 197 62
174 198 76
173 198 51
173 198 62
174 198 67
175 199 76
175 199 80
176 199 67
173 197 44
171 196 62
175 199 80
172 197 72
175 199 84
172 197 67
176 199 51
174 199 91
173 198 67
173 198 84
173 197 36
171 197 44
173 197 51
175 199 91
171 198 76
174 198 57
170 196 62
171 197 44
169 196 67
172 197 67
171 197 51
172 198 80
170 195 57
172 197 36
172 197 62
169 195 57
171 195 57
172 198 72
170 196 72
170 196 80
169 196 76
171 197 80
171 196 62
170 195 51
169 197 72
168 196 76
171 196 57
173 198 76
169 196 67
161 192 62
169 197 67
167 195 62
170 196 57
169 196 76
169 197 108
167 194 57
171 198 91
169 195 76
175 200 98
168 196 72
169 197 84
169 197 88
176 199 114
170 198 105
160 192 76
161 192 88
144 186 44
133 179 0
150 186 0
142 183 0
155 188 0
158 190 0
159 191 0
161 192 0
170 196 0
169 195 25
170 196 25
168 196 44
184 206 124
172 197 0
172 196 0
171 195 0
173 197 0
173 197 0
171 196 0
171 196 0
171 196 0
172 196 0
171 196 0
158 193 25
56 179 99
56 184 112
57 182 102
54 179 99
57 185 118
57 185 116
57 186 115
57 183 105
55 182 102
57 184 108
57 182 97
57 184 106
55 182 106
56 183 105
56 182 102
56 183 111
58 186 114
53 178 91
56 182 103
58 186 114
58 186 123
56 182 109
56 183 112
57 186 116
57 185 114
59 188 127
55 182 109
59 186 120
57 183 108
56 183 106
57 186 122
58 185 116
56 184 118
57 184 109
55 180 114
57 184 108
59 188 123
58 185 118
57 183 106
57 184 115
58 186 120
57 186 119
58 185 119
57 184 112
55 183 109
56 182 111
57 185 116
58 184 109
59 188 123
57 184 114
58 186 122
57 186 118
56 183 108
57 184 114
57 183 111
56 182 109
57 184 124
59 187 124
58 186 119
57 182 112
57 182 109
57 182 103
58 187 127
56 181 114
57 185 115
57 182 119
56 181 111
55 178 102
56 179 102
55 177 105
57 183 109
53 173 88
56 176 118
56 179 112
56 180 120
53 171 97
55 175 114
57 180 122
54 172 97
54 173 106
54 173 108
53 171 97
55 174 102
54 173 114
55 177 109
54 170 97
52 165 102
53 168 100
53 166 108
52 164 102
50 159 88
54 157 86
158 188 36
172 195 0
172 195 0
173 196 0
171 196 0
170 195 0
171 195 0
171 195 0
170 195 0
171 196 0
169 194 0
143 150 0
139 142 0
138 143 0
130 139 0
124 131 0
112 126 0
110 128 0
96 118 0
91 118 18
91 118 31
92 118 0
65 105 31
77 105 25
70 103 0
82 113 18
66 107 31
78 109 25
89 118 47
99 119 25
80 113 18
100 120 25
93 117 0
101 118 0
100 120 0
110 129 0
105 126 0
106 125 0
120 133 0
120 133 0
121 133 0
109 128 0
133 140 0
122 134 0
118 132 0
132 141 0
129 136 0
131 140 0
131 141 0
136 144 0
131 140 0
128 139 0
137 143 0
138 142 0
133 138 0
138 143 0
139 143 0
141 146 0
140 143 0
142 143 0
145 147 0
142 144 0
138 141 0
134 140 0
142 144 0
146 146 0
142 145 0
143 144 0
140 141 0
146 146 0
139 143 0
150 149 0
147 147 0
145 145 0
149 148 0
145 147 0
152 150 0
145 145 0
148 148 0
147 146 0
151 149 0
147 147 0
147 147 0
148 148 0
148 147 0
147 147 0
145 145 0
148 148 0
148 147 0
148 146 0
148 147 0
151 148 0
150 147 0
149 147 0
149 148 0
149 148 0
145 146 0
152 149 0
149 147 0
153 149 0
147 147 0
149 148 0
151 149 0
151 148 0
151 148 0
151 149 0
150 149 0
150 148 0
150 147 0
152 151 0
152 149 0
155 150 0
152 150 0
152 149 0
152 149 0
152 149 0
149 147 0
154 151 0
151 149 0
151 148 0
151 149 0
153 149 0
152 149 0
153 150 0
152 149 0
153 151 0
152 150 0
154 151 0
152 149 0
153 150 0
153 150 0
152 150 0
153 150 0
151 148 0
153 150 0
153 150 0
152 150 0
153 151 0
153 150 0
154 151 0
152 150 0
154 151 0
153 151 0
153 150 0
154 151 0
154 151 0
153 151 0
152 150 0
156 152 0
154 150 0
154 152 0
155 151 0
154 152 0
152 149 0
171 195 0
172 196 0
174 197 36
182 203 91
179 202 88
181 203 98
181 203 98
183 204 111
179 202 98
185 205 130
188 208 137
183 205 116
181 203 98
183 205 114
177 201 91
179 201 84
179 201 84
176 199 67
178 201 95
179 202 91
181 204 114
177 200 72
175 199 82
177 200 80
176 199 62
175 198 57
175 199 67
174 199 80
175 198 72
175 198 57
176 200 80
173 197 40
175 199 72
173 198 54
177 200 91
175 199 74
173 197 57
178 201 91
173 197 51
173 197 51
176 199 72
174 199 62
175 199 62
176 199 62
173 197 62
174 198 72
177 200 72
173 198 57
172 196 51
172 196 51
177 200 72
175 199 80
175 198 57
173 198 57
174 198 57
173 197 72
174 198 72
175 198 67
177 200 88
173 198 76
173 198 62
170 195 72
175 199 80
173 198 67
174 198 51
173 198 80
175 199 72
175 199 76
173 197 57
173 198 67
172 198 76
173 197 57
174 197 44
172 197 57
173 197 51
171 197 51
174 198 72
175 199 91
172 196 44
172 197 57
170 196 44
170 197 72
174 198 72
173 198 67
171 196 72
173 198 67
173 198 76
172 197 62
172 197 51
173 198 57
172 198 67
170 196 51
168 196 67
173 198 67
174 198 67
170 196 57
170 196 62
172 197 57
170 196 57
169 194 57
170 196 62
170 196 51
173 197 36
172 197 51
169 196 62
170 196 76
174 198 57
169 196 80
167 195 67
170 197 44
172 198 80
173 198 62
168 196 80
168 196 67
169 196 57
171 196 62
166 194 57
168 196 62
167 195 67
169 196 62
167 196 88
168 195 72
161 192 67
165 193 76
162 192 84
170 198 105
171 197 67
166 194 72
166 195 91
152 186 51
149 185 0
147 186 0
153 187 0
151 188 0
148 186 0
157 192 25
151 188 0
162 192 0
162 192 0
170 196 36
172 197 51
180 204 116
172 198 67
172 196 0
172 196 0
172 197 0
172 196 0
170 195 0
170 195 0
172 197 0
172 196 0
168 195 0
168 194 0
173 197 0
120 187 69
56 182 100
56 184 106
57 182 95
57 185 112
56 182 102
56 184 111
55 181 105
57 185 109
56 183 115
57 184 115
57 183 103
57 183 105
57 185 116
56 181 97
57 184 109
58 184 109
58 186 112
56 182 93
57 186 123
57 185 115
58 184 114
55 179 98
57 184 106
58 185 114
58 186 120
57 185 112
57 184 111
57 184 105
58 188 122
58 187 118
57 184 106
57 185 120
56 179 95
54 181 105
58 185 115
57 183 111
55 181 109
58 186 118
59 186 116
58 186 115
57 182 115
56 182 102
56 182 119
56 180 102
56 182 105
57 183 105
57 184 118
57 186 123
56 182 112
57 185 114
57 182 112
56 183 108
57 185 119
56 182 109
58 188 130
58 185 118
58 184 118
57 182 109
57 182 114
56 180 108
56 181 111
57 182 114
56 181 111
55 178 108
58 183 114
58 184 122
56 179 111
56 181 118
56 181 106
56 180 112
54 174 93
55 177 108
54 173 106
56 179 116
56 178 120
55 178 109
55 175 119
53 170 82
55 174 111
55 175 116
54 175 115
54 173 102
53 169 100
55 172 106
54 172 109
51 161 97
53 166 91
50 158 90
48 153 75
50 157 74
105 164 63
169 194 0
170 195 0
171 194 0
167 193 0
173 196 0
168 193 0
170 193 0
173 196 0
171 194 0
169 192 0
169 193 0
163 187 0
136 138 0
133 140 0
129 136 0
129 135 0
120 131 0
115 128 0
120 127 0
108 124 0
96 115 0
98 114 0
90 114 31
76 104 0
79 106 0
85 107 25
92 112 0
83 105 0
79 112 0
94 112 0
82 108 0
97 116 0
100 118 0
110 124 0
103 121 0
102 120 0
108 126 0
101 120 0
112 125 0
109 127 0
121 132 0
122 134 0
123 138 0
127 136 0
122 135 0
127 137 0
130 137 0
125 136 0
132 138 0
131 137 0
133 142 0
128 139 0
136 138 0
132 138 0
137 144 0
134 143 0
134 141 0
139 144 0
144 146 0
137 143 0
140 144 0
140 144 0
140 141 0
148 148 0
140 144 0
147 148 0
146 147 0
143 146 0
139 141 0
141 143 0
148 147 0
145 146 0
148 146 0
144 145 0
147 147 0
148 147 0
147 146 0
145 146 0
143 144 0
144 144 0
142 143 0
148 147 0
141 140 0
143 144 0
145 147 0
148 148 0
152 148 0
150 147 0
144 143 0
151 148 0
149 147 0
148 146 0
152 150 0
149 149 0
148 147 0
151 149 0
146 147 0
148 148 0
151 148 0
151 147 0
147 146 0
150 148 0
149 147 0
150 150 0
152 149 0
153 150 0
150 148 0
148 147 0
151 149 0
152 151 0
148 147 0
152 149 0
150 147 0
152 149 0
151 149 0
152 150 0
153 150 0
151 148 0
154 150 0
152 149 0
155 151 0
150 148 0
155 151 0
153 150 0
153 151 0
154 151 0
153 149 0
154 150 0
149 147 0
153 149 0
153 150 0
153 150 0
152 150 0
154 151 0
152 150 0
153 150 0
152 149 0
153 150 0
153 150 0
153 150 0
153 151 0
155 151 0
156 152 0
152 149 0
154 151 0
153 151 0
153 150 0
152 149 0
150 148 0
153 150 0
151 149 0
154 151 0
154 150 0
151 148 0
173 196 0
175 198 0
173 196 0
177 199 67
175 199 67
178 201 84
179 202 98
178 200 76
178 201 84
181 203 95
184 206 122
183 204 111
180 202 91
182 204 102
184 205 114
180 202 88
177 199 72
176 199 67
175 199 72
174 198 59
179 201 91
177 200 84
174 197 67
175 198 51
175 198 62
175 199 62
176 199 72
175 198 57
176 200 67
174 198 76
176 199 72
175 199 76
176 200 80
172 198 62
176 199 78
176 199 76
175 199 65
176 199 76
175 199 72
176 199 76
176 199 76
174 197 44
175 198 67
177 200 80
175 199 80
175 198 62
174 198 67
175 199 57
175 199 84
174 198 62
174 198 62
176 199 72
176 199 76
176 199 76
173 198 67
175 199 67
175 199 57
173 198 67
174 198 57
173 198 57
173 198 80
173 198 62
173 198 62
175 199 76
174 198 51
172 197 51
174 199 80
173 197 62
173 198 57
173 199 88
172 197 57
172 197 36
172 197 57
173 197 67
175 198 57
172 197 62
171 198 62
173 198 72
174 198 62
175 200 95
174 198 57
173 197 51
172 198 72
171 198 80
173 197 57
174 198 51
174 197 25
169 196 72
171 197 76
170 196 51
174 198 51
171 196 62
171 197 67
169 195 51
171 196 57
172 198 84
169 196 72
169 197 62
173 198 67
170 196 51
174 198 62
170 195 57
168 196 72
172 197 80
172 198 76
171 198 84
173 198 57
168 196 62
172 197 62
168 195 62
170 197 62
172 198 84
164 194 62
167 195 72
169 195 62
170 197 67
173 199 84
168 197 80
170 197 76
167 196 62
172 199 91
169 197 98
172 198 88
167 195 80
171 197 98
166 194 62
166 196 88
166 194 76
154 187 44
151 186 0
135 180 0
143 184 0
158 189 0
160 190 0
153 188 0
160 192 0
161 192 0
161 193 25
166 194 36
166 194 36
175 199 76
178 202 102
170 195 0
171 195 0
170 195 0
170 196 0
169 195 0
172 196 0
174 197 0
167 195 0
170 196 0
170 196 0
171 196 0
173 196 0
159 193 36
63 182 98
54 180 95
54 178 84
57 184 111
57 182 106
54 179 92
57 183 103
57 184 111
56 184 109
56 182 103
58 186 118
56 182 103
56 182 102
56 184 102
57 184 106
58 187 124
55 181 103
55 181 103
55 180 109
56 182 102
58 185 108
57 185 115
55 181 106
58 186 111
58 185 112
57 182 105
55 180 106
57 184 106
54 179 103
57 185 118
57 182 100
57 184 109
59 187 118
56 183 108
55 182 102
58 186 115
57 184 109
60 189 123
58 186 116
56 183 112
57 183 114
57 183 114
58 185 116
56 183 112
57 183 112
58 183 111
57 182 103
57 183 106
56 180 100
57 183 118
58 184 123
56 178 109
56 180 109
58 185 116
57 183 114
55 182 108
56 180 103
58 186 123
56 181 112
55 179 105
58 186 127
57 184 120
55 178 95
56 181 112
56 181 112
55 176 105
57 183 114
57 181 105
56 179 108
57 181 120
54 174 102
54 175 100
56 181 111
56 178 112
54 173 95
57 180 116
55 176 115
55 175 114
55 173 108
53 172 98
54 170 98
55 175 108
49 160 93
52 166 93
52 165 97
51 165 90
51 163 100
51 166 88
49 154 80
50 153 85
158 187 18
170 193 0
168 192 0
167 192 0
170 193 0
169 194 0
172 195 0
168 192 0
170 193 0
170 194 0
170 192 0
171 194 0
170 195 0
142 152 0
136 140 0
133 136 0
132 139 0
122 132 0
117 128 0
106 125 0
112 122 0
101 118 0
97 116 0
90 112 0
82 106 0
90 109 0
98 113 0
80 105 0
89 110 0
95 114 0
107 123 0
91 110 0
99 117 0
105 123 0
94 117 0
107 123 0
105 124 0
107 122 0
115 124 0
112 125 0
116 129 0
114 127 0
119 132 0
123 133 0
120 128 0
122 132 0
123 133 0
127 135 0
130 138 0
129 138 0
129 133 0
126 137 0
139 143 0
129 140 0
138 142 0
135 141 0
136 139 0
136 139 0
139 142 0
137 143 0
137 141 0
135 142 0
137 141 0
139 143 0
139 141 0
137 142 0
143 145 0
143 145 0
135 140 0
143 144 0
143 145 0
144 145 0
146 145 0
138 139 0
147 147 0
149 146 0
145 145 0
145 143 0
145 146 0
150 149 0
148 146 0
150 146 0
146 146 0
150 148 0
147 146 0
147 147 0
146 145 0
145 145 0
147 147 0
149 148 0
147 147 0
151 148 0
148 145 0
148 148 0
149 147 0
147 146 0
146 146 0
147 147 0
150 148 0
148 147 0
150 148 0
151 149 0
146 144 0
151 148 0
151 149 0
149 148 0
150 148 0
149 145 0
149 147 0
150 150 0
149 149 0
152 149 0
153 150 0
151 148 0
149 146 0
152 149 0
152 149 0
151 147 0
147 145 0
149 148 0
150 149 0
153 150 0
153 150 0
152 149 0
150 147 0
152 150 0
153 151 0
151 149 0
152 149 0
152 149 0
152 149 0
154 150 0
152 149 0
153 150 0
153 151 0
152 149 0
150 148 0
151 149 0
151 150 0
151 150 0
153 151 0
153 149 0
153 151 0
151 150 0
154 151 0
153 150 0
152 150 0
153 150 0
154 151 0
152 151 0
155 152 0
154 151 0
153 150 0
153 151 0
153 150 0
170 195 0
172 197 0
173 197 0
173 196 0
177 200 67
180 202 88
178 200 88
181 203 98
179 201 84
178 200 72
181 203 102
183 205 114
185 206 124
181 203 105
180 203 95
179 202 91
179 201 88
178 201 95
179 202 98
177 200 76
176 199 76
176 200 72
176 200 80
178 201 91
177 201 95
176 199 62
173 197 57
176 200 84
176 199 51
175 199 76
175 199 76
175 199 67
176 199 62
176 199 72
176 200 91
177 200 84
176 200 76
174 198 65
177 201 95
175 199 72
175 199 62
175 198 51
173 197 67
173 198 57
174 197 44
174 199 80
174 198 51
173 197 44
174 198 62
176 199 62
176 199 57
176 199 67
174 198 51
174 198 72
172 196 67
174 198 72
174 198 57
175 199 80
175 198 57
173 197 44
176 200 95
173 197 57
174 198 57
174 198 62
173 198 72
172 197 67
172 196 57
173 197 51
175 199 76
172 198 67
174 198 67
174 198 72
172 197 72
172 197 62
174 198 57
172 198 72
174 198 57
173 198 88
171 197 51
174 198 51
172 198 72
172 197 62
173 197 25
170 196 36
173 197 72
172 197 62
170 196 67
171 197 76
169 196 67
173 198 80
172 198 80
172 198 62
173 198 72
174 199 88
174 197 44
169 195 62
168 195 80
174 198 62
172 198 80
171 197 80
172 197 57
169 196 67
175 199 80
172 198 76
170 197 88
169 195 72
168 194 36
169 195 36
172 197 72
171 198 62
171 196 57
174 198 80
170 197 80
170 198 88
165 194 51
170 196 76
169 197 67
167 195 72
169 196 72
169 195 67
167 197 91
173 199 91
169 196 95
165 197 88
169 197 91
161 193 62
169 197 88
155 190 51
140 182 0
142 183 0
146 185 0
144 183 0
158 189 0
146 187 0
159 192 0
155 188 0
160 191 0
169 196 51
167 195 57
172 197 36
181 204 119
171 197 25
170 196 0
174 197 0
170 195 0
171 196 0
168 195 0
168 194 0
172 196 0
169 195 0
171 196 0
169 195 0
169 195 0
169 195 0
171 196 0
117 188 76
57 183 100
56 181 102
55 182 98
53 178 95
54 180 100
56 182 108
57 184 109
58 185 111
55 181 105
55 180 95
56 182 100
55 178 88
57 185 114
56 184 108
56 184 109
56 182 105
56 182 103
57 186 118
57 185 123
57 183 106
56 183 106
57 184 119
57 183 105
56 183 112
58 186 108
57 184 116
57 183 105
56 183 112
57 185 114
57 183 102
55 182 105
57 184 109
58 187 122
56 182 102
58 185 112
58 186 116
57 183 112
58 185 108
57 183 109
57 184 120
56 182 112
58 185 111
56 180 102
57 184 114
57 184 120
56 179 103
58 183 108
55 180 100
57 182 114
55 179 105
56 183 115
55 180 102
56 184 114
56 180 102
57 180 95
58 185 124
56 181 100
57 185 115
55 179 95
55 180 111
55 177 106
56 179 109
57 183 112
54 176 102
55 179 109
56 179 103
56 180 106
55 176 111
55 178 103
55 177 111
53 173 105
56 179 108
55 178 108
55 177 109
56 178 111
56 177 109
54 173 105
55 174 106
54 173 111
54 173 103
51 163 91
52 168 98
52 166 98
53 168 100
51 162 90
49 162 91
50 159 79
50 160 76
114 162 52
173 195 0
162 189 0
169 192 0
167 192 0
172 193 0
167 193 0
168 193 0
168 193 0
169 194 0
171 193 0
172 196 0
168 194 0
167 192 0
169 192 0
130 133 0
138 139 0
124 131 0
124 133 0
122 133 0
120 133 0
108 124 0
97 117 0
103 115 0
107 116 0
96 113 0
105 117 0
93 116 0
92 109 0
88 112 0
94 114 0
80 106 0
94 115 0
96 112 0
102 118 0
106 120 0
110 122 0
99 119 0
104 122 0
110 124 0
112 125 0
120 131 0
115 130 0
120 132 0
122 133 0
118 129 0
126 137 0
130 133 0
123 135 0
128 137 0
119 131 0
131 139 0
131 137 0
131 137 0
137 140 0
128 136 0
132 140 0
139 141 0
131 139 0
138 141 0
137 139 0
135 137 0
139 144 0
139 140 0
138 138 0
142 144 0
143 144 0
143 144 0
140 142 0
145 146 0
142 144 0
144 143 0
145 146 0
138 141 0
147 145 0
145 147 0
140 142 0
146 145 0
142 143 0
147 145 0
144 145 0
147 146 0
142 143 0
144 145 0
144 146 0
152 148 0
147 145 0
148 147 0
146 147 0
147 146 0
142 143 0
149 147 0
143 144 0
144 146 0
144 146 0
147 144 0
152 148 0
152 148 0
151 147 0
151 149 0
151 149 0
148 148 0
151 148 0
151 148 0
150 147 0
152 150 0
151 148 0
150 149 0
152 148 0
153 149 0
150 148 0
150 149 0
149 147 0
151 147 0
151 149 0
152 149 0
149 147 0
152 147 0
152 149 0
149 148 0
149 147 0
152 148 0
150 147 0
153 149 0
149 147 0
152 150 0
150 147 0
154 151 0
153 150 0
152 149 0
153 150 0
150 147 0
153 150 0
152 149 0
152 149 0
153 150 0
149 150 0
154 149 0
152 149 0
153 149 0
153 150 0
153 150 0
152 150 0
153 150 0
154 150 0
151 150 0
152 149 0
153 149 0
153 149 0
154 150 0
153 150 0
152 149 0
154 150 0
153 150 0
155 152 0
154 150 0
173 197 0
173 197 0
171 195 0
173 197 0
175 197 0
176 199 62
179 202 90
175 198 67
180 202 91
179 201 84
177 200 72
178 200 67
183 205 122
183 205 124
180 203 106
180 202 95
178 201 98
179 202 105
180 203 108
179 202 98
179 201 95
177 200 84
177 200 91
176 200 72
175 198 57
176 200 88
175 199 76
177 200 88
177 200 67
177 200 88
178 200 76
173 198 84
175 199 80
174 199 82
174 198 57
176 199 57
175 199 67
177 201 95
172 197 51
176 199 62
173 198 62
174 198 44
175 198 62
173 197 57
175 198 67
175 199 84
175 199 76
173 198 76
174 198 72
175 199 72
175 199 72
176 200 98
173 197 25
174 198 62
176 199 84
175 199 72
177 199 51
174 198 51
173 197 44
174 198 57
172 197 67
170 197 67
172 197 57
174 198 72
173 198 80
172 197 44
175 198 51
173 198 57
171 196 72
172 197 57
175 198 72
173 197 57
170 195 57
175 199 72
171 196 36
175 198 51
172 197 57
171 197 80
167 194 0
173 198 72
170 196 72
168 195 67
172 196 44
173 197 57
169 196 72
170 196 44
168 196 67
173 198 72
173 197 51
172 197 57
170 196 57
167 195 72
171 197 67
170 196 57
174 198 62
169 195 62
169 196 80
171 196 62
171 197 67
171 197 84
167 195 80
173 198 67
172 198 62
165 194 57
170 195 51
168 195 36
173 197 51
172 197 76
165 193 51
171 198 88
172 198 80
168 196 67
169 197 72
167 195 67
166 194 51
168 196 84
168 195 84
169 196 80
168 195 67
173 199 91
165 194 67
172 200 105
171 198 114
168 199 114
170 198 95
162 193 72
158 192 67
145 185 0
143 183 0
148 185 0
152 187 0
159 190 0
151 188 0
151 187 0
157 191 0
159 190 0
167 195 25
162 192 51
169 196 25
173 200 95
173 198 57
169 195 0
168 195 0
171 195 0
169 195 0
172 197 0
166 194 0
168 195 0
168 195 0
173 197 0
166 193 0
174 197 0
165 193 0
170 196 0
171 196 0
161 193 18
92 186 90
55 180 90
54 181 97
56 183 108
55 181 97
57 183 102
56 181 97
55 180 95
57 183 114
55 179 95
53 177 90
55 181 91
58 188 120
55 181 100
57 184 118
56 184 112
57 183 103
57 183 105
57 185 108
55 180 103
56 181 93
56 180 95
59 187 115
57 184 108
56 182 106
56 181 106
56 182 103
58 186 116
54 179 100
57 184 112
58 185 112
57 184 114
57 185 118
57 183 112
56 182 105
58 186 116
57 185 116
57 185 118
55 179 102
57 183 112
57 184 118
57 185 116
56 183 116
58 185 112
56 180 106
55 180 108
57 185 111
56 181 105
56 182 112
55 179 105
58 186 119
56 182 114
58 185 119
57 183 114
54 179 111
55 179 100
56 181 103
54 177 102
55 177 97
56 182 112
55 179 105
57 181 115
54 173 95
55 178 90
57 180 115
56 180 109
57 181 115
58 182 115
55 177 102
57 179 116
53 171 98
56 179 108
55 175 108
54 176 108
54 174 109
54 172 98
53 171 95
53 172 100
54 174 90
54 174 106
56 175 112
51 163 82
53 169 95
52 165 88
51 165 91
50 163 96
49 158 74
68 157 78
168 192 0
166 191 0
168 192 0
166 194 0
170 193 0
167 191 0
172 193 0
169 194 0
170 193 0
169 194 0
166 191 0
167 193 0
167 192 0
170 194 0
167 192 0
165 185 0
134 134 0
129 134 0
130 131 0
115 124 0
114 124 0
112 120 0
108 120 0
99 113 0
106 117 0
98 119 0
109 125 0
92 111 0
96 113 0
96 114 0
112 124 0
104 117 0
98 113 0
97 112 0
103 113 0
100 118 0
109 124 0
110 125 0
110 124 0
117 125 0
119 126 0
121 131 0
119 129 0
127 133 0
122 129 0
115 129 0
119 130 0
115 130 0
127 138 0
133 139 0
126 135 0
133 138 0
129 134 0
129 136 0
138 140 0
132 138 0
134 139 0
135 137 0
137 139 0
131 137 0
137 142 0
135 141 0
133 138 0
133 134 0
132 136 0
136 139 0
138 142 0
138 141 0
141 142 0
142 142 0
144 143 0
139 142 0
139 141 0
148 145 0
144 144 0
142 142 0
146 144 0
146 144 0
144 144 0
144 146 0
145 145 0
147 147 0
141 140 0
150 146 0
149 147 0
146 145 0
146 143 0
145 144 0
147 146 0
149 147 0
147 145 0
147 146 0
150 148 0
144 145 0
145 144 0
141 141 0
147 146 0
150 146 0
150 148 0
148 146 0
149 147 0
150 149 0
150 149 0
149 146 0
150 147 0
149 147 0
147 146 0
149 147 0
148 147 0
147 147 0
150 148 0
153 149 0
149 147 0
150 147 0
150 148 0
148 147 0
154 149 0
148 147 0
149 147 0
150 148 0
149 148 0
152 148 0
149 147 0
150 146 0
153 150 0
151 149 0
150 148 0
151 150 0
150 147 0
151 147 0
151 148 0
152 150 0
153 150 0
151 148 0
154 149 0
152 149 0
154 150 0
150 148 0
151 147 0
151 147 0
152 149 0
153 150 0
151 150 0
154 150 0
154 151 0
153 150 0
153 150 0
153 150 0
153 149 0
155 150 0
154 151 0
154 150 0
153 150 0
151 148 0
153 149 0
153 149 0
173 197 0
171 195 0
173 196 0
173 196 0
175 197 0
171 195 25
174 198 57
180 202 105
179 201 88
177 201 88
177 201 91
175 199 62
180 202 80
184 205 116
180 202 106
181 203 108
179 202 95
182 204 105
177 201 86
179 202 95
176 200 84
176 199 74
177 200 84
178 200 80
177 200 88
179 202 91
176 200 76
178 201 84
175 199 67
178 200 80
176 199 76
174 198 67
176 199 80
175 198 57
175 200 91
177 200 72
176 200 76
175 198 36
176 198 44
173 197 51
174 198 57
176 200 80
174 199 76
173 197 51
173 197 62
172 197 57
175 198 57
173 198 57
175 199 80
176 200 80
173 197 57
174 197 44
171 197 57
173 198 57
173 197 57
172 198 76
172 197 57
173 197 51
176 200 95
173 197 62
173 196 36
174 199 84
170 197 72
172 198 84
175 200 91
172 198 76
174 197 62
173 197 44
173 197 25
172 197 36
176 199 57
174 198 88
173 197 72
173 197 67
173 198 51
174 198 36
170 196 62
171 196 36
172 197 51
172 198 72
174 198 51
172 197 72
172 197 57
172 197 57
170 196 51
169 194 72
171 197 51
171 196 57
169 195 44
172 197 72
172 196 44
168 196 67
171 196 62
169 198 91
172 198 67
171 198 67
168 195 67
172 197 62
173 198 88
167 195 57
170 196 67
168 195 67
173 198 62
170 196 72
170 196 76
167 196 80
172 197 72
166 194 67
171 197 91
171 197 57
167 197 88
170 196 67
166 195 67
169 196 88
171 197 76
167 195 57
162 194 72
174 199 88
163 193 76
173 199 84
165 196 84
172 199 105
167 196 88
169 197 84
168 197 95
152 189 67
136 181 0
135 179 0
139 184 0
148 186 0
147 186 0
151 187 0
155 189 0
150 188 0
160 191 0
165 192 0
165 194 25
165 193 36
169 196 62
177 202 108
166 194 0
169 196 0
170 195 0
170 196 0
170 196 0
166 194 0
170 195 0
169 194 0
173 197 0
169 195 0
172 196 0
167 193 0
172 197 0
168 195 0
168 195 0
170 195 0
144 192 59
54 181 97
55 181 97
53 178 86
55 180 93
54 181 105
55 180 91
57 183 98
56 183 108
56 183 106
55 181 98
57 185 111
57 184 114
54 180 103
56 183 106
55 180 97
57 185 114
53 176 88
57 182 109
56 181 98
56 182 109
58 184 111
56 181 106
59 187 118
57 183 106
56 183 105
57 183 111
56 184 115
56 184 108
56 182 103
56 182 111
56 182 106
56 180 103
55 181 106
59 187 112
56 184 118
56 181 102
57 184 111
56 180 106
55 181 112
55 181 106
55 178 78
58 184 112
56 180 100
57 183 108
57 183 111
56 181 108
57 184 111
57 185 119
57 184 116
57 182 112
55 180 97
58 185 119
56 179 109
56 183 112
56 181 111
56 180 108
56 182 116
55 177 108
56 180 111
54 175 98
54 176 97
54 176 100
55 177 106
55 179 105
55 174 98
57 183 123
55 175 100
52 172 91
56 180 108
56 181 115
57 180 112
54 173 98
54 174 102
57 181 115
54 171 106
55 177 109
51 166 97
54 174 103
53 169 97
55 173 103
51 166 90
52 166 95
48 153 82
47 156 75
51 162 97
50 161 86
142 180 28
163 190 0
163 188 0
161 187 0
167 191 0
164 189 0
167 189 0
166 191 0
164 192 0
165 189 0
167 192 0
167 189 0
168 192 0
165 192 0
167 192 0
167 191 0
167 189 0
150 162 0
132 135 0
127 134 0
127 135 0
118 130 0
116 123 0
113 123 0
103 117 0
100 116 0
99 114 0
90 107 0
96 110 0
86 108 0
96 115 0
105 120 0
108 117 0
102 122 0
96 112 0
109 120 0
110 125 0
100 119 0
108 122 0
115 127 0
114 126 0
115 126 0
115 124 0
120 130 0
126 134 0
120 129 0
129 136 0
129 134 0
114 128 0
120 128 0
125 134 0
126 136 0
125 134 0
123 132 0
133 137 0
131 136 0
140 141 0
138 141 0
135 141 0
131 137 0
134 137 0
137 138 0
141 143 0
136 140 0
141 144 0
136 139 0
137 138 0
139 141 0
138 141 0
138 141 0
140 141 0
142 144 0
141 142 0
147 146 0
140 141 0
144 140 0
142 142 0
138 140 0
147 144 0
146 145 0
145 144 0
145 143 0
144 145 0
147 146 0
145 145 0
148 145 0
146 145 0
144 145 0
150 147 0
147 146 0
148 147 0
146 147 0
148 148 0
149 147 0
147 145 0
151 148 0
151 149 0
147 145 0
149 147 0
147 145 0
145 147 0
148 146 0
149 147 0
148 148 0
147 142 0
151 147 0
147 147 0
150 147 0
150 148 0
149 147 0
152 148 0
150 147 0
152 148 0
151 148 0
152 149 0
154 149 0
149 147 0
151 147 0
149 145 0
150 147 0
150 148 0
148 146 0
152 150 0
147 145 0
150 147 0
151 149 0
151 148 0
150 148 0
154 150 0
151 149 0
152 149 0
155 150 0
153 149 0
151 148 0
148 144 0
151 149 0
154 150 0
152 149 0
153 149 0
151 150 0
152 150 0
152 148 0
152 150 0
150 147 0
153 149 0
153 150 0
153 150 0
154 151 0
151 148 0
152 149 0
152 149 0
154 149 0
151 147 0
153 150 0
152 149 0
154 150 0
154 151 0
170 195 0
172 196 0
173 197 0
173 196 0
175 197 0
173 197 0
172 196 0
177 199 72
177 200 67
174 198 62
182 204 105
181 203 98
179 201 84
179 202 88
181 203 95
187 208 130
180 203 102
177 202 109
182 204 106
181 203 95
177 201 84
178 201 88
179 201 88
179 202 98
181 203 102
176 200 91
176 199 72
177 200 72
176 200 88
175 198 62
176 199 76
174 198 72
174 198 72
178 201 95
174 198 67
176 199 72
176 200 76
176 199 76
173 197 72
176 199 80
173 198 67
174 199 76
175 199 88
175 200 95
174 198 76
174 198 72
172 198 67
173 197 62
172 198 72
173 198 62
173 197 51
175 198 57
172 198 67
175 198 67
170 196 51
174 198 67
170 196 57
171 195 44
174 199 91
173 197 51
172 196 51
173 198 62
174 198 62
172 197 62
170 196 44
171 197 76
171 197 76
173 197 67
173 198 72
174 198 67
172 197 72
172 197 67
175 199 76
172 197 62
172 197 62
174 198 80
171 197 84
170 196 25
174 198 51
173 198 84
173 197 57
172 196 25
168 196 84
170 196 76
171 198 102
172 197 62
174 198 76
175 200 95
172 197 57
172 198 84
173 197 62
172 198 84
168 195 44
173 197 62
171 197 67
170 196 67
172 197 62
167 195 84
170 196 57
172 198 84
168 195 57
172 197 72
170 197 72
172 198 62
168 196 67
168 196 57
170 195 67
171 197 80
169 196 80
170 196 80
171 198 84
168 195 62
171 198 91
168 196 84
165 194 62
165 195 62
167 196 76
167 196 76
165 196 91
173 200 105
167 197 95
166 195 84
167 195 80
158 192 72
152 188 51
144 183 25
145 184 0
144 184 0
151 187 0
153 188 0
160 192 0
155 189 0
150 185 25
161 191 0
157 191 25
164 192 36
164 194 44
168 196 36
180 203 116
165 194 0
168 195 0
167 194 0
168 195 0
164 193 0
171 196 0
171 196 0
170 196 0
162 192 0
168 194 0
166 194 0
167 194 0
169 195 0
167 194 0
164 193 0
167 195 0
163 192 0
167 193 0
110 184 72
52 176 82
54 180 97
56 181 103
55 179 100
54 180 95
52 175 78
55 183 112
56 181 97
56 181 106
56 182 95
56 183 102
55 180 97
56 183 103
55 181 103
58 186 112
55 181 108
55 182 103
54 179 93
57 182 103
55 181 106
56 183 106
57 185 114
54 179 95
56 182 103
57 183 106
58 186 119
56 181 102
57 184 112
56 182 102
55 181 97
54 179 105
57 183 108
57 184 111
58 185 112
57 184 109
57 183 108
56 182 108
57 184 114
58 185 118
58 186 122
56 182 108
55 179 103
57 183 109
55 178 95
55 180 111
57 182 105
56 181 109
57 183 118
56 179 111
57 182 109
54 175 93
55 180 103
56 180 102
55 179 108
55 175 98
56 181 105
56 182 123
55 179 105
55 179 102
55 179 106
53 173 91
56 181 112
55 176 103
56 178 108
55 179 103
57 181 116
55 175 106
54 176 97
53 173 86
55 178 105
55 176 95
54 172 93
53 171 93
53 170 88
54 175 100
52 171 93
52 167 92
52 168 91
50 164 83
54 172 102
53 167 91
51 162 95
48 151 80
50 160 84
101 168 58
162 186 0
160 190 0
163 190 0
160 187 0
167 192 0
169 192 0
163 190 0
163 189 0
165 190 0
166 191 0
162 188 0
163 186 0
162 187 0
166 190 0
167 189 0
164 190 0
167 190 0
167 189 0
125 136 0
129 132 0
130 133 0
122 129 0
124 129 0
113 125 0
104 117 0
109 119 0
108 118 0
91 111 0
106 114 0
101 117 0
103 114 0
97 116 0
101 115 0
104 119 0
92 115 0
115 126 0
96 116 0
108 118 0
112 127 0
116 127 0
113 123 0
113 123 0
114 127 0
117 132 0
121 130 0
115 126 0
121 132 0
118 130 0
128 136 0
127 135 0
123 130 0
125 131 0
126 132 0
126 129 0
124 134 0
135 139 0
133 137 0
126 132 0
133 135 0
140 142 0
128 133 0
135 139 0
142 143 0
135 139 0
139 141 0
138 139 0
138 139 0
135 137 0
138 140 0
138 140 0
135 138 0
134 136 0
140 140 0
143 143 0
141 144 0
143 143 0
142 144 0
145 144 0
145 142 0
142 144 0
145 142 0
144 143 0
140 143 0
141 141 0
144 142 0
147 143 0
143 143 0
144 144 0
149 146 0
147 146 0
148 146 0
145 145 0
144 144 0
146 144 0
148 146 0
148 144 0
145 142 0
151 148 0
146 144 0
147 145 0
145 145 0
147 144 0
149 146 0
148 147 0
145 143 0
150 146 0
149 147 0
146 145 0
150 147 0
149 148 0
150 146 0
147 147 0
151 148 0
152 149 0
149 147 0
150 147 0
150 147 0
149 146 0
151 148 0
152 149 0
152 148 0
150 147 0
147 143 0
153 150 0
151 149 0
152 148 0
152 148 0
150 148 0
152 150 0
154 151 0
152 148 0
151 148 0
153 150 0
148 146 0
152 149 0
148 145 0
154 150 0
149 148 0
152 149 0
151 148 0
153 150 0
153 150 0
151 149 0
152 148 0
154 150 0
155 150 0
154 151 0
152 150 0
152 150 0
156 151 0
153 150 0
153 150 0
155 152 0
152 149 0
152 149 0
151 150 0
154 150 0
171 196 0
173 197 0
171 195 0
173 197 0
172 196 0
173 196 0
174 197 0
172 196 0
174 198 51
177 200 72
178 200 72
183 204 105
178 200 91
183 204 102
179 201 80
178 200 84
183 205 114
182 205 122
182 203 105
184 206 130
182 203 95
180 202 98
176 199 88
177 200 80
179 202 91
177 200 91
177 201 95
178 200 76
177 200 84
177 200 88
177 200 72
175 200 84
177 200 80
178 202 95
174 197 80
173 197 51
172 197 67
174 198 62
175 199 62
174 198 72
176 199 72
175 199 84
173 197 44
177 201 91
172 197 67
173 198 72
174 199 76
173 197 57
175 200 88
175 199 67
172 197 62
174 199 88
174 199 80
175 198 67
174 197 36
171 195 36
174 198 51
172 197 57
173 198 62
174 199 88
174 199 72
172 198 62
173 198 51
172 196 62
172 197 57
174 197 51
173 197 44
174 198 62
169 196 67
171 197 84
171 196 57
172 196 44
174 198 88
174 199 102
170 196 44
172 197 57
171 197 62
172 197 62
171 197 62
173 197 62
171 197 62
171 197 80
168 195 67
173 198 67
168 195 62
171 197 51
172 197 51
170 197 62
171 197 51
167 195 57
169 196 67
171 197 67
167 195 57
166 195 57
173 199 91
171 196 57
172 198 91
169 196 72
168 195 72
167 195 72
172 198 91
169 195 57
170 195 51
170 196 72
171 197 51
167 196 72
171 197 62
166 194 57
168 196 67
164 195 67
166 195 62
170 198 80
169 197 80
172 199 88
173 198 84
169 198 88
164 194 72
166 196 95
173 199 102
166 196 91
165 194 72
158 191 51
166 196 98
158 191 57
146 185 25
145 185 0
143 184 0
144 186 0
149 188 0
158 192 0
157 189 25
153 188 0
161 192 36
157 189 0
160 191 25
164 194 51
164 194 51
172 200 91
168 195 44
169 196 0
166 195 0
169 196 0
170 195 0
167 194 0
168 195 0
167 194 0
166 194 0
166 194 0
169 195 0
165 194 0
167 194 0
165 194 0
169 194 0
168 195 0
165 193 0
171 195 0
160 192 0
165 195 18
73 180 76
54 177 97
55 180 97
55 181 97
55 180 94
57 184 108
55 180 102
55 181 97
56 180 91
58 184 100
58 185 111
57 184 106
55 181 102
55 183 106
55 179 91
54 179 86
57 185 111
53 178 95
57 184 123
59 188 128
56 181 97
55 181 100
57 182 97
57 185 116
56 183 112
56 182 98
57 184 115
55 182 108
55 181 105
55 180 102
57 184 109
55 180 98
55 180 100
55 180 97
57 183 105
55 179 102
56 184 115
54 177 97
52 176 90
57 183 115
56 182 102
57 184 112
53 175 95
56 182 106
55 179 106
56 180 97
55 179 88
54 176 84
54 175 93
55 179 108
56 180 111
56 181 102
56 181 98
56 180 105
53 174 97
56 179 105
56 181 112
54 176 93
57 182 106
56 181 103
56 181 109
55 178 93
55 177 98
55 177 103
52 170 93
53 173 93
55 176 105
55 177 98
52 170 91
55 177 106
54 177 100
51 170 103
53 172 90
49 165 82
52 171 105
54 171 93
52 170 91
51 163 84
50 163 91
51 165 89
50 161 74
50 161 86
50 163 90
66 151 65
159 184 18
160 188 0
158 184 0
161 186 0
166 193 0
161 188 0
162 186 0
161 186 0
167 191 0
161 184 0
166 190 0
157 184 0
167 193 0
165 190 0
158 188 0
161 185 0
166 189 0
167 190 0
163 188 0
167 189 0
126 129 0
125 129 0
122 127 0
124 132 0
118 128 0
108 118 0
114 124 0
115 120 0
111 121 0
107 117 0
106 119 0
94 111 0
101 115 0
105 119 0
105 116 0
110 123 0
107 121 0
117 124 0
109 122 0
103 119 0
117 125 0
110 123 0
124 129 0
114 124 0
111 124 0
123 131 0
124 131 0
122 130 0
129 133 0
125 136 0
124 131 0
132 138 0
122 129 0
123 129 0
124 128 0
133 136 0
130 135 0
131 133 0
131 139 0
127 130 0
135 136 0
137 138 0
134 136 0
134 138 0
140 141 0
138 139 0
132 135 0
137 140 0
136 139 0
142 141 0
135 137 0
140 138 0
139 141 0
141 142 0
142 143 0
144 143 0
142 141 0
143 142 0
143 142 0
141 139 0
146 145 0
146 142 0
147 144 0
146 146 0
139 142 0
145 145 0
142 142 0
140 141 0
145 145 0
135 139 0
146 145 0
142 144 0
142 142 0
147 145 0
146 144 0
145 144 0
146 145 0
145 143 0
143 143 0
150 148 0
147 145 0
146 145 0
151 148 0
151 146 0
148 147 0
148 144 0
146 144 0
147 146 0
148 144 0
149 146 0
149 148 0
144 142 0
150 148 0
149 147 0
152 149 0
148 147 0
148 146 0
150 147 0
152 150 0
146 144 0
147 146 0
149 146 0
152 148 0
150 147 0
149 146 0
152 150 0
149 146 0
151 148 0
152 149 0
152 149 0
152 149 0
152 148 0
153 149 0
155 151 0
150 147 0
149 147 0
151 148 0
151 148 0
152 148 0
151 149 0
152 149 0
151 149 0
150 147 0
152 150 0
153 149 0
151 149 0
152 149 0
152 148 0
152 147 0
153 149 0
156 150 0
151 148 0
154 152 0
151 148 0
152 148 0
152 148 0
154 149 0
152 150 0
174 197 0
171 196 0
172 196 0
171 196 0
171 196 0
172 196 0
172 196 0
171 196 0
174 197 0
173 197 25
176 200 76
180 202 91
180 202 91
176 199 84
178 201 84
177 200 84
177 200 74
181 202 98
180 202 91
182 204 108
178 201 88
178 201 88
180 203 111
178 202 102
179 202 91
177 201 88
177 200 80
180 203 111
174 198 62
176 200 76
177 200 76
174 198 62
175 199 67
178 201 91
177 200 84
176 199 80
176 199 84
176 199 76
175 199 84
173 197 44
175 199 76
177 200 72
176 199 67
173 198 57
174 198 44
174 199 84
173 198 72
175 199 72
173 197 51
175 199 76
173 197 62
174 198 67
173 197 51
175 199 84
174 198 51
174 198 80
174 198 80
172 197 62
175 198 67
173 198 76
174 198 80
171 197 51
172 197 67
172 197 67
172 197 62
174 198 62
175 198 62
173 198 76
175 198 62
171 197 72
172 196 36
172 197 67
172 196 44
170 197 62
169 195 57
172 197 36
173 197 72
173 198 57
172 197 67
170 196 44
169 196 76
175 199 67
169 196 80
170 196 72
171 197 57
171 197 76
174 198 76
171 197 91
171 197 76
170 195 51
173 198 67
169 195 57
172 197 67
170 196 80
172 197 62
171 196 62
173 197 51
167 194 51
172 198 84
168 195 62
171 197 88
173 198 91
168 196 57
167 195 67
171 197 67
166 197 88
169 196 62
172 198 84
170 196 62
171 197 88
162 192 51
164 195 76
168 195 72
169 195 80
171 198 105
167 196 76
168 196 95
162 194 88
160 192 76
166 196 95
163 193 80
161 193 72
149 188 25
162 191 0
148 185 0
147 185 0
148 186 0
157 189 0
140 182 0
155 189 0
160 191 0
165 192 0
163 192 0
158 189 0
166 194 25
165 193 44
171 198 80
169 195 62
168 195 0
166 194 0
169 196 0
168 194 0
169 195 0
168 195 0
164 193 0
170 195 0
170 195 0
166 195 0
164 193 0
163 192 0
163 193 0
166 194 0
166 195 0
168 194 0
167 195 0
163 193 0
163 193 0
165 194 0
153 189 36
57 177 94
53 177 80
55 181 105
55 181 97
53 176 88
56 182 97
54 176 80
54 179 95
56 183 105
54 179 97
55 180 103
57 183 105
56 181 95
56 182 95
57 183 109
57 182 98
55 182 109
57 183 112
56 182 108
55 180 105
56 181 98
57 183 109
55 180 106
55 181 100
55 181 102
56 183 109
57 183 105
55 180 97
56 181 98
54 179 97
56 184 106
54 179 97
57 184 116
55 179 93
56 184 111
53 177 97
56 180 111
56 182 111
55 180 109
55 180 103
56 182 103
57 182 116
56 180 103
57 184 115
56 181 105
55 180 109
52 175 91
55 177 97
57 182 102
55 179 103
56 182 111
57 183 115
55 178 109
54 176 95
55 178 102
55 181 105
53 174 90
56 181 106
58 184 115
54 174 100
56 182 114
54 179 103
55 178 100
54 174 98
53 174 91
55 176 115
56 180 103
55 176 102
54 176 102
54 173 112
53 170 91
53 172 97
53 172 93
51 169 82
52 168 91
53 173 100
51 165 90
53 170 93
49 162 76
47 154 74
49 158 82
46 151 78
143 180 33
158 185 0
161 184 0
157 186 0
159 186 0
164 188 0
163 189 0
162 186 0
166 190 0
160 189 0
164 186 0
165 189 0
161 186 0
167 189 0
165 188 0
162 187 0
163 187 0
161 186 0
163 187 0
165 189 0
166 189 0
155 177 0
131 130 0
127 130 0
121 125 0
114 123 0
112 123 0
106 116 0
110 121 0
103 118 0
99 111 0
106 118 0
102 116 0
100 112 0
112 121 0
101 115 0
101 117 0
111 121 0
102 118 0
109 117 0
107 121 0
113 122 0
109 119 0
118 128 0
116 123 0
114 121 0
120 129 0
118 127 0
122 131 0
117 124 0
122 127 0
115 128 0
134 140 0
127 135 0
132 134 0
130 132 0
128 130 0
126 129 0
137 139 0
124 131 0
134 138 0
135 138 0
132 136 0
126 134 0
136 137 0
140 143 0
131 135 0
138 138 0
139 137 0
136 135 0
134 139 0
145 144 0
136 140 0
140 141 0
138 141 0
138 137 0
141 140 0
138 141 0
144 145 0
136 137 0
139 140 0
142 141 0
143 142 0
141 141 0
147 147 0
146 143 0
141 143 0
147 143 0
148 145 0
144 143 0
144 143 0
144 142 0
145 143 0
144 142 0
147 144 0
142 142 0
145 141 0
145 143 0
143 143 0
145 145 0
149 145 0
146 144 0
147 145 0
147 145 0
147 146 0
149 146 0
146 144 0
151 148 0
148 146 0
148 146 0
148 144 0
150 147 0
149 146 0
150 145 0
150 148 0
149 147 0
149 145 0
149 146 0
149 147 0
150 145 0
148 141 0
147 147 0
149 146 0
151 148 0
147 145 0
148 145 0
150 148 0
153 148 0
147 145 0
147 144 0
147 147 0
152 149 0
152 149 0
152 149 0
152 148 0
151 148 0
151 146 0
152 146 0
151 148 0
153 149 0
151 148 0
152 149 0
151 147 0
149 146 0
152 148 0
151 146 0
152 150 0
151 148 0
152 148 0
155 150 0
155 150 0
153 150 0
151 148 0
152 148 0
153 149 0
153 149 0
154 151 0
152 150 0
152 148 0
171 196 0
172 196 0
172 196 0
173 196 25
168 195 0
171 195 0
169 195 0
173 196 0
173 196 0
173 197 0
174 197 0
177 200 67
177 200 84
175 198 57
180 201 95
175 199 67
173 197 67
176 199 67
176 200 80
183 205 112
183 204 114
175 199 74
180 203 105
179 202 91
177 200 76
175 199 84
175 199 84
178 201 95
175 198 62
176 200 80
175 199 76
178 201 84
176 200 76
176 199 62
176 199 76
176 199 67
173 198 76
175 199 76
176 199 76
173 197 72
175 198 51
176 199 72
176 200 80
174 198 57
174 198 72
176 199 76
176 200 88
175 199 67
175 199 72
176 199 76
171 195 36
173 199 95
173 197 36
170 196 62
174 199 76
173 198 62
175 199 91
173 197 57
174 199 76
176 199 67
174 199 84
174 199 84
172 198 67
174 198 62
168 195 36
173 198 72
175 199 76
173 197 62
173 198 67
174 198 62
170 197 72
173 197 76
172 196 44
173 197 51
171 197 62
174 198 57
173 197 62
170 195 57
170 196 62
171 197 57
170 196 57
169 196 62
170 197 76
174 198 72
167 195 57
172 197 67
172 197 67
171 197 67
173 198 80
171 196 62
172 198 72
170 195 51
174 199 80
172 197 62
171 197 72
170 197 80
170 197 84
172 197 67
167 196 67
173 198 62
166 195 67
169 196 84
171 197 76
168 195 62
172 198 76
169 196 62
161 193 67
163 193 57
168 195 67
169 196 80
165 195 80
172 198 84
165 195 84
165 194 62
171 199 98
172 199 102
170 198 111
167 196 80
164 195 72
157 191 62
167 196 91
156 190 57
148 185 0
142 181 0
144 184 0
143 184 0
148 185 0
146 185 0
148 186 0
149 187 0
155 188 0
159 191 0
162 191 36
168 194 36
164 194 44
163 194 67
172 198 72
168 194 0
165 193 0
165 193 0
169 195 0
173 197 0
165 193 0
167 194 0
162 192 0
166 194 0
166 194 0
162 193 0
167 195 0
165 193 0
164 193 0
163 192 0
166 194 0
165 194 0
162 191 0
161 192 0
162 192 0
165 194 0
164 193 0
125 184 51
53 175 76
55 182 100
56 182 100
55 181 93
53 176 88
52 178 93
55 180 86
52 178 102
54 179 91
55 181 105
55 180 95
56 183 105
55 181 103
55 180 95
54 178 93
56 182 103
56 180 98
55 182 106
55 181 111
56 181 100
57 184 116
56 182 116
56 182 105
55 181 103
56 182 106
55 180 100
54 178 93
55 179 95
58 186 111
54 178 95
54 180 98
55 180 95
54 179 90
55 179 105
55 179 103
55 180 102
53 178 98
55 182 100
55 180 105
55 178 95
56 181 106
53 177 80
56 179 100
55 179 103
56 181 97
55 180 102
54 179 100
56 180 95
54 178 95
54 176 103
54 177 97
53 176 98
57 182 102
57 181 97
54 176 98
57 181 109
55 178 108
55 178 100
52 171 93
54 175 105
53 174 97
55 176 103
56 180 103
56 180 109
53 175 100
55 177 109
55 175 88
56 179 109
51 166 95
56 178 98
53 173 103
53 173 98
50 164 84
52 168 93
52 166 97
50 162 82
49 164 80
51 163 90
48 157 82
47 156 67
125 171 51
159 188 0
150 184 0
151 182 0
153 181 0
156 182 0
164 189 0
161 184 0
162 187 0
162 186 0
162 187 0
164 188 0
163 185 0
164 186 0
162 186 0
165 188 0
160 184 0
160 183 0
166 188 0
163 186 0
162 186 0
163 186 0
157 183 0
147 165 0
128 131 0
131 133 0
111 120 0
122 123 0
120 126 0
105 114 0
109 118 0
105 117 0
105 113 0
103 112 0
99 113 0
111 120 0
104 118 0
108 118 0
102 118 0
114 120 0
111 121 0
108 118 0
108 118 0
121 123 0
116 123 0
116 124 0
112 127 0
121 128 0
122 134 0
123 130 0
111 121 0
123 130 0
122 129 0
125 130 0
122 128 0
125 128 0
124 129 0
126 131 0
129 136 0
127 133 0
132 136 0
135 138 0
133 137 0
132 136 0
132 136 0
135 138 0
136 140 0
134 136 0
140 141 0
132 135 0
140 141 0
142 142 0
139 140 0
141 140 0
140 141 0
139 139 0
141 140 0
139 137 0
145 143 0
142 142 0
140 139 0
140 139 0
146 142 0
135 138 0
144 143 0
136 141 0
144 143 0
145 141 0
142 142 0
148 144 0
142 142 0
142 142 0
147 144 0
144 143 0
140 139 0
142 144 0
148 145 0
149 147 0
147 144 0
148 145 0
150 146 0
146 144 0
144 143 0
148 146 0
148 144 0
145 144 0
148 145 0
147 145 0
144 144 0
147 145 0
149 146 0
146 144 0
147 145 0
146 143 0
150 145 0
148 144 0
149 145 0
149 147 0
151 148 0
148 145 0
147 142 0
153 149 0
151 148 0
149 144 0
150 145 0
148 144 0
147 145 0
150 147 0
150 146 0
153 149 0
151 148 0
151 148 0
152 147 0
149 146 0
149 148 0
147 144 0
149 147 0
151 148 0
148 146 0
150 147 0
153 149 0
150 146 0
154 150 0
152 147 0
155 150 0
152 148 0
153 150 0
153 149 0
151 147 0
152 149 0
153 150 0
152 148 0
151 148 0
151 146 0
152 149 0
152 148 0
154 150 0
152 149 0
153 148 0
153 150 0
171 196 0
170 196 0
172 196 0
175 197 0
173 197 0
174 197 0
172 196 0
173 197 0
172 196 0
172 195 0
172 196 0
169 195 0
173 196 44
179 202 108
177 200 84
176 200 72
179 202 98
177 200 80
176 200 80
176 199 67
183 204 98
179 201 98
180 203 111
180 203 102
180 202 98
179 201 95
178 201 88
179 202 102
178 202 102
175 200 102
184 205 124
180 203 98
175 199 84
176 200 88
175 198 62
174 198 62
175 199 84
177 200 88
175 198 57
176 200 84
175 199 80
175 199 88
175 200 80
174 199 95
173 198 72
172 197 72
173 196 51
177 200 91
176 200 88
172 197 67
175 198 57
174 198 67
176 199 62
176 200 105
173 198 44
178 202 102
171 196 57
173 197 67
174 199 80
173 198 80
176 199 80
174 198 88
172 196 51
175 198 72
174 198 72
173 198 84
168 195 57
170 196 57
172 199 80
170 196 57
174 198 72
173 198 84
172 196 62
172 197 67
171 196 51
171 197 72
172 198 76
175 198 67
171 196 44
171 196 62
172 197 67
173 198 76
171 197 72
170 196 72
172 198 62
170 196 67
171 197 57
168 195 62
170 196 62
172 197 67
172 198 67
171 197 76
169 197 80
172 197 76
172 197 67
171 197 76
172 197 84
171 198 62
169 196 62
169 197 67
172 198 57
169 196 76
168 195 57
169 197 67
173 198 88
171 197 88
169 198 91
166 195 44
170 197 76
170 197 72
174 200 108
167 196 84
170 196 91
169 198 102
174 201 111
171 199 91
161 194 57
164 194 88
160 191 62
156 191 51
151 188 25
147 185 0
141 182 0
149 186 0
150 187 0
150 187 0
153 189 0
155 189 0
143 186 0
159 191 0
156 189 0
161 192 36
165 195 62
167 196 57
168 197 67
172 198 72
164 192 0
167 195 0
165 194 0
168 196 0
163 192 0
166 195 0
164 194 0
162 193 0
167 194 0
168 194 0
166 195 0
160 191 0
162 192 0
166 194 0
162 192 0
168 195 0
160 193 0
163 192 0
161 193 0
157 191 0
162 191 0
162 192 0
165 194 0
160 192 0
105 180 65
50 174 86
52 175 76
55 181 93
55 182 105
55 181 93
55 182 108
54 180 102
55 180 95
56 184 114
55 180 102
56 181 95
54 180 91
53 176 86
55 180 88
56 182 109
55 180 93
54 179 97
54 180 93
55 181 108
53 176 97
56 182 114
58 186 116
55 180 100
55 180 98
54 179 100
55 180 100
54 180 91
56 180 97
53 179 98
56 183 102
54 178 98
54 178 88
57 185 123
52 175 91
57 183 114
53 177 95
55 180 111
56 183 111
55 179 95
58 185 116
54 177 93
54 179 95
55 180 102
57 183 108
56 180 105
54 178 98
56 180 105
54 175 91
54 178 88
55 178 102
57 181 108
55 179 97
56 179 102
53 176 91
54 176 97
54 177 98
55 177 97
54 176 88
54 175 102
53 175 102
55 180 108
56 179 103
55 179 109
55 176 97
52 173 93
52 169 88
54 176 102
54 173 93
54 172 95
50 166 84
52 172 93
51 165 88
51 165 95
52 169 97
51 161 88
50 159 91
48 158 73
47 155 79
96 166 65
161 185 0
152 181 0
156 182 0
162 189 0
157 185 0
159 183 0
156 184 0
156 185 0
151 178 0
161 184 0
163 188 0
150 179 0
153 179 0
158 183 0
154 180 0
159 183 0
161 183 0
160 184 0
163 185 0
161 183 0
166 187 0
164 188 0
156 181 0
160 183 0
148 162 0
123 125 0
123 126 0
120 124 0
116 123 0
108 116 0
114 119 0
110 115 0
115 120 0
102 116 0
111 118 0
109 116 0
113 119 0
111 117 0
110 120 0
115 120 0
109 119 0
110 121 0
117 124 0
115 122 0
116 124 0
116 123 0
124 125 0
118 130 0
122 129 0
111 121 0
122 128 0
124 128 0
124 129 0
128 131 0
128 130 0
128 133 0
128 132 0
128 132 0
133 136 0
132 134 0
130 130 0
130 134 0
130 135 0
123 128 0
127 128 0
137 138 0
135 136 0
140 141 0
131 136 0
136 137 0
137 138 0
138 140 0
138 139 0
137 138 0
135 136 0
140 139 0
139 140 0
142 141 0
139 139 0
143 142 0
141 141 0
142 142 0
142 142 0
138 138 0
141 138 0
141 139 0
142 140 0
140 139 0
145 142 0
144 141 0
142 140 0
142 140 0
141 142 0
147 145 0
147 145 0
143 143 0
143 141 0
151 147 0
148 144 0
145 145 0
145 144 0
146 142 0
146 142 0
147 144 0
146 145 0
146 142 0
146 146 0
146 144 0
147 147 0
146 144 0
149 146 0
143 143 0
145 142 0
151 147 0
148 144 0
149 146 0
151 149 0
149 144 0
148 147 0
148 144 0
151 147 0
146 142 0
149 147 0
148 146 0
149 146 0
149 146 0
150 146 0
146 144 0
148 145 0
150 148 0
149 146 0
147 144 0
151 146 0
151 147 0
151 148 0
148 144 0
154 150 0
152 148 0
150 147 0
150 145 0
151 147 0
149 147 0
150 147 0
153 149 0
153 150 0
151 148 0
151 147 0
153 148 0
153 149 0
150 147 0
151 148 0
153 147 0
151 147 0
153 150 0
154 150 0
154 149 0
151 148 0
152 148 0
151 147 0
150 148 0
173 197 0
172 196 0
172 196 0
173 197 0
173 196 0
170 195 0
173 197 0
173 196 0
172 196 0
170 195 0
171 196 0
173 197 0
172 197 0
175 199 72
178 201 88
177 200 88
179 201 80
177 200 76
176 199 72
179 200 88
177 200 67
179 202 98
185 206 127
180 202 105
182 203 105
176 200 88
182 204 105
180 202 84
177 201 95
177 201 91
176 200 72
176 199 84
176 201 95
176 199 72
177 200 91
174 198 72
174 198 57
176 200 95
178 201 88
176 200 76
175 200 91
174 198 72
176 199 76
174 199 84
177 201 91
173 198 72
174 199 76
170 197 76
172 197 67
174 198 67
175 199 67
175 199 67
175 198 57
176 199 76
173 197 80
171 197 57
173 197 57
173 198 62
174 198 91
174 198 62
174 198 57
173 197 44
173 198 84
173 198 76
172 197 51
172 197 72
173 197 57
171 197 72
171 198 67
172 198 67
171 196 44
175 199 84
175 199 76
173 198 80
173 197 72
173 198 72
172 197 84
172 196 62
170 197 72
174 198 80
172 198 91
171 197 72
171 196 67
171 195 51
173 197 62
170 197 62
172 197 57
171 196 80
172 197 67
173 197 67
174 198 67
167 195 62
170 197 72
169 197 72
171 197 76
171 196 57
168 195 72
170 197 67
173 198 84
170 197 91
168 195 62
171 196 76
166 195 84
170 196 80
170 197 80
168 197 95
168 195 72
169 195 72
171 198 98
167 197 91
167 196 76
161 194 84
170 197 91
171 198 114
172 199 102
164 194 51
166 195 76
167 196 88
156 190 51
147 184 0
153 189 0
153 188 0
151 188 0
152 189 0
149 185 0
148 185 0
150 186 0
158 189 0
153 189 0
154 189 0
159 191 0
159 193 25
165 195 51
165 194 44
171 198 88
164 193 0
164 194 0
164 193 0
172 197 0
168 195 0
166 193 0
163 192 0
163 193 0
166 195 0
166 193 0
161 193 0
161 193 0
163 193 0
164 193 0
159 193 0
154 190 0
164 193 0
161 192 0
165 194 0
164 193 0
158 190 0
157 191 0
159 192 0
155 189 0
154 190 0
158 191 0
91 180 67
53 177 91
54 179 82
52 176 92
53 178 91
56 182 100
53 177 93
54 179 90
55 180 100
53 178 80
52 176 88
53 178 86
54 178 97
54 179 93
52 174 84
53 175 86
53 178 88
52 175 80
54 180 91
54 180 108
54 178 103
54 177 93
56 181 98
53 177 98
52 177 86
54 180 97
55 180 95
53 177 76
57 186 114
55 178 98
53 176 93
56 183 102
55 180 105
54 179 93
56 182 106
58 186 122
55 179 100
54 178 97
55 179 84
56 180 98
56 182 103
55 178 100
54 177 88
54 177 98
56 180 103
55 180 103
53 175 100
54 177 90
55 180 98
53 176 103
55 180 103
55 179 98
54 177 100
55 179 98
54 176 93
55 179 103
50 166 84
54 175 100
54 175 93
55 178 105
53 173 93
55 177 91
54 173 108
53 171 100
56 179 108
53 173 97
55 176 100
55 177 102
53 170 97
51 165 86
48 161 74
51 165 88
50 165 72
47 158 74
50 162 93
48 153 66
48 156 78
91 154 44
154 183 0
150 181 0
151 181 0
156 184 0
157 181 0
152 181 0
156 180 0
153 178 0
153 182 0
156 184 0
158 184 0
153 179 0
157 183 0
153 178 0
162 185 0
159 178 0
164 185 0
155 180 0
160 186 0
157 181 0
164 186 0
155 177 0
160 180 0
160 185 0
163 184 0
164 186 0
136 149 0
124 124 0
126 123 0
116 121 0
110 115 0
114 123 0
111 116 0
104 112 0
111 119 0
111 119 0
105 114 0
113 119 0
111 122 0
96 112 0
106 119 0
105 118 0
114 123 0
125 127 0
115 122 0
114 119 0
115 122 0
121 125 0
117 127 0
114 124 0
118 127 0
123 127 0
125 129 0
123 128 0
126 130 0
128 133 0
124 131 0
120 127 0
113 124 0
125 131 0
125 131 0
134 136 0
133 137 0
128 134 0
131 134 0
134 137 0
132 133 0
137 138 0
132 136 0
137 140 0
131 134 0
138 138 0
137 135 0
138 138 0
140 140 0
134 135 0
139 139 0
135 134 0
143 141 0
142 139 0
141 139 0
145 143 0
139 138 0
141 140 0
137 138 0
141 139 0
143 141 0
141 141 0
144 140 0
142 142 0
144 142 0
140 137 0
144 141 0
144 142 0
142 139 0
145 143 0
146 141 0
140 139 0
146 143 0
142 141 0
146 145 0
144 142 0
150 146 0
143 143 0
146 144 0
147 145 0
143 144 0
145 142 0
147 146 0
150 145 0
148 145 0
147 143 0
143 142 0
149 145 0
148 146 0
145 143 0
149 147 0
146 145 0
145 142 0
148 144 0
150 146 0
150 145 0
145 142 0
151 147 0
147 143 0
152 148 0
148 145 0
148 146 0
151 147 0
152 147 0
148 144 0
151 146 0
148 144 0
150 146 0
151 146 0
148 145 0
150 146 0
151 148 0
152 147 0
148 145 0
150 147 0
149 145 0
150 146 0
149 146 0
150 146 0
151 147 0
152 148 0
152 149 0
151 148 0
151 148 0
151 147 0
153 150 0
153 150 0
152 149 0
152 148 0
152 147 0
153 149 0
152 149 0
152 149 0
153 149 0
154 150 0
169 195 0
174 197 0
174 196 0
172 196 0
174 197 0
171 196 0
174 197 0
174 197 0
171 195 0
173 197 0
173 196 0
170 195 0
172 196 0
172 196 0
173 197 36
179 201 80
175 198 76
176 199 57
178 201 88
178 201 84
180 202 95
178 200 67
173 197 51
174 199 84
182 204 114
180 203 102
178 201 98
178 201 84
177 201 91
176 200 84
179 202 105
176 199 76
178 201 88
174 199 84
172 197 76
172 197 44
178 201 91
175 199 72
174 199 80
176 199 84
175 199 80
175 199 80
176 199 67
175 199 72
176 200 98
173 199 88
174 198 80
174 198 76
174 198 72
174 198 72
174 198 57
175 199 80
175 198 62
176 199 72
173 199 84
171 196 57
168 195 44
172 197 72
174 198 72
175 198 62
173 199 76
173 197 62
172 197 44
174 199 98
175 198 62
172 197 76
173 198 88
173 198 76
173 197 67
173 198 76
173 198 67
174 199 88
169 196 72
170 197 62
173 198 80
172 198 80
171 198 80
172 197 67
172 197 62
173 197 62
174 198 76
172 197 67
171 195 80
173 197 44
173 198 67
173 196 57
173 198 76
170 196 62
169 194 62
172 196 44
172 197 62
168 195 67
172 197 57
175 199 95
168 194 44
166 193 51
171 197 72
168 196 67
166 195 80
172 196 67
173 197 62
169 195 72
169 196 88
168 194 72
170 197 80
169 194 67
165 195 80
169 196 84
164 194 91
167 197 102
168 196 88
170 200 108
168 197 98
164 194 67
164 195 67
158 190 76
161 191 62
153 187 0
152 188 0
150 187 0
149 186 0
163 192 0
149 188 0
150 186 0
158 189 0
151 186 0
156 189 0
154 188 0
161 191 0
161 191 36
163 193 36
166 195 57
162 192 25
169 197 76
166 194 0
168 194 0
163 193 0
165 194 0
161 192 0
162 192 0
164 193 0
163 193 0
161 192 0
163 193 0
165 194 0
159 191 0
161 190 0
163 193 0
161 192 0
162 193 0
159 192 0
158 189 0
157 190 0
161 193 0
157 190 0
153 188 0
153 190 0
161 192 0
158 191 0
162 192 0
156 189 0
156 189 0
84 178 72
53 176 76
51 175 93
53 177 91
55 181 102
53 177 82
54 180 92
55 182 105
55 179 91
55 181 102
53 175 88
53 177 90
55 181 90
54 179 103
54 179 91
54 178 90
55 180 106
55 179 97
56 183 114
56 180 93
54 180 102
53 177 84
55 177 93
55 180 100
56 181 106
55 180 105
56 180 103
56 183 106
54 179 93
54 178 86
55 178 91
54 177 95
54 177 93
56 181 108
53 178 98
56 182 103
53 177 97
55 179 100
52 174 91
55 181 106
55 180 111
54 180 102
54 175 95
53 175 93
57 183 112
54 177 102
54 175 102
55 180 102
57 183 106
54 175 98
55 179 98
54 176 97
52 174 86
51 171 84
54 176 91
55 176 97
55 177 95
52 171 95
52 170 82
54 175 91
52 172 98
52 171 93
51 173 91
51 168 78
51 170 78
50 167 91
51 168 90
52 169 84
52 170 88
51 167 93
52 168 103
50 162 86
51 166 88
48 157 80
50 160 91
78 158 67
142 172 0
148 179 0
146 177 0
156 180 0
154 183 0
158 186 0
151 183 0
146 177 0
155 181 0
153 181 0
157 182 0
160 182 0
156 182 0
150 178 0
157 183 0
157 180 0
155 179 0
157 181 0
152 173 0
153 180 0
157 181 0
159 179 0
159 181 0
161 180 0
156 180 0
153 172 0
157 182 0
159 181 0
135 144 0
123 122 0
122 124 0
115 120 0
112 117 0
114 115 0
109 114 0
116 120 0
111 116 0
106 114 0
110 116 0
118 120 0
116 125 0
111 120 0
114 117 0
120 125 0
113 118 0
126 125 0
121 125 0
121 129 0
107 115 0
122 124 0
115 121 0
120 125 0
125 126 0
117 125 0
124 126 0
120 129 0
118 128 0
128 130 0
118 128 0
127 131 0
124 128 0
129 128 0
131 131 0
137 138 0
128 129 0
138 138 0
134 132 0
133 135 0
132 134 0
124 129 0
133 138 0
132 129 0
137 137 0
135 134 0
133 134 0
141 140 0
139 137 0
141 141 0
138 137 0
139 138 0
132 138 0
139 139 0
137 139 0
141 138 0
139 138 0
139 136 0
139 138 0
136 137 0
141 142 0
143 139 0
141 140 0
143 141 0
144 141 0
144 142 0
148 145 0
144 141 0
145 142 0
143 140 0
143 140 0
145 145 0
143 140 0
143 138 0
148 146 0
145 140 0
143 141 0
145 142 0
145 143 0
147 143 0
146 142 0
144 141 0
145 142 0
147 143 0
148 144 0
146 143 0
145 143 0
149 146 0
147 143 0
148 144 0
148 143 0
145 143 0
149 144 0
147 144 0
146 140 0
146 144 0
149 147 0
148 145 0
148 146 0
146 144 0
151 147 0
151 147 0
149 147 0
150 146 0
146 144 0
148 144 0
148 146 0
148 143 0
150 146 0
151 146 0
150 147 0
151 146 0
152 148 0
153 149 0
152 148 0
154 149 0
152 147 0
147 144 0
151 148 0
153 148 0
151 148 0
151 146 0
154 150 0
154 149 0
152 147 0
152 148 0
151 148 0
153 150 0
151 148 0
152 148 0
150 147 0
150 147 0
152 147 0
155 149 0
169 194 0
172 196 0
173 196 0
172 196 0
171 195 0
172 196 0
173 196 0
173 196 0
171 196 0
173 197 0
171 195 0
174 197 0
172 197 0
169 194 0
170 195 0
174 197 25
174 197 57
176 200 76
178 200 80
177 200 80
182 203 95
176 200 80
175 198 72
177 201 84
175 198 57
180 201 91
181 205 119
182 204 116
180 203 108
179 201 88
177 201 88
177 201 111
174 198 36
177 201 95
177 200 91
180 202 95
178 201 95
179 202 102
176 200 76
174 198 62
178 200 84
178 201 88
175 199 80
175 199 91
174 198 76
170 195 57
174 198 72
173 198 67
174 198 67
176 198 62
173 198 67
174 198 88
177 199 67
173 198 72
172 197 76
174 199 84
175 199 80
174 198 72
172 197 67
175 199 76
175 199 84
174 197 76
172 197 72
172 196 57
172 197 44
171 197 76
172 198 84
170 196 62
172 197 62
175 198 72
172 197 62
171 196 44
175 199 88
170 197 72
172 197 84
174 198 62
177 200 88
172 197 84
172 197 72
173 197 67
170 197 88
168 195 67
173 197 67
174 199 67
175 200 95
175 199 84
175 199 80
169 195 72
169 196 72
174 198 62
170 196 84
171 196 51
170 196 67
170 195 67
174 199 84
170 194 62
174 197 67
168 197 91
172 196 51
174 197 76
173 198 91
172 198 80
168 196 88
168 195 91
167 197 111
172 198 88
172 198 84
169 197 95
165 195 98
169 196 91
173 198 88
163 192 44
165 195 76
165 193 80
163 195 95
155 189 44
154 190 0
156 191 0
155 190 0
155 190 0
148 187 0
148 187 0
151 189 0
155 188 0
151 188 0
158 191 0
159 189 0
155 188 0
159 190 25
163 193 36
158 192 44
169 196 36
170 197 76
163 193 0
164 193 0
166 193 0
166 195 0
163 192 0
165 194 0
160 192 0
158 189 0
156 190 0
161 190 0
165 194 0
162 193 0
162 192 0
163 193 0
161 193 0
152 189 0
161 192 0
158 191 0
155 190 0
159 191 0
154 189 0
157 190 0
155 189 0
155 189 0
153 189 0
160 192 0
156 190 0
150 188 0
155 189 0
147 188 40
75 175 76
50 173 76
53 178 88
53 178 93
57 185 111
54 177 88
50 173 88
51 173 80
53 175 93
54 178 90
55 181 95
53 178 90
52 175 90
55 181 97
55 182 103
53 178 91
54 179 95
53 176 86
53 179 102
54 179 102
54 176 88
54 179 97
53 177 86
55 177 88
54 180 90
56 182 102
53 177 86
55 179 91
55 181 108
56 183 108
53 177 91
54 178 102
52 173 88
54 178 95
53 176 86
56 180 95
55 179 91
56 182 105
54 178 102
55 181 112
55 179 102
54 178 95
55 181 102
54 177 97
55 177 100
56 182 108
52 172 84
54 177 91
54 178 106
54 178 103
52 175 86
55 178 108
52 173 88
55 175 91
53 172 97
55 175 95
54 177 108
52 171 80
54 177 93
51 171 97
51 170 78
51 168 76
51 168 88
52 174 91
54 173 88
50 163 72
52 168 86
54 172 102
52 168 86
47 159 78
49 163 72
46 158 75
48 158 80
72 154 57
139 172 25
140 174 0
151 178 0
147 174 0
151 178 0
151 181 0
145 174 0
153 180 0
146 179 0
153 177 0
151 180 0
154 179 0
148 173 0
149 175 0
148 176 0
150 178 0
153 177 0
157 178 0
154 181 0
149 173 0
155 178 0
151 176 0
156 180 0
155 178 0
156 177 0
161 180 0
157 177 0
158 180 0
154 180 0
156 179 0
142 151 0
114 116 0
116 119 0
111 116 0
107 115 0
114 119 0
118 121 0
110 116 0
116 119 0
107 115 0
106 116 0
114 118 0
110 117 0
105 117 0
114 118 0
112 121 0
110 113 0
117 121 0
117 121 0
121 130 0
111 118 0
116 119 0
118 126 0
122 126 0
122 128 0
122 127 0
125 130 0
123 128 0
119 123 0
123 128 0
132 131 0
127 131 0
127 128 0
129 127 0
126 130 0
128 133 0
134 135 0
130 133 0
129 134 0
127 131 0
136 133 0
134 134 0
133 134 0
128 132 0
134 132 0
138 135 0
132 134 0
141 140 0
140 137 0
138 136 0
137 136 0
139 137 0
136 135 0
137 137 0
136 138 0
137 136 0
144 140 0
140 136 0
143 137 0
142 140 0
145 139 0
138 139 0
143 140 0
141 142 0
142 138 0
138 136 0
139 138 0
142 139 0
142 140 0
147 142 0
148 144 0
144 140 0
148 142 0
146 141 0
141 138 0
146 144 0
141 143 0
146 144 0
148 141 0
145 141 0
147 142 0
146 141 0
145 141 0
149 146 0
147 145 0
148 143 0
145 143 0
150 144 0
148 144 0
149 145 0
149 145 0
150 147 0
147 143 0
145 143 0
150 147 0
147 145 0
147 145 0
149 144 0
146 145 0
148 145 0
150 147 0
150 146 0
150 146 0
149 147 0
149 146 0
149 147 0
147 142 0
146 141 0
151 145 0
149 145 0
148 146 0
150 146 0
148 144 0
151 148 0
148 145 0
150 147 0
149 145 0
151 147 0
150 144 0
152 149 0
152 146 0
152 147 0
151 148 0
152 146 0
150 149 0
153 148 0
152 148 0
151 147 0
148 144 0
150 146 0
152 148 0
153 150 0
154 150 0
172 196 0
174 197 0
172 196 0
173 197 0
171 196 0
174 197 0
173 197 0
173 197 0
170 195 0
171 196 0
172 196 0
172 196 0
170 195 0
171 195 0
171 196 0
171 196 0
174 197 0
171 196 36
174 198 62
173 198 62
176 199 80
178 201 80
176 200 98
179 201 84
175 199 76
172 197 51
177 200 80
179 202 102
174 199 84
181 203 98
178 202 114
179 202 105
178 202 102
179 203 114
179 202 105
177 200 72
178 201 98
176 201 95
177 201 95
178 201 80
178 201 88
176 200 76
175 198 91
176 199 88
177 200 84
173 197 57
173 198 57
173 198 84
173 197 67
178 200 80
172 197 72
174 198 62
176 200 80
176 200 88
171 198 80
171 197 88
174 198 62
174 198 76
173 198 67
173 198 84
170 194 44
175 198 67
173 198 80
171 197 67
173 198 62
173 197 84
171 197 57
170 196 51
172 197 62
175 198 62
175 199 80
171 196 51
173 197 62
176 198 67
170 195 80
174 199 80
174 198 91
170 196 57
173 197 51
176 199 95
173 198 84
172 196 44
175 199 67
172 197 84
172 197 80
176 198 67
168 194 57
171 196 80
168 195 51
170 197 67
174 198 62
169 195 67
173 197 76
170 196 67
169 197 76
171 197 76
170 197 76
171 197 80
170 196 57
172 198 80
173 197 72
170 195 76
169 196 88
172 197 98
165 194 72
171 197 91
170 198 114
177 200 105
167 195 80
164 194 84
169 195 67
167 196 84
158 191 57
149 187 51
155 188 0
154 189 0
152 187 0
142 184 0
157 191 0
157 190 0
159 191 0
151 187 0
152 188 0
155 190 0
160 190 0
146 186 0
155 187 0
160 192 25
167 194 51
164 194 36
166 196 67
165 195 72
166 193 0
160 190 0
159 189 0
163 193 0
166 194 0
159 190 0
164 194 0
168 195 0
162 193 0
163 193 0
162 193 0
159 191 0
157 190 0
152 189 0
159 191 0
161 192 0
159 190 0
160 191 0
161 193 0
148 185 0
156 189 0
152 189 0
160 192 0
153 187 0
153 190 0
150 187 0
147 188 0
154 190 0
150 187 0
150 189 0
143 184 0
146 186 25
78 179 78
53 177 88
52 175 78
52 175 76
53 178 95
52 174 72
52 174 82
53 177 88
54 179 105
53 177 93
54 179 90
54 177 95
54 179 91
56 181 100
53 178 95
53 177 88
52 175 86
55 181 86
51 172 78
54 178 95
55 181 100
54 179 97
53 176 93
56 182 97
55 179 98
53 178 98
55 180 103
55 180 103
54 177 98
53 177 91
54 176 90
55 178 103
52 175 93
55 179 91
55 181 112
53 176 95
51 172 90
54 178 93
52 173 90
54 179 98
53 176 93
54 178 98
53 176 86
53 175 90
55 180 105
53 174 93
55 180 91
53 173 82
50 168 90
53 174 91
54 178 91
55 181 105
52 173 86
54 176 90
53 174 100
53 175 91
51 171 90
53 176 100
53 173 95
50 167 80
53 173 100
49 165 80
51 170 97
54 173 84
48 161 65
52 167 78
49 160 78
49 162 72
49 164 80
49 158 86
48 157 76
71 158 69
137 174 0
147 176 0
150 181 0
149 178 0
147 176 0
148 176 0
138 171 0
145 175 0
145 171 0
146 174 0
146 174 0
146 175 0
152 179 0
147 176 0
150 176 0
156 178 0
155 180 0
155 181 0
155 176 0
144 171 0
151 175 0
152 174 0
158 179 0
154 175 0
151 172 0
156 180 0
154 176 0
150 169 0
157 179 0
156 176 0
151 174 0
156 177 0
132 147 0
119 119 0
111 118 0
113 116 0
113 114 0
110 112 0
109 112 0
110 113 0
109 116 0
105 114 0
109 119 0
110 114 0
115 121 0
117 121 0
104 116 0
112 116 0
114 120 0
120 123 0
116 119 0
115 119 0
117 121 0
117 123 0
122 125 0
115 125 0
129 132 0
122 128 0
128 130 0
117 123 0
124 127 0
128 132 0
120 124 0
124 130 0
127 131 0
127 130 0
131 131 0
136 134 0
131 132 0
124 128 0
134 133 0
132 133 0
136 136 0
132 135 0
140 137 0
136 137 0
137 137 0
141 139 0
142 140 0
133 133 0
136 135 0
136 136 0
138 137 0
138 136 0
140 137 0
139 139 0
143 140 0
141 137 0
141 138 0
139 139 0
138 138 0
139 137 0
141 139 0
147 144 0
143 139 0
144 144 0
146 141 0
146 144 0
143 141 0
139 139 0
146 141 0
143 140 0
145 141 0
147 142 0
143 139 0
145 141 0
145 142 0
142 140 0
142 139 0
144 142 0
148 144 0
145 141 0
146 142 0
146 141 0
146 145 0
149 146 0
148 144 0
145 142 0
149 144 0
149 143 0
147 143 0
143 140 0
143 141 0
147 141 0
146 143 0
148 145 0
150 145 0
147 144 0
150 146 0
147 142 0
146 140 0
151 148 0
149 145 0
148 145 0
150 147 0
151 147 0
147 143 0
149 146 0
149 145 0
151 147 0
148 146 0
151 145 0
150 147 0
152 149 0
148 145 0
151 146 0
152 147 0
149 145 0
152 148 0
149 146 0
151 148 0
150 147 0
151 145 0
150 146 0
151 144 0
151 146 0
149 146 0
150 146 0
150 146 0
149 146 0
152 149 0
153 147 0
152 148 0
151 148 0
174 197 0
171 196 0
170 195 0
172 196 0
172 196 0
170 195 0
171 196 0
171 195 0
172 196 0
172 196 0
173 197 0
173 196 0
173 197 0
171 196 0
172 196 0
173 197 0
173 197 0
173 197 0
173 197 0
175 198 36
175 198 62
175 198 72
175 199 76
176 199 72
180 202 91
177 200 76
174 199 67
172 196 44
175 198 67
179 201 84
182 204 105
181 203 114
177 200 88
178 201 102
184 206 132
174 198 67
176 199 72
177 201 102
179 202 95
173 198 80
177 200 91
176 200 84
175 199 88
175 199 72
176 200 84
176 199 84
173 197 57
176 200 84
177 200 84
176 199 76
171 198 67
174 198 76
174 198 44
176 199 76
177 200 91
174 198 62
173 198 72
175 199 62
177 200 84
173 197 44
174 199 80
175 198 57
172 197 72
174 199 72
172 197 62
169 195 57
174 199 80
174 198 80
173 198 57
173 197 67
173 198 72
173 199 88
170 196 57
172 197 80
175 199 88
173 198 62
171 196 57
174 197 67
173 197 57
173 199 88
170 196 57
171 197 67
174 198 80
173 197 76
172 197 67
171 197 84
171 195 62
170 195 76
176 199 67
168 194 62
171 196 57
171 196 67
175 198 91
168 196 84
177 200 91
167 195 80
173 197 76
169 196 95
172 197 80
170 195 76
164 193 72
171 197 76
173 198 88
168 196 80
169 197 88
176 200 108
169 195 67
163 194 72
165 193 80
165 192 80
166 195 72
165 195 57
159 191 44
155 188 0
151 187 0
155 187 0
157 192 0
151 186 0
152 187 0
152 187 0
154 189 0
161 193 0
160 190 0
156 190 0
156 189 0
166 193 0
161 192 36
165 194 36
163 193 36
161 193 57
172 199 80
164 193 0
164 194 0
164 193 0
164 192 0
161 193 0
160 191 0
155 189 0
159 192 0
159 191 0
161 192 0
164 193 0
163 192 0
164 192 0
154 190 0
160 192 0
160 192 0
160 190 0
157 191 0
151 189 0
159 190 0
159 191 0
157 190 0
153 188 0
143 185 0
149 186 0
155 189 0
156 190 0
153 189 0
149 186 0
154 189 0
156 189 0
148 187 0
150 187 0
147 186 0
68 171 62
51 174 82
52 176 75
51 176 95
52 171 84
56 183 102
54 177 84
53 176 86
54 178 88
51 174 84
52 177 93
52 176 88
52 173 78
56 182 98
53 178 88
52 174 86
51 175 86
53 175 78
53 179 98
55 181 105
55 181 106
54 180 95
52 175 86
54 178 97
53 177 97
54 179 98
53 176 88
55 179 97
52 175 91
56 182 114
53 175 90
55 179 108
54 177 86
54 179 95
54 178 102
52 173 88
54 177 88
57 182 108
54 178 93
55 177 93
54 176 91
52 174 90
54 178 91
54 178 100
53 177 100
55 179 103
54 176 88
53 176 98
54 179 109
52 172 80
53 175 102
52 174 93
50 167 91
53 171 88
53 173 95
53 175 97
51 170 82
51 166 90
53 173 93
52 168 76
52 170 97
50 165 74
50 166 80
51 169 80
47 157 65
49 165 76
50 163 86
49 158 67
44 148 62
73 151 51
129 168 0
136 171 0
136 170 0
140 171 0
140 174 0
142 178 0
145 177 0
138 170 0
144 174 0
146 174 0
143 171 0
146 171 0
147 172 0
143 170 0
137 166 0
157 180 0
147 172 0
144 169 0
142 166 0
146 171 0
157 178 0
147 172 0
147 170 0
149 173 0
155 175 0
155 175 0
153 174 0
153 173 0
149 172 0
154 174 0
159 176 0
147 169 0
155 177 0
152 174 0
141 151 0
117 118 0
108 113 0
115 117 0
117 119 0
114 116 0
120 121 0
114 116 0
116 116 0
116 119 0
115 117 0
110 114 0
106 111 0
114 120 0
109 113 0
108 117 0
117 120 0
122 124 0
117 120 0
124 124 0
119 119 0
117 122 0
123 124 0
118 119 0
124 127 0
128 128 0
125 127 0
120 124 0
120 125 0
127 128 0
126 126 0
131 133 0
128 129 0
124 126 0
131 134 0
125 129 0
131 130 0
136 136 0
130 136 0
130 132 0
135 131 0
133 130 0
126 130 0
130 132 0
135 134 0
137 135 0
134 133 0
140 137 0
139 140 0
136 137 0
134 134 0
138 135 0
135 135 0
137 136 0
139 139 0
137 137 0
140 136 0
138 136 0
143 142 0
140 137 0
142 140 0
141 136 0
144 140 0
139 136 0
146 142 0
144 141 0
137 135 0
143 142 0
142 137 0
143 142 0
142 139 0
145 142 0
142 140 0
144 141 0
145 144 0
144 140 0
144 140 0
144 141 0
146 141 0
144 141 0
147 143 0
147 142 0
148 144 0
149 145 0
147 145 0
148 144 0
148 144 0
146 140 0
145 144 0
142 139 0
147 143 0
148 144 0
143 140 0
147 142 0
152 147 0
147 143 0
153 148 0
149 146 0
148 143 0
148 144 0
147 144 0
146 141 0
148 144 0
151 147 0
147 143 0
149 143 0
151 147 0
148 143 0
151 146 0
148 143 0
151 145 0
150 147 0
151 146 0
151 147 0
153 148 0
150 145 0
150 144 0
153 146 0
153 147 0
147 145 0
150 146 0
153 148 0
153 148 0
151 148 0
152 148 0
152 147 0
153 150 0
153 146 0
151 146 0
153 149 0
153 147 0
172 197 0
173 197 25
173 197 0
173 196 0
174 197 0
170 196 0
172 196 0
170 195 0
174 197 0
172 196 0
173 197 0
172 197 0
174 197 0
172 195 0
174 197 0
171 195 0
173 196 0
173 197 0
170 195 0
172 196 0
172 197 0
172 196 36
179 201 84
175 199 72
177 199 84
178 200 67
177 200 91
177 200 91
176 199 76
178 201 91
172 197 67
179 201 88
176 200 84
182 204 108
180 202 108
178 201 95
181 203 105
181 203 114
177 201 108
177 200 84
178 201 95
179 201 88
179 201 76
176 200 91
175 199 80
175 200 95
175 199 76
175 199 91
174 198 67
172 197 72
173 199 76
172 197 72
175 198 57
174 199 88
174 198 57
176 199 88
171 195 51
176 200 72
172 198 72
175 198 67
175 199 84
176 200 98
176 199 67
174 197 67
173 197 67
169 196 51
173 197 62
176 200 80
175 198 57
176 200 80
176 198 57
171 197 80
173 197 62
174 198 62
171 196 57
175 199 88
172 197 67
168 195 57
174 197 72
174 197 76
168 195 62
174 197 62
172 197 67
174 199 84
169 195 72
173 198 76
172 196 62
176 199 91
169 194 44
170 196 84
169 195 62
173 197 88
171 196 67
168 195 62
172 197 98
172 198 102
171 196 80
174 197 91
167 194 62
172 198 98
172 196 88
174 198 98
174 199 95
165 196 108
169 197 88
171 197 88
157 188 67
168 194 84
162 191 36
167 194 67
157 192 51
156 192 0
152 188 0
148 184 0
145 184 0
158 190 0
157 191 0
152 188 0
160 190 0
161 192 0
150 187 0
160 192 36
157 191 0
155 189 0
153 188 0
159 191 36
165 194 51
167 195 36
163 193 62
165 195 67
164 193 0
157 190 0
163 192 0
163 192 0
166 194 0
161 191 0
163 192 0
155 189 0
162 192 0
161 192 0
157 191 0
161 192 0
154 188 0
155 189 0
149 189 0
153 187 0
152 188 0
157 191 0
156 191 0
155 191 0
158 191 0
158 190 0
155 189 0
157 191 0
147 186 0
157 190 0
152 189 0
153 187 0
151 187 0
144 186 0
146 186 0
137 182 0
149 186 0
140 182 0
144 185 0
140 184 25
95 176 57
50 173 86
54 178 102
50 172 80
50 172 82
50 174 72
51 175 88
53 178 97
53 175 86
55 180 100
55 178 95
53 176 91
53 177 93
51 171 80
53 177 91
52 175 88
51 176 90
53 177 82
55 182 102
55 181 106
54 179 97
51 175 80
55 179 98
52 175 95
54 179 97
52 175 91
56 180 91
54 178 95
54 177 100
53 174 102
53 178 88
53 177 90
51 172 84
53 176 103
53 175 84
53 175 86
52 176 86
52 175 98
52 176 88
52 173 90
50 170 76
52 173 88
54 177 91
51 172 76
53 175 95
52 175 93
53 174 90
52 173 97
52 173 88
53 174 97
52 172 86
52 173 98
52 173 86
52 171 82
53 173 95
52 172 88
52 171 102
52 172 97
52 170 74
50 166 86
50 164 69
51 170 93
52 165 82
52 169 93
47 158 65
50 160 74
46 155 67
80 153 54
134 165 0
134 168 0
134 169 0
133 168 0
137 171 0
142 174 0
136 167 0
140 170 0
135 167 0
134 164 0
145 166 0
132 168 0
141 167 0
145 173 0
151 174 0
143 174 0
141 172 0
144 169 0
148 171 0
144 172 0
145 166 0
145 168 0
144 166 0
144 166 0
151 174 0
153 173 0
144 167 0
153 174 0
145 168 0
148 168 0
153 172 0
147 168 0
150 172 0
148 165 0
149 165 0
154 169 0
138 155 0
112 111 0
107 114 0
105 112 0
109 113 0
111 114 0
107 109 0
108 111 0
110 112 0
110 111 0
107 114 0
118 121 0
116 118 0
107 113 0
115 115 0
116 120 0
113 115 0
113 119 0
119 121 0
118 121 0
111 117 0
124 122 0
125 128 0
114 118 0
119 123 0
130 130 0
123 126 0
127 124 0
122 125 0
118 125 0
131 132 0
124 129 0
124 128 0
128 129 0
126 127 0
132 133 0
134 135 0
132 128 0
125 125 0
125 125 0
133 130 0
134 133 0
134 133 0
135 132 0
137 135 0
130 130 0
136 135 0
135 136 0
132 129 0
141 137 0
139 137 0
140 134 0
138 139 0
142 136 0
140 141 0
143 139 0
139 135 0
138 138 0
143 138 0
140 140 0
136 134 0
142 139 0
135 134 0
142 138 0
145 142 0
147 142 0
143 140 0
143 140 0
145 142 0
145 141 0
144 141 0
139 138 0
140 138 0
145 141 0
141 137 0
142 140 0
144 140 0
146 142 0
147 143 0
145 142 0
146 143 0
142 140 0
148 141 0
145 143 0
144 141 0
147 143 0
146 144 0
145 141 0
149 146 0
146 140 0
145 141 0
151 146 0
151 145 0
147 143 0
148 144 0
146 143 0
151 147 0
148 145 0
148 143 0
146 143 0
150 145 0
148 145 0
149 146 0
148 146 0
150 143 0
150 146 0
148 144 0
150 145 0
149 143 0
149 143 0
151 147 0
149 145 0
151 147 0
150 146 0
147 141 0
150 146 0
152 145 0
151 147 0
150 146 0
151 147 0
151 146 0
151 145 0
151 146 0
152 147 0
148 143 0
150 145 0
151 146 0
150 147 0
151 148 0
153 149 0
172 196 0
173 197 0
174 198 0
172 196 0
172 196 0
173 197 0
175 197 0
172 196 0
173 197 0
172 196 0
171 195 0
168 195 0
170 195 0
173 197 0
175 198 0
174 196 0
172 196 0
173 197 0
171 196 0
172 196 0
171 195 0
172 196 0
170 196 0
174 198 57
176 200 76
175 198 76
175 199 67
174 198 57
177 200 80
182 204 116
176 200 80
178 200 80
174 198 62
176 199 72
180 202 98
180 202 102
178 202 108
179 201 95
183 204 116
182 203 108
178 201 98
177 200 88
176 200 76
176 200 84
176 200 80
178 201 102
176 199 91
176 201 95
175 198 72
177 201 98
174 198 76
174 199 76
177 200 88
173 197 76
172 197 67
175 198 84
173 198 62
175 199 72
174 197 62
174 198 80
174 198 72
173 197 76
175 198 80
174 199 76
175 199 72
176 200 80
175 198 80
170 197 76
174 198 76
173 197 62
175 198 88
174 198 67
172 197 84
171 196 57
174 197 51
173 197 62
174 197 67
173 196 62
176 198 62
173 197 57
173 197 88
173 197 57
174 197 67
173 197 80
171 196 72
176 197 62
172 195 67
177 199 80
170 195 67
174 198 80
172 197 76
170 196 95
168 194 80
171 195 84
175 199 95
172 196 76
164 194 62
170 195 88
172 197 88
170 195 102
177 199 114
164 195 95
172 197 102
167 194 62
164 192 76
169 195 84
159 192 51
163 193 67
152 189 44
157 188 0
157 189 0
159 190 0
149 186 0
146 185 0
156 190 0
150 187 0
153 188 0
157 191 0
149 186 0
155 188 0
159 191 0
153 189 0
148 185 0
159 192 36
161 192 36
164 194 67
167 195 25
167 196 76
168 197 72
162 193 0
160 192 0
162 192 0
164 193 0
162 191 0
161 191 0
155 189 0
167 194 0
156 188 0
166 194 0
157 189 0
164 192 0
160 192 0
159 192 0
145 187 0
156 188 0
159 190 0
154 190 0
148 186 0
156 190 0
162 192 0
158 190 0
154 188 0
157 190 0
148 187 0
158 190 0
149 184 0
149 186 0
148 186 0
143 185 0
144 186 0
149 187 0
148 187 0
137 181 0
138 181 0
140 184 0
137 180 0
135 178 0
102 174 47
52 172 62
51 172 72
52 173 88
53 177 88
49 171 78
51 173 82
53 179 97
52 174 91
50 172 82
54 180 91
53 178 91
53 177 103
52 175 90
50 170 76
54 178 97
52 176 86
52 173 86
53 177 86
54 178 98
52 174 91
53 178 86
55 179 91
54 180 106
55 178 88
56 181 93
54 178 91
54 176 84
53 176 84
53 174 95
55 178 98
53 176 93
54 178 95
49 171 86
53 176 97
55 177 88
52 173 90
52 174 98
54 179 98
52 173 93
55 180 100
53 175 80
55 178 100
54 177 95
53 176 95
50 168 76
53 174 95
50 168 80
53 174 84
55 177 90
51 169 95
52 171 93
52 173 95
54 176 98
51 167 86
49 164 76
50 166 90
50 165 74
49 166 76
49 161 74
50 167 90
48 163 72
48 165 72
47 159 67
45 153 65
104 166 65
119 157 0
129 167 0
130 167 0
126 161 0
126 162 0
126 168 0
129 161 0
130 164 0
129 161 0
132 165 0
141 165 0
136 165 0
133 162 0
140 164 0
140 167 0
146 173 0
149 176 0
141 171 0
141 164 0
145 170 0
140 164 0
142 167 0
143 168 0
150 172 0
141 161 0
143 169 0
141 163 0
146 170 0
144 167 0
141 159 0
154 171 0
144 166 0
145 167 0
147 165 0
158 173 0
150 170 0
151 173 0
151 169 0
140 156 0
109 113 0
116 117 0
113 113 0
108 113 0
101 107 0
106 108 0
111 119 0
116 115 0
108 110 0
114 117 0
113 119 0
113 117 0
108 109 0
115 117 0
116 117 0
116 121 0
105 114 0
117 122 0
116 119 0
121 123 0
124 124 0
121 121 0
125 128 0
130 129 0
117 123 0
132 129 0
123 128 0
124 124 0
128 129 0
122 127 0
125 125 0
123 126 0
129 130 0
129 129 0
123 126 0
126 129 0
133 132 0
137 131 0
137 137 0
134 130 0
131 135 0
133 130 0
134 132 0
135 133 0
139 138 0
132 133 0
138 134 0
141 138 0
135 132 0
137 136 0
141 140 0
140 138 0
141 136 0
138 134 0
140 137 0
136 133 0
141 138 0
138 137 0
142 138 0
138 134 0
141 140 0
142 139 0
137 135 0
137 134 0
137 135 0
146 142 0
146 141 0
144 140 0
143 137 0
144 139 0
144 141 0
147 143 0
139 136 0
143 139 0
147 144 0
142 139 0
145 139 0
148 144 0
144 139 0
144 140 0
147 144 0
147 146 0
148 145 0
148 143 0
146 141 0
147 144 0
145 143 0
145 141 0
145 141 0
142 138 0
142 139 0
149 144 0
149 143 0
149 146 0
153 148 0
150 143 0
146 141 0
150 145 0
144 145 0
149 144 0
150 147 0
145 143 0
150 146 0
150 145 0
148 144 0
149 142 0
149 143 0
152 149 0
148 145 0
150 144 0
152 148 0
152 147 0
152 148 0
154 148 0
150 146 0
149 144 0
151 146 0
151 147 0
149 145 0
150 145 0
154 149 0
151 146 0
151 147 0
151 146 0
153 149 0
150 147 0
151 146 0
152 149 0
173 197 0
172 196 0
173 197 0
174 197 0
172 196 0
173 197 25
172 196 0
170 195 0
174 197 0
173 196 0
171 195 0
170 194 0
170 196 0
170 195 0
175 197 0
173 197 0
172 197 0
173 197 0
170 196 0
174 197 0
172 196 0
173 196 0
170 195 0
171 195 0
173 196 0
172 197 36
173 198 76
174 198 67
176 199 76
175 198 76
176 199 72
177 201 84
178 201 88
177 200 72
174 199 76
174 197 36
179 201 95
179 201 84
178 201 102
174 199 102
182 204 124
181 203 111
180 203 111
179 202 98
179 201 95
176 199 76
176 200 84
177 200 91
174 198 91
176 200 91
177 201 98
177 200 91
172 197 57
176 199 72
172 195 84
176 199 76
174 198 80
174 198 80
176 199 80
179 201 98
174 198 80
175 198 72
172 197 76
175 199 80
176 199 72
177 200 80
177 200 88
175 198 76
173 197 72
177 200 98
173 198 76
175 198 67
174 198 72
172 196 51
177 199 84
176 200 105
169 195 62
179 202 116
174 198 80
176 200 91
175 198 95
172 197 84
175 198 72
174 197 84
175 199 91
167 195 67
168 193 67
174 197 88
170 196 72
176 199 91
176 200 102
174 197 91
170 194 76
173 198 111
169 194 76
175 198 102
172 196 76
171 195 80
167 193 51
171 197 91
165 193 51
161 191 44
168 196 80
168 195 95
170 196 67
166 195 72
158 190 25
161 191 0
163 191 0
152 189 0
153 187 0
160 192 25
148 187 0
157 190 0
150 188 0
157 189 0
152 189 0
155 188 0
160 190 25
163 191 0
157 191 25
152 187 0
156 189 0
154 188 62
158 191 25
154 190 25
173 199 95
158 191 25
152 188 0
159 192 0
159 191 0
167 194 0
158 189 0
160 191 0
162 192 0
160 191 0
163 193 0
156 190 0
159 190 0
163 194 0
157 190 0
159 189 0
156 190 0
155 189 0
156 191 0
150 187 0
153 189 0
147 187 0
145 186 0
157 189 0
157 190 0
149 187 0
150 186 0
148 187 0
146 184 0
151 186 0
144 185 0
145 185 0
148 185 0
145 185 0
139 181 0
140 182 0
145 184 0
142 183 0
136 178 0
129 176 0
130 176 0
132 179 0
123 180 31
56 172 62
50 172 72
49 171 62
52 175 76
51 173 82
51 172 80
52 174 82
47 168 72
52 176 88
52 176 78
53 178 88
49 171 78
51 171 84
53 176 86
51 171 86
52 173 84
54 177 88
53 177 88
54 178 84
55 179 90
53 177 91
52 174 93
53 178 97
53 176 88
53 175 91
52 174 97
52 174 90
54 176 93
54 178 93
53 176 97
52 175 97
52 173 86
53 175 86
50 172 78
51 169 82
51 171 80
51 170 84
52 175 93
53 177 98
51 172 86
53 177 95
53 176 82
52 172 80
55 177 105
54 177 95
51 171 86
53 174 103
50 168 76
51 172 88
50 167 84
51 168 76
51 168 80
48 165 76
49 165 74
50 165 74
48 162 82
46 162 76
48 163 80
47 155 67
47 157 65
49 161 88
58 159 69
108 159 36
122 163 0
116 152 0
123 164 0
125 163 0
128 162 0
133 164 0
124 160 0
132 165 0
134 163 0
137 164 0
136 163 0
126 159 0
134 165 0
131 163 0
141 172 0
137 166 0
138 166 0
127 156 0
134 160 0
143 167 0
142 166 0
135 163 0
140 164 0
139 167 0
136 165 0
148 172 0
143 166 0
136 162 0
139 159 0
147 166 0
141 163 0
139 158 0
142 163 0
136 155 0
152 172 0
144 163 0
151 169 0
152 168 0
146 163 0
145 156 0
152 169 0
104 108 0
109 113 0
120 120 0
116 112 0
101 109 0
98 104 0
116 118 0
117 117 0
105 110 0
108 110 0
120 117 0
120 121 0
108 111 0
113 119 0
110 118 0
106 111 0
113 121 0
119 122 0
121 125 0
117 118 0
123 121 0
124 124 0
126 123 0
125 125 0
125 126 0
119 122 0
122 123 0
128 127 0
126 127 0
130 130 0
129 129 0
128 131 0
126 125 0
128 129 0
130 129 0
133 131 0
131 133 0
135 136 0
138 132 0
132 132 0
131 130 0
134 130 0
133 132 0
134 129 0
138 134 0
135 132 0
130 130 0
132 130 0
138 137 0
136 131 0
136 133 0
130 129 0
133 129 0
131 132 0
134 132 0
141 138 0
140 137 0
140 136 0
138 137 0
143 143 0
145 140 0
143 136 0
138 134 0
136 133 0
143 138 0
144 141 0
143 139 0
140 138 0
143 139 0
145 141 0
144 141 0
143 139 0
143 139 0
149 144 0
144 138 0
145 140 0
147 142 0
144 138 0
147 142 0
146 142 0
148 142 0
145 144 0
146 142 0
149 142 0
142 137 0
144 138 0
148 145 0
147 141 0
146 143 0
146 142 0
145 140 0
150 145 0
148 142 0
144 141 0
146 141 0
146 143 0
150 145 0
149 145 0
147 142 0
147 143 0
151 145 0
152 147 0
149 144 0
148 143 0
150 146 0
149 144 0
150 145 0
148 145 0
150 147 0
147 140 0
150 145 0
147 143 0
154 147 0
151 145 0
150 145 0
150 145 0
148 146 0
150 146 0
152 146 0
151 146 0
152 147 0
150 144 0
151 147 0
150 144 0
151 146 0
150 148 0
151 147 0
172 196 0
172 196 0
172 196 0
173 196 0
174 197 0
170 196 0
173 197 0
172 196 0
171 196 0
171 195 0
170 195 0
172 196 0
171 195 0
172 196 0
172 196 0
169 195 0
170 195 0
169 195 0
170 195 0
171 196 0
173 196 0
171 195 0
171 196 0
173 195 0
173 196 0
169 195 0
172 196 0
173 196 0
174 197 51
175 199 84
180 202 102
174 198 84
177 200 80
173 198 84
176 199 84
175 198 76
175 198 67
176 199 76
176 199 62
176 200 76
183 204 108
178 201 91
183 206 127
183 204 111
177 200 84
182 205 127
178 202 98
177 201 105
177 200 80
178 201 98
178 200 67
179 201 102
176 200 95
176 200 95
180 202 105
175 200 84
180 202 102
179 202 105
175 199 88
178 201 95
178 200 80
175 199 76
175 199 80
177 201 95
173 198 76
174 198 67
173 197 57
173 198 88
177 199 76
173 198 80
176 199 91
176 199 80
172 196 76
175 199 84
173 196 72
175 199 80
172 196 67
176 199 72
173 198 72
174 197 84
173 197 72
172 198 105
173 197 84
171 198 105
172 195 62
173 199 102
174 197 80
172 194 76
174 197 91
175 197 80
172 196 84
174 196 91
173 198 102
173 197 98
172 197 105
170 196 91
170 197 105
169 196 88
166 193 62
172 197 95
162 191 62
169 195 62
164 193 62
163 191 51
161 191 0
152 187 0
154 189 0
158 191 0
151 185 0
159 190 0
150 185 0
154 189 0
150 186 0
152 186 0
154 187 0
160 190 0
152 187 0
161 190 0
158 190 0
153 189 0
163 191 36
155 188 36
162 192 25
167 194 36
162 193 51
167 195 76
166 194 25
166 193 0
159 191 0
161 192 0
168 194 0
164 193 0
157 190 0
163 192 0
162 191 0
150 187 0
156 191 0
161 191 0
162 193 0
162 192 0
161 192 0
156 189 0
163 191 0
148 187 0
154 187 0
153 189 0
145 184 0
155 189 0
155 190 0
145 183 0
149 187 0
156 189 0
148 184 0
147 186 0
145 186 0
147 186 0
154 188 0
140 183 0
141 185 0
134 180 0
143 185 0
142 183 0
135 180 0
139 180 0
130 178 0
125 173 0
129 176 0
130 179 0
131 177 0
130 179 25
64 162 44
48 168 69
52 174 74
49 171 74
52 176 84
50 172 82
55 181 98
53 178 103
51 172 80
49 171 78
51 173 90
51 174 84
52 175 88
50 173 76
51 173 80
54 178 95
51 175 86
52 174 88
51 173 80
52 172 86
53 174 98
52 175 88
52 175 91
52 174 95
53 176 95
53 176 86
53 176 88
51 171 76
53 177 100
52 174 86
52 173 86
51 174 88
52 174 93
52 173 78
51 172 102
54 176 80
50 175 88
53 176 88
53 174 88
52 172 90
49 169 74
50 169 76
53 174 88
51 169 90
52 171 78
50 169 84
51 170 80
48 164 74
49 168 78
48 163 82
50 167 78
49 161 62
51 168 74
47 161 67
47 161 78
48 163 72
43 148 57
49 162 76
46 156 72
62 155 54
100 153 25
129 165 0
123 158 0
132 164 0
126 159 0
123 159 0
126 163 0
122 158 0
128 163 0
133 164 0
134 162 0
133 167 0
122 154 0
131 165 0
130 164 0
127 156 0
128 162 0
131 160 0
137 164 0
134 163 0
142 167 0
138 165 0
139 162 0
139 161 0
134 161 0
141 161 0
133 157 0
136 160 0
136 157 0
139 163 0
139 160 0
141 165 0
143 165 0
149 165 0
145 165 0
142 160 0
143 160 0
145 165 0
145 161 0
130 152 0
139 154 0
146 162 0
136 156 0
132 153 0
120 124 0
105 107 0
108 106 0
107 110 0
110 110 0
109 113 0
111 108 0
99 104 0
104 108 0
109 113 0
113 111 0
109 110 0
118 116 0
110 116 0
119 119 0
120 120 0
117 120 0
114 117 0
121 122 0
122 123 0
127 124 0
114 118 0
121 121 0
117 121 0
125 124 0
122 123 0
129 126 0
123 122 0
128 131 0
120 121 0
133 131 0
128 129 0
129 128 0
133 132 0
126 123 0
126 124 0
127 130 0
134 133 0
134 132 0
132 129 0
127 127 0
131 126 0
134 130 0
133 128 0
141 137 0
138 133 0
134 132 0
138 136 0
138 137 0
132 131 0
134 133 0
143 139 0
140 135 0
140 136 0
140 135 0
139 137 0
137 134 0
140 136 0
143 137 0
143 139 0
146 141 0
140 137 0
141 135 0
140 137 0
145 142 0
142 137 0
140 135 0
145 139 0
143 140 0
144 143 0
144 138 0
142 138 0
147 141 0
146 141 0
146 142 0
145 141 0
143 138 0
141 138 0
146 142 0
146 142 0
141 137 0
146 142 0
148 143 0
146 139 0
145 139 0
143 138 0
148 144 0
145 140 0
141 138 0
149 145 0
138 137 0
145 141 0
147 141 0
150 145 0
151 146 0
150 145 0
147 141 0
148 142 0
148 142 0
150 144 0
149 144 0
147 141 0
149 144 0
149 145 0
147 144 0
148 143 0
147 143 0
148 143 0
150 144 0
149 143 0
148 143 0
154 147 0
151 145 0
152 147 0
149 143 0
149 145 0
150 144 0
150 144 0
151 146 0
149 145 0
151 146 0
151 147 0
150 144 0
151 146 0
149 144 0
152 147 0
173 197 0
172 197 0
172 197 0
173 197 0
171 196 0
173 197 0
171 196 25
173 197 0
173 197 0
169 195 0
169 195 0
170 194 0
173 196 0
173 197 0
170 196 0
171 196 0
172 196 0
172 195 0
172 196 0
171 195 0
172 197 0
171 196 0
168 194 0
172 196 0
171 195 0
172 195 0
172 196 0
171 195 0
170 195 0
174 197 0
174 197 44
176 200 76
172 196 57
173 199 80
177 200 80
178 200 84
176 199 80
171 196 67
177 200 80
177 200 76
172 197 80
171 197 57
174 198 62
177 200 76
179 201 88
178 201 102
176 200 80
177 200 72
176 199 84
180 203 114
180 202 98
177 200 84
178 201 98
180 202 111
176 200 95
180 201 95
178 201 91
176 199 72
178 201 88
177 201 102
178 200 84
176 199 95
175 198 105
173 198 80
178 201 95
178 201 98
175 200 95
176 200 91
175 199 98
175 198 57
179 201 76
177 200 91
174 199 95
178 200 95
175 199 108
178 200 84
175 198 95
176 198 88
174 198 72
177 198 91
178 200 88
168 193 72
175 199 98
173 198 102
171 197 84
171 197 88
173 196 88
172 195 102
171 197 111
171 196 116
176 199 95
167 192 88
169 194 72
165 192 80
164 192 62
162 189 51
166 192 51
165 194 84
167 195 67
167 195 80
164 194 72
163 192 51
160 192 25
163 191 0
157 188 0
153 188 0
165 192 0
152 188 0
154 189 0
155 188 0
162 192 0
154 188 0
152 188 0
156 189 0
155 188 0
157 190 0
161 191 0
152 187 0
158 189 0
167 195 25
163 192 44
170 195 36
164 195 62
159 191 62
169 198 80
171 196 0
166 193 0
160 190 0
159 191 0
162 192 0
159 190 0
159 190 0
165 194 0
156 189 0
154 190 0
151 188 0
153 189 0
150 187 0
148 187 0
154 189 0
159 191 0
153 187 0
156 190 0
154 189 0
149 186 0
142 181 0
151 187 0
145 184 0
144 183 0
147 188 0
150 187 0
152 188 0
149 184 0
149 185 0
144 185 0
141 183 0
138 182 0
144 185 0
141 184 0
142 183 0
146 183 0
148 185 0
141 181 0
134 179 0
138 179 0
131 178 0
142 184 0
126 177 0
129 175 0
128 175 0
123 172 18
102 171 51
51 169 69
49 170 72
46 163 72
49 169 72
51 175 82
52 175 74
49 167 72
49 169 74
49 167 72
49 170 82
51 173 76
51 174 80
52 174 76
53 176 90
51 173 86
50 170 80
51 174 90
52 175 80
52 174 88
52 176 91
51 175 86
50 171 88
52 176 84
51 171 69
51 173 86
50 169 78
51 173 80
50 168 65
52 173 88
50 172 84
53 174 80
48 164 78
51 170 80
48 170 78
52 175 102
55 179 98
50 169 76
50 168 69
52 173 91
52 173 84
51 172 90
51 170 93
50 170 86
48 166 74
47 163 74
51 169 90
51 168 74
49 167 82
48 167 82
49 167 82
47 160 62
50 165 86
50 168 76
45 153 59
47 159 69
50 155 57
91 161 59
106 147 0
117 156 0
107 147 0
121 156 0
118 154 0
126 163 0
123 163 0
118 155 0
117 155 0
129 164 0
127 159 0
125 157 0
136 165 0
128 159 0
126 156 0
128 160 0
130 164 0
143 171 0
130 156 0
130 163 0
129 158 0
125 156 0
134 161 0
135 160 0
134 163 0
140 162 0
132 156 0
130 159 0
131 154 0
128 149 0
144 161 0
140 162 0
133 162 0
132 154 0
142 163 0
133 153 0
138 155 0
141 158 0
138 157 0
139 157 0
130 149 0
142 161 0
143 155 0
149 165 0
141 157 0
139 152 0
119 128 0
95 99 0
102 105 0
98 98 0
89 103 0
102 106 0
101 105 0
106 107 0
109 108 0
113 116 0
116 114 0
114 112 0
113 114 0
113 115 0
115 114 0
118 117 0
109 112 0
127 122 0
112 114 0
120 120 0
118 121 0
112 118 0
121 119 0
124 125 0
122 126 0
124 124 0
121 122 0
117 118 0
130 129 0
118 119 0
134 130 0
128 126 0
128 124 0
127 124 0
130 127 0
132 128 0
139 135 0
135 133 0
130 130 0
134 130 0
136 134 0
131 128 0
133 131 0
131 128 0
136 134 0
138 131 0
139 135 0
138 135 0
139 136 0
137 135 0
138 135 0
137 132 0
136 135 0
135 134 0
138 132 0
147 140 0
134 133 0
141 136 0
136 136 0
141 139 0
140 134 0
142 136 0
137 134 0
146 139 0
145 138 0
139 135 0
146 143 0
146 139 0
146 137 0
144 140 0
144 137 0
141 136 0
141 137 0
143 139 0
145 141 0
145 138 0
143 138 0
147 140 0
146 144 0
145 140 0
145 138 0
147 140 0
149 145 0
148 142 0
144 139 0
143 140 0
148 142 0
147 142 0
148 142 0
148 142 0
146 142 0
150 145 0
148 144 0
148 143 0
144 140 0
147 144 0
146 142 0
146 142 0
147 143 0
147 142 0
150 145 0
150 144 0
147 143 0
151 144 0
148 142 0
145 140 0
150 143 0
148 143 0
146 143 0
147 143 0
151 146 0
148 140 0
153 149 0
146 143 0
150 144 0
151 145 0
150 146 0
151 145 0
150 144 0
152 147 0
152 146 0
150 146 0
149 145 0
153 147 0
153 147 0
172 196 0
173 196 0
171 196 0
174 197 25
173 197 25
172 196 25
171 195 0
172 196 0
172 196 0
172 196 0
173 196 0
172 196 0
171 195 0
169 194 0
173 196 0
174 197 0
174 197 0
173 197 0
172 196 0
173 197 0
171 195 0
170 196 0
172 195 0
170 195 0
172 195 0
171 196 0
173 196 0
171 195 0
170 195 0
172 196 0
172 195 0
170 195 0
174 198 36
173 197 57
175 199 67
179 202 88
176 200 80
178 201 80
178 200 91
174 199 72
175 199 76
179 202 88
177 200 80
174 198 80
176 198 57
174 197 57
176 199 80
177 200 91
176 198 72
177 200 91
178 201 105
181 203 111
181 202 98
182 204 116
177 201 91
179 204 122
178 201 95
177 200 88
181 204 116
174 198 76
173 198 76
178 201 114
176 200 98
178 201 105
176 200 116
179 202 105
180 201 95
181 203 124
177 200 95
178 200 111
178 201 95
177 200 105
181 201 91
173 197 76
177 199 88
172 198 98
173 197 84
176 199 108
176 200 105
182 203 105
174 197 72
177 199 91
176 198 116
166 193 76
176 198 108
175 199 91
173 196 91
167 191 72
176 198 95
170 195 80
166 191 57
168 194 57
171 195 67
171 195 76
171 196 84
168 192 57
162 191 44
169 195 67
163 192 51
165 192 25
157 190 0
157 189 0
165 195 0
159 192 0
150 186 0
160 191 0
161 190 0
158 190 0
156 189 0
161 192 0
162 191 0
163 192 0
160 190 0
159 190 0
154 188 0
156 188 0
161 192 0
149 185 0
160 191 44
169 195 51
162 192 57
162 193 44
169 196 80
164 193 62
165 193 0
166 192 0
159 191 0
162 192 0
154 190 0
165 193 0
157 190 0
156 189 0
162 191 0
154 189 0
148 187 0
163 192 0
158 189 0
152 187 0
148 188 0
154 189 0
149 187 0
157 188 0
148 186 0
152 188 0
151 188 0
157 190 0
159 191 0
146 186 0
148 185 0
147 186 0
147 186 0
150 188 0
146 185 0
145 184 0
137 181 0
140 180 0
143 184 0
142 184 0
136 181 0
142 184 0
141 181 0
135 181 0
132 179 0
131 177 0
131 176 0
131 176 0
130 176 0
124 176 0
131 177 0
132 178 0
120 167 0
119 170 0
116 170 18
68 170 59
49 168 84
50 173 80
48 169 69
45 163 72
50 170 76
53 176 84
53 175 84
50 172 69
52 175 90
48 168 72
51 174 80
50 171 78
47 167 78
53 175 84
54 179 93
53 176 88
53 177 98
53 176 84
51 171 80
50 172 84
51 171 78
49 169 72
50 171 76
51 172 84
51 171 84
53 174 88
51 173 88
51 172 91
51 169 84
51 172 82
52 173 84
50 172 74
53 177 90
48 167 74
50 168 82
49 167 69
51 169 80
51 170 80
54 176 97
47 163 65
50 167 82
48 163 74
49 165 67
48 162 69
51 170 84
48 161 74
49 165 82
46 161 65
47 159 80
45 156 65
47 162 72
45 158 69
62 154 51
102 151 18
111 150 0
103 149 0
110 150 0
115 156 0
118 156 0
120 158 0
110 149 0
121 159 0
128 159 0
124 157 0
125 156 0
121 156 0
127 160 0
125 158 0
113 153 0
128 155 0
124 156 0
125 155 0
126 156 0
127 157 0
125 157 0
132 161 0
122 151 0
132 156 0
127 151 0
133 156 0
113 145 0
134 158 0
135 156 0
129 158 0
136 157 0
130 154 0
131 155 0
134 160 0
129 155 0
129 152 0
131 152 0
145 160 0
140 159 0
131 146 0
144 163 0
140 153 0
141 155 0
141 156 0
137 152 0
140 152 0
135 149 0
136 147 0
135 146 0
114 117 0
99 99 0
111 108 0
104 102 0
101 106 0
99 100 0
111 109 0
112 116 0
109 108 0
103 105 0
99 102 0
119 116 0
118 117 0
115 115 0
116 119 0
105 111 0
117 117 0
116 115 0
121 122 0
120 116 0
120 118 0
118 120 0
128 126 0
127 124 0
120 119 0
125 123 0
128 126 0
121 119 0
131 128 0
128 126 0
131 127 0
131 128 0
128 127 0
134 131 0
123 124 0
127 123 0
128 126 0
128 126 0
136 134 0
133 131 0
136 134 0
128 125 0
136 133 0
131 130 0
141 135 0
142 137 0
141 133 0
136 130 0
139 133 0
135 130 0
137 129 0
142 135 0
138 134 0
139 138 0
142 136 0
145 141 0
143 139 0
142 135 0
146 140 0
146 141 0
138 132 0
139 134 0
144 139 0
144 137 0
146 138 0
138 137 0
144 137 0
140 135 0
140 135 0
147 141 0
144 139 0
136 133 0
144 140 0
145 141 0
150 144 0
143 137 0
145 140 0
143 137 0
142 136 0
143 139 0
148 142 0
147 142 0
146 141 0
145 142 0
149 144 0
144 142 0
146 140 0
147 143 0
148 140 0
144 138 0
147 140 0
148 143 0
147 141 0
147 143 0
148 144 0
148 141 0
150 144 0
147 140 0
145 141 0
149 145 0
150 144 0
148 143 0
151 145 0
151 147 0
151 145 0
149 144 0
149 143 0
152 146 0
150 144 0
150 143 0
150 143 0
151 145 0
149 143 0
153 147 0
151 144 0
150 143 0
150 144 0
151 146 0
151 147 0
150 145 0
153 147 0
151 146 0
151 146 0
170 195 0
171 195 0
172 196 0
174 197 0
173 197 0
173 197 25
172 196 36
168 195 0
169 195 0
172 196 0
172 197 0
171 196 0
171 196 0
173 196 0
171 196 0
172 196 0
172 197 0
170 195 0
173 196 0
172 196 0
171 196 0
172 196 0
174 197 0
174 197 0
171 196 0
167 194 0
172 196 0
172 196 0
169 193 0
171 196 0
171 195 0
170 195 0
170 195 0
171 196 0
170 195 0
170 194 0
174 197 57
174 197 51
171 196 67
176 199 72
178 201 84
172 196 57
176 198 67
174 199 80
175 200 91
175 198 76
174 198 80
177 200 84
178 200 84
174 198 72
175 198 62
173 197 80
177 200 84
171 197 72
173 198 84
178 200 80
179 202 108
181 203 116
181 203 111
180 202 88
183 203 111
181 203 114
180 201 98
181 202 98
178 202 98
177 200 95
178 201 102
180 201 111
179 202 119
184 205 127
179 200 95
174 199 91
175 198 98
175 198 88
179 201 98
176 199 84
172 197 95
176 199 119
173 195 84
173 198 102
169 195 84
177 199 108
175 197 108
173 196 88
172 196 72
172 196 80
166 191 62
170 195 80
167 194 72
167 194 95
171 196 57
163 192 80
166 193 51
167 193 62
164 192 51
157 189 51
161 193 0
163 192 0
155 189 0
157 190 0
155 187 0
159 189 0
155 190 0
160 190 0
162 191 0
153 187 0
157 190 0
157 187 0
153 188 0
153 188 0
148 186 0
152 187 0
162 191 0
161 191 0
158 190 0
154 188 0
161 191 0
163 192 57
164 193 51
165 194 44
166 194 44
173 200 95
162 192 0
164 192 0
161 192 0
156 191 0
159 190 0
164 193 0
162 190 0
160 192 0
156 189 0
161 192 0
156 189 0
145 185 0
152 190 0
153 190 0
156 190 0
156 190 0
154 189 0
152 188 0
148 188 0
151 188 0
152 188 0
149 186 0
155 189 0
141 184 0
147 186 0
150 188 0
136 181 0
148 184 0
146 184 0
141 182 0
144 183 0
145 183 0
139 181 0
135 181 0
144 182 0
137 179 0
135 180 0
138 180 0
139 183 0
141 182 0
133 179 0
126 176 0
136 178 0
114 170 0
127 174 0
125 174 0
115 167 0
122 172 0
108 166 0
112 166 0
123 172 0
102 160 0
100 164 25
65 163 47
48 169 65
48 167 59
48 168 76
50 171 82
47 169 78
49 170 69
53 176 88
48 167 76
51 174 78
50 171 78
49 170 82
49 169 82
52 173 74
52 172 74
51 172 86
50 169 80
52 175 90
50 172 82
49 169 78
48 167 74
50 168 69
52 174 91
50 171 74
50 170 82
47 166 72
50 168 80
49 167 74
48 163 69
48 164 72
52 176 97
52 174 86
47 162 69
53 176 88
50 171 76
51 167 84
49 166 80
48 166 76
50 167 69
49 166 72
48 163 62
49 168 76
50 170 82
52 171 80
45 157 72
47 163 65
45 158 72
48 162 69
45 155 62
56 149 54
82 143 31
102 143 0
103 143 0
90 142 0
106 145 0
114 154 0
104 147 0
113 152 0
123 158 0
123 155 0
115 151 0
108 147 0
120 160 0
126 161 0
122 154 0
125 156 0
129 160 0
130 161 0
121 154 0
122 155 0
116 146 0
130 160 0
120 155 0
132 158 0
130 160 0
132 161 0
124 152 0
126 156 0
130 153 0
126 154 0
134 157 0
131 154 0
129 154 0
135 155 0
131 154 0
127 152 0
131 152 0
128 147 0
129 151 0
130 145 0
135 152 0
121 145 0
130 148 0
133 149 0
136 150 0
135 147 0
134 149 0
134 147 0
136 152 0
131 145 0
135 146 0
130 147 0
132 147 0
113 117 0
98 98 0
109 105 0
108 102 0
101 101 0
108 107 0
108 108 0
114 111 0
106 105 0
110 110 0
119 117 0
116 117 0
117 115 0
120 115 0
114 115 0
120 120 0
121 120 0
122 118 0
115 113 0
118 121 0
128 127 0
118 118 0
127 125 0
122 125 0
123 125 0
132 124 0
123 121 0
122 117 0
130 128 0
127 124 0
127 121 0
123 122 0
135 129 0
126 121 0
127 122 0
133 127 0
131 126 0
135 131 0
133 127 0
129 127 0
127 125 0
139 134 0
138 132 0
138 133 0
139 133 0
139 131 0
136 131 0
133 131 0
141 134 0
141 135 0
135 130 0
136 131 0
135 131 0
138 134 0
138 133 0
145 137 0
141 136 0
136 131 0
141 135 0
140 138 0
138 135 0
138 135 0
144 138 0
143 137 0
137 134 0
143 138 0
140 136 0
141 140 0
140 134 0
141 134 0
146 140 0
141 138 0
143 138 0
144 140 0
144 136 0
144 137 0
142 136 0
144 137 0
146 139 0
141 135 0
143 138 0
145 137 0
141 135 0
150 143 0
143 139 0
146 139 0
144 139 0
147 140 0
145 139 0
149 141 0
147 140 0
146 141 0
148 142 0
150 146 0
149 144 0
149 144 0
146 142 0
146 139 0
151 145 0
148 142 0
148 142 0
147 140 0
148 142 0
148 142 0
149 144 0
150 145 0
147 141 0
146 140 0
150 146 0
150 145 0
151 146 0
147 141 0
149 143 0
151 145 0
153 149 0
150 144 0
148 142 0
149 143 0
149 144 0
149 143 0
150 146 0
153 147 0
174 197 0
174 197 0
174 197 0
172 196 0
173 197 0
173 197 0
174 197 0
174 197 0
173 197 0
171 196 25
172 196 0
173 196 0
171 196 0
169 194 0
172 196 0
165 194 0
174 196 0
171 196 0
171 196 0
173 196 0
169 194 0
173 196 0
173 195 0
171 195 0
172 196 0
171 195 0
174 197 0
171 195 0
168 194 0
169 194 0
172 196 0
171 196 0
170 194 0
173 196 0
170 195 0
169 194 0
171 196 0
172 196 0
169 195 0
172 195 25
171 196 72
175 198 67
176 198 67
175 199 80
178 201 88
177 199 76
179 200 80
179 201 95
176 199 67
174 198 84
176 199 72
176 199 67
173 197 62
174 199 76
174 197 62
174 198 84
175 198 67
173 196 44
174 199 76
178 201 84
175 197 67
177 198 84
174 198 88
177 199 95
175 198 95
177 199 98
176 199 95
172 197 80
172 197 72
179 200 108
176 198 80
175 199 88
171 197 76
173 197 76
173 198 84
175 196 67
174 197 88
174 197 84
169 194 76
171 196 67
173 196 72
173 196 80
177 199 102
168 193 62
171 197 98
172 195 80
173 197 80
171 195 57
168 194 62
173 195 51
165 192 51
162 190 36
165 192 25
161 190 0
156 189 0
158 188 0
160 190 0
161 190 0
163 191 0
160 191 0
158 190 0
156 189 0
164 193 0
157 189 0
160 190 0
152 188 0
157 188 0
161 189 0
156 189 0
158 187 25
167 193 0
157 189 0
159 190 0
161 190 0
157 190 36
162 191 36
161 192 36
164 194 57
163 193 25
168 196 84
157 189 44
162 190 0
155 188 0
159 190 0
162 191 0
160 190 0
155 188 0
158 190 0
164 193 0
162 192 0
150 189 0
159 191 0
161 192 0
156 191 0
148 186 0
154 189 0
155 189 0
148 187 0
146 187 0
154 188 0
150 187 0
149 186 0
157 190 0
147 185 0
156 189 0
149 186 0
146 185 0
144 184 0
148 185 0
142 183 0
142 184 0
142 185 0
140 182 0
140 183 0
143 184 0
137 181 0
128 176 0
137 183 0
131 179 0
141 183 0
126 176 0
132 177 0
132 179 0
130 178 0
137 181 0
123 171 0
124 172 0
120 171 0
126 174 0
125 173 0
124 169 0
120 172 0
100 159 0
104 159 0
114 166 0
106 161 18
88 161 40
53 163 47
43 161 54
48 167 69
47 168 57
46 166 65
48 167 62
50 173 90
48 167 72
48 168 65
48 168 72
48 170 78
52 175 82
47 167 76
49 169 74
51 173 69
53 174 98
51 172 72
46 164 78
49 168 72
48 166 72
48 169 78
49 168 67
50 170 84
49 170 80
51 171 72
51 171 80
49 169 74
49 170 80
49 167 80
47 165 67
49 165 65
51 172 86
45 160 54
50 167 74
49 166 74
49 169 82
43 156 54
49 167 88
47 162 62
44 154 69
44 155 65
41 151 47
44 158 69
43 154 57
44 154 59
48 155 67
76 146 40
91 141 0
90 139 0
97 145 0
106 150 0
105 146 0
106 151 0
107 149 0
101 146 0
107 149 0
108 149 0
114 150 0
115 155 0
124 156 0
108 147 0
120 156 0
119 154 0
120 153 0
116 147 0
122 156 0
126 158 0
119 153 0
124 159 0
116 151 0
117 152 0
121 157 0
121 153 0
122 157 0
117 148 0
130 159 0
126 152 0
118 149 0
127 160 0
132 159 0
118 146 0
134 157 0
124 151 0
130 154 0
136 152 0
124 144 0
142 164 0
116 136 0
121 144 0
129 153 0
130 150 0
127 146 0
128 147 0
124 143 0
130 146 0
135 147 0
125 140 0
125 141 0
126 141 0
137 151 0
127 136 0
128 138 0
124 130 0
108 104 0
100 94 0
106 100 0
100 97 0
113 111 0
106 104 0
109 111 0
118 112 0
116 111 0
102 106 0
119 117 0
115 118 0
115 113 0
124 123 0
112 114 0
117 119 0
122 115 0
117 116 0
128 123 0
119 114 0
112 117 0
128 124 0
121 122 0
125 122 0
122 120 0
129 127 0
126 121 0
125 122 0
131 129 0
124 124 0
129 127 0
125 125 0
127 122 0
130 124 0
132 124 0
131 126 0
132 125 0
136 129 0
133 126 0
132 125 0
130 128 0
133 130 0
132 128 0
143 134 0
137 133 0
140 136 0
138 132 0
136 134 0
137 130 0
140 134 0
139 135 0
135 132 0
139 132 0
139 134 0
139 136 0
137 132 0
137 133 0
139 133 0
140 136 0
145 135 0
142 137 0
142 136 0
145 140 0
142 136 0
143 138 0
142 140 0
140 135 0
142 138 0
142 136 0
144 138 0
144 139 0
143 138 0
144 138 0
144 135 0
144 138 0
147 142 0
144 138 0
146 141 0
145 141 0
146 138 0
148 141 0
148 140 0
148 141 0
142 138 0
144 138 0
147 141 0
149 143 0
147 141 0
148 142 0
145 139 0
147 141 0
146 139 0
148 140 0
144 137 0
144 139 0
149 142 0
147 141 0
149 142 0
147 143 0
148 142 0
147 141 0
150 144 0
151 144 0
150 144 0
149 145 0
149 142 0
148 143 0
150 144 0
151 144 0
152 146 0
151 146 0
146 141 0
151 146 0
150 145 0
151 146 0
149 141 0
151 145 0
151 147 0
151 144 0
150 143 0
170 196 0
172 195 0
172 196 0
173 197 0
173 197 36
173 197 0
172 196 0
171 196 0
169 195 0
174 197 0
174 197 0
173 196 0
173 196 0
170 196 25
170 195 0
171 195 25
170 196 0
171 195 0
169 194 0
172 195 0
172 197 0
172 196 0
173 196 0
173 197 0
170 194 0
170 195 0
171 196 0
170 195 0
169 194 0
171 195 0
171 197 0
171 196 0
172 195 0
169 194 0
172 196 0
173 196 0
172 196 0
173 196 0
172 195 0
168 193 0
172 195 0
168 195 0
171 195 0
171 196 0
169 195 44
171 195 57
173 196 76
176 199 88
175 198 80
175 198 84
177 199 72
178 200 76
175 198 62
176 200 88
173 197 67
174 198 72
175 199 72
176 199 67
176 199 76
175 197 67
176 199 88
176 199 80
176 199 76
176 197 67
177 200 84
174 197 76
174 198 72
170 196 62
176 199 91
175 198 80
172 196 80
172 197 84
172 197 62
170 194 67
173 197 80
174 197 72
170 196 76
178 200 98
172 196 88
167 194 76
173 195 76
168 194 51
169 195 76
171 196 76
167 192 51
169 196 72
168 194 44
167 193 51
158 188 25
161 191 0
160 188 0
166 193 0
158 188 0
160 191 0
159 190 0
164 193 0
165 193 0
157 187 0
160 192 0
160 190 0
160 190 0
156 188 0
165 192 0
154 189 0
161 191 0
162 192 0
156 189 0
159 189 0
163 191 0
156 188 0
162 191 0
160 190 0
166 194 25
162 191 36
164 192 44
158 189 25
166 193 36
176 199 84
166 195 72
159 190 0
162 191 0
165 192 0
164 192 0
163 193 0
161 191 0
159 190 0
160 191 0
165 193 0
163 191 0
156 190 0
155 189 0
161 191 0
151 186 0
151 188 0
153 188 0
165 192 0
157 190 0
147 187 0
149 186 0
140 183 0
143 185 0
147 185 0
153 189 0
147 185 0
147 186 0
151 186 0
139 182 0
135 180 0
146 186 0
146 186 0
144 184 0
143 182 0
145 184 0
150 186 0
142 182 0
136 181 0
132 179 0
139 180 0
126 174 0
131 178 0
133 176 0
137 180 0
132 175 0
126 177 0
132 176 0
123 174 0
128 175 0
132 175 0
115 167 0
117 169 0
107 166 0
103 161 0
89 151 0
119 166 0
104 153 0
106 157 0
103 155 0
108 155 0
92 159 40
57 158 40
45 162 51
50 169 69
44 161 51
44 163 59
50 171 78
46 165 65
47 165 62
47 164 67
46 164 57
48 166 69
47 165 72
51 173 86
48 164 76
52 174 84
49 167 72
48 167 84
49 168 76
49 167 76
49 168 82
49 168 65
47 165 65
50 169 67
47 168 76
48 167 62
49 168 78
48 167 72
47 165 78
47 167 69
48 167 74
46 162 62
48 164 80
48 165 65
50 168 86
46 158 65
47 164 80
42 156 67
42 150 62
45 156 80
44 158 69
40 146 57
59 153 67
57 136 25
82 131 0
93 139 0
80 126 0
89 134 0
98 139 0
88 137 0
110 146 0
93 137 0
97 142 0
95 138 0
103 146 0
115 154 0
104 145 0
113 146 0
105 148 0
111 148 0
119 153 0
112 151 0
111 150 0
120 152 0
115 149 0
118 152 0
125 156 0
119 150 0
127 158 0
124 155 0
132 160 0
108 144 0
130 157 0
137 163 0
123 153 0
131 152 0
128 153 0
121 142 0
121 144 0
128 151 0
118 144 0
123 149 0
123 148 0
126 152 0
124 149 0
126 153 0
119 141 0
124 152 0
123 145 0
127 143 0
132 154 0
130 145 0
123 136 0
124 140 0
123 142 0
128 144 0
126 141 0
124 139 0
124 135 0
126 139 0
138 143 0
124 131 0
129 137 0
114 114 0
106 101 0
108 106 0
103 98 0
107 106 0
106 109 0
106 104 0
107 104 0
110 109 0
111 107 0
111 110 0
112 113 0
114 113 0
115 110 0
116 113 0
107 105 0
125 117 0
118 117 0
114 115 0
119 115 0
119 114 0
112 112 0
125 120 0
122 120 0
125 123 0
134 128 0
125 122 0
128 125 0
123 122 0
132 126 0
126 121 0
132 125 0
133 125 0
126 123 0
131 124 0
134 131 0
133 131 0
133 129 0
130 127 0
128 127 0
137 131 0
133 129 0
135 129 0
139 132 0
132 129 0
137 131 0
140 134 0
138 132 0
140 136 0
138 132 0
139 135 0
139 131 0
136 129 0
136 132 0
138 129 0
140 135 0
140 135 0
140 133 0
141 133 0
139 131 0
142 136 0
140 131 0
145 136 0
142 137 0
136 133 0
144 137 0
143 136 0
142 136 0
143 136 0
146 139 0
142 136 0
144 137 0
141 134 0
144 139 0
144 137 0
145 139 0
140 134 0
146 140 0
146 138 0
147 140 0
143 139 0
143 137 0
147 142 0
148 142 0
146 138 0
147 141 0
144 137 0
150 143 0
149 143 0
144 138 0
146 143 0
147 141 0
144 140 0
148 139 0
147 138 0
150 144 0
149 142 0
149 142 0
147 139 0
145 137 0
150 143 0
148 141 0
149 144 0
148 141 0
149 144 0
146 138 0
151 144 0
149 143 0
149 144 0
149 144 0
152 145 0
150 144 0
149 145 0
149 144 0
151 146 0
152 145 0
148 141 0
152 146 0
149 142 0
176 199 44
173 197 0
174 197 25
170 195 0
175 198 0
172 197 0
169 195 0
170 195 0
172 196 0
172 196 25
172 196 0
173 196 25
174 197 25
175 197 0
172 196 0
172 195 0
173 196 0
172 196 0
172 196 0
173 197 0
173 196 0
170 195 0
174 196 0
171 196 0
173 196 0
173 196 0
172 195 0
172 196 0
169 194 0
172 196 0
171 195 0
173 197 0
169 195 0
172 196 0
171 195 0
170 195 0
171 196 0
169 193 0
169 195 0
166 192 0
169 193 0
172 195 0
167 194 0
171 195 0
171 196 0
168 193 0
168 194 0
173 196 0
171 197 36
175 198 67
172 196 36
176 199 67
173 197 72
170 196 67
170 195 44
174 198 51
174 197 62
171 197 67
177 200 76
175 197 80
177 200 80
173 197 51
173 197 80
173 196 62
175 199 88
180 202 95
176 200 80
172 196 67
175 198 76
173 196 51
169 195 44
169 194 62
169 194 72
174 198 72
175 198 76
173 196 57
173 197 67
173 197 76
166 192 57
168 194 51
164 191 25
167 194 51
168 193 25
169 193 25
164 192 0
159 190 0
163 191 0
163 192 0
160 189 0
158 188 0
163 191 0
156 189 0
167 192 0
154 187 0
159 190 0
156 188 0
161 189 0
157 188 0
162 191 0
159 189 0
160 191 0
153 186 0
161 191 0
158 189 0
158 189 0
162 191 0
156 187 0
164 191 25
161 189 0
162 188 0
157 188 0
163 191 36
160 192 62
161 192 36
163 192 62
167 194 44
169 196 84
164 192 44
159 191 0
156 189 0
159 189 0
159 191 0
153 188 0
159 190 0
150 188 0
158 191 0
162 192 0
158 191 0
156 189 0
159 189 0
153 189 0
149 186 0
156 189 0
156 191 0
155 189 0
153 188 0
153 187 0
144 184 0
153 189 0
147 185 0
158 189 0
146 185 0
152 188 0
140 183 0
151 188 0
150 188 0
149 184 0
139 182 0
145 186 0
158 190 0
137 182 0
138 183 0
143 185 0
138 181 0
132 179 0
144 184 0
136 179 0
141 183 0
137 178 0
142 181 0
137 182 0
128 173 0
119 171 0
137 179 0
114 165 0
115 171 0
121 167 0
112 166 0
105 166 0
112 166 0
113 163 0
98 159 0
116 164 0
105 164 0
113 164 0
110 159 0
107 156 0
75 141 0
108 158 0
82 144 0
84 153 31
66 158 54
46 166 59
44 161 54
46 165 57
45 163 57
43 161 65
46 164 65
46 166 76
49 172 80
46 166 65
46 167 78
48 164 65
46 164 59
49 169 76
49 166 76
46 163 65
49 171 78
48 167 80
49 167 84
46 165 62
49 167 69
46 162 67
48 165 76
49 168 84
43 158 59
44 160 67
46 163 65
45 158 69
49 166 78
45 160 67
45 159 59
46 160 65
45 156 69
44 157 59
43 151 54
45 155 62
41 153 51
54 138 40
64 128 31
85 129 0
83 128 0
82 134 0
96 140 0
84 136 0
89 137 0
76 125 0
87 132 0
91 137 0
102 143 0
110 147 0
108 146 0
105 144 0
109 154 0
115 151 0
108 150 0
109 143 0
115 154 0
106 148 0
113 153 0
105 142 0
97 138 0
119 156 0
119 150 0
114 150 0
124 155 0
127 158 0
125 152 0
113 152 0
125 155 0
123 148 0
124 156 0
122 153 0
114 146 0
131 156 0
122 148 0
128 152 0
124 152 0
122 151 0
119 148 0
128 151 0
129 155 0
130 149 0
131 150 0
126 147 0
122 144 0
128 149 0
126 146 0
126 145 0
131 149 0
129 143 0
114 133 0
124 143 0
127 138 0
118 128 0
122 142 0
122 136 0
125 135 0
123 132 0
118 129 0
117 124 0
123 132 0
116 125 0
99 98 0
97 94 0
108 103 0
97 95 0
105 100 0
99 100 0
101 100 0
109 103 0
110 105 0
110 104 0
109 107 0
119 115 0
107 105 0
115 111 0
116 110 0
122 115 0
117 113 0
117 112 0
115 111 0
129 124 0
121 116 0
121 118 0
122 117 0
128 118 0
128 125 0
130 124 0
120 119 0
132 128 0
129 122 0
125 124 0
130 125 0
128 124 0
132 130 0
133 128 0
135 132 0
133 130 0
134 128 0
133 126 0
133 127 0
129 124 0
136 131 0
134 126 0
140 133 0
132 127 0
138 133 0
134 126 0
139 133 0
135 127 0
141 135 0
131 130 0
137 131 0
135 131 0
142 133 0
141 134 0
140 133 0
138 131 0
139 132 0
140 134 0
143 136 0
140 135 0
140 134 0
137 129 0
141 133 0
146 136 0
142 135 0
138 135 0
142 135 0
139 133 0
140 133 0
141 138 0
144 139 0
143 136 0
140 133 0
144 137 0
142 136 0
140 133 0
143 138 0
140 132 0
142 134 0
142 134 0
145 138 0
144 138 0
144 140 0
150 141 0
147 140 0
150 142 0
149 141 0
150 143 0
145 137 0
146 140 0
146 137 0
144 137 0
147 140 0
146 140 0
148 142 0
147 141 0
151 144 0
146 138 0
149 142 0
150 144 0
147 141 0
148 140 0
150 144 0
148 141 0
149 142 0
150 144 0
150 144 0
146 140 0
150 145 0
150 143 0
151 144 0
149 145 0
151 146 0
149 144 0
152 145 0
150 142 0
151 144 0
174 197 36
173 197 0
172 197 25
172 196 0
175 197 0
173 197 0
171 196 0
170 195 0
172 196 0
173 197 25
172 195 0
173 197 0
171 195 0
172 196 0
171 196 0
172 196 0
171 196 0
172 196 0
172 196 0
174 198 0
174 197 0
171 196 0
172 196 0
168 195 0
170 195 0
170 195 0
172 196 0
173 196 0
166 193 0
170 195 0
173 196 0
171 196 0
170 195 0
169 194 0
172 196 0
171 196 0
170 195 0
172 196 0
171 195 0
171 195 0
172 195 0
168 194 0
169 195 0
168 195 0
172 195 0
171 196 0
168 195 0
171 195 0
172 195 0
168 194 0
171 195 0
166 193 0
171 195 0
168 194 0
170 194 0
172 196 36
174 197 44
165 193 25
172 196 44
168 193 51
172 195 44
169 194 36
168 194 57
173 196 57
171 196 44
168 195 44
171 195 51
170 196 57
167 194 51
175 199 44
167 193 57
167 194 62
167 193 0
166 192 36
170 194 36
167 194 36
167 193 36
163 191 0
165 192 0
162 193 0
164 191 0
165 192 0
166 192 0
164 191 0
162 190 0
164 191 0
166 193 0
164 191 0
161 190 0
157 189 0
166 194 0
159 190 0
162 190 0
165 192 0
162 190 0
169 194 25
154 187 0
157 187 0
159 191 0
161 191 0
157 188 0
153 187 0
164 192 0
161 191 0
162 191 0
164 192 0
150 186 0
163 192 0
161 189 25
165 192 36
161 191 36
156 188 36
166 192 25
159 189 44
167 194 67
161 191 51
158 189 0
162 191 0
160 191 0
153 186 0
157 189 0
161 190 0
163 192 0
158 190 0
152 188 0
161 191 0
152 188 0
154 190 0
145 186 0
158 191 0
146 186 0
154 189 0
154 189 0
141 181 0
156 191 0
154 188 0
146 185 0
149 185 0
151 187 0
152 188 0
146 185 0
149 186 0
143 183 0
148 185 0
145 185 0
144 186 0
150 188 0
135 180 0
140 182 0
147 186 0
143 184 0
148 185 0
148 184 0
141 182 0
136 180 0
139 180 0
142 181 0
146 184 0
140 180 0
122 175 0
140 181 0
130 176 0
133 180 0
120 173 0
132 172 0
120 173 0
125 173 0
120 169 0
118 170 0
125 170 0
112 166 0
105 163 0
110 160 0
106 161 0
97 158 0
95 153 0
107 158 0
96 151 0
98 154 0
94 148 0
88 145 0
76 132 0
98 150 0
68 137 25
55 152 47
44 155 57
45 163 65
46 164 80
44 160 51
43 160 54
43 159 62
43 159 59
45 161 62
44 163 65
46 163 62
42 158 62
47 167 47
43 158 59
47 164 72
47 167 82
50 169 78
44 160 54
47 165 67
46 159 74
44 158 54
44 160 69
47 164 69
46 164 59
42 155 44
44 156 54
46 163 65
44 158 76
45 160 82
42 149 47
38 146 36
52 134 36
52 126 31
74 129 18
66 116 0
69 124 0
78 126 0
80 127 0
84 132 0
78 123 0
78 125 0
88 136 0
82 133 0
87 137 0
96 142 0
90 136 0
95 141 0
106 147 0
106 143 0
97 138 0
99 140 0
106 149 0
114 147 0
107 144 0
110 152 0
107 143 0
118 151 0
110 152 0
114 147 0
120 151 0
119 152 0
121 147 0
117 150 0
117 148 0
113 148 0
120 153 0
112 147 0
119 147 0
120 150 0
127 152 0
125 153 0
124 153 0
128 151 0
123 148 0
121 144 0
121 147 0
120 145 0
130 155 0
119 145 0
122 146 0
128 147 0
129 149 0
121 139 0
113 139 0
117 138 0
132 149 0
111 133 0
117 131 0
122 141 0
121 142 0
120 139 0
127 137 0
126 144 0
121 135 0
123 135 0
127 139 0
120 127 0
123 130 0
115 127 0
124 132 0
115 115 0
99 96 0
86 83 0
103 98 0
100 95 0
110 104 0
121 113 0
107 105 0
106 102 0
111 109 0
106 104 0
112 110 0
109 105 0
106 106 0
118 116 0
120 115 0
120 116 0
119 116 0
119 118 0
119 115 0
115 117 0
122 119 0
126 121 0
122 116 0
127 121 0
127 122 0
123 120 0
127 125 0
127 119 0
127 120 0
126 126 0
134 128 0
129 124 0
129 122 0
138 130 0
128 123 0
131 123 0
136 129 0
129 122 0
133 129 0
140 133 0
139 129 0
137 129 0
139 131 0
133 128 0
133 127 0
140 135 0
136 126 0
134 127 0
138 133 0
138 130 0
138 134 0
138 133 0
141 133 0
139 134 0
138 132 0
138 133 0
143 137 0
141 133 0
137 130 0
136 130 0
132 127 0
141 135 0
138 132 0
146 141 0
145 136 0
143 136 0
141 136 0
144 137 0
146 136 0
145 138 0
137 132 0
142 133 0
140 133 0
146 138 0
143 138 0
143 136 0
145 136 0
146 137 0
145 137 0
148 139 0
147 139 0
148 140 0
143 133 0
148 141 0
147 138 0
146 142 0
147 141 0
143 134 0
148 140 0
145 138 0
149 142 0
147 139 0
149 142 0
147 137 0
149 141 0
151 142 0
148 141 0
148 141 0
147 140 0
148 141 0
146 139 0
148 139 0
148 141 0
149 140 0
150 142 0
153 148 0
152 145 0
149 142 0
154 147 0
150 143 0
149 143 0
151 144 0
150 143 0
149 143 0
150 143 0
171 197 57
173 197 51
172 196 36
176 198 57
170 195 0
173 197 25
171 196 0
169 195 0
169 195 0
172 196 25
172 196 25
170 195 0
172 196 0
170 196 0
172 195 0
170 194 0
170 196 0
172 196 0
171 196 0
173 196 0
169 194 0
171 195 0
172 196 0
172 196 0
174 196 0
169 194 0
172 196 0
171 195 0
170 195 0
170 195 0
170 195 0
173 196 0
171 194 0
166 194 0
167 192 0
171 195 0
171 195 0
170 194 0
172 196 0
173 196 0
168 194 0
171 195 0
168 195 0
167 194 0
174 197 0
170 196 0
171 195 0
170 196 0
171 194 0
167 193 0
169 193 0
170 195 0
172 196 0
172 196 0
167 192 0
166 192 0
166 193 0
166 192 0
170 194 0
167 194 0
168 193 0
169 195 0
169 194 0
166 193 0
169 195 0
170 196 0
167 195 0
169 194 0
169 195 0
166 193 0
165 193 0
166 193 0
164 192 0
168 192 0
164 191 0
161 191 0
169 193 0
169 195 0
172 195 0
163 191 0
166 192 0
164 192 0
163 192 0
163 191 0
170 195 0
166 192 0
163 190 0
163 191 0
160 190 0
162 191 0
168 194 0
167 192 0
167 193 0
166 191 0
160 189 0
159 187 0
163 189 0
162 191 0
163 190 0
160 190 0
159 190 0
159 189 0
161 190 0
165 192 25
161 190 0
159 191 0
158 189 25
163 191 36
167 194 67
169 194 57
163 192 25
166 194 44
164 193 44
168 196 72
157 189 0
160 190 0
167 193 0
155 187 0
160 191 0
155 190 0
157 188 0
159 189 0
159 190 0
160 191 0
153 189 0
155 190 0
159 191 0
164 193 0
154 189 0
152 187 0
154 188 0
154 189 0
145 184 0
149 188 0
150 185 0
154 188 0
150 187 0
158 191 0
147 184 0
145 185 0
143 184 0
149 187 0
146 185 0
152 186 0
154 188 0
144 185 0
146 184 0
147 186 0
147 184 0
152 187 0
128 175 0
147 186 0
144 183 0
141 181 0
136 180 0
139 181 0
135 179 0
128 176 0
135 179 0
138 181 0
130 180 0
129 173 0
126 174 0
129 177 0
127 176 0
122 173 0
122 168 0
121 171 0
127 173 0
125 171 0
110 167 0
113 166 0
104 160 0
97 157 0
109 160 0
102 155 0
102 152 0
107 157 0
91 147 0
88 146 0
95 147 0
81 141 0
72 134 0
83 137 0
82 138 0
63 123 0
64 130 0
63 135 25
41 142 40
41 155 51
40 157 57
44 159 67
41 157 59
44 159 62
43 159 57
44 158 67
43 161 62
42 155 57
44 157 67
44 155 51
43 157 51
44 158 59
44 158 59
42 154 54
44 159 51
43 158 62
44 160 59
43 156 57
38 147 47
41 153 57
40 150 40
40 135 40
52 133 36
63 117 25
69 119 0
60 110 0
69 118 0
69 116 0
80 128 0
66 122 0
78 127 0
66 123 0
80 126 0
82 131 0
93 136 0
89 138 0
98 142 0
93 140 0
87 131 0
103 146 0
97 144 0
110 147 0
106 153 0
112 152 0
107 146 0
99 144 0
111 147 0
108 146 0
112 150 0
117 150 0
104 146 0
121 154 0
102 139 0
117 149 0
118 151 0
101 141 0
116 147 0
127 154 0
118 149 0
114 145 0
122 155 0
122 156 0
120 149 0
118 147 0
128 156 0
123 156 0
118 148 0
124 142 0
131 152 0
124 153 0
128 150 0
119 141 0
110 141 0
120 142 0
126 147 0
124 146 0
115 142 0
116 139 0
128 145 0
122 140 0
107 127 0
126 141 0
119 132 0
112 131 0
111 130 0
114 128 0
124 139 0
118 133 0
115 125 0
114 120 0
122 129 0
126 132 0
116 121 0
105 114 0
113 122 0
113 118 0
94 93 0
90 82 0
96 92 0
102 95 0
107 101 0
111 105 0
107 105 0
111 102 0
103 100 0
108 105 0
114 109 0
116 111 0
115 111 0
121 114 0
117 109 0
121 117 0
114 111 0
126 121 0
121 115 0
125 118 0
116 112 0
121 117 0
129 122 0
130 124 0
122 119 0
133 126 0
125 120 0
132 123 0
132 124 0
128 122 0
126 120 0
124 120 0
125 121 0
130 124 0
130 123 0
125 120 0
133 126 0
140 133 0
137 133 0
127 117 0
137 130 0
138 129 0
137 132 0
131 124 0
138 133 0
136 128 0
135 131 0
134 129 0
141 132 0
142 133 0
141 131 0
134 128 0
140 133 0
139 134 0
139 133 0
141 134 0
142 133 0
145 136 0
137 129 0
143 139 0
138 129 0
142 134 0
143 135 0
145 135 0
144 136 0
145 136 0
141 134 0
141 133 0
146 140 0
148 141 0
143 135 0
141 135 0
143 135 0
148 142 0
146 138 0
146 137 0
143 136 0
146 135 0
143 136 0
146 137 0
144 138 0
146 138 0
146 138 0
146 137 0
148 141 0
148 140 0
145 138 0
147 138 0
143 136 0
147 141 0
148 138 0
145 136 0
147 138 0
149 140 0
150 142 0
153 144 0
149 141 0
145 136 0
148 140 0
149 142 0
146 139 0
150 144 0
149 142 0
148 142 0
148 142 0
150 142 0
148 141 0
148 140 0
149 142 0
151 143 0
149 142 0
152 146 0
149 142 0
149 142 0
173 197 44
173 197 44
176 199 51
177 199 57
173 197 36
175 198 44
169 195 25
173 196 25
174 197 0
173 197 0
172 196 0
170 196 0
172 196 0
170 195 0
174 197 0
171 196 0
171 196 25
170 195 0
172 195 0
174 197 0
174 198 0
173 197 0
170 195 0
172 196 0
170 195 0
174 197 0
173 196 0
173 196 0
174 197 0
169 195 0
174 197 0
171 194 0
170 195 0
170 194 0
169 195 0
172 195 0
170 195 0
173 197 0
170 194 0
171 195 0
175 197 0
170 194 0
172 196 0
168 194 0
173 196 0
173 196 0
171 196 0
169 194 0
169 193 0
170 194 0
170 195 0
171 195 0
167 192 0
170 194 0
174 197 0
171 196 0
168 194 0
169 194 0
169 194 0
174 197 0
170 194 0
167 194 0
160 190 0
167 192 0
168 194 0
169 196 0
164 192 0
167 193 0
168 194 0
165 193 0
170 194 0
165 192 0
166 192 0
169 193 0
165 192 0
160 191 0
167 194 0
166 193 0
168 195 0
170 195 0
165 193 0
168 193 0
169 195 0
165 192 0
167 192 0
164 191 0
168 193 0
165 193 0
159 188 0
165 193 0
165 192 0
164 190 0
161 191 0
164 192 0
165 191 0
158 189 0
164 191 0
163 191 0
163 191 0
159 188 0
163 189 0
164 193 0
161 191 0
160 190 0
161 189 25
161 190 25
163 192 44
156 187 0
159 192 51
161 191 51
161 192 62
161 191 67
154 188 36
160 190 0
155 188 0
159 190 0
165 191 0
157 189 0
151 188 0
162 190 0
161 191 0
157 190 0
155 188 0
159 190 0
160 189 0
147 184 0
159 191 0
162 190 0
140 184 0
150 187 0
155 188 0
154 188 0
157 191 0
151 187 0
143 186 0
152 188 0
151 188 0
148 188 0
157 189 0
142 184 0
146 184 0
149 185 0
147 184 0
138 183 0
143 184 0
141 186 0
152 185 0
150 187 0
143 184 0
137 182 0
138 181 0
138 179 0
137 181 0
145 185 0
137 178 0
134 178 0
139 179 0
137 179 0
133 177 0
136 180 0
127 177 0
131 179 0
124 175 0
127 174 0
124 172 0
129 172 0
116 170 0
129 175 0
119 170 0
117 168 0
110 163 0
118 166 0
109 161 0
100 157 0
95 151 0
114 162 0
83 145 0
102 157 0
94 149 0
99 150 0
87 147 0
82 144 0
60 131 0
65 133 0
78 131 0
78 127 0
65 125 0
72 123 0
75 125 0
60 117 0
60 119 0
55 128 36
41 131 31
51 141 51
42 146 44
42 145 54
49 153 40
38 146 44
37 146 54
40 153 65
42 152 59
45 157 67
40 147 57
39 147 40
37 143 51
46 135 51
48 137 51
42 120 36
57 119 18
48 107 36
48 104 0
71 115 0
59 107 0
79 125 0
73 117 0
71 112 0
63 115 0
67 121 0
79 129 0
85 130 0
87 135 0
83 127 0
78 129 0
88 130 0
95 140 0
93 140 0
107 147 0
102 145 0
88 136 0
108 145 0
102 144 0
100 144 0
104 143 0
106 148 0
112 150 0
116 151 0
101 143 0
112 150 0
108 147 0
114 153 0
113 148 0
120 152 0
115 152 0
119 151 0
125 156 0
125 153 0
121 155 0
117 148 0
120 153 0
120 154 0
125 155 0
114 145 0
118 147 0
118 149 0
112 144 0
123 152 0
126 155 0
116 147 0
122 150 0
114 142 0
119 148 0
113 138 0
129 149 0
112 135 0
127 149 0
130 152 0
113 140 0
123 147 0
128 146 0
116 139 0
121 138 0
118 134 0
120 142 0
123 138 0
124 139 0
121 137 0
120 130 0
116 133 0
130 143 0
119 130 0
108 121 0
104 120 0
110 120 0
116 128 0
104 109 0
124 128 0
120 124 0
118 119 0
101 101 0
99 92 0
90 87 0
96 94 0
103 100 0
104 96 0
102 97 0
97 97 0
100 99 0
106 105 0
109 101 0
115 110 0
115 108 0
118 110 0
115 109 0
122 119 0
119 114 0
115 113 0
119 114 0
120 114 0
123 115 0
120 114 0
121 113 0
125 118 0
129 123 0
130 123 0
125 120 0
130 122 0
135 128 0
128 123 0
129 125 0
130 122 0
136 127 0
137 131 0
127 121 0
137 129 0
133 125 0
130 123 0
132 124 0
133 125 0
131 124 0
136 126 0
135 131 0
131 127 0
132 124 0
134 125 0
140 133 0
132 128 0
139 131 0
136 129 0
134 126 0
138 131 0
140 135 0
135 128 0
134 128 0
141 133 0
141 131 0
141 133 0
141 133 0
141 133 0
140 133 0
144 135 0
139 134 0
145 134 0
141 132 0
139 132 0
141 132 0
141 133 0
143 136 0
137 131 0
146 137 0
139 130 0
144 135 0
143 134 0
145 136 0
145 136 0
143 132 0
145 137 0
145 137 0
142 135 0
144 138 0
149 141 0
145 138 0
146 137 0
146 139 0
152 144 0
147 141 0
148 141 0
149 141 0
145 136 0
146 139 0
148 141 0
148 142 0
148 140 0
143 137 0
146 137 0
147 139 0
148 140 0
147 140 0
150 142 0
148 141 0
148 140 0
149 140 0
152 143 0
147 139 0
148 141 0
152 146 0
149 143 0
150 144 0
150 142 0
150 142 0
150 142 0
175 198 57
175 198 51
174 198 67
173 198 57
174 198 51
174 197 36
172 196 25
172 197 36
174 198 51
172 196 0
172 196 0
170 195 0
174 197 0
171 196 0
171 195 0
173 196 25
173 197 0
173 197 25
170 195 0
175 197 44
171 195 0
171 195 0
171 195 0
172 196 0
174 197 0
173 197 0
174 197 0
170 195 0
172 197 0
172 196 0
171 195 0
172 196 0
172 196 0
171 195 0
172 196 0
170 195 0
173 197 0
169 195 0
170 195 0
173 196 0
173 196 0
170 193 0
171 194 0
171 195 0
172 196 0
170 193 0
170 194 0
171 196 0
171 195 0
172 196 0
171 195 0
171 195 0
170 195 0
170 195 0
170 194 0
166 193 0
169 193 0
170 196 0
167 192 0
169 195 0
169 194 0
167 193 0
169 194 0
168 193 0
170 195 0
169 193 0
163 191 0
166 192 0
170 194 0
164 191 0
170 194 0
166 192 0
169 193 0
166 193 0
168 193 0
165 191 0
169 194 0
167 194 0
166 193 0
168 194 0
167 194 0
166 192 0
165 193 0
164 193 0
164 191 0
164 191 0
167 192 0
163 191 0
161 189 0
161 191 0
160 190 36
165 192 0
160 188 0
158 187 0
166 192 0
159 189 0
158 189 0
163 192 0
163 189 0
164 192 0
160 189 0
160 188 0
156 189 25
154 186 36
160 189 51
165 193 67
168 194 57
156 188 25
165 194 72
167 193 51
161 189 0
163 191 0
162 191 0
156 188 0
157 188 0
162 190 0
158 188 0
157 189 0
159 191 0
157 188 0
161 190 0
153 188 0
151 187 0
160 191 0
161 190 0
159 190 0
158 192 0
161 189 0
158 190 0
155 189 0
152 189 0
150 188 0
157 190 0
152 186 0
153 190 0
153 187 0
160 192 0
140 186 0
151 187 0
153 189 0
144 184 0
149 186 0
158 190 0
147 184 0
145 184 0
150 186 0
143 184 0
143 183 0
140 181 0
139 183 0
150 187 0
133 181 0
138 181 0
141 183 0
131 178 0
140 182 0
124 175 0
128 173 0
133 177 0
138 177 0
135 180 0
131 176 0
126 176 0
135 176 0
124 176 0
122 166 0
110 165 0
120 169 0
122 168 0
113 164 0
108 161 0
109 165 0
108 161 0
114 168 0
105 161 0
101 156 0
92 152 0
93 153 0
95 151 0
92 148 0
81 136 0
83 141 0
91 141 0
83 142 0
85 138 0
74 133 0
68 125 0
74 131 0
66 123 0
85 133 0
63 118 0
71 121 0
70 117 0
53 111 0
65 109 0
57 103 0
59 105 0
66 104 0
39 97 0
62 111 0
52 109 25
49 101 0
40 86 0
22 83 0
48 102 0
61 106 0
56 109 0
56 102 0
73 114 0
72 113 0
62 110 0
75 121 0
69 120 0
77 123 0
71 118 0
63 117 0
80 130 0
79 132 0
78 130 0
75 126 0
78 130 0
71 123 0
93 135 0
95 141 0
78 130 0
96 142 0
86 133 0
101 144 0
96 138 0
96 143 0
96 139 0
101 143 0
94 136 0
102 147 0
105 151 0
95 141 0
108 146 0
112 149 0
121 155 0
119 154 0
112 148 0
113 147 0
111 149 0
111 147 0
127 157 0
118 152 0
112 150 0
116 152 0
110 143 0
121 155 0
121 150 0
112 147 0
120 149 0
119 145 0
128 153 0
119 147 0
135 158 0
129 156 0
125 151 0
128 152 0
122 150 0
125 147 0
135 157 0
112 136 0
120 141 0
132 151 0
110 134 0
101 135 0
127 148 0
126 145 0
123 145 0
110 132 0
120 136 0
112 133 0
116 133 0
130 139 0
113 130 0
109 129 0
126 138 0
118 135 0
118 132 0
113 125 0
114 130 0
107 119 0
112 121 0
117 121 0
110 116 0
107 114 0
111 114 0
109 110 0
96 92 0
85 82 0
100 91 0
108 98 0
101 93 0
99 94 0
116 109 0
107 101 0
113 104 0
113 108 0
113 105 0
108 102 0
113 106 0
114 107 0
120 116 0
118 112 0
117 111 0
117 110 0
123 115 0
125 119 0
122 116 0
126 117 0
118 113 0
121 115 0
127 120 0
128 121 0
131 123 0
127 118 0
128 121 0
132 124 0
130 120 0
127 121 0
128 119 0
135 129 0
129 121 0
127 124 0
133 128 0
131 124 0
136 130 0
131 121 0
137 130 0
131 124 0
133 124 0
128 125 0
145 135 0
136 129 0
131 122 0
137 131 0
144 136 0
137 130 0
138 130 0
137 127 0
135 126 0
143 137 0
140 130 0
142 135 0
139 133 0
140 131 0
143 131 0
138 134 0
138 132 0
140 128 0
139 131 0
141 131 0
142 133 0
142 136 0
144 136 0
145 135 0
140 133 0
141 135 0
144 134 0
145 135 0
142 133 0
145 136 0
144 134 0
147 140 0
143 137 0
144 137 0
144 136 0
143 133 0
145 136 0
145 137 0
145 137 0
146 138 0
150 142 0
146 137 0
145 136 0
147 140 0
142 135 0
144 138 0
146 137 0
153 144 0
146 138 0
147 141 0
149 140 0
148 140 0
145 138 0
148 140 0
146 138 0
148 140 0
150 143 0
146 139 0
148 142 0
151 144 0
150 143 0
150 141 0
150 142 0
148 140 0
147 141 0
152 145 0
176 199 57
171 196 25
173 197 36
172 197 51
173 198 51
176 199 51
173 197 0
172 196 36
176 199 44
172 197 44
171 196 25
176 199 62
169 195 0
173 197 0
174 197 0
172 195 0
170 195 25
170 195 0
171 196 0
170 196 25
172 197 0
170 195 25
175 198 0
171 195 0
169 194 0
171 196 0
170 195 0
172 196 0
173 196 0
173 196 0
170 196 0
173 196 0
169 194 0
170 195 0
174 196 0
172 196 0
171 195 0
174 197 0
169 194 0
172 196 0
171 195 0
167 192 0
173 196 0
172 195 0
172 196 0
172 194 0
169 193 0
169 193 0
169 194 0
171 195 0
172 194 0
173 196 0
171 195 0
171 194 0
169 194 0
168 194 0
173 196 0
168 194 0
166 193 0
170 195 0
170 195 0
170 195 0
171 195 0
174 197 0
172 195 0
169 193 0
170 196 0
173 196 0
168 194 0
170 193 0
165 190 0
167 194 25
169 194 0
170 193 0
165 192 0
164 191 0
166 192 0
162 190 0
165 191 0
166 191 0
162 191 0
161 189 0
167 192 0
169 195 0
171 195 0
164 190 0
160 190 0
166 193 0
166 192 0
169 195 25
161 190 0
163 190 0
161 191 0
159 188 0
167 194 0
165 190 0
162 189 0
163 190 0
151 185 0
157 188 0
160 189 44
163 190 25
163 190 25
160 189 44
155 187 0
169 194 62
165 195 88
166 194 57
165 192 0
163 189 0
163 191 0
161 190 0
161 189 0
156 189 0
155 187 0
158 190 0
163 192 0
156 190 0
154 187 0
155 188 0
154 188 0
157 190 0
155 188 0
156 189 0
156 189 0
155 189 0
142 184 0
152 189 0
152 187 0
151 187 0
152 187 0
152 189 0
153 188 0
145 186 0
151 189 0
149 186 0
145 187 0
148 188 0
148 186 0
151 187 0
148 187 0
151 188 0
150 187 0
146 186 0
146 184 0
143 185 0
156 188 0
151 186 0
147 186 0
145 185 0
134 180 0
138 182 0
140 183 0
133 179 0
138 180 0
131 176 0
140 182 0
130 177 0
129 176 0
131 174 0
127 174 0
116 172 0
136 180 0
118 169 0
129 173 0
127 172 0
120 169 0
115 165 0
121 171 0
115 164 0
107 165 0
110 166 0
111 166 0
112 166 0
120 162 0
111 163 0
108 155 0
108 157 0
95 150 0
101 154 0
100 153 0
97 151 0
95 151 0
75 137 0
84 139 0
84 140 0
75 135 0
79 138 0
89 139 0
74 133 0
70 131 0
80 129 0
65 126 0
62 122 0
68 121 0
72 126 0
66 118 0
72 121 0
48 102 0
73 125 0
69 109 0
70 114 0
66 113 0
62 117 0
60 114 0
65 117 0
66 119 0
59 114 0
70 121 0
64 112 0
77 121 0
69 122 0
76 124 0
67 120 0
71 124 0
88 134 0
84 136 0
86 131 0
83 133 0
78 124 0
92 137 0
86 130 0
100 139 0
78 128 0
103 144 0
97 143 0
96 144 0
95 141 0
108 150 0
92 134 0
114 152 0
93 140 0
109 146 0
121 156 0
105 140 0
111 150 0
104 149 0
119 153 0
115 149 0
112 151 0
112 147 0
107 146 0
109 150 0
121 153 0
106 149 0
123 150 0
124 157 0
117 148 0
122 151 0
112 148 0
114 148 0
122 149 0
117 146 0
120 148 0
122 155 0
126 147 0
121 150 0
123 148 0
126 149 0
127 153 0
123 149 0
115 145 0
115 144 0
126 150 0
126 146 0
119 148 0
132 155 0
115 141 0
118 140 0
109 136 0
118 144 0
116 139 0
119 140 0
119 136 0
125 142 0
113 130 0
119 132 0
130 149 0
128 141 0
108 125 0
129 141 0
122 138 0
106 118 0
112 121 0
112 122 0
121 126 0
104 113 0
116 120 0
111 117 0
101 109 0
103 105 0
97 102 0
85 82 0
84 78 0
95 86 0
104 98 0
92 92 0
97 87 0
113 104 0
107 102 0
113 105 0
115 107 0
111 106 0
110 103 0
115 106 0
120 113 0
118 111 0
125 116 0
119 112 0
115 107 0
117 111 0
121 117 0
129 118 0
120 112 0
131 121 0
131 121 0
133 126 0
128 121 0
120 116 0
135 125 0
134 125 0
133 124 0
133 125 0
128 122 0
137 128 0
129 122 0
130 123 0
133 125 0
135 128 0
136 129 0
133 127 0
134 124 0
138 125 0
129 121 0
142 130 0
139 131 0
134 126 0
133 125 0
135 127 0
141 133 0
138 129 0
141 134 0
139 131 0
139 130 0
136 126 0
142 131 0
139 130 0
141 132 0
140 133 0
136 128 0
136 127 0
144 136 0
144 133 0
145 136 0
139 131 0
141 134 0
140 132 0
139 129 0
145 140 0
141 134 0
146 138 0
143 134 0
141 134 0
147 137 0
147 137 0
139 129 0
141 130 0
142 133 0
146 137 0
147 138 0
144 136 0
144 135 0
144 136 0
146 138 0
146 136 0
144 135 0
149 141 0
145 135 0
152 144 0
149 143 0
143 134 0
146 140 0
147 138 0
144 134 0
149 140 0
145 136 0
144 135 0
146 136 0
146 137 0
148 139 0
149 141 0
149 142 0
149 140 0
148 139 0
146 138 0
151 143 0
149 140 0
151 143 0
146 139 0
147 139 0
172 196 36
175 198 51
174 198 51
174 198 36
173 197 36
171 196 25
174 197 25
175 198 36
171 196 44
173 197 25
175 198 51
174 198 25
172 197 25
172 197 25
173 197 0
169 194 0
173 197 0
170 196 0
170 196 0
174 197 0
172 196 0
174 197 25
170 195 0
168 194 0
169 194 0
171 195 0
171 195 0
172 195 25
174 196 0
169 194 0
171 196 0
171 196 0
173 196 0
170 194 0
172 196 0
172 196 0
174 197 0
171 196 0
173 196 25
171 195 0
166 193 0
170 193 0
169 195 0
171 194 0
172 196 0
171 195 0
172 196 0
173 196 0
172 196 0
169 194 0
171 195 0
171 195 0
169 193 0
172 197 0
173 196 0
174 197 0
172 196 0
170 193 0
170 194 0
170 194 0
172 196 0
169 195 0
165 190 0
169 193 0
172 197 0
169 193 0
171 195 0
169 195 0
166 192 0
164 192 0
168 194 0
173 195 0
164 191 0
166 191 0
171 194 0
171 195 0
167 193 0
167 192 0
157 188 0
167 193 0
166 192 0
167 193 0
165 191 0
169 193 25
168 193 25
164 191 0
167 194 0
165 190 0
162 190 0
162 191 25
160 190 25
163 191 0
163 189 0
157 187 0
162 190 0
163 190 0
162 190 0
163 190 36
163 189 25
162 191 44
167 194 57
168 192 36
163 191 44
163 192 51
162 192 62
169 194 67
161 191 0
160 191 0
158 189 0
163 191 0
161 192 0
162 191 0
155 187 0
160 190 0
155 187 0
155 187 0
157 190 0
158 188 0
159 190 0
151 187 0
154 189 0
156 188 0
151 189 0
155 189 0
161 190 0
152 188 0
154 189 0
149 187 0
162 191 0
145 184 0
149 186 0
152 188 0
145 186 0
149 187 0
143 183 0
155 188 0
152 188 0
151 187 0
150 187 0
147 186 0
139 182 0
148 184 0
145 185 0
143 185 0
146 186 0
142 182 0
143 182 0
143 183 0
138 182 0
148 185 0
143 181 0
141 183 0
138 180 0
140 182 0
120 174 0
135 179 0
139 182 0
132 179 0
137 181 0
126 176 0
128 175 0
130 176 0
122 174 0
117 172 0
125 173 0
119 165 0
125 171 0
112 165 0
113 167 0
124 170 0
115 166 0
114 163 0
111 168 0
111 166 0
102 161 0
109 162 0
92 153 0
95 152 0
98 151 0
105 159 0
93 151 0
87 148 0
97 152 0
96 147 0
87 144 0
78 134 0
85 141 0
87 142 0
76 130 0
90 142 0
73 135 0
76 133 0
67 131 0
66 120 0
61 123 0
65 126 0
66 125 0
62 115 0
71 125 0
77 126 0
84 123 0
71 122 0
79 128 0
73 119 0
73 123 0
65 117 0
77 131 0
78 128 0
80 130 0
66 119 0
72 122 0
75 132 0
69 119 0
76 128 0
73 128 0
68 126 0
75 121 0
83 129 0
94 142 0
83 138 0
83 133 0
95 141 0
90 141 0
91 138 0
89 140 0
101 149 0
94 138 0
98 142 0
104 144 0
95 141 0
108 148 0
117 159 0
111 150 0
109 144 0
115 154 0
104 149 0
114 149 0
116 153 0
114 149 0
112 151 0
106 152 0
118 154 0
115 152 0
116 156 0
119 159 0
116 150 0
121 152 0
111 147 0
121 153 0
124 152 0
110 147 0
118 151 0
108 143 0
119 149 0
128 154 0
120 153 0
120 150 0
119 147 0
123 154 0
140 160 0
119 145 0
130 155 0
124 154 0
123 149 0
113 140 0
126 151 0
116 138 0
116 142 0
120 143 0
121 145 0
115 140 0
107 136 0
121 141 0
117 140 0
129 146 0
112 131 0
112 132 0
122 139 0
122 132 0
116 126 0
127 142 0
108 121 0
113 129 0
117 130 0
97 110 0
115 125 0
109 118 0
104 110 0
103 106 0
96 97 0
102 105 0
102 104 0
98 107 0
99 96 0
82 81 0
84 72 0
91 79 0
88 77 0
103 95 0
101 90 0
96 89 0
108 101 0
117 108 0
117 106 0
119 111 0
115 107 0
117 110 0
113 106 0
116 107 0
118 107 0
118 113 0
119 109 0
117 108 0
122 113 0
124 114 0
127 116 0
123 115 0
128 119 0
127 119 0
128 116 0
130 122 0
136 128 0
128 117 0
123 116 0
130 122 0
133 123 0
128 119 0
136 127 0
131 123 0
133 125 0
134 126 0
135 127 0
137 129 0
134 126 0
135 128 0
134 125 0
139 128 0
140 129 0
130 123 0
135 126 0
132 124 0
137 128 0
138 132 0
136 124 0
141 132 0
139 127 0
135 123 0
140 129 0
140 129 0
139 129 0
138 128 0
142 132 0
139 129 0
143 134 0
142 131 0
145 133 0
140 132 0
143 133 0
141 131 0
143 132 0
143 137 0
140 130 0
141 134 0
139 130 0
143 135 0
146 138 0
144 136 0
145 135 0
147 134 0
144 137 0
145 137 0
145 139 0
143 132 0
145 137 0
148 139 0
142 133 0
143 132 0
144 134 0
145 134 0
143 134 0
147 138 0
149 140 0
146 135 0
146 137 0
148 139 0
149 140 0
150 143 0
146 137 0
148 142 0
150 139 0
151 143 0
149 142 0
150 144 0
146 136 0
147 140 0
151 143 0
147 139 0
149 144 0
147 140 0
147 140 0
176 199 72
174 198 36
170 195 36
173 197 44
175 198 44
174 197 44
173 196 36
173 197 44
174 198 51
175 199 62
175 198 57
175 198 57
173 197 44
172 196 25
174 197 36
174 197 44
170 195 25
171 196 25
171 196 0
168 193 0
171 195 0
170 195 25
170 195 0
171 196 0
167 193 0
171 194 0
172 196 0
169 194 0
171 196 0
174 196 0
174 197 25
171 195 0
170 194 0
174 196 0
171 195 0
170 195 0
170 195 0
173 196 0
171 196 0
169 194 0
171 196 0
168 194 0
171 196 0
173 196 0
175 196 25
174 196 0
169 194 0
170 195 0
170 194 0
172 195 0
173 196 0
173 196 0
170 194 0
174 196 25
167 194 0
172 196 0
171 194 0
171 194 0
171 194 0
167 194 0
170 195 0
168 193 0
171 195 0
166 191 0
168 193 0
169 194 0
161 190 0
170 194 0
169 194 0
172 195 0
166 193 0
164 192 0
172 195 0
168 193 0
167 194 0
164 191 0
169 193 0
171 195 0
163 190 0
163 189 0
166 191 0
166 194 25
160 188 0
160 191 25
165 192 0
168 192 0
160 188 25
162 190 0
157 187 0
164 189 0
162 189 0
163 190 25
157 189 0
157 187 25
160 188 25
160 190 44
165 191 36
156 189 36
164 189 51
172 194 44
161 188 0
163 191 62
165 193 51
167 193 57
155 185 0
157 186 0
166 193 0
157 188 0
156 189 0
155 186 0
158 188 0
154 187 0
158 189 0
147 184 0
159 190 0
161 190 0
159 191 0
151 188 0
148 186 0
161 193 0
149 186 0
159 191 0
156 189 0
162 191 0
149 189 0
151 188 0
150 186 0
155 189 0
150 187 0
149 185 0
146 184 0
146 185 0
159 191 0
147 185 0
156 189 0
149 185 0
143 184 0
154 189 0
149 185 0
152 187 0
149 187 0
148 185 0
154 188 0
143 184 0
150 186 0
144 184 0
139 181 0
145 183 0
144 182 0
141 183 0
147 184 0
136 182 0
138 180 0
139 183 0
138 180 0
130 178 0
141 179 0
129 176 0
126 174 0
135 179 0
129 177 0
139 181 0
132 177 0
119 172 0
121 168 0
126 175 0
119 172 0
118 170 0
128 171 0
111 166 0
112 169 0
108 167 0
125 172 0
119 171 0
97 154 0
109 161 0
113 165 0
102 154 0
104 156 0
99 157 0
100 154 0
93 154 0
107 157 0
99 148 0
96 148 0
88 147 0
86 144 0
86 145 0
94 150 0
83 144 0
76 129 0
82 143 0
81 138 0
82 138 0
82 135 0
83 141 0
83 137 0
82 137 0
76 131 0
78 136 0
69 127 0
74 123 0
90 137 0
85 136 0
73 131 0
80 133 0
84 132 0
71 125 0
72 123 0
74 126 0
88 140 0
79 134 0
83 134 0
92 137 0
94 141 0
93 143 0
82 132 0
92 144 0
94 140 0
96 138 0
101 142 0
92 140 0
78 135 0
96 142 0
99 144 0
107 146 0
100 144 0
104 152 0
106 147 0
90 137 0
110 146 0
95 141 0
113 151 0
110 145 0
101 149 0
117 147 0
119 157 0
110 147 0
116 152 0
116 149 0
112 156 0
114 151 0
109 147 0
116 150 0
117 151 0
121 150 0
115 149 0
115 153 0
115 143 0
120 150 0
124 154 0
121 151 0
124 151 0
129 158 0
123 155 0
124 152 0
121 153 0
119 141 0
118 146 0
121 149 0
128 151 0
134 153 0
124 150 0
112 142 0
113 140 0
121 151 0
128 152 0
128 150 0
122 146 0
125 150 0
117 140 0
126 147 0
126 146 0
111 136 0
125 148 0
112 135 0
128 141 0
119 138 0
117 134 0
110 128 0
127 140 0
112 131 0
105 120 0
118 130 0
111 121 0
103 117 0
103 110 0
116 124 0
105 113 0
111 122 0
103 107 0
103 107 0
107 109 0
97 99 0
88 90 0
94 90 0
88 86 0
86 78 0
96 87 0
85 77 0
103 94 0
99 87 0
105 94 0
109 97 0
104 94 0
105 97 0
110 98 0
118 112 0
110 103 0
115 106 0
111 105 0
121 113 0
125 118 0
127 116 0
118 106 0
120 112 0
123 112 0
127 116 0
121 114 0
119 111 0
126 117 0
128 119 0
130 121 0
125 117 0
134 126 0
134 122 0
133 124 0
123 115 0
126 118 0
134 123 0
132 121 0
136 127 0
133 124 0
137 125 0
136 126 0
138 129 0
131 119 0
139 128 0
130 119 0
138 124 0
139 127 0
133 123 0
132 124 0
134 129 0
134 126 0
140 129 0
139 132 0
142 131 0
141 132 0
137 125 0
137 128 0
141 130 0
141 131 0
142 132 0
145 134 0
141 132 0
143 134 0
141 129 0
146 137 0
145 136 0
144 132 0
145 135 0
143 133 0
145 137 0
145 135 0
137 127 0
141 129 0
146 136 0
141 131 0
145 137 0
144 134 0
139 130 0
143 133 0
144 134 0
147 139 0
145 135 0
144 133 0
146 137 0
146 135 0
145 135 0
145 138 0
147 138 0
148 137 0
151 142 0
147 140 0
147 137 0
149 140 0
148 139 0
148 138 0
148 140 0
149 141 0
149 139 0
148 139 0
150 144 0
147 139 0
148 142 0
146 139 0
144 138 0
143 136 0
138 132 0
180 203 105
184 205 130
185 205 119
174 198 62
172 196 36
169 195 0
174 197 36
171 196 25
175 198 25
177 199 51
173 198 51
173 197 44
171 197 44
172 196 36
172 196 25
172 196 44
176 198 51
174 197 57
173 197 51
174 198 51
176 198 36
172 195 0
173 197 0
171 194 0
173 196 0
173 196 25
175 197 0
170 195 0
172 196 0
174 197 0
171 194 0
173 196 0
171 196 0
174 196 0
168 193 0
172 196 0
174 196 0
170 195 0
170 194 0
169 195 0
170 194 25
173 196 25
171 195 0
173 196 0
171 195 0
171 196 0
170 195 0
170 194 0
171 196 0
171 195 25
172 195 0
172 196 0
174 197 0
171 196 0
173 196 0
173 196 0
172 196 0
171 196 25
171 194 0
173 196 25
173 195 0
168 194 0
166 191 0
170 193 0
167 194 0
173 196 0
163 191 0
167 193 0
168 194 25
165 191 0
171 193 25
168 193 0
169 192 0
168 193 0
168 193 0
169 194 0
170 195 0
160 190 0
165 191 0
165 191 0
170 194 0
165 192 0
165 192 0
165 190 0
167 192 0
162 190 0
157 187 0
159 189 0
163 190 0
160 189 0
162 189 0
158 188 36
164 191 25
168 193 36
168 193 62
167 193 57
168 193 51
168 192 44
169 194 51
167 193 72
169 193 57
164 190 25
157 187 0
161 191 0
160 189 0
164 192 0
158 189 0
161 189 0
160 189 0
160 190 0
163 192 0
161 191 0
163 191 0
157 188 0
161 190 0
162 191 0
159 190 0
163 193 0
154 187 0
156 189 0
154 189 0
158 192 0
154 188 0
149 186 0
150 187 0
159 191 0
144 185 0
147 187 0
147 185 0
151 188 0
156 190 0
152 186 0
156 190 0
156 190 0
140 184 0
151 188 0
155 190 0
151 187 0
145 184 0
146 186 0
147 185 0
143 185 0
146 185 0
140 183 0
145 183 0
141 182 0
148 184 0
141 181 0
142 184 0
139 182 0
139 181 0
138 179 0
134 182 0
143 182 0
135 179 0
133 178 0
127 177 0
133 177 0
130 180 0
123 173 0
134 177 0
130 174 0
121 170 0
132 179 0
118 171 0
126 174 0
112 170 0
122 170 0
129 173 0
124 172 0
112 167 0
116 167 0
120 167 0
112 162 0
107 162 0
111 163 0
100 155 0
110 159 0
111 156 0
105 156 0
105 160 0
103 157 0
98 153 0
100 157 0
101 157 0
101 155 0
94 148 0
92 146 0
94 147 0
97 148 0
101 153 0
78 138 0
100 148 0
81 140 0
92 141 0
99 149 0
77 140 0
84 136 0
92 141 0
79 138 0
82 137 0
79 143 0
81 137 0
75 129 0
70 127 0
95 140 0
72 132 0
96 142 0
88 142 0
85 135 0
85 135 0
91 142 0
100 143 0
84 137 0
93 137 0
90 145 0
101 149 0
89 138 0
88 146 0
82 133 0
98 146 0
90 136 0
99 146 0
108 152 0
100 150 0
91 143 0
96 142 0
104 147 0
115 155 0
96 142 0
99 144 0
87 141 0
105 148 0
120 158 0
113 153 0
118 151 0
107 147 0
116 154 0
120 152 0
113 150 0
113 151 0
113 145 0
116 151 0
115 147 0
118 151 0
105 149 0
132 161 0
121 155 0
120 153 0
118 154 0
120 149 0
126 158 0
113 146 0
120 151 0
120 155 0
124 151 0
125 153 0
124 158 0
119 151 0
120 150 0
127 152 0
125 146 0
122 151 0
124 145 0
123 146 0
120 143 0
125 148 0
119 145 0
121 150 0
122 145 0
117 143 0
125 145 0
109 136 0
113 134 0
116 135 0
128 148 0
119 139 0
127 149 0
119 138 0
125 141 0
117 134 0
112 125 0
112 131 0
108 122 0
110 121 0
113 123 0
120 133 0
104 115 0
105 116 0
114 117 0
114 119 0
115 121 0
105 105 0
102 106 0
98 102 0
96 98 0
96 104 0
88 88 0
93 90 0
84 79 0
82 72 0
89 80 0
100 87 0
95 87 0
118 107 0
105 95 0
107 99 0
110 101 0
116 104 0
108 98 0
114 105 0
117 106 0
112 102 0
120 108 0
123 114 0
120 105 0
123 109 0
119 111 0
129 117 0
121 109 0
125 113 0
127 115 0
121 110 0
128 117 0
124 116 0
130 118 0
130 120 0
130 117 0
133 118 0
125 114 0
138 125 0
133 121 0
138 127 0
129 121 0
130 124 0
133 123 0
129 117 0
137 125 0
135 125 0
138 128 0
137 125 0
133 123 0
137 126 0
136 126 0
134 126 0
135 125 0
136 128 0
138 128 0
137 126 0
141 131 0
136 126 0
137 127 0
138 128 0
142 133 0
142 130 0
141 132 0
138 130 0
138 128 0
145 135 0
141 133 0
137 125 0
143 134 0
145 136 0
143 132 0
146 136 0
142 133 0
142 133 0
143 131 0
144 135 0
143 132 0
146 134 0
140 129 0
144 132 0
144 135 0
146 135 0
150 141 0
145 136 0
147 135 0
142 132 0
145 136 0
147 137 0
145 136 0
150 142 0
147 137 0
145 135 0
145 136 0
146 137 0
148 138 0
149 142 0
149 140 0
149 140 0
148 140 0
147 138 0
144 134 0
144 135 0
148 140 0
134 126 0
138 130 0
131 127 0
138 139 0
172 197 0
174 198 57
180 202 98
187 208 137
186 208 134
178 201 95
177 199 62
174 197 25
174 197 0
175 198 51
173 197 36
174 198 44
176 199 51
175 197 51
176 198 44
173 198 57
171 195 36
175 198 36
173 197 44
172 196 44
173 197 36
172 197 51
173 197 25
171 196 25
169 193 0
171 196 25
170 195 0
170 195 0
169 195 0
169 194 0
171 196 0
174 196 0
167 194 0
172 195 0
173 197 0
174 196 0
171 196 0
173 196 25
170 195 0
170 195 0
171 196 25
175 197 0
170 195 0
172 195 0
176 198 25
171 196 0
169 195 0
171 194 0
173 195 0
172 196 36
170 195 0
170 195 0
169 193 0
170 194 0
174 196 0
169 194 0
174 196 0
171 194 0
169 194 0
170 194 0
167 194 0
170 192 0
168 194 0
168 195 0
167 192 25
174 196 0
169 194 0
163 191 0
165 191 0
170 193 0
165 191 0
165 191 0
171 194 0
173 196 25
170 194 0
170 194 25
167 192 0
162 191 0
169 193 0
164 192 0
168 193 0
167 192 0
166 191 0
163 190 0
168 193 25
159 187 0
165 190 0
162 191 0
161 188 36
165 191 51
166 192 51
166 194 51
169 192 51
163 190 36
164 192 25
165 191 25
165 194 72
170 194 51
165 192 44
160 189 0
159 187 0
154 186 0
165 192 0
158 187 0
156 189 0
167 192 0
160 189 0
160 189 0
158 188 0
166 192 0
164 191 0
159 190 0
165 194 0
153 186 0
158 189 0
159 190 0
159 191 0
161 189 0
157 189 0
146 183 0
156 189 0
155 187 0
164 193 0
157 190 0
143 183 0
162 191 0
147 186 0
151 186 0
150 188 0
152 188 0
144 186 0
154 188 0
142 182 0
152 188 0
148 187 0
142 186 0
150 187 0
142 186 0
145 185 0
148 185 0
154 189 0
138 180 0
151 186 0
143 182 0
141 184 0
151 188 0
139 183 0
144 182 0
143 182 0
140 181 0
145 185 0
140 181 0
144 182 0
136 182 0
129 176 0
145 183 0
133 180 0
133 177 0
143 181 0
132 177 0
135 178 0
137 179 0
115 170 0
131 176 0
121 171 0
136 176 0
107 165 0
127 171 0
118 171 0
117 168 0
124 171 0
111 163 0
120 169 0
124 172 0
118 167 0
110 163 0
106 160 0
104 161 0
103 156 0
106 158 0
102 158 0
116 164 0
101 162 0
101 159 0
101 154 0
89 148 0
96 151 0
99 151 0
88 148 0
101 152 0
82 142 0
98 153 0
95 149 0
77 142 0
84 141 0
95 145 0
85 140 0
92 140 0
88 146 0
76 133 0
96 146 0
89 143 0
88 138 0
72 134 0
83 140 0
86 135 0
92 140 0
87 143 0
82 137 0
85 140 0
77 131 0
98 147 0
92 142 0
92 141 0
96 149 0
91 134 0
105 149 0
87 139 0
110 152 0
100 147 0
93 149 0
103 146 0
101 146 0
106 148 0
98 142 0
104 151 0
94 143 0
107 154 0
113 147 0
105 149 0
115 156 0
111 151 0
118 153 0
103 146 0
116 153 0
120 157 0
105 150 0
102 145 0
116 156 0
108 151 0
115 150 0
129 161 0
122 158 0
117 150 0
124 155 0
116 151 0
124 159 0
127 157 0
126 162 0
119 155 0
136 164 0
126 160 0
116 153 0
119 148 0
125 153 0
123 150 0
127 158 0
120 149 0
127 151 0
123 150 0
127 154 0
122 150 0
123 149 0
117 150 0
129 155 0
117 147 0
124 151 0
124 152 0
133 154 0
121 146 0
114 133 0
127 148 0
131 152 0
129 142 0
127 148 0
124 144 0
123 141 0
116 132 0
119 135 0
124 139 0
129 138 0
121 135 0
121 136 0
119 133 0
118 133 0
128 139 0
113 123 0
118 123 0
113 122 0
110 118 0
106 115 0
117 122 0
99 104 0
108 113 0
113 120 0
100 104 0
95 98 0
95 97 0
94 99 0
85 83 0
87 80 0
79 76 0
75 70 0
70 61 0
93 79 0
102 91 0
99 87 0
109 99 0
114 99 0
111 101 0
119 105 0
111 100 0
109 101 0
118 107 0
112 103 0
122 109 0
121 108 0
122 110 0
125 112 0
119 109 0
119 108 0
115 105 0
121 112 0
122 109 0
122 111 0
123 115 0
124 113 0
123 113 0
127 114 0
122 111 0
129 119 0
133 119 0
129 117 0
137 125 0
136 122 0
136 126 0
136 124 0
132 119 0
134 124 0
137 126 0
133 123 0
137 126 0
131 124 0
143 132 0
135 125 0
138 127 0
134 123 0
136 124 0
137 125 0
137 128 0
139 128 0
138 128 0
140 129 0
141 129 0
140 128 0
132 121 0
140 131 0
142 130 0
137 124 0
141 130 0
140 128 0
145 135 0
142 131 0
142 130 0
136 126 0
141 129 0
139 128 0
145 134 0
144 132 0
144 134 0
140 131 0
149 139 0
141 131 0
141 130 0
146 137 0
139 131 0
147 138 0
147 136 0
140 130 0
143 134 0
149 138 0
146 135 0
145 136 0
148 137 0
142 132 0
144 136 0
145 137 0
145 135 0
148 137 0
146 139 0
146 138 0
142 133 0
143 134 0
140 132 0
136 129 0
123 116 0
136 135 0
148 156 0
163 180 0
170 189 0
172 196 0
174 197 0
172 196 0
172 196 25
173 197 44
177 200 80
187 208 139
185 206 122
182 204 111
175 198 44
174 198 57
171 195 25
173 197 44
173 197 36
173 196 36
171 196 25
173 197 25
172 196 44
172 196 0
172 196 36
175 198 51
174 198 44
173 196 44
172 197 57
172 196 51
175 197 51
174 197 51
170 196 36
174 197 0
168 194 0
174 197 0
173 197 0
174 196 0
172 195 0
175 198 25
171 195 0
175 197 36
173 196 0
172 196 0
173 196 0
174 196 25
173 197 25
174 196 0
174 196 0
166 194 0
172 196 0
174 197 0
171 195 0
169 194 0
174 197 0
170 195 25
170 194 0
173 196 0
172 195 0
168 193 0
170 193 0
171 194 0
174 196 0
172 195 0
172 196 0
168 193 0
170 195 0
172 195 0
169 194 0
170 193 0
168 192 0
170 194 0
168 193 0
166 192 0
173 196 25
170 194 0
172 194 0
166 192 25
170 195 0
169 193 0
165 192 0
167 193 0
163 189 0
167 193 0
166 191 0
162 188 25
168 193 25
162 189 0
163 191 36
169 192 57
170 193 36
171 195 51
166 193 51
164 191 36
168 192 36
161 190 51
166 192 51
165 191 44
175 197 62
172 196 76
166 192 36
159 189 0
161 189 0
162 189 0
164 191 0
163 191 0
161 190 0
152 187 0
155 187 0
159 189 0
162 190 0
162 191 0
157 188 0
161 190 0
156 189 0
157 190 0
166 193 0
163 192 0
154 188 0
155 188 0
153 187 0
157 189 0
161 192 0
155 189 0
154 187 0
153 188 0
156 189 0
159 191 0
154 189 0
154 188 0
155 188 0
152 187 0
151 187 0
152 189 0
151 188 0
148 186 0
150 187 0
150 188 0
147 186 0
155 189 0
153 186 0
146 185 0
144 183 0
150 186 0
150 188 0
148 184 0
138 182 0
142 184 0
147 185 0
146 184 0
140 183 0
130 178 0
130 178 0
154 189 0
137 181 0
147 187 0
142 180 0
138 181 0
134 178 0
143 182 0
142 183 0
135 180 0
136 179 0
132 180 0
133 177 0
131 177 0
128 172 0
119 174 0
129 177 0
131 177 0
130 175 0
117 171 0
124 173 0
119 168 0
124 172 0
114 168 0
109 163 0
117 168 0
125 169 0
106 161 0
118 169 0
105 161 0
109 164 0
111 165 0
103 160 0
104 160 0
107 160 0
111 161 0
92 152 0
106 154 0
102 156 0
112 158 0
97 156 0
99 153 0
99 157 0
100 154 0
87 143 0
87 152 0
82 144 0
92 143 0
96 152 0
101 150 0
92 145 0
85 143 0
100 148 0
90 147 0
88 143 0
93 147 0
91 147 0
97 146 0
102 154 0
84 140 0
84 142 0
90 145 0
95 142 0
87 141 0
98 146 0
90 143 0
99 145 0
87 139 0
98 149 0
85 142 0
98 146 0
103 146 0
112 156 0
104 149 0
105 147 0
101 150 0
108 148 0
109 155 0
107 149 0
108 155 0
108 151 0
103 150 0
116 155 0
117 156 0
111 156 0
115 154 0
115 151 0
120 155 0
117 155 0
114 149 0
105 149 0
114 155 0
117 155 0
116 152 0
125 160 0
128 158 0
111 150 0
117 156 0
118 152 0
125 158 0
125 154 0
117 154 0
112 150 0
124 155 0
122 151 0
118 147 0
121 149 0
117 149 0
115 149 0
123 153 0
113 143 0
127 156 0
120 148 0
121 147 0
123 153 0
125 155 0
113 142 0
121 145 0
124 148 0
125 152 0
126 148 0
125 144 0
122 144 0
124 146 0
122 144 0
127 147 0
116 140 0
121 143 0
116 141 0
121 144 0
124 147 0
132 149 0
127 145 0
126 149 0
126 141 0
125 135 0
113 135 0
117 130 0
120 132 0
113 125 0
122 134 0
127 136 0
111 119 0
103 117 0
107 111 0
114 121 0
110 113 0
107 112 0
103 110 0
102 103 0
104 109 0
104 103 0
99 102 0
98 95 0
97 92 0
90 89 0
89 87 0
80 77 0
80 71 0
91 81 0
88 79 0
105 94 0
109 94 0
105 93 0
105 91 0
110 97 0
97 85 0
117 107 0
110 98 0
114 103 0
119 108 0
121 112 0
124 113 0
120 110 0
122 110 0
115 104 0
124 112 0
122 110 0
125 115 0
126 114 0
125 115 0
130 117 0
122 110 0
130 117 0
134 122 0
131 118 0
133 123 0
135 124 0
133 119 0
131 117 0
134 122 0
130 117 0
133 119 0
135 122 0
133 122 0
135 123 0
133 124 0
138 127 0
137 121 0
137 124 0
139 128 0
138 125 0
140 126 0
138 127 0
137 126 0
138 126 0
137 129 0
135 124 0
141 128 0
142 132 0
142 131 0
145 134 0
138 127 0
139 129 0
137 127 0
144 131 0
139 127 0
143 133 0
140 130 0
137 127 0
140 130 0
142 130 0
137 124 0
144 131 0
144 133 0
142 131 0
145 136 0
144 133 0
143 132 0
145 134 0
144 135 0
147 137 0
143 133 0
146 137 0
146 136 0
146 135 0
146 136 0
144 133 0
149 140 0
147 137 0
141 130 0
142 133 0
136 126 0
139 131 0
136 131 0
120 114 0
138 136 0
145 153 0
165 183 0
170 189 0
170 190 0
170 189 0
169 188 0
173 197 0
174 197 0
173 196 0
174 197 0
172 196 0
174 197 0
171 196 0
176 199 51
178 202 91
188 209 144
187 208 134
181 203 102
177 200 84
177 199 51
175 198 51
172 196 44
172 197 44
175 198 51
172 197 25
175 198 25
172 196 36
175 198 67
173 198 36
171 195 36
173 197 44
175 198 44
174 197 36
171 196 44
174 197 57
171 196 0
173 196 25
176 198 36
174 197 44
172 197 36
170 195 0
173 196 0
169 194 0
169 195 0
171 195 0
171 195 25
173 197 0
171 195 0
167 193 0
171 194 0
174 196 0
171 195 0
171 196 0
169 195 0
170 195 25
170 194 0
171 196 0
168 192 0
173 196 0
166 191 0
170 194 0
166 193 36
166 193 0
172 195 0
169 194 0
170 195 0
168 193 0
170 192 0
165 191 0
166 193 0
166 192 0
172 194 0
171 195 0
172 194 0
175 197 36
170 194 0
163 191 0
164 190 0
165 191 0
170 194 0
167 192 25
166 191 25
170 193 0
172 195 44
162 190 36
167 192 36
167 192 44
170 194 44
165 191 51
171 193 44
167 192 51
168 193 44
167 191 0
164 190 25
166 192 0
169 195 62
168 193 51
162 188 51
162 190 36
162 190 0
162 189 0
161 189 0
158 186 0
160 190 0
161 188 0
158 189 0
163 191 0
159 189 0
160 190 0
165 191 0
164 192 0
164 192 0
159 189 0
160 191 0
160 188 0
156 189 0
153 188 0
156 188 0
159 189 0
151 187 0
153 187 0
159 190 0
157 190 0
155 190 0
163 193 0
147 187 0
151 187 0
157 191 0
155 189 0
154 189 0
157 189 0
154 189 0
149 186 0
154 190 0
152 188 0
150 188 0
142 183 0
146 186 0
152 188 0
149 188 0
150 187 0
149 188 0
147 185 0
136 183 0
142 181 0
148 187 0
149 187 0
137 180 0
151 188 0
137 182 0
148 185 0
136 180 0
140 182 0
141 182 0
137 182 0
133 177 0
147 184 0
141 181 0
144 182 0
133 179 0
142 182 0
139 183 0
137 180 0
125 175 0
142 182 0
131 178 0
139 179 0
123 172 0
127 175 0
137 180 0
131 174 0
124 171 0
136 180 0
126 175 0
123 173 0
121 170 0
125 176 0
134 178 0
123 171 0
120 170 0
116 165 0
113 163 0
115 167 0
123 171 0
124 169 0
103 160 0
118 169 0
116 165 0
115 162 0
104 161 0
98 155 0
101 154 0
99 156 0
91 153 0
109 162 0
101 157 0
98 152 0
110 160 0
98 152 0
90 150 0
98 154 0
101 156 0
108 158 0
102 160 0
95 148 0
100 149 0
87 142 0
100 146 0
88 147 0
110 155 0
93 144 0
101 155 0
93 152 0
91 147 0
103 151 0
91 150 0
96 146 0
95 148 0
93 143 0
89 144 0
98 148 0
112 148 0
110 157 0
106 150 0
106 155 0
106 150 0
81 138 0
104 150 0
91 148 0
108 149 0
106 155 0
97 142 0
105 153 0
101 152 0
111 151 0
109 150 0
117 156 0
111 153 0
107 151 0
102 145 0
114 153 0
120 161 0
129 159 0
124 160 0
105 147 0
122 161 0
115 157 0
112 155 0
116 151 0
117 152 0
116 154 0
118 158 0
121 152 0
132 163 0
130 162 0
117 156 0
130 159 0
128 159 0
121 154 0
119 153 0
123 153 0
124 153 0
123 147 0
119 156 0
126 154 0
119 150 0
126 156 0
133 154 0
127 154 0
127 148 0
121 147 0
118 149 0
125 152 0
118 152 0
110 139 0
131 152 0
122 146 0
125 144 0
132 155 0
132 150 0
119 140 0
118 138 0
124 144 0
122 145 0
121 138 0
128 150 0
130 143 0
136 151 0
121 142 0
116 134 0
131 141 0
125 139 0
119 134 0
116 128 0
121 129 0
118 134 0
117 128 0
120 131 0
111 121 0
113 117 0
112 122 0
115 124 0
112 112 0
114 114 0
111 114 0
101 104 0
104 103 0
99 102 0
108 104 0
98 98 0
93 93 0
93 86 0
88 88 0
73 65 0
86 81 0
85 71 0
90 79 0
104 89 0
104 89 0
110 98 0
107 93 0
109 98 0
109 96 0
112 99 0
110 98 0
110 100 0
121 107 0
114 101 0
123 112 0
123 111 0
123 111 0
127 111 0
127 115 0
123 108 0
126 111 0
129 116 0
124 113 0
127 113 0
130 118 0
129 116 0
126 109 0
133 121 0
130 118 0
139 127 0
130 118 0
130 117 0
131 121 0
127 115 0
132 120 0
133 121 0
135 122 0
140 125 0
132 120 0
138 126 0
136 123 0
132 119 0
138 125 0
140 128 0
138 125 0
135 121 0
137 122 0
138 125 0
137 125 0
140 128 0
135 125 0
141 129 0
144 133 0
140 128 0
142 130 0
140 128 0
141 129 0
141 129 0
140 131 0
142 130 0
145 133 0
140 127 0
143 133 0
142 130 0
142 130 0
144 132 0
143 132 0
139 128 0
146 137 0
145 131 0
144 132 0
147 136 0
143 134 0
143 132 0
144 132 0
147 137 0
143 134 0
141 130 0
142 133 0
137 130 0
130 123 0
125 118 0
129 129 0
150 159 0
156 171 0
169 189 0
169 186 0
168 188 0
171 191 0
168 188 0
169 187 0
169 189 0
175 198 0
170 195 0
174 197 0
173 197 0
171 196 0
169 195 0
169 195 0
172 196 0
172 197 0
175 197 0
174 197 0
176 198 44
181 203 105
183 205 124
183 205 116
180 201 91
178 201 84
176 198 25
175 198 51
173 197 51
171 196 0
175 198 57
170 195 57
173 196 36
175 198 44
175 198 36
172 196 25
174 198 76
170 197 44
176 199 51
172 196 51
174 197 62
170 195 36
173 197 44
174 197 44
174 197 44
176 197 51
174 197 36
174 196 44
175 198 36
175 198 51
172 196 0
172 196 25
170 193 0
173 196 0
169 195 0
169 193 0
173 196 0
172 196 25
170 194 0
169 194 0
171 195 0
173 197 0
169 194 0
170 193 0
177 197 25
173 196 0
172 196 0
172 195 0
171 194 0
171 195 0
165 192 0
174 197 0
171 195 25
173 196 0
174 197 0
171 195 0
170 195 0
172 195 0
171 196 51
168 193 25
167 192 44
168 194 44
167 191 44
176 197 25
175 197 80
173 196 51
168 193 44
167 191 36
167 192 36
168 194 36
166 191 36
169 193 36
163 189 0
167 193 51
165 191 36
174 197 72
173 197 62
162 190 51
167 192 25
164 191 0
161 188 0
167 192 0
159 188 0
167 191 0
164 190 0
163 190 0
162 191 0
162 191 0
165 192 0
168 193 0
159 189 0
155 187 0
164 193 0
164 191 0
160 190 0
151 188 0
162 191 0
160 191 0
158 190 0
157 190 0
152 187 0
156 189 0
159 190 0
155 188 0
154 188 0
156 190 0
149 187 0
150 187 0
148 187 0
153 186 0
149 186 0
157 189 0
157 190 0
157 189 0
153 188 0
155 190 0
151 187 0
156 189 0
139 182 0
161 192 0
150 187 0
144 183 0
153 188 0
147 186 0
144 184 0
140 183 0
148 186 0
146 185 0
153 188 0
153 187 0
146 187 0
145 185 0
144 182 0
140 184 0
144 182 0
142 184 0
149 186 0
145 183 0
150 186 0
138 180 0
138 180 0
138 180 0
139 180 0
140 179 0
143 182 0
135 181 0
133 177 0
128 175 0
134 179 0
121 172 0
124 176 0
130 177 0
137 178 0
142 181 0
108 169 0
123 172 0
121 171 0
127 175 0
121 172 0
130 174 0
123 171 0
128 175 0
109 167 0
117 170 0
121 172 0
116 166 0
124 170 0
110 164 0
113 164 0
106 161 0
122 170 0
114 166 0
107 158 0
114 161 0
107 158 0
103 159 0
106 156 0
106 157 0
115 162 0
100 153 0
103 152 0
106 155 0
106 159 0
95 152 0
112 164 0
101 153 0
93 150 0
101 152 0
92 152 0
88 148 0
95 154 0
104 155 0
90 147 0
99 153 0
85 146 0
98 155 0
95 151 0
96 149 0
110 154 0
88 147 0
100 153 0
104 154 0
94 143 0
103 151 0
100 155 0
92 148 0
103 147 0
98 154 0
104 154 0
112 158 0
103 151 0
114 157 0
112 152 0
111 158 0
110 153 0
115 158 0
114 159 0
116 155 0
110 158 0
108 150 0
116 157 0
119 162 0
116 155 0
114 152 0
120 161 0
102 141 0
135 168 0
120 153 0
117 149 0
109 154 0
128 161 0
113 152 0
111 153 0
116 154 0
133 163 0
113 155 0
117 153 0
130 162 0
118 154 0
124 153 0
124 158 0
137 163 0
137 165 0
127 154 0
118 153 0
129 153 0
116 150 0
126 158 0
140 163 0
133 155 0
118 144 0
140 165 0
116 145 0
129 154 0
117 148 0
130 159 0
122 149 0
115 147 0
128 151 0
134 154 0
116 143 0
129 151 0
119 141 0
128 151 0
121 147 0
129 154 0
120 143 0
127 147 0
125 144 0
124 140 0
113 135 0
131 149 0
119 140 0
110 125 0
127 139 0
122 137 0
114 124 0
122 139 0
114 124 0
121 137 0
123 125 0
115 126 0
110 120 0
109 115 0
112 124 0
117 120 0
119 120 0
120 124 0
113 119 0
111 116 0
110 110 0
109 109 0
98 96 0
95 94 0
105 100 0
105 98 0
100 89 0
97 91 0
83 75 0
93 85 0
85 77 0
85 77 0
83 73 0
89 75 0
97 84 0
101 87 0
115 98 0
106 95 0
113 97 0
108 92 0
115 100 0
122 106 0
118 101 0
120 105 0
125 109 0
123 108 0
121 107 0
123 108 0
123 109 0
126 114 0
127 114 0
131 117 0
121 110 0
131 118 0
130 116 0
134 119 0
131 117 0
125 113 0
136 121 0
126 110 0
134 120 0
133 118 0
130 116 0
140 124 0
132 119 0
135 123 0
132 118 0
131 116 0
139 126 0
132 117 0
136 124 0
138 124 0
135 124 0
143 129 0
140 128 0
139 125 0
134 123 0
141 126 0
139 126 0
143 131 0
140 128 0
137 125 0
139 125 0
143 129 0
141 130 0
139 126 0
140 126 0
138 126 0
143 131 0
141 129 0
143 131 0
142 129 0
144 132 0
143 129 0
145 133 0
143 132 0
139 127 0
145 133 0
145 136 0
141 129 0
136 126 0
135 125 0
133 124 0
129 120 0
127 121 0
127 123 0
143 146 0
150 159 0
167 184 0
167 185 0
164 182 0
168 185 0
171 192 0
168 187 0
170 187 0
170 188 0
171 191 0
167 187 0
168 188 0
173 197 0
175 198 0
172 196 0
171 196 0
171 196 0
173 197 0
172 196 0
171 196 0
169 194 0
172 196 0
171 196 0
171 196 0
171 195 0
169 195 0
171 196 0
172 197 72
181 203 111
183 204 114
179 201 91
178 201 80
178 201 84
174 198 36
176 199 72
173 197 57
174 197 57
173 197 51
175 198 44
171 196 36
173 197 44
176 199 51
175 198 44
170 195 0
175 199 62
171 194 0
176 199 51
174 198 44
176 198 51
177 199 67
176 199 67
176 199 51
174 196 44
176 199 62
172 196 36
171 195 25
171 196 36
174 197 36
172 197 36
175 198 36
171 196 51
172 197 44
175 197 62
172 196 44
175 195 0
175 196 0
166 193 0
171 194 25
179 199 44
173 197 44
167 192 25
172 196 0
175 197 0
176 199 67
171 195 44
172 195 25
169 194 25
168 193 51
170 194 62
170 195 44
165 192 36
173 195 36
166 194 44
167 193 25
166 192 57
172 194 44
171 194 51
160 189 25
168 192 25
169 193 57
164 191 51
163 189 25
171 195 44
172 195 62
173 196 76
167 192 51
168 193 67
171 195 57
166 189 0
167 191 0
157 188 0
165 192 0
165 191 0
157 187 0
162 189 0
162 189 0
160 190 0
166 193 0
166 192 0
165 192 0
159 189 0
154 187 0
155 187 0
157 190 0
160 190 0
159 190 0
161 191 0
162 192 0
161 192 0
152 187 0
158 189 0
153 188 0
156 188 0
152 187 0
158 191 0
156 189 0
152 187 0
160 189 0
156 189 0
158 191 0
156 189 0
152 188 0
157 190 0
150 186 0
154 188 0
146 186 0
160 189 0
157 191 0
153 188 0
152 188 0
156 188 0
154 187 0
155 190 0
155 189 0
153 188 0
151 188 0
150 188 0
150 186 0
152 189 0
149 186 0
151 187 0
139 184 0
145 185 0
148 186 0
152 188 0
142 183 0
153 187 0
141 183 0
141 184 0
143 183 0
144 184 0
136 179 0
141 182 0
142 184 0
135 179 0
140 181 0
145 186 0
151 186 0
132 177 0
138 180 0
128 175 0
140 182 0
131 176 0
125 176 0
128 176 0
126 175 0
129 173 0
130 177 0
130 179 0
118 171 0
133 176 0
132 174 0
121 169 0
122 174 0
126 175 0
128 173 0
124 173 0
115 167 0
116 172 0
108 164 0
123 167 0
113 164 0
117 168 0
113 167 0
114 166 0
124 170 0
99 163 0
111 163 0
124 168 0
120 167 0
115 163 0
109 163 0
104 159 0
107 159 0
103 160 0
108 161 0
105 160 0
93 152 0
98 152 0
109 158 0
107 160 0
97 151 0
104 157 0
99 151 0
83 148 0
110 160 0
112 153 0
110 158 0
102 152 0
111 160 0
101 151 0
102 154 0
107 157 0
95 149 0
105 152 0
102 155 0
114 153 0
98 150 0
93 144 0
111 160 0
104 149 0
109 157 0
109 154 0
115 157 0
117 157 0
104 155 0
106 151 0
108 155 0
110 156 0
116 157 0
101 151 0
102 153 0
121 158 0
115 160 0
115 156 0
117 160 0
110 152 0
111 151 0
119 160 0
121 160 0
119 160 0
105 147 0
123 160 0
126 161 0
113 152 0
127 158 0
127 164 0
127 158 0
127 160 0
116 158 0
122 156 0
126 161 0
136 165 0
122 153 0
123 160 0
127 158 0
125 157 0
122 153 0
135 164 0
133 160 0
134 163 0
132 159 0
124 153 0
127 155 0
124 151 0
132 157 0
129 157 0
127 156 0
125 150 0
123 149 0
131 158 0
131 153 0
129 149 0
128 153 0
119 144 0
126 148 0
126 150 0
130 149 0
123 145 0
126 143 0
116 145 0
122 144 0
128 149 0
115 139 0
129 143 0
122 136 0
110 135 0
124 141 0
125 139 0
124 140 0
125 140 0
116 131 0
123 135 0
119 137 0
125 135 0
115 126 0
127 134 0
118 122 0
118 130 0
119 123 0
119 124 0
115 115 0
119 120 0
112 117 0
109 114 0
121 116 0
109 113 0
103 108 0
100 99 0
96 93 0
103 94 0
102 99 0
94 88 0
93 83 0
91 84 0
92 82 0
87 76 0
84 75 0
87 76 0
87 72 0
94 80 0
102 88 0
112 94 0
108 92 0
109 92 0
112 97 0
118 101 0
121 102 0
116 99 0
125 108 0
116 99 0
125 110 0
122 107 0
121 106 0
118 105 0
123 106 0
122 111 0
126 111 0
128 113 0
126 114 0
132 116 0
126 115 0
132 117 0
131 115 0
131 114 0
126 112 0
125 113 0
136 123 0
133 118 0
135 123 0
133 115 0
134 121 0
131 117 0
132 116 0
137 121 0
138 122 0
136 125 0
135 120 0
137 122 0
138 124 0
142 128 0
144 129 0
138 123 0
137 122 0
140 128 0
139 122 0
145 133 0
141 128 0
140 127 0
142 127 0
144 131 0
140 127 0
141 128 0
140 129 0
142 129 0
139 128 0
139 129 0
140 128 0
133 121 0
138 127 0
133 123 0
128 118 0
130 118 0
119 112 0
128 126 0
139 142 0
149 157 0
161 176 0
167 184 0
167 183 0
168 185 0
170 189 0
169 185 0
167 186 0
165 182 0
168 186 0
166 183 0
169 186 0
167 184 0
167 184 0
168 187 0
169 186 0
171 195 0
172 196 0
173 196 0
171 195 0
173 197 0
173 197 0
172 196 0
174 197 0
171 196 0
172 196 0
170 195 0
172 196 0
172 196 0
172 196 0
173 196 0
172 197 0
170 195 0
171 196 0
173 197 44
177 200 67
175 198 57
179 202 91
185 205 114
183 205 114
182 204 111
179 201 76
175 198 44
173 198 57
173 197 36
172 196 25
174 198 62
171 196 25
174 197 25
173 197 44
172 196 36
174 198 44
177 199 57
174 197 44
176 199 44
175 198 62
172 196 44
172 196 36
168 193 36
171 195 36
173 196 36
175 198 51
176 199 67
175 198 57
176 198 44
172 196 44
174 197 57
174 196 25
178 200 72
170 194 25
172 195 0
172 196 44
173 196 51
176 199 57
170 194 25
174 196 25
168 193 44
174 196 25
168 194 36
174 196 44
170 194 44
172 194 36
172 195 44
174 196 44
166 192 25
167 193 62
172 196 36
170 193 36
166 195 44
169 193 36
166 191 36
169 195 51
170 196 76
172 196 62
173 196 62
175 197 76
171 195 57
169 192 44
166 191 0
166 192 0
163 191 0
165 191 0
167 192 0
167 192 0
162 192 0
162 189 0
161 188 0
164 191 0
163 191 0
168 193 0
159 189 0
159 190 0
163 191 0
158 189 0
162 190 0
156 188 0
166 193 0
158 187 0
161 192 0
155 189 0
156 189 0
166 193 0
161 192 0
154 188 0
154 189 0
153 188 0
158 189 0
156 189 0
160 192 0
161 192 0
153 188 0
152 187 0
152 187 0
153 187 0
155 191 0
155 189 0
157 190 0
153 189 0
156 190 0
156 190 0
152 187 0
160 191 0
150 186 0
144 184 0
151 187 0
157 188 0
150 187 0
147 187 0
158 190 0
149 187 0
147 184 0
153 188 0
149 185 0
146 185 0
139 184 0
152 189 0
145 186 0
143 184 0
145 185 0
144 183 0
141 184 0
143 183 0
140 181 0
152 186 0
145 183 0
135 179 0
144 184 0
138 181 0
144 183 0
135 181 0
131 178 0
139 180 0
142 185 0
129 177 0
128 175 0
126 175 0
131 179 0
129 178 0
135 179 0
133 175 0
135 179 0
128 174 0
129 174 0
130 174 0
127 175 0
114 168 0
127 173 0
125 171 0
123 171 0
107 162 0
125 174 0
122 168 0
117 167 0
109 162 0
119 171 0
116 166 0
110 162 0
116 168 0
124 169 0
107 160 0
118 165 0
123 171 0
108 163 0
105 162 0
110 163 0
112 165 0
104 158 0
110 164 0
103 156 0
118 162 0
101 156 0
110 163 0
107 160 0
108 157 0
104 159 0
98 153 0
100 153 0
103 155 0
110 159 0
110 159 0
110 158 0
109 156 0
111 157 0
108 161 0
104 156 0
106 156 0
116 161 0
100 149 0
100 150 0
114 160 0
108 159 0
121 163 0
106 156 0
107 158 0
116 162 0
122 166 0
106 152 0
102 152 0
108 153 0
119 158 0
108 158 0
121 159 0
123 164 0
109 154 0
112 159 0
122 162 0
116 152 0
98 151 0
115 160 0
101 148 0
131 161 0
108 153 0
135 167 0
118 159 0
123 164 0
120 157 0
126 162 0
131 166 0
123 158 0
122 159 0
127 160 0
120 161 0
130 164 0
123 159 0
123 157 0
126 158 0
120 160 0
125 157 0
137 162 0
133 166 0
133 161 0
130 164 0
123 157 0
124 150 0
129 160 0
131 161 0
130 159 0
129 162 0
129 155 0
128 158 0
129 153 0
132 158 0
114 147 0
125 149 0
130 154 0
140 162 0
125 148 0
125 150 0
122 145 0
120 147 0
133 157 0
125 146 0
126 152 0
129 150 0
130 146 0
130 157 0
123 141 0
134 157 0
121 139 0
125 142 0
125 144 0
135 152 0
121 139 0
127 139 0
124 140 0
131 142 0
126 141 0
124 141 0
126 137 0
122 130 0
126 139 0
129 138 0
112 125 0
125 134 0
126 135 0
127 133 0
116 122 0
119 117 0
115 115 0
116 115 0
119 122 0
105 105 0
120 118 0
111 112 0
119 115 0
114 111 0
109 104 0
94 91 0
102 95 0
102 93 0
101 98 0
93 84 0
95 84 0
92 84 0
91 84 0
84 70 0
98 88 0
81 69 0
97 80 0
98 83 0
99 86 0
103 85 0
116 97 0
115 98 0
115 97 0
119 102 0
123 106 0
124 110 0
125 108 0
124 107 0
121 107 0
120 101 0
122 107 0
128 111 0
124 108 0
127 111 0
128 110 0
125 109 0
131 116 0
124 109 0
131 115 0
131 117 0
124 111 0
132 115 0
137 122 0
131 113 0
132 118 0
131 117 0
134 119 0
138 121 0
132 116 0
142 126 0
136 122 0
139 124 0
139 125 0
138 124 0
136 120 0
140 126 0
138 127 0
142 129 0
136 122 0
141 127 0
140 124 0
136 122 0
142 131 0
138 123 0
136 122 0
136 123 0
135 122 0
132 121 0
127 118 0
127 117 0
129 118 0
122 115 0
124 121 0
145 147 0
153 161 0
160 171 0
168 183 0
165 178 0
162 177 0
165 179 0
163 178 0
165 180 0
170 186 0
168 185 0
169 188 0
165 183 0
169 186 0
169 188 0
166 184 0
167 186 0
168 186 0
168 185 0
170 188 0
169 186 0
173 196 0
173 196 0
172 196 0
172 196 0
172 196 0
172 196 0
172 196 0
172 196 0
172 196 0
172 196 0
170 195 0
174 197 0
174 197 0
171 195 0
173 197 0
172 196 0
169 194 0
172 196 0
171 196 0
173 196 0
172 196 0
169 195 0
173 197 0
174 197 0
173 196 0
177 200 72
180 202 102
182 203 102
179 201 91
181 203 111
180 202 91
178 200 76
177 199 57
175 197 44
173 197 25
173 197 51
170 195 25
176 198 57
172 196 36
173 197 44
172 196 51
174 197 36
171 195 44
170 194 0
174 196 0
172 196 51
171 196 44
173 196 57
171 195 25
174 197 36
176 199 51
175 197 44
172 197 51
175 198 44
173 195 0
175 197 44
170 195 25
174 197 44
173 195 44
169 194 25
175 197 44
172 195 36
171 196 51
174 195 36
171 196 44
162 191 25
172 197 0
169 194 0
170 194 25
177 199 72
173 197 62
174 197 72
169 195 57
175 197 57
172 195 57
165 192 51
168 192 36
171 195 0
163 190 0
171 194 0
167 191 0
165 191 0
167 190 0
167 192 0
164 190 0
163 189 0
163 190 0
169 195 0
167 192 0
165 192 0
162 190 0
162 190 0
162 191 0
153 187 0
163 191 0
162 193 0
159 190 0
160 189 0
162 191 0
166 192 0
156 191 0
165 192 0
159 191 0
157 188 0
166 192 0
156 187 0
155 188 0
158 190 0
156 189 0
160 189 0
154 190 0
158 190 0
148 185 0
158 190 0
150 188 0
157 189 0
155 190 0
150 187 0
152 187 0
158 191 0
156 189 0
149 188 0
151 187 0
147 186 0
156 189 0
153 187 0
152 186 0
153 189 0
153 188 0
149 187 0
149 186 0
144 185 0
149 186 0
158 191 0
148 185 0
147 184 0
154 187 0
151 188 0
148 186 0
144 184 0
141 183 0
141 181 0
146 185 0
140 183 0
145 184 0
142 183 0
141 182 0
137 181 0
143 182 0
149 186 0
141 180 0
142 181 0
138 181 0
132 180 0
140 180 0
133 178 0
143 182 0
127 174 0
137 180 0
131 174 0
127 175 0
130 179 0
132 176 0
136 179 0
148 185 0
138 176 0
129 173 0
128 176 0
135 175 0
127 173 0
129 174 0
130 176 0
123 174 0
128 175 0
130 175 0
121 171 0
117 169 0
112 169 0
133 176 0
123 170 0
125 171 0
124 170 0
113 164 0
121 168 0
115 166 0
113 166 0
119 170 0
116 168 0
124 168 0
108 163 0
120 165 0
115 164 0
113 164 0
101 158 0
110 162 0
117 171 0
114 164 0
106 156 0
104 163 0
103 158 0
113 164 0
121 165 0
108 159 0
111 155 0
118 170 0
104 156 0
103 156 0
110 158 0
108 160 0
117 160 0
109 157 0
113 160 0
110 160 0
97 154 0
116 163 0
119 163 0
109 155 0
106 159 0
112 158 0
104 154 0
107 157 0
122 162 0
124 161 0
105 155 0
107 158 0
113 157 0
112 156 0
114 154 0
118 163 0
115 160 0
134 169 0
115 157 0
125 161 0
117 158 0
127 163 0
108 157 0
110 155 0
123 166 0
120 161 0
135 166 0
131 163 0
121 157 0
123 161 0
132 163 0
124 160 0
124 161 0
123 161 0
133 167 0
129 161 0
127 164 0
129 162 0
129 158 0
124 158 0
125 159 0
133 165 0
131 162 0
123 155 0
130 163 0
129 161 0
126 160 0
127 156 0
131 158 0
138 166 0
133 161 0
117 147 0
139 164 0
131 158 0
136 159 0
130 156 0
129 156 0
131 157 0
130 154 0
133 155 0
129 155 0
118 143 0
129 155 0
132 152 0
136 156 0
122 144 0
132 155 0
129 152 0
126 147 0
121 141 0
135 150 0
128 150 0
126 143 0
132 142 0
124 144 0
135 151 0
126 140 0
124 141 0
115 131 0
127 135 0
136 150 0
126 141 0
120 127 0
122 136 0
119 129 0
119 124 0
129 137 0
123 131 0
125 127 0
116 121 0
125 132 0
123 128 0
127 131 0
113 111 0
116 115 0
112 110 0
118 116 0
112 114 0
107 101 0
112 107 0
103 103 0
108 104 0
107 99 0
103 95 0
100 90 0
89 81 0
104 98 0
104 95 0
105 95 0
104 94 0
105 98 0
98 86 0
99 87 0
98 83 0
95 82 0
100 85 0
108 90 0
102 84 0
116 98 0
106 88 0
109 90 0
111 94 0
116 97 0
114 97 0
124 107 0
120 106 0
124 106 0
123 108 0
118 102 0
124 109 0
125 107 0
125 108 0
131 113 0
125 106 0
122 107 0
127 111 0
131 118 0
130 112 0
133 115 0
133 117 0
133 119 0
136 121 0
139 125 0
135 121 0
131 116 0
132 113 0
139 124 0
128 113 0
133 119 0
132 118 0
131 117 0
135 121 0
124 108 0
129 118 0
130 119 0
127 114 0
124 114 0
127 115 0
125 117 0
133 127 0
141 141 0
138 141 0
151 159 0
162 173 0
166 180 0
162 174 0
163 174 0
167 180 0
166 180 0
170 184 0
169 186 0
164 180 0
165 176 0
170 186 0
166 183 0
167 182 0
170 187 0
168 182 0
166 181 0
169 185 0
166 181 0
167 183 0
166 182 0
168 185 0
170 189 0
167 183 0
170 186 0
172 196 0
172 196 0
172 196 0
172 196 0
172 196 0
173 197 0
173 197 0
170 196 0
170 195 0
173 196 0
170 195 0
171 196 0
172 197 0
175 198 0
171 196 0
173 196 0
173 196 0
173 197 0
173 196 0
172 196 0
171 196 0
172 196 0
172 196 0
173 196 0
174 197 0
173 197 0
171 195 0
175 197 0
171 196 0
172 196 25
176 199 62
175 199 80
180 202 88
180 202 84
180 201 88
182 202 84
181 203 105
179 201 98
176 198 80
179 201 95
176 198 67
175 197 36
176 199 72
171 196 51
176 198 67
173 196 36
170 195 36
174 197 57
174 197 44
172 195 25
172 195 44
173 197 0
175 196 36
169 194 51
169 194 51
174 196 51
171 196 36
175 198 72
173 197 51
176 198 76
178 200 76
180 201 76
176 199 67
176 200 88
174 199 88
171 196 44
174 198 67
171 196 62
174 196 57
169 194 44
168 192 0
170 194 0
167 191 0
167 192 0
167 192 0
169 193 0
169 194 0
171 194 0
164 191 0
158 185 0
165 192 0
164 191 0
166 193 0
165 190 0
163 190 0
163 191 0
166 191 0
161 190 0
165 192 0
164 192 0
161 190 0
158 189 0
160 190 0
165 193 0
164 191 0
166 193 0
159 189 0
163 192 0
164 191 0
157 189 0
165 192 0
159 189 0
156 189 0
155 189 0
155 188 0
161 191 0
166 193 0
161 191 0
168 195 0
158 189 0
155 190 0
159 192 0
158 191 0
164 192 0
154 189 0
157 190 0
146 187 0
160 192 0
153 188 0
158 190 0
151 187 0
156 189 0
148 187 0
149 186 0
161 192 0
156 189 0
156 188 0
140 182 0
153 189 0
155 187 0
151 188 0
157 190 0
155 190 0
156 190 0
149 188 0
154 188 0
152 188 0
154 187 0
145 183 0
155 189 0
157 190 0
147 186 0
150 186 0
130 179 0
147 185 0
155 190 0
140 182 0
147 183 0
146 186 0
149 185 0
132 178 0
138 182 0
144 184 0
131 177 0
128 178 0
143 182 0
139 182 0
133 179 0
140 180 0
134 179 0
141 180 0
129 178 0
141 180 0
130 177 0
136 175 0
133 179 0
129 174 0
129 173 0
124 172 0
128 173 0
124 174 0
127 174 0
123 174 0
127 174 0
131 176 0
129 172 0
123 169 0
132 176 0
116 169 0
124 175 0
124 169 0
117 167 0
117 170 0
118 167 0
129 173 0
105 160 0
128 169 0
119 169 0
134 178 0
125 172 0
102 159 0
114 165 0
113 168 0
109 165 0
123 173 0
125 167 0
100 156 0
114 168 0
121 166 0
123 162 0
112 161 0
103 165 0
111 159 0
115 163 0
109 158 0
111 161 0
108 160 0
98 158 0
111 163 0
112 158 0
105 158 0
120 161 0
112 162 0
108 157 0
101 156 0
111 159 0
114 158 0
117 161 0
117 162 0
116 160 0
107 159 0
110 159 0
112 161 0
106 156 0
108 155 0
117 163 0
111 156 0
118 161 0
130 166 0
120 165 0
116 159 0
120 162 0
120 164 0
118 163 0
125 163 0
122 157 0
124 165 0
120 158 0
119 157 0
132 165 0
136 167 0
124 156 0
117 156 0
119 159 0
132 165 0
128 165 0
128 161 0
126 159 0
131 160 0
115 154 0
128 161 0
131 160 0
127 159 0
127 157 0
122 153 0
135 166 0
125 159 0
128 159 0
135 163 0
129 158 0
135 162 0
132 162 0
132 158 0
131 157 0
123 150 0
131 159 0
134 159 0
135 158 0
139 165 0
133 158 0
134 160 0
127 152 0
122 151 0
134 154 0
130 149 0
125 151 0
131 153 0
124 147 0
125 147 0
134 153 0
132 153 0
131 151 0
134 157 0
129 151 0
130 152 0
132 147 0
135 151 0
133 145 0
132 146 0
136 150 0
127 144 0
128 145 0
126 146 0
128 145 0
129 140 0
132 144 0
119 127 0
110 123 0
123 134 0
126 131 0
118 120 0
116 121 0
121 132 0
119 124 0
121 125 0
125 131 0
125 129 0
117 119 0
126 131 0
121 119 0
132 129 0
116 118 0
112 111 0
114 113 0
117 111 0
103 99 0
108 102 0
116 112 0
101 97 0
109 103 0
114 108 0
110 104 0
105 97 0
101 94 0
103 93 0
98 88 0
101 95 0
103 90 0
112 104 0
109 99 0
109 97 0
109 98 0
97 82 0
102 90 0
104 88 0
100 85 0
98 81 0
101 84 0
99 81 0
107 93 0
109 92 0
117 100 0
105 88 0
123 104 0
118 102 0
113 97 0
122 107 0
118 101 0
121 104 0
118 102 0
122 107 0
115 99 0
121 105 0
125 109 0
126 109 0
124 109 0
127 112 0
123 108 0
117 101 0
127 114 0
124 112 0
129 116 0
116 107 0
126 116 0
124 117 0
140 140 0
140 141 0
143 144 0
144 148 0
153 162 0
158 166 0
160 169 0
163 174 0
161 169 0
161 169 0
158 168 0
158 169 0
163 172 0
163 175 0
164 174 0
165 177 0
166 178 0
167 179 0
167 180 0
164 178 0
167 183 0
163 176 0
163 176 0
165 177 0
167 182 0
166 180 0
164 176 0
165 180 0
166 181 0
169 185 0
166 182 0
166 183 0
169 187 0
167 184 0
166 182 0
171 195 0
173 197 0
173 197 0
171 196 0
173 196 0
172 196 0
171 196 0
170 196 0
171 195 0
172 196 0
175 197 0
173 196 0
172 196 0
172 196 0
173 196 0
173 196 0
175 197 0
170 194 0
176 198 0
170 195 0
172 196 0
170 194 0
172 196 0
171 195 0
170 195 0
172 195 0
173 197 0
172 196 0
174 197 0
175 197 0
172 196 0
170 195 0
172 195 0
172 196 0
172 195 0
174 197 0
172 195 0
170 195 0
175 197 0
173 197 36
173 197 25
177 199 62
176 199 62
177 200 76
173 197 62
182 203 98
177 199 76
177 199 67
177 200 98
176 199 62
180 201 84
181 201 88
173 198 88
178 199 98
175 198 76
175 197 62
172 197 57
177 199 76
176 198 44
168 194 51
170 195 0
172 196 0
171 194 0
165 192 0
170 195 0
170 195 0
166 191 0
168 192 0
170 193 0
170 194 0
168 193 0
172 194 0
171 193 0
168 194 0
165 191 0
168 193 0
167 192 0
167 191 0
165 190 0
165 192 0
171 194 0
167 192 0
166 192 0
168 194 0
162 189 0
167 193 0
166 192 0
165 192 0
159 189 0
159 189 0
158 189 0
165 193 0
162 192 0
159 190 0
164 191 0
161 191 0
163 192 0
164 191 0
157 189 0
161 192 0
158 190 0
158 189 0
153 188 0
165 193 0
160 191 0
160 192 0
157 190 0
160 192 0
159 192 0
148 185 0
158 190 0
153 187 0
161 192 0
156 190 0
152 187 0
160 193 0
163 192 0
153 188 0
157 188 0
159 190 0
155 189 0
159 191 0
150 187 0
153 188 0
156 188 0
149 186 0
155 189 0
145 186 0
149 187 0
154 190 0
156 188 0
152 187 0
153 188 0
142 183 0
149 184 0
140 180 0
140 182 0
151 187 0
147 186 0
142 181 0
149 186 0
144 185 0
140 182 0
148 184 0
139 181 0
138 181 0
147 187 0
145 183 0
149 187 0
134 180 0
148 186 0
143 185 0
141 183 0
146 185 0
144 185 0
145 183 0
134 180 0
133 178 0
138 180 0
134 177 0
130 178 0
138 181 0
132 178 0
138 180 0
137 178 0
130 178 0
131 177 0
145 185 0
129 178 0
123 170 0
134 179 0
127 172 0
137 177 0
124 172 0
126 173 0
134 177 0
127 172 0
123 172 0
121 168 0
132 175 0
114 169 0
117 168 0
118 170 0
119 166 0
128 170 0
129 173 0
126 172 0
119 167 0
127 170 0
126 170 0
112 163 0
123 170 0
119 169 0
117 167 0
112 165 0
113 164 0
116 167 0
124 170 0
124 170 0
121 167 0
107 157 0
122 167 0
120 167 0
112 162 0
115 161 0
117 163 0
111 164 0
118 165 0
114 162 0
125 168 0
110 162 0
113 165 0
127 166 0
115 163 0
106 158 0
125 164 0
116 165 0
113 161 0
112 158 0
114 164 0
125 167 0
122 164 0
115 160 0
125 167 0
126 167 0
117 159 0
124 166 0
117 163 0
124 162 0
130 166 0
117 157 0
125 160 0
118 159 0
123 164 0
130 166 0
123 162 0
129 165 0
124 164 0
124 163 0
124 160 0
119 159 0
123 162 0
123 163 0
125 162 0
128 163 0
129 159 0
132 166 0
129 162 0
123 160 0
133 165 0
124 158 0
139 168 0
133 165 0
127 163 0
127 163 0
127 159 0
133 162 0
131 164 0
125 156 0
132 162 0
123 155 0
136 162 0
126 156 0
131 160 0
132 157 0
137 167 0
136 164 0
127 159 0
137 161 0
116 147 0
134 163 0
132 161 0
139 159 0
130 154 0
132 162 0
124 148 0
129 154 0
136 158 0
123 151 0
136 155 0
128 151 0
138 158 0
132 152 0
131 155 0
127 147 0
125 145 0
136 156 0
135 149 0
128 144 0
131 148 0
134 153 0
122 137 0
130 147 0
136 147 0
134 147 0
127 137 0
125 141 0
122 137 0
134 143 0
126 133 0
124 133 0
122 132 0
131 135 0
124 126 0
123 130 0
130 142 0
126 130 0
124 124 0
127 128 0
121 127 0
119 120 0
127 134 0
122 127 0
114 117 0
123 121 0
114 114 0
116 112 0
111 109 0
117 112 0
114 108 0
103 94 0
108 101 0
117 109 0
108 100 0
118 110 0
115 107 0
108 98 0
108 101 0
106 96 0
120 113 0
118 112 0
113 100 0
113 103 0
122 113 0
112 101 0
117 107 0
128 119 0
121 114 0
123 113 0
120 111 0
127 119 0
127 119 0
124 115 0
123 115 0
128 123 0
122 115 0
120 110 0
130 124 0
126 119 0
126 121 0
122 116 0
137 133 0
120 110 0
129 123 0
129 124 0
137 132 0
140 137 0
141 137 0
140 138 0
144 145 0
148 151 0
150 151 0
148 149 0
158 162 0
159 167 0
157 164 0
155 159 0
160 165 0
157 166 0
161 167 0
160 169 0
160 167 0
166 177 0
161 171 0
158 166 0
165 175 0
165 179 0
159 167 0
162 171 0
164 175 0
164 177 0
164 175 0
163 174 0
164 175 0
163 174 0
164 174 0
165 178 0
168 184 0
167 183 0
168 185 0
165 178 0
168 183 0
167 182 0
167 183 0
169 186 0
168 186 0
166 182 0
167 182 0
167 181 0
169 183 0
170 195 0
171 195 0
171 196 0
172 196 0
172 196 0
174 197 0
172 196 0
174 196 0
172 195 0
171 195 0
171 196 0
171 195 0
174 197 0
173 197 0
173 196 0
175 197 0
172 196 0
172 196 0
169 195 0
175 198 0
172 196 0
168 195 0
170 195 0
174 197 0
172 195 0
171 196 0
173 196 0
173 196 0
172 196 0
174 196 0
171 196 0
171 196 0
171 196 0
172 195 0
175 197 0
175 197 0
176 197 0
173 196 0
170 196 0
175 198 0
172 195 0
169 194 0
170 195 0
170 194 0
171 195 0
173 195 0
171 195 0
168 193 0
168 192 0
169 194 0
167 193 0
170 195 0
175 197 0
173 196 0
175 197 0
174 195 0
171 194 0
173 196 0
175 197 0
168 194 0
173 195 0
170 194 0
166 191 0
174 196 0
175 196 0
170 194 0
170 194 0
169 194 0
171 195 0
168 192 0
173 195 0
170 195 0
170 194 0
166 192 0
172 195 0
166 192 0
166 191 0
167 193 0
168 192 0
160 189 0
166 192 0
159 189 0
167 192 0
163 191 0
164 191 0
165 192 0
164 190 0
162 190 0
162 190 0
166 192 0
162 191 0
160 190 0
163 191 0
159 189 0
157 188 0
165 192 0
158 189 0
161 191 0
157 190 0
160 191 0
166 193 0
161 190 0
160 191 0
159 191 0
161 192 0
162 192 0
156 190 0
160 191 0
151 188 0
153 189 0
152 186 0
154 187 0
151 189 0
152 188 0
151 188 0
158 190 0
154 189 0
155 190 0
156 189 0
151 187 0
148 186 0
157 190 0
156 190 0
150 188 0
154 190 0
150 184 0
154 189 0
157 191 0
157 190 0
148 187 0
146 185 0
143 184 0
152 188 0
154 188 0
141 184 0
144 184 0
153 188 0
146 183 0
149 185 0
148 187 0
148 185 0
160 191 0
151 187 0
144 185 0
143 182 0
147 185 0
141 183 0
144 184 0
146 184 0
140 181 0
132 178 0
132 177 0
140 181 0
141 182 0
146 181 0
144 182 0
135 180 0
131 178 0
140 181 0
128 177 0
129 177 0
143 182 0
137 183 0
144 181 0
130 175 0
132 178 0
140 183 0
138 180 0
140 178 0
133 175 0
127 176 0
136 182 0
128 174 0
126 175 0
127 176 0
125 172 0
119 170 0
137 176 0
133 176 0
123 171 0
122 173 0
121 173 0
125 172 0
129 174 0
122 171 0
111 169 0
105 161 0
128 172 0
112 164 0
124 168 0
117 165 0
122 171 0
120 168 0
128 170 0
121 167 0
116 168 0
123 173 0
127 171 0
128 172 0
120 170 0
115 162 0
112 160 0
114 162 0
120 162 0
120 167 0
117 169 0
102 158 0
118 166 0
113 163 0
114 165 0
113 164 0
112 162 0
118 163 0
117 164 0
111 159 0
102 158 0
131 172 0
123 167 0
124 164 0
121 166 0
113 159 0
119 163 0
122 165 0
130 167 0
124 164 0
117 162 0
118 165 0
121 166 0
105 156 0
115 165 0
119 163 0
118 159 0
118 161 0
123 160 0
114 162 0
127 168 0
118 162 0
124 163 0
130 161 0
125 159 0
123 163 0
132 169 0
123 160 0
123 161 0
127 161 0
127 164 0
130 164 0
136 169 0
139 168 0
126 161 0
128 165 0
138 165 0
138 167 0
138 168 0
131 159 0
134 167 0
130 162 0
128 158 0
132 161 0
140 170 0
134 156 0
131 160 0
127 156 0
125 151 0
135 158 0
135 162 0
133 160 0
138 161 0
133 159 0
131 156 0
131 159 0
130 158 0
132 156 0
130 157 0
129 154 0
146 170 0
127 149 0
139 159 0
130 146 0
132 153 0
140 158 0
129 152 0
133 157 0
132 156 0
130 152 0
127 148 0
128 147 0
119 143 0
136 155 0
127 143 0
132 152 0
133 152 0
126 144 0
128 147 0
129 142 0
138 157 0
134 145 0
116 132 0
127 142 0
128 140 0
129 141 0
131 140 0
136 141 0
132 140 0
124 133 0
126 129 0
127 131 0
127 133 0
129 139 0
125 132 0
121 123 0
124 129 0
120 123 0
116 118 0
122 121 0
124 123 0
115 114 0
119 118 0
123 125 0
110 103 0
122 122 0
112 109 0
123 121 0
116 112 0
112 107 0
111 106 0
119 113 0
112 107 0
114 104 0
123 117 0
115 106 0
125 119 0
119 112 0
123 115 0
113 106 0
119 113 0
116 110 0
125 117 0
120 110 0
128 121 0
129 122 0
122 114 0
138 134 0
131 126 0
135 130 0
137 131 0
131 125 0
139 135 0
136 132 0
145 142 0
143 140 0
147 145 0
138 135 0
145 143 0
141 140 0
148 149 0
145 144 0
149 150 0
151 153 0
149 151 0
153 158 0
148 149 0
152 154 0
152 155 0
152 155 0
157 162 0
155 159 0
160 166 0
159 165 0
158 164 0
163 170 0
157 164 0
157 163 0
161 171 0
162 168 0
161 170 0
165 173 0
163 171 0
163 174 0
162 173 0
159 166 0
161 172 0
166 177 0
162 174 0
165 178 0
165 178 0
166 179 0
164 177 0
166 179 0
165 177 0
168 183 0
166 181 0
167 182 0
167 182 0
166 179 0
167 180 0
165 181 0
164 181 0
168 183 0
168 184 0
170 195 0
171 195 0
170 195 0
172 197 0
174 197 0
169 195 0
173 196 0
170 196 0
172 197 0
174 197 0
173 196 0
174 197 0
174 197 0
171 195 0
170 195 0
174 197 0
172 197 0
174 197 0
170 196 0
173 197 0
172 195 0
174 197 0
171 194 0
173 196 0
173 196 0
169 194 0
172 196 0
172 196 0
175 197 0
172 195 0
173 197 0
173 197 0
175 198 0
174 197 0
171 195 0
172 196 0
171 195 0
172 195 0
176 198 0
174 196 0
172 195 0
172 196 0
170 195 0
171 195 0
169 194 0
171 195 0
170 194 0
174 196 0
169 194 0
175 196 0
174 197 0
171 194 0
173 197 0
175 197 0
170 195 0
171 195 0
170 194 0
172 195 0
171 195 0
172 194 0
168 193 0
166 191 0
174 196 0
172 193 0
173 195 0
169 193 0
169 194 0
169 194 0
170 195 0
169 193 0
171 195 0
170 194 0
165 192 0
163 190 0
170 194 0
163 190 0
165 193 0
169 193 0
166 192 0
166 193 0
170 194 0
158 189 0
164 191 0
161 190 0
161 191 0
165 192 0
166 193 0
161 192 0
163 191 0
160 190 0
168 194 0
158 188 0
160 191 0
165 193 0
161 192 0
163 191 0
160 190 0
152 188 0
160 191 0
163 192 0
153 186 0
163 192 0
164 193 0
153 188 0
161 193 0
157 189 0
154 189 0
154 188 0
157 190 0
154 188 0
158 191 0
153 188 0
156 189 0
154 188 0
154 189 0
152 188 0
154 189 0
155 190 0
149 188 0
153 189 0
155 188 0
159 189 0
149 186 0
154 189 0
148 187 0
151 188 0
152 188 0
150 189 0
148 187 0
152 187 0
142 183 0
149 186 0
145 184 0
150 187 0
155 189 0
152 186 0
149 186 0
146 185 0
154 188 0
149 187 0
144 183 0
150 185 0
139 182 0
150 187 0
135 181 0
137 183 0
150 185 0
139 184 0
148 185 0
139 184 0
151 187 0
148 185 0
137 180 0
136 181 0
142 181 0
134 177 0
137 181 0
146 184 0
138 179 0
129 178 0
132 176 0
143 181 0
129 177 0
135 176 0
140 181 0
139 180 0
137 178 0
140 179 0
134 177 0
140 180 0
133 179 0
129 175 0
131 174 0
136 179 0
136 178 0
125 173 0
126 171 0
125 174 0
139 179 0
133 175 0
124 172 0
119 171 0
124 171 0
125 172 0
124 170 0
131 177 0
115 165 0
125 172 0
129 171 0
129 173 0
111 165 0
123 170 0
119 169 0
114 167 0
112 164 0
120 163 0
115 163 0
115 164 0
125 172 0
121 171 0
116 167 0
119 168 0
116 165 0
112 163 0
130 172 0
122 166 0
112 165 0
119 167 0
122 165 0
106 158 0
114 165 0
118 166 0
112 163 0
122 169 0
121 165 0
123 167 0
124 165 0
122 166 0
129 170 0
118 162 0
129 169 0
128 170 0
114 164 0
112 164 0
128 169 0
118 161 0
118 162 0
118 162 0
127 165 0
117 161 0
131 166 0
120 160 0
124 167 0
102 149 0
112 157 0
118 159 0
134 168 0
131 169 0
128 160 0
130 165 0
128 164 0
123 164 0
128 167 0
133 162 0
122 166 0
138 168 0
132 167 0
125 158 0
128 161 0
137 164 0
127 161 0
133 163 0
139 170 0
136 167 0
136 164 0
123 160 0
122 157 0
130 164 0
135 161 0
124 153 0
139 166 0
133 162 0
133 162 0
142 168 0
132 155 0
130 158 0
134 162 0
137 162 0
133 156 0
124 158 0
140 167 0
136 161 0
129 159 0
136 164 0
125 151 0
136 157 0
130 153 0
130 158 0
135 163 0
135 158 0
124 153 0
138 156 0
136 155 0
125 155 0
133 156 0
133 150 0
133 150 0
130 150 0
139 155 0
137 158 0
125 140 0
134 150 0
131 149 0
129 144 0
132 143 0
133 145 0
134 149 0
128 145 0
131 141 0
129 142 0
132 144 0
127 139 0
133 146 0
133 141 0
136 150 0
135 147 0
129 137 0
128 131 0
128 138 0
126 135 0
130 137 0
133 139 0
123 130 0
118 122 0
131 135 0
113 114 0
122 123 0
125 122 0
124 124 0
122 124 0
126 124 0
128 130 0
122 117 0
122 121 0
124 120 0
127 124 0
126 122 0
124 120 0
124 117 0
118 114 0
126 123 0
121 116 0
115 106 0
128 121 0
125 117 0
124 117 0
128 123 0
139 134 0
130 125 0
122 114 0
127 119 0
125 117 0
134 128 0
136 131 0
131 125 0
129 124 0
135 133 0
140 135 0
142 139 0
137 133 0
143 142 0
142 140 0
138 134 0
140 137 0
139 134 0
146 146 0
146 145 0
148 149 0
148 150 0
146 148 0
151 154 0
146 147 0
154 156 0
150 152 0
151 154 0
151 153 0
159 164 0
154 156 0
156 161 0
156 161 0
152 157 0
159 164 0
157 164 0
158 166 0
162 172 0
160 168 0
159 168 0
160 169 0
163 174 0
159 170 0
163 174 0
160 170 0
162 170 0
162 173 0
165 177 0
164 177 0
166 179 0
167 180 0
167 179 0
164 177 0
165 175 0
166 180 0
164 178 0
166 183 0
169 186 0
165 180 0
166 180 0
165 180 0
170 186 0
164 180 0
172 196 0
172 196 0
171 195 0
173 197 0
172 196 0
170 195 0
165 192 0
173 197 0
170 195 0
172 196 0
173 197 0
174 198 0
174 197 0
170 195 0
172 196 0
172 196 0
173 196 0
175 196 0
172 196 0
175 198 0
172 196 0
168 195 0
171 195 0
172 196 0
170 194 0
172 196 0
170 195 0
170 195 0
171 195 0
173 196 0
170 195 0
171 195 0
174 197 0
171 194 0
173 197 0
167 194 0
170 195 0
175 197 0
172 194 0
168 193 0
173 196 0
175 197 0
174 196 0
173 196 0
173 195 0
172 195 0
171 196 0
172 195 0
171 195 0
173 196 0
170 192 0
171 194 0
171 195 0
175 197 0
175 197 0
173 196 0
171 195 0
173 196 0
167 192 0
171 194 0
169 193 0
168 193 0
171 195 0
168 192 0
170 193 0
166 193 0
167 195 0
170 194 0
168 192 0
171 195 0
164 191 0
161 189 0
169 193 0
164 190 0
168 192 0
163 191 0
167 192 0
166 193 0
165 192 0
168 194 0
161 190 0
167 193 0
162 191 0
165 192 0
167 193 0
165 192 0
157 188 0
159 191 0
164 193 0
164 191 0
161 191 0
162 191 0
156 190 0
155 190 0
155 188 0
162 191 0
156 188 0
162 190 0
160 190 0
160 192 0
162 190 0
154 188 0
154 189 0
159 192 0
160 190 0
155 189 0
156 189 0
154 188 0
164 192 0
158 191 0
152 189 0
148 187 0
154 188 0
156 190 0
154 188 0
154 190 0
154 188 0
154 188 0
158 191 0
154 187 0
158 190 0
148 186 0
158 190 0
161 191 0
156 190 0
148 186 0
157 189 0
150 187 0
152 189 0
155 188 0
149 188 0
144 184 0
155 187 0
147 187 0
155 189 0
147 185 0
152 188 0
150 187 0
137 182 0
143 183 0
151 186 0
144 184 0
150 187 0
146 184 0
154 188 0
150 185 0
144 184 0
159 192 0
141 182 0
145 184 0
145 184 0
133 178 0
144 183 0
140 180 0
135 180 0
143 180 0
136 179 0
133 178 0
141 185 0
130 175 0
128 175 0
144 184 0
141 182 0
140 181 0
140 179 0
139 179 0
139 180 0
135 178 0
133 175 0
133 179 0
146 183 0
125 173 0
129 177 0
117 173 0
129 175 0
140 179 0
127 173 0
133 179 0
120 170 0
129 175 0
125 174 0
129 177 0
131 176 0
133 177 0
127 175 0
128 172 0
122 166 0
129 174 0
123 169 0
131 171 0
118 167 0
136 175 0
114 167 0
136 174 0
123 171 0
131 171 0
133 174 0
132 175 0
128 169 0
128 171 0
120 168 0
124 169 0
129 172 0
119 165 0
130 173 0
114 164 0
138 173 0
124 168 0
126 169 0
122 168 0
129 168 0
123 171 0
122 165 0
115 168 0
130 171 0
117 167 0
127 167 0
119 164 0
120 167 0
124 169 0
130 170 0
128 170 0
122 167 0
116 163 0
125 167 0
113 162 0
126 167 0
123 165 0
132 171 0
121 163 0
133 167 0
123 165 0
135 167 0
122 165 0
131 167 0
119 165 0
127 165 0
128 163 0
124 160 0
124 162 0
120 162 0
134 168 0
127 164 0
130 172 0
129 166 0
130 161 0
128 165 0
136 170 0
139 170 0
131 167 0
127 162 0
134 166 0
126 163 0
128 163 0
130 160 0
133 165 0
141 167 0
127 160 0
137 166 0
127 158 0
126 162 0
136 165 0
136 162 0
134 167 0
143 168 0
134 165 0
133 162 0
137 165 0
136 163 0
136 163 0
126 155 0
136 162 0
139 160 0
137 166 0
137 160 0
145 171 0
138 161 0
137 162 0
133 163 0
133 158 0
132 157 0
132 151 0
135 160 0
131 155 0
127 154 0
130 155 0
139 157 0
132 153 0
132 154 0
137 156 0
133 152 0
135 156 0
143 158 0
134 151 0
133 149 0
139 155 0
134 151 0
132 146 0
133 149 0
132 147 0
134 152 0
123 143 0
127 140 0
126 147 0
134 145 0
125 135 0
128 141 0
127 139 0
126 132 0
129 140 0
130 135 0
129 138 0
124 131 0
135 139 0
125 130 0
129 132 0
141 144 0
129 132 0
131 135 0
123 124 0
127 124 0
134 136 0
132 131 0
128 126 0
118 116 0
123 121 0
133 132 0
129 122 0
125 122 0
125 117 0
129 127 0
134 133 0
137 137 0
118 112 0
125 119 0
128 120 0
126 119 0
130 129 0
125 118 0
130 122 0
128 119 0
132 129 0
129 122 0
133 128 0
133 125 0
137 132 0
131 126 0
136 132 0
140 137 0
143 138 0
136 132 0
142 142 0
148 150 0
139 135 0
145 142 0
146 147 0
153 154 0
145 145 0
149 148 0
151 153 0
148 148 0
152 154 0
152 154 0
154 159 0
155 159 0
157 161 0
151 153 0
154 157 0
153 157 0
156 158 0
157 162 0
160 168 0
157 161 0
158 165 0
157 166 0
161 166 0
156 164 0
159 166 0
163 174 0
163 173 0
162 171 0
161 171 0
163 175 0
164 173 0
162 171 0
162 174 0
162 172 0
166 177 0
164 177 0
159 169 0
162 173 0
163 177 0
167 179 0
169 183 0
167 183 0
166 178 0
168 182 0
166 178 0
167 183 0
165 180 0
174 197 0
174 197 0
171 195 0
171 195 0
171 196 0
173 196 0
172 196 0
173 196 0
174 197 0
174 197 0
173 197 0
174 197 0
171 195 0
172 196 0
172 196 0
172 195 0
170 194 0
170 195 0
171 195 0
172 196 0
172 197 0
167 194 0
172 196 0
172 196 0
173 196 0
172 196 0
173 196 0
172 196 0
175 197 0
177 198 0
173 196 0
173 195 0
171 194 0
171 196 0
169 193 0
174 196 0
174 196 0
168 194 0
171 195 0
175 197 0
166 192 0
167 193 0
173 196 0
172 195 0
173 196 0
171 194 0
172 195 0
173 196 0
169 194 0
167 193 0
173 196 0
173 195 0
169 194 0
169 194 0
174 197 0
170 194 0
169 194 0
174 196 0
169 194 0
173 196 0
165 190 0
166 192 0
170 194 0
170 194 0
167 193 0
170 193 0
164 192 0
167 192 0
164 191 0
169 195 0
169 193 0
167 194 0
170 194 0
166 193 0
161 191 0
169 193 0
164 191 0
164 191 0
168 194 0
165 193 0
166 192 0
162 191 0
161 190 0
161 191 0
164 192 0
164 192 0
155 188 0
161 191 0
164 193 0
167 194 0
155 188 0
156 191 0
163 192 0
152 189 0
152 188 0
152 188 0
161 191 0
160 189 0
156 189 0
156 190 0
161 191 0
161 191 0
155 189 0
148 186 0
156 189 0
160 190 0
156 189 0
157 188 0
155 189 0
150 187 0
151 185 0
155 190 0
145 185 0
154 188 0
156 189 0
153 188 0
152 187 0
151 187 0
153 189 0
157 191 0
146 187 0
149 187 0
157 190 0
153 188 0
144 186 0
153 188 0
160 191 0
147 186 0
152 188 0
154 189 0
154 189 0
146 186 0
152 188 0
159 191 0
151 186 0
153 187 0
148 184 0
155 188 0
142 184 0
147 187 0
147 186 0
157 189 0
141 182 0
139 184 0
152 188 0
143 183 0
141 184 0
139 180 0
152 186 0
146 186 0
142 184 0
149 185 0
136 181 0
136 180 0
142 183 0
142 183 0
149 184 0
143 182 0
143 184 0
149 187 0
135 181 0
141 179 0
146 183 0
135 180 0
130 176 0
139 181 0
134 179 0
132 176 0
140 181 0
143 180 0
139 182 0
131 173 0
139 181 0
135 180 0
127 175 0
135 180 0
132 177 0
136 179 0
135 179 0
134 179 0
130 175 0
129 174 0
125 174 0
123 172 0
134 176 0
126 173 0
124 169 0
123 174 0
133 175 0
129 174 0
125 169 0
130 173 0
124 169 0
126 172 0
133 175 0
124 169 0
123 171 0
111 167 0
134 175 0
125 171 0
104 162 0
122 167 0
119 170 0
121 169 0
124 168 0
115 167 0
127 170 0
126 171 0
125 170 0
123 168 0
118 166 0
123 168 0
129 171 0
120 166 0
131 172 0
121 170 0
136 174 0
119 167 0
119 161 0
131 172 0
120 164 0
136 174 0
122 165 0
117 161 0
130 166 0
122 165 0
124 166 0
130 165 0
134 171 0
132 172 0
125 164 0
124 164 0
139 174 0
129 172 0
125 166 0
132 170 0
130 166 0
131 165 0
123 161 0
131 167 0
117 164 0
130 168 0
140 173 0
124 163 0
130 166 0
139 171 0
129 164 0
137 166 0
123 163 0
135 168 0
139 171 0
131 163 0
132 159 0
141 169 0
138 171 0
136 169 0
127 164 0
128 163 0
132 160 0
134 167 0
129 163 0
120 157 0
140 169 0
133 165 0
131 165 0
136 166 0
129 162 0
133 163 0
139 167 0
136 165 0
130 162 0
135 165 0
137 161 0
133 164 0
138 165 0
138 161 0
130 150 0
135 162 0
130 154 0
145 168 0
136 163 0
135 158 0
128 156 0
137 159 0
126 148 0
139 160 0
135 157 0
134 157 0
135 155 0
134 152 0
135 154 0
128 145 0
143 160 0
128 148 0
136 156 0
133 151 0
132 152 0
136 152 0
140 151 0
134 148 0
131 144 0
140 151 0
134 151 0
134 145 0
134 143 0
130 141 0
135 152 0
142 154 0
142 149 0
131 139 0
136 145 0
131 138 0
135 143 0
130 137 0
139 141 0
135 140 0
131 134 0
134 137 0
138 144 0
122 126 0
132 134 0
132 134 0
137 135 0
130 127 0
136 138 0
133 132 0
120 119 0
131 135 0
129 126 0
133 131 0
128 127 0
127 122 0
133 133 0
130 127 0
130 124 0
133 127 0
124 114 0
139 134 0
131 126 0
132 128 0
131 127 0
132 126 0
131 131 0
132 126 0
138 134 0
135 130 0
134 131 0
139 135 0
133 130 0
138 138 0
144 142 0
147 145 0
139 134 0
137 133 0
147 145 0
146 146 0
144 144 0
146 146 0
150 152 0
149 152 0
148 149 0
151 151 0
152 152 0
154 159 0
148 146 0
155 160 0
153 155 0
150 150 0
156 160 0
153 156 0
155 160 0
153 159 0
158 164 0
156 163 0
157 163 0
162 170 0
161 171 0
159 168 0
163 172 0
160 168 0
155 162 0
162 169 0
161 171 0
160 170 0
163 171 0
165 176 0
165 176 0
165 175 0
163 175 0
162 173 0
164 176 0
168 183 0
164 177 0
165 178 0
166 179 0
165 178 0
165 179 0
166 182 0
166 182 0
167 182 0
173 197 0
174 197 0
173 196 0
174 197 0
174 196 0
174 196 0
170 194 0
172 196 0
169 194 0
169 194 0
172 196 0
174 198 0
173 197 0
171 195 0
173 197 0
172 196 0
173 196 0
172 195 0
170 195 0
172 196 0
174 197 0
172 196 0
171 196 0
173 196 0
173 196 0
174 197 0
170 195 0
172 195 0
174 197 0
172 196 0
172 196 0
169 195 0
172 196 0
172 196 0
171 194 0
173 196 0
173 196 0
176 198 0
172 195 0
172 194 0
170 194 0
174 196 0
173 195 0
173 197 0
169 194 0
172 195 0
173 196 0
173 196 0
170 194 0
174 197 0
173 196 0
174 196 0
173 195 0
168 194 0
169 194 0
175 196 0
167 193 0
171 195 0
170 193 0
164 192 0
167 192 0
171 194 0
165 190 0
171 194 0
163 190 0
170 193 0
168 192 0
167 194 0
171 193 0
170 195 0
167 193 0
166 192 0
163 192 0
162 191 0
167 195 0
168 194 0
167 193 0
163 191 0
162 192 0
169 193 0
164 192 0
166 194 0
163 192 0
166 192 0
157 188 0
166 193 0
164 192 0
164 192 0
154 189 0
161 191 0
163 192 0
159 191 0
158 190 0
158 191 0
157 190 0
161 191 0
163 192 0
159 190 0
155 189 0
162 192 0
163 193 0
159 191 0
159 189 0
160 191 0
155 189 0
154 189 0
152 187 0
156 190 0
156 190 0
154 188 0
161 192 0
151 188 0
150 186 0
154 188 0
155 189 0
154 189 0
155 190 0
153 188 0
156 189 0
160 191 0
157 189 0
151 188 0
153 188 0
153 185 0
149 187 0
151 187 0
150 186 0
155 189 0
152 187 0
154 188 0
146 183 0
163 192 0
155 189 0
155 189 0
152 187 0
145 186 0
153 186 0
150 187 0
154 187 0
149 185 0
154 186 0
149 186 0
152 188 0
151 188 0
137 178 0
142 182 0
148 185 0
149 186 0
142 182 0
143 184 0
139 182 0
130 176 0
142 184 0
140 183 0
138 182 0
140 181 0
138 182 0
140 178 0
139 179 0
133 179 0
144 184 0
137 177 0
142 180 0
145 181 0
146 183 0
138 180 0
136 178 0
137 181 0
134 178 0
127 174 0
137 178 0
136 180 0
129 178 0
139 179 0
136 177 0
122 173 0
142 182 0
131 176 0
136 178 0
134 176 0
130 172 0
130 173 0
125 176 0
134 177 0
129 176 0
132 176 0
133 174 0
139 179 0
127 174 0
130 174 0
135 178 0
135 178 0
125 172 0
134 176 0
121 170 0
123 170 0
132 173 0
136 181 0
120 168 0
130 175 0
122 169 0
132 170 0
125 174 0
127 173 0
125 173 0
128 173 0
122 170 0
126 169 0
135 176 0
134 173 0
139 176 0
130 170 0
123 167 0
132 175 0
136 173 0
127 171 0
125 172 0
134 174 0
127 171 0
136 176 0
126 169 0
130 169 0
128 168 0
130 173 0
128 169 0
128 168 0
118 165 0
135 174 0
128 166 0
127 168 0
137 171 0
124 168 0
125 165 0
124 166 0
137 173 0
128 168 0
119 161 0
128 165 0
133 171 0
131 167 0
124 165 0
130 169 0
138 170 0
129 164 0
124 164 0
137 169 0
130 164 0
138 168 0
134 169 0
134 164 0
138 167 0
128 163 0
130 165 0
131 165 0
143 173 0
129 161 0
132 164 0
136 165 0
126 162 0
137 168 0
135 169 0
133 167 0
131 160 0
134 166 0
138 165 0
133 161 0
132 160 0
131 162 0
137 163 0
139 167 0
135 166 0
131 164 0
132 158 0
131 162 0
126 155 0
140 165 0
137 161 0
138 159 0
130 157 0
131 156 0
140 162 0
140 162 0
135 163 0
139 165 0
135 159 0
142 163 0
144 166 0
132 150 0
136 157 0
141 164 0
140 157 0
141 160 0
131 152 0
140 157 0
137 158 0
141 161 0
141 155 0
139 157 0
142 158 0
138 156 0
137 155 0
143 155 0
120 135 0
143 157 0
134 151 0
138 149 0
137 150 0
134 147 0
142 154 0
136 145 0
134 143 0
134 142 0
134 141 0
130 135 0
128 138 0
133 139 0
142 150 0
131 134 0
124 125 0
138 150 0
133 136 0
130 130 0
133 137 0
136 138 0
133 131 0
133 133 0
122 121 0
124 124 0
124 121 0
139 140 0
130 131 0
131 133 0
128 126 0
131 129 0
134 129 0
132 128 0
131 129 0
139 136 0
130 126 0
127 123 0
136 133 0
130 124 0
136 132 0
136 132 0
138 134 0
135 131 0
134 131 0
138 135 0
143 142 0
141 137 0
134 132 0
140 138 0
143 142 0
143 141 0
146 142 0
143 141 0
140 137 0
143 141 0
148 151 0
147 147 0
149 149 0
149 149 0
150 155 0
152 154 0
147 146 0
151 153 0
144 143 0
158 165 0
157 163 0
158 162 0
157 162 0
157 162 0
155 159 0
156 161 0
157 166 0
158 165 0
156 161 0
157 163 0
161 169 0
159 167 0
159 165 0
163 170 0
160 168 0
164 173 0
164 174 0
164 175 0
164 173 0
161 170 0
163 174 0
163 172 0
167 179 0
166 180 0
163 174 0
163 174 0
165 178 0
165 176 0
166 177 0
167 181 0
167 178 0
164 178 0
170 194 0
172 196 0
174 197 0
173 197 0
171 195 0
171 196 0
173 197 0
174 197 0
171 196 0
173 196 0
171 196 0
169 195 0
174 197 0
174 197 0
171 196 0
172 196 0
173 195 0
176 198 0
172 196 0
172 195 0
171 196 0
170 195 0
173 196 0
169 193 0
171 194 0
175 197 0
172 196 0
172 196 0
173 197 0
173 195 0
170 195 0
174 196 0
175 197 0
174 197 0
172 196 0
173 196 0
175 197 0
173 196 0
168 194 0
173 196 0
175 198 0
167 193 0
175 197 0
173 196 0
169 193 0
170 194 0
170 194 0
175 197 0
170 194 0
173 196 0
170 194 0
171 196 0
172 196 0
170 194 0
162 190 0
170 194 0
171 193 0
169 193 0
167 193 0
170 194 0
164 191 0
165 191 0
166 191 0
168 194 0
167 194 0
171 196 0
169 194 0
169 192 0
170 194 0
162 191 0
168 193 0
165 192 0
168 194 0
159 189 0
165 192 0
165 193 0
167 193 0
164 191 0
160 192 0
161 191 0
171 195 0
165 192 0
170 194 0
167 194 0
164 193 0
164 193 0
162 190 0
163 191 0
168 193 0
156 188 0
163 192 0
160 190 0
160 190 0
160 190 0
157 190 0
155 189 0
166 192 0
155 188 0
155 188 0
162 192 0
160 190 0
153 187 0
164 193 0
158 191 0
153 189 0
162 193 0
153 188 0
161 191 0
156 190 0
156 190 0
155 189 0
152 187 0
153 189 0
158 189 0
155 189 0
155 190 0
154 188 0
159 190 0
156 190 0
158 191 0
153 189 0
156 189 0
150 185 0
159 190 0
151 187 0
162 192 0
147 184 0
158 191 0
150 189 0
154 189 0
149 187 0
150 187 0
159 191 0
151 186 0
147 186 0
154 189 0
148 186 0
152 186 0
146 186 0
146 185 0
152 187 0
145 184 0
156 190 0
146 185 0
142 184 0
148 187 0
143 184 0
147 182 0
154 188 0
145 186 0
146 184 0
137 182 0
136 179 0
147 184 0
145 184 0
152 187 0
147 185 0
140 182 0
134 179 0
141 180 0
145 184 0
146 183 0
145 185 0
131 178 0
128 176 0
134 179 0
140 181 0
132 179 0
135 177 0
140 181 0
132 176 0
141 179 0
132 180 0
144 182 0
142 182 0
129 174 0
130 175 0
138 178 0
140 177 0
135 177 0
143 183 0
136 178 0
128 174 0
125 171 0
132 176 0
126 177 0
129 174 0
127 171 0
132 177 0
130 178 0
140 178 0
132 178 0
134 178 0
119 168 0
121 169 0
126 170 0
126 171 0
136 178 0
129 176 0
128 169 0
116 165 0
110 163 0
125 173 0
122 167 0
119 169 0
122 170 0
121 166 0
134 173 0
133 172 0
135 172 0
125 171 0
122 163 0
120 169 0
134 174 0
115 164 0
125 168 0
127 172 0
140 178 0
133 172 0
127 166 0
126 171 0
129 165 0
119 165 0
137 176 0
125 166 0
130 169 0
126 171 0
128 165 0
134 174 0
132 168 0
128 169 0
135 175 0
132 172 0
122 161 0
136 172 0
130 165 0
131 169 0
132 166 0
119 163 0
131 170 0
134 169 0
136 171 0
131 168 0
140 177 0
130 164 0
131 167 0
131 170 0
129 167 0
132 166 0
134 168 0
137 169 0
129 163 0
139 172 0
128 161 0
126 157 0
140 176 0
140 169 0
139 170 0
134 162 0
129 162 0
133 165 0
139 167 0
132 163 0
130 163 0
138 167 0
140 171 0
128 159 0
137 168 0
142 168 0
128 159 0
141 166 0
138 171 0
137 159 0
139 162 0
140 165 0
139 163 0
137 162 0
139 167 0
141 162 0
135 162 0
134 159 0
134 160 0
135 159 0
138 163 0
135 155 0
137 161 0
137 160 0
137 159 0
141 162 0
129 156 0
143 162 0
139 158 0
136 157 0
138 154 0
136 158 0
136 154 0
146 166 0
145 161 0
130 147 0
141 150 0
137 152 0
133 147 0
140 152 0
133 151 0
136 150 0
136 149 0
142 153 0
140 147 0
136 150 0
129 146 0
135 145 0
137 148 0
140 152 0
134 143 0
141 149 0
136 141 0
134 143 0
133 137 0
138 144 0
144 152 0
137 142 0
134 140 0
136 139 0
136 141 0
128 131 0
135 142 0
128 130 0
129 131 0
137 141 0
130 130 0
133 134 0
140 140 0
139 136 0
130 127 0
139 138 0
138 139 0
134 135 0
135 132 0
123 119 0
137 136 0
139 139 0
128 121 0
136 136 0
139 138 0
125 120 0
138 133 0
141 139 0
136 137 0
129 122 0
139 139 0
142 138 0
143 145 0
153 154 0
145 143 0
143 142 0
141 138 0
143 139 0
146 147 0
140 137 0
148 149 0
147 149 0
150 151 0
144 142 0
155 158 0
152 155 0
154 158 0
157 162 0
151 153 0
151 153 0
157 160 0
154 157 0
159 165 0
155 159 0
156 161 0
152 155 0
162 171 0
160 168 0
159 167 0
154 160 0
161 169 0
159 166 0
158 165 0
161 168 0
159 168 0
158 165 0
164 173 0
163 174 0
161 170 0
161 172 0
165 175 0
162 172 0
164 176 0
163 174 0
164 175 0
165 175 0
168 180 0
162 174 0
162 173 0
167 182 0
165 177 0
174 197 0
173 196 0
172 196 0
171 196 0
173 196 0
174 197 0
168 195 0
172 196 0
172 196 0
173 197 0
174 197 0
175 197 0
171 196 0
168 194 0
170 196 0
171 196 0
173 196 0
172 195 0
174 196 0
172 195 0
174 197 0
170 194 0
172 194 0
174 196 0
172 196 0
172 195 0
173 197 0
172 196 0
173 196 0
172 196 0
173 196 0
172 196 0
171 194 0
172 196 0
173 196 0
173 196 0
175 197 0
171 194 0
171 195 0
170 194 0
169 193 0
170 194 0
172 196 0
174 196 0
170 194 0
168 194 0
171 194 0
170 194 0
174 197 0
169 194 0
170 194 0
173 195 0
169 193 0
172 195 0
166 193 0
171 195 0
171 195 0
168 192 0
168 193 0
171 195 0
169 193 0
169 194 0
172 197 0
170 194 0
166 191 0
166 192 0
164 193 0
169 194 0
165 192 0
166 192 0
169 195 0
167 194 0
164 191 0
160 189 0
159 190 0
163 192 0
167 194 0
167 192 0
163 193 0
168 194 0
163 192 0
164 192 0
164 191 0
165 193 0
161 191 0
160 189 0
158 189 0
159 192 0
160 189 0
168 194 0
163 192 0
163 192 0
165 193 0
159 190 0
163 192 0
159 191 0
156 189 0
161 191 0
157 190 0
162 191 0
157 191 0
158 191 0
155 188 0
162 192 0
165 193 0
157 190 0
154 190 0
154 189 0
153 189 0
151 186 0
150 189 0
154 189 0
158 190 0
159 191 0
158 189 0
155 189 0
157 189 0
160 191 0
158 190 0
152 187 0
152 186 0
151 187 0
155 189 0
150 186 0
147 186 0
149 187 0
156 190 0
148 186 0
152 187 0
150 187 0
155 189 0
145 185 0
158 190 0
146 185 0
152 187 0
151 186 0
151 188 0
150 187 0
147 187 0
146 184 0
148 185 0
143 181 0
145 184 0
142 184 0
155 189 0
142 185 0
152 187 0
153 186 0
145 185 0
148 184 0
144 184 0
134 179 0
142 182 0
143 183 0
135 177 0
146 183 0
143 184 0
150 186 0
147 185 0
139 181 0
150 185 0
136 177 0
139 182 0
143 183 0
136 180 0
147 183 0
134 179 0
138 179 0
142 182 0
138 178 0
135 178 0
136 178 0
140 179 0
135 176 0
146 183 0
134 177 0
139 179 0
138 177 0
133 178 0
138 180 0
130 175 0
127 175 0
136 178 0
126 174 0
127 173 0
138 178 0
136 178 0
137 182 0
125 171 0
128 174 0
127 173 0
123 172 0
133 177 0
139 177 0
125 174 0
128 175 0
131 177 0
122 170 0
121 168 0
131 175 0
130 172 0
131 175 0
131 174 0
125 169 0
138 177 0
121 170 0
129 173 0
130 169 0
136 174 0
127 170 0
135 176 0
131 170 0
123 169 0
132 172 0
134 176 0
128 173 0
121 164 0
122 172 0
129 170 0
132 166 0
130 173 0
145 177 0
126 165 0
128 172 0
129 168 0
128 173 0
137 178 0
122 165 0
133 171 0
127 168 0
133 172 0
132 172 0
129 168 0
125 165 0
138 170 0
131 171 0
143 176 0
135 169 0
128 168 0
136 171 0
134 168 0
136 174 0
135 171 0
132 166 0
133 169 0
137 172 0
133 169 0
138 173 0
122 161 0
136 166 0
136 166 0
130 164 0
142 175 0
139 170 0
137 170 0
133 166 0
138 173 0
134 170 0
133 168 0
138 169 0
134 168 0
131 162 0
142 169 0
140 169 0
139 169 0
132 161 0
135 166 0
129 160 0
131 163 0
142 168 0
134 164 0
132 158 0
138 166 0
133 159 0
145 169 0
129 158 0
135 161 0
137 165 0
141 165 0
139 163 0
143 170 0
137 166 0
136 161 0
142 164 0
138 162 0
137 163 0
138 162 0
143 165 0
137 160 0
139 162 0
144 163 0
139 158 0
140 162 0
149 166 0
131 157 0
139 159 0
132 148 0
141 163 0
136 155 0
132 151 0
147 166 0
137 152 0
140 155 0
134 153 0
137 150 0
138 148 0
141 153 0
130 146 0
138 149 0
132 146 0
135 146 0
136 146 0
145 154 0
127 136 0
135 148 0
136 146 0
138 154 0
143 155 0
136 145 0
133 140 0
136 143 0
130 132 0
137 143 0
132 138 0
132 137 0
144 152 0
128 129 0
134 138 0
136 135 0
135 139 0
140 141 0
135 139 0
131 130 0
135 133 0
134 131 0
134 135 0
143 143 0
141 143 0
141 138 0
140 139 0
136 136 0
135 130 0
143 148 0
137 141 0
148 144 0
132 131 0
138 137 0
136 136 0
139 136 0
143 142 0
143 143 0
134 129 0
143 141 0
141 142 0
146 146 0
139 138 0
142 140 0
152 156 0
148 146 0
148 149 0
147 144 0
153 154 0
148 149 0
152 153 0
149 151 0
149 151 0
156 160 0
155 161 0
150 151 0
153 157 0
151 157 0
151 153 0
152 155 0
156 162 0
160 168 0
154 159 0
158 163 0
158 165 0
158 166 0
159 166 0
157 163 0
161 168 0
161 169 0
153 160 0
162 171 0
160 170 0
161 169 0
158 167 0
162 171 0
164 171 0
159 168 0
164 173 0
162 172 0
162 172 0
164 177 0
163 174 0
159 167 0
164 176 0
166 183 0
164 178 0
172 195 0
169 195 0
170 194 0
171 195 0
171 195 0
173 196 0
172 197 0
169 194 0
171 195 0
174 197 0
171 194 0
171 195 0
175 197 0
174 197 0
170 195 0
174 197 0
171 194 0
172 196 0
174 197 0
174 196 0
167 194 0
168 193 0
172 196 0
173 195 0
172 196 0
169 195 0
171 195 0
171 194 0
173 197 0
171 194 0
172 195 0
171 195 0
173 197 0
172 195 0
170 194 0
173 197 0
169 193 0
172 196 0
176 198 0
167 193 0
168 192 0
171 194 0
171 194 0
168 193 0
171 196 0
172 196 0
167 193 0
169 194 0
173 195 0
173 195 0
168 193 0
171 195 0
169 194 0
166 192 0
169 194 0
169 193 0
169 193 0
164 190 0
167 193 0
172 196 0
167 191 0
171 195 0
173 195 0
168 194 0
163 191 0
166 193 0
165 193 0
169 194 0
167 193 0
171 194 0
170 195 0
167 192 0
158 190 0
164 192 0
169 195 0
163 192 0
161 191 0
167 195 0
165 193 0
160 191 0
163 192 0
159 191 0
160 190 0
163 193 0
164 192 0
164 193 0
164 191 0
161 190 0
168 194 0
158 189 0
159 191 0
160 191 0
163 192 0
158 191 0
162 192 0
161 192 0
158 191 0
161 191 0
159 190 0
156 190 0
163 191 0
162 191 0
156 189 0
160 191 0
158 191 0
161 191 0
157 190 0
153 190 0
154 188 0
156 190 0
151 187 0
152 189 0
149 185 0
160 190 0
159 190 0
152 187 0
151 190 0
156 191 0
151 188 0
153 187 0
153 188 0
154 189 0
160 192 0
155 189 0
164 193 0
147 187 0
153 187 0
155 190 0
149 186 0
152 188 0
157 189 0
153 187 0
150 187 0
149 184 0
141 182 0
153 186 0
145 185 0
151 188 0
154 188 0
144 183 0
150 187 0
151 186 0
147 185 0
151 185 0
147 185 0
142 184 0
143 184 0
152 186 0
149 185 0
146 184 0
149 187 0
151 186 0
156 188 0
147 184 0
144 183 0
146 186 0
143 184 0
138 181 0
138 180 0
144 184 0
139 184 0
145 181 0
139 181 0
136 179 0
139 179 0
142 181 0
144 180 0
140 181 0
146 182 0
135 179 0
138 180 0
136 179 0
127 177 0
132 179 0
136 177 0
134 178 0
133 176 0
138 182 0
140 182 0
144 184 0
135 182 0
131 175 0
137 178 0
131 175 0
141 183 0
137 179 0
126 173 0
127 171 0
126 174 0
127 178 0
130 174 0
132 175 0
125 174 0
132 171 0
135 177 0
134 178 0
135 174 0
137 181 0
136 175 0
128 173 0
135 177 0
131 177 0
131 175 0
137 174 0
132 175 0
127 174 0
139 178 0
126 172 0
129 173 0
128 170 0
134 175 0
132 174 0
127 172 0
130 173 0
129 167 0
128 167 0
134 175 0
131 171 0
133 176 0
132 171 0
120 166 0
135 172 0
132 171 0
144 179 0
135 172 0
120 164 0
131 169 0
135 172 0
137 177 0
137 172 0
132 171 0
129 171 0
128 168 0
136 169 0
132 168 0
130 168 0
132 169 0
119 164 0
137 173 0
140 173 0
131 169 0
126 164 0
135 172 0
133 167 0
131 169 0
139 173 0
136 170 0
141 175 0
129 168 0
131 165 0
133 165 0
131 167 0
141 176 0
142 174 0
137 170 0
142 170 0
142 173 0
142 169 0
141 173 0
143 171 0
135 165 0
130 163 0
142 174 0
136 163 0
135 165 0
138 167 0
137 165 0
145 175 0
139 167 0
144 168 0
149 177 0
135 164 0
143 166 0
144 171 0
134 161 0
140 166 0
148 168 0
132 156 0
145 170 0
136 165 0
137 160 0
144 162 0
135 159 0
136 159 0
136 161 0
142 165 0
142 161 0
145 165 0
137 161 0
139 158 0
128 155 0
140 161 0
142 165 0
145 160 0
145 166 0
141 163 0
134 154 0
133 153 0
138 156 0
139 158 0
127 150 0
135 152 0
135 151 0
139 158 0
132 149 0
138 155 0
145 160 0
139 152 0
129 144 0
142 152 0
144 154 0
135 149 0
139 152 0
143 153 0
137 148 0
137 147 0
135 143 0
136 150 0
139 151 0
139 148 0
131 143 0
141 150 0
144 150 0
144 154 0
142 145 0
136 141 0
137 143 0
140 141 0
122 129 0
139 142 0
147 152 0
133 132 0
139 137 0
136 138 0
136 135 0
134 129 0
134 133 0
143 145 0
139 139 0
137 139 0
142 143 0
133 132 0
141 138 0
136 136 0
136 137 0
138 139 0
146 147 0
139 138 0
136 137 0
147 147 0
139 138 0
147 148 0
142 140 0
146 146 0
141 140 0
142 143 0
143 144 0
147 148 0
148 147 0
141 140 0
147 146 0
151 154 0
147 147 0
154 156 0
155 158 0
148 149 0
150 154 0
152 156 0
149 151 0
157 160 0
150 153 0
155 159 0
158 163 0
154 159 0
156 160 0
157 163 0
154 158 0
155 157 0
155 160 0
158 164 0
156 164 0
154 161 0
161 170 0
160 167 0
161 170 0
161 168 0
163 174 0
158 165 0
156 165 0
164 174 0
163 172 0
160 170 0
164 176 0
164 175 0
158 166 0
167 179 0
163 176 0
163 175 0
164 176 0
165 177 0
170 196 0
175 197 0
172 196 0
171 196 0
171 196 0
172 195 0
172 196 0
175 197 0
172 196 0
171 195 0
175 197 0
174 197 0
175 197 0
177 198 0
174 197 0
172 195 0
167 194 0
172 196 0
172 195 0
171 195 0
171 196 0
172 196 0
168 193 0
173 196 0
172 197 0
171 194 0
174 197 0
170 196 0
172 195 0
171 195 0
174 196 0
175 196 0
171 195 0
166 193 0
168 192 0
171 195 0
169 194 0
169 194 0
172 195 0
171 195 0
174 196 0
172 195 0
174 197 0
172 195 0
172 194 0
172 196 0
170 194 0
169 193 0
167 193 0
169 194 0
168 193 0
167 194 0
166 192 0
166 193 0
168 194 0
168 193 0
167 193 0
167 192 0
168 193 0
167 194 0
170 195 0
168 193 0
172 197 0
166 192 0
166 193 0
160 189 0
165 191 0
164 192 0
168 193 0
166 194 0
168 194 0
164 193 0
167 193 0
168 194 0
169 194 0
169 195 0
165 194 0
164 192 0
165 193 0
160 192 0
162 192 0
166 193 0
163 192 0
157 189 0
159 191 0
163 192 0
169 195 0
157 191 0
159 190 0
154 188 0
160 192 0
158 190 0
158 191 0
158 189 0
154 189 0
160 191 0
162 191 0
159 192 0
159 190 0
159 193 0
151 188 0
158 191 0
159 191 0
162 192 0
156 190 0
165 193 0
160 190 0
164 192 0
155 188 0
157 192 0
155 188 0
153 188 0
155 188 0
158 190 0
158 190 0
159 191 0
156 190 0
151 187 0
153 187 0
149 187 0
157 189 0
151 188 0
154 188 0
147 185 0
156 189 0
154 187 0
150 186 0
149 187 0
147 186 0
155 188 0
152 188 0
144 184 0
144 185 0
152 187 0
154 188 0
155 187 0
148 184 0
153 186 0
145 185 0
149 186 0
151 185 0
151 186 0
156 188 0
145 186 0
152 188 0
147 183 0
140 182 0
142 182 0
151 185 0
144 185 0
139 180 0
144 184 0
152 187 0
144 185 0
139 183 0
142 182 0
145 183 0
144 184 0
131 178 0
147 185 0
135 181 0
148 186 0
154 188 0
136 180 0
140 183 0
138 177 0
123 173 0
140 182 0
132 180 0
141 180 0
133 178 0
137 181 0
138 182 0
143 183 0
144 183 0
141 185 0
132 174 0
143 181 0
133 176 0
131 178 0
138 180 0
135 178 0
134 175 0
132 177 0
135 176 0
136 177 0
133 175 0
129 173 0
139 177 0
141 180 0
129 176 0
137 177 0
132 176 0
135 176 0
137 179 0
135 178 0
131 174 0
124 171 0
139 177 0
133 173 0
127 171 0
134 174 0
138 176 0
130 175 0
131 175 0
129 171 0
130 173 0
123 170 0
131 178 0
130 172 0
137 176 0
130 174 0
136 174 0
123 175 0
134 174 0
136 177 0
125 175 0
131 172 0
128 170 0
128 172 0
132 172 0
131 175 0
140 175 0
132 173 0
137 178 0
138 179 0
135 171 0
132 172 0
134 175 0
133 167 0
123 170 0
140 177 0
138 176 0
135 173 0
143 177 0
138 171 0
134 172 0
130 173 0
127 160 0
134 172 0
135 172 0
133 171 0
135 173 0
132 171 0
135 172 0
131 167 0
138 178 0
134 171 0
138 170 0
138 170 0
137 173 0
138 169 0
144 175 0
138 171 0
135 167 0
139 170 0
136 165 0
134 167 0
131 167 0
131 167 0
137 169 0
133 165 0
145 171 0
138 165 0
138 169 0
144 174 0
142 171 0
135 169 0
139 169 0
141 168 0
147 174 0
136 165 0
142 167 0
143 171 0
137 167 0
136 163 0
137 167 0
141 169 0
145 167 0
138 164 0
134 163 0
142 168 0
134 159 0
137 164 0
142 162 0
144 167 0
136 157 0
140 161 0
145 165 0
130 155 0
140 164 0
145 166 0
132 156 0
144 161 0
134 157 0
138 159 0
147 166 0
144 160 0
142 163 0
136 158 0
138 159 0
143 159 0
144 160 0
145 160 0
147 159 0
140 154 0
140 157 0
132 144 0
150 168 0
137 154 0
135 148 0
125 141 0
136 149 0
144 156 0
140 153 0
144 155 0
139 150 0
141 154 0
138 152 0
134 149 0
132 137 0
132 144 0
138 147 0
134 140 0
142 147 0
136 139 0
138 141 0
141 150 0
137 144 0
134 140 0
137 137 0
142 145 0
139 144 0
137 143 0
143 147 0
139 144 0
138 142 0
130 132 0
134 136 0
135 134 0
142 148 0
147 153 0
148 151 0
149 153 0
145 147 0
144 145 0
141 144 0
143 144 0
138 139 0
146 145 0
146 146 0
149 152 0
142 141 0
145 148 0
144 150 0
146 145 0
143 141 0
149 151 0
143 143 0
153 155 0
145 148 0
153 156 0
145 144 0
158 162 0
156 157 0
150 153 0
148 150 0
144 148 0
153 156 0
158 163 0
157 161 0
156 160 0
150 150 0
157 161 0
151 157 0
157 164 0
157 164 0
157 164 0
157 163 0
160 168 0
158 162 0
160 166 0
155 160 0
154 159 0
154 162 0
159 166 0
160 170 0
159 167 0
159 167 0
157 164 0
157 164 0
158 167 0
161 170 0
162 174 0
160 169 0
163 175 0
165 175 0
164 176 0
164 175 0
164 175 0
166 193 0
169 195 0
174 197 0
172 196 0
172 196 0
170 195 0
170 195 0
171 195 0
173 196 0
172 197 0
171 196 0
174 197 0
172 196 0
171 195 0
175 197 0
169 195 0
171 195 0
170 195 0
174 196 0
172 196 0
168 194 0
170 195 0
172 196 0
170 195 0
168 194 0
174 197 0
170 195 0
173 195 0
173 196 0
170 193 0
174 196 0
171 195 0
170 194 0
170 195 0
172 195 0
171 194 0
170 195 0
174 196 0
173 195 0
174 197 0
174 195 0
175 197 0
169 194 0
172 195 0
172 195 0
166 192 0
167 194 0
173 196 0
169 195 0
171 195 0
168 193 0
167 194 0
171 193 0
171 195 0
171 194 0
167 193 0
164 192 0
169 193 0
168 194 0
168 192 0
167 193 0
163 191 0
165 191 0
167 192 0
166 193 0
170 195 0
162 191 0
166 194 0
166 192 0
168 193 0
165 191 0
161 190 0
158 190 0
161 190 0
160 190 0
166 194 0
164 193 0
160 191 0
166 194 0
167 193 0
165 192 0
163 192 0
155 190 0
158 191 0
163 193 0
163 192 0
160 191 0
163 191 0
162 191 0
162 191 0
160 191 0
164 192 0
155 191 0
157 189 0
159 191 0
159 191 0
155 190 0
155 191 0
156 190 0
157 190 0
165 192 0
158 192 0
154 189 0
157 190 0
157 191 0
159 191 0
159 191 0
158 191 0
152 186 0
157 189 0
158 190 0
153 189 0
156 190 0
160 191 0
148 186 0
152 187 0
152 188 0
156 190 0
155 189 0
157 190 0
152 187 0
153 187 0
147 186 0
153 188 0
158 191 0
155 189 0
152 186 0
153 186 0
162 192 0
160 191 0
149 185 0
158 190 0
151 187 0
159 190 0
147 186 0
149 188 0
157 188 0
142 184 0
154 188 0
155 189 0
148 186 0
142 184 0
148 184 0
154 189 0
152 186 0
148 187 0
147 185 0
140 182 0
157 189 0
153 188 0
145 183 0
149 185 0
148 185 0
145 183 0
154 188 0
155 189 0
148 185 0
143 182 0
150 188 0
143 184 0
145 184 0
145 183 0
134 176 0
133 181 0
134 178 0
146 183 0
141 180 0
139 180 0
133 177 0
139 181 0
143 181 0
132 176 0
133 177 0
144 184 0
134 178 0
142 182 0
134 178 0
132 177 0
135 178 0
142 182 0
133 177 0
146 183 0
138 178 0
127 174 0
142 177 0
142 181 0
139 176 0
139 179 0
133 175 0
126 173 0
129 173 0
134 178 0
140 176 0
134 175 0
143 180 0
129 175 0
149 183 0
135 176 0
127 174 0
141 181 0
128 173 0
138 176 0
132 175 0
135 177 0
128 171 0
133 174 0
126 173 0
127 172 0
130 172 0
132 171 0
126 170 0
128 171 0
129 174 0
132 172 0
135 178 0
127 173 0
139 176 0
129 173 0
125 172 0
141 179 0
130 173 0
135 171 0
142 178 0
128 168 0
132 174 0
135 174 0
125 170 0
133 170 0
139 177 0
126 172 0
131 170 0
133 172 0
133 170 0
137 175 0
129 170 0
139 173 0
128 169 0
136 171 0
142 177 0
134 170 0
136 173 0
128 169 0
134 168 0
145 175 0
136 172 0
151 182 0
140 172 0
134 170 0
130 163 0
133 169 0
135 170 0
143 171 0
140 174 0
143 174 0
136 167 0
139 173 0
149 174 0
142 172 0
136 166 0
140 171 0
140 169 0
136 167 0
137 162 0
147 174 0
130 164 0
150 176 0
140 167 0
140 167 0
144 169 0
139 167 0
148 176 0
148 173 0
135 162 0
143 169 0
141 167 0
140 168 0
137 164 0
138 165 0
133 161 0
138 162 0
138 164 0
141 163 0
142 169 0
138 166 0
140 165 0
142 166 0
138 163 0
142 168 0
142 163 0
138 167 0
139 167 0
151 170 0
139 163 0
133 163 0
138 162 0
128 156 0
137 157 0
146 165 0
143 162 0
127 149 0
134 154 0
139 157 0
140 164 0
138 158 0
147 165 0
143 164 0
141 155 0
145 157 0
146 161 0
142 156 0
150 163 0
145 156 0
144 158 0
147 158 0
143 157 0
145 155 0
148 163 0
129 144 0
145 157 0
141 152 0
141 152 0
140 150 0
146 160 0
147 153 0
138 149 0
130 141 0
146 152 0
148 160 0
148 157 0
145 156 0
141 147 0
150 157 0
142 148 0
142 148 0
142 149 0
145 153 0
144 149 0
144 149 0
139 143 0
146 150 0
143 147 0
144 146 0
140 142 0
141 142 0
145 150 0
146 151 0
144 143 0
140 145 0
150 152 0
147 149 0
146 151 0
148 150 0
150 151 0
151 152 0
141 141 0
147 151 0
147 150 0
138 136 0
142 144 0
151 151 0
151 155 0
150 152 0
148 150 0
152 154 0
155 160 0
146 147 0
152 157 0
150 156 0
145 145 0
152 157 0
151 151 0
152 157 0
150 151 0
153 157 0
157 162 0
154 160 0
152 155 0
158 162 0
153 159 0
158 165 0
161 166 0
148 153 0
156 163 0
150 154 0
158 164 0
157 163 0
158 165 0
159 169 0
159 167 0
160 166 0
161 173 0
159 167 0
161 168 0
156 165 0
159 168 0
159 168 0
164 174 0
163 176 0
165 175 0
166 176 0
173 196 0
172 196 0
173 196 0
172 197 0
169 194 0
171 195 0
169 194 0
170 195 0
169 195 0
173 195 0
172 196 0
172 196 0
171 196 0
171 195 0
169 194 0
174 197 0
174 197 0
171 195 0
174 197 0
171 195 0
174 197 0
171 195 0
173 197 0
172 196 0
170 194 0
170 196 0
177 198 0
168 195 0
169 195 0
172 196 0
172 196 0
169 194 0
174 198 0
171 194 0
170 194 0
174 197 0
170 194 0
171 195 0
173 194 0
171 195 0
170 195 0
171 195 0
169 194 0
173 195 0
170 194 0
173 196 0
169 194 0
171 194 0
169 193 0
169 194 0
169 194 0
171 193 0
170 195 0
160 188 0
171 194 0
170 195 0
169 195 0
169 194 0
167 193 0
171 195 0
170 195 0
171 195 0
165 193 0
168 194 0
164 193 0
163 191 0
166 192 0
166 193 0
168 193 0
167 193 0
165 193 0
169 194 0
162 191 0
165 192 0
166 191 0
165 192 0
159 190 0
167 194 0
165 192 0
160 190 0
162 192 0
162 191 0
164 192 0
160 193 0
166 192 0
160 190 0
164 194 0
161 191 0
160 191 0
160 190 0
160 192 0
163 192 0
161 192 0
163 192 0
158 189 0
162 192 0
160 190 0
157 190 0
161 193 0
156 189 0
153 188 0
159 190 0
158 190 0
158 190 0
154 188 0
152 190 0
160 191 0
151 189 0
159 191 0
151 187 0
156 190 0
157 191 0
167 193 0
157 189 0
158 190 0
159 191 0
156 190 0
157 190 0
154 188 0
154 189 0
156 186 0
162 191 0
152 187 0
149 187 0
156 189 0
153 187 0
141 181 0
154 187 0
153 187 0
151 186 0
150 187 0
152 186 0
154 186 0
154 189 0
148 186 0
158 190 0
154 191 0
149 187 0
151 187 0
152 186 0
148 186 0
154 187 0
151 188 0
140 181 0
151 186 0
153 189 0
150 187 0
148 185 0
146 183 0
138 179 0
150 185 0
143 185 0
141 182 0
138 180 0
144 183 0
143 184 0
153 188 0
142 181 0
143 182 0
141 180 0
141 181 0
139 180 0
147 184 0
142 183 0
147 182 0
148 186 0
147 182 0
140 179 0
128 174 0
146 183 0
141 182 0
144 183 0
138 182 0
137 179 0
136 180 0
136 179 0
141 181 0
139 182 0
137 179 0
133 176 0
139 177 0
133 177 0
132 177 0
138 179 0
139 178 0
133 174 0
136 179 0
134 175 0
129 176 0
141 180 0
149 180 0
134 177 0
129 175 0
133 176 0
140 178 0
137 180 0
136 180 0
128 171 0
137 180 0
137 176 0
135 176 0
143 178 0
132 176 0
141 179 0
129 172 0
136 180 0
134 177 0
137 178 0
135 172 0
125 171 0
126 172 0
128 170 0
130 172 0
141 180 0
133 174 0
140 175 0
132 175 0
129 173 0
139 175 0
141 179 0
132 174 0
133 172 0
133 173 0
139 173 0
137 176 0
136 177 0
134 171 0
138 176 0
140 174 0
130 174 0
127 168 0
140 175 0
133 171 0
139 173 0
134 174 0
140 175 0
142 176 0
138 172 0
127 165 0
137 169 0
140 173 0
140 170 0
130 172 0
133 169 0
140 173 0
137 171 0
139 175 0
134 173 0
137 174 0
143 171 0
140 174 0
143 171 0
136 169 0
140 175 0
143 173 0
145 173 0
124 160 0
146 173 0
136 166 0
138 170 0
145 172 0
136 170 0
143 171 0
138 168 0
141 169 0
144 171 0
143 169 0
150 175 0
140 168 0
143 164 0
138 171 0
147 174 0
142 169 0
143 170 0
139 171 0
133 166 0
136 163 0
144 171 0
147 172 0
146 171 0
135 168 0
147 171 0
143 167 0
144 168 0
139 165 0
145 166 0
143 171 0
149 170 0
141 164 0
137 163 0
144 169 0
136 158 0
136 164 0
135 158 0
136 159 0
139 160 0
146 166 0
137 159 0
143 159 0
136 156 0
150 167 0
140 164 0
146 163 0
140 162 0
139 154 0
133 154 0
133 157 0
140 159 0
153 169 0
145 166 0
138 155 0
146 165 0
144 156 0
148 164 0
137 153 0
144 159 0
141 154 0
142 155 0
139 152 0
145 159 0
134 149 0
138 149 0
148 159 0
147 155 0
149 157 0
149 160 0
144 150 0
138 147 0
146 154 0
144 154 0
144 152 0
142 149 0
142 152 0
137 141 0
139 147 0
136 142 0
148 151 0
140 147 0
138 141 0
148 153 0
144 150 0
148 150 0
141 144 0
146 154 0
146 148 0
139 143 0
145 147 0
145 148 0
143 143 0
143 145 0
149 153 0
140 138 0
141 142 0
148 148 0
151 152 0
148 150 0
148 150 0
152 156 0
144 144 0
147 145 0
146 147 0
148 151 0
151 155 0
152 156 0
146 149 0
152 155 0
153 155 0
151 155 0
153 156 0
155 158 0
155 155 0
151 155 0
151 153 0
155 158 0
153 158 0
156 162 0
153 158 0
156 162 0
155 161 0
150 156 0
151 158 0
154 160 0
157 166 0
160 168 0
159 165 0
156 162 0
154 162 0
160 168 0
164 172 0
162 171 0
161 170 0
161 170 0
164 176 0
161 169 0
162 170 0
163 171 0
162 172 0
162 172 0
159 170 0
162 172 0
172 196 0
173 197 0
173 197 0
172 196 0
172 196 0
171 196 0
173 195 0
174 196 0
175 196 0
172 195 0
174 198 0
172 196 0
174 197 0
174 197 0
174 196 0
171 196 0
172 195 0
173 196 0
173 195 0
171 195 0
172 196 0
172 195 0
173 196 0
173 196 0
168 193 0
172 196 0
173 196 0
171 195 0
172 195 0
169 194 0
168 193 0
169 194 0
174 197 0
170 194 0
168 194 0
171 195 0
171 195 0
172 196 0
172 195 0
175 197 0
172 195 0
169 194 0
171 195 0
170 195 0
173 195 0
172 195 0
169 193 0
172 196 0
171 195 0
165 193 0
171 195 0
169 195 0
170 194 0
168 195 0
170 195 0
167 192 0
166 192 0
162 191 0
169 193 0
167 192 0
170 195 0
165 192 0
162 192 0
169 195 0
164 192 0
165 192 0
170 195 0
170 196 0
162 190 0
160 191 0
167 193 0
165 192 0
166 194 0
164 191 0
161 193 0
163 192 0
165 194 0
159 190 0
162 193 0
168 193 0
161 191 0
163 193 0
161 194 0
164 192 0
160 191 0
163 192 0
158 190 0
162 191 0
159 191 0
163 193 0
161 191 0
153 186 0
156 191 0
159 189 0
160 191 0
156 190 0
157 189 0
151 186 0
160 192 0
157 190 0
154 187 0
155 189 0
162 191 0
162 191 0
157 189 0
151 188 0
158 190 0
152 188 0
156 191 0
153 189 0
153 187 0
158 191 0
153 188 0
155 190 0
155 187 0
154 186 0
159 191 0
159 192 0
149 186 0
152 190 0
155 189 0
154 186 0
147 187 0
160 192 0
151 185 0
152 187 0
149 186 0
155 189 0
153 186 0
148 186 0
148 187 0
158 188 0
153 188 0
155 189 0
147 187 0
154 188 0
152 187 0
146 184 0
151 188 0
151 188 0
151 186 0
150 186 0
149 186 0
155 188 0
154 187 0
156 189 0
146 185 0
145 183 0
155 187 0
148 184 0
149 184 0
148 186 0
144 183 0
150 185 0
143 180 0
136 181 0
143 182 0
136 182 0
148 185 0
146 183 0
151 186 0
145 183 0
141 183 0
128 176 0
140 180 0
135 177 0
141 183 0
148 184 0
150 186 0
147 183 0
147 185 0
143 183 0
129 175 0
144 182 0
141 182 0
130 176 0
140 181 0
133 177 0
142 181 0
140 182 0
143 179 0
133 176 0
144 182 0
146 182 0
138 180 0
137 179 0
149 185 0
130 174 0
137 179 0
139 181 0
140 176 0
147 182 0
134 175 0
137 176 0
130 173 0
139 178 0
129 177 0
136 174 0
136 176 0
141 181 0
139 178 0
144 181 0
134 177 0
141 178 0
135 176 0
133 177 0
142 180 0
143 180 0
141 176 0
136 174 0
133 175 0
136 177 0
134 174 0
125 171 0
138 178 0
128 174 0
130 171 0
131 175 0
137 173 0
130 172 0
136 177 0
130 168 0
133 172 0
136 173 0
139 176 0
134 175 0
136 173 0
146 181 0
138 174 0
138 174 0
130 168 0
143 177 0
133 173 0
134 172 0
134 170 0
142 177 0
141 174 0
137 176 0
130 166 0
148 180 0
138 174 0
129 168 0
141 173 0
142 175 0
141 173 0
138 170 0
136 173 0
137 173 0
142 172 0
133 168 0
148 180 0
141 171 0
139 167 0
141 170 0
146 179 0
138 171 0
140 171 0
142 173 0
142 170 0
143 176 0
145 173 0
142 170 0
142 172 0
137 166 0
143 172 0
137 170 0
141 172 0
137 169 0
141 168 0
148 170 0
132 164 0
147 174 0
141 168 0
145 171 0
150 173 0
139 162 0
146 174 0
140 170 0
139 164 0
141 164 0
146 172 0
136 165 0
141 167 0
144 167 0
145 169 0
146 171 0
137 162 0
151 172 0
139 161 0
142 166 0
150 169 0
138 160 0
144 163 0
142 165 0
146 163 0
144 165 0
139 164 0
140 164 0
143 165 0
147 172 0
147 167 0
139 159 0
147 167 0
151 163 0
140 161 0
138 159 0
154 169 0
149 164 0
143 161 0
141 153 0
148 162 0
150 165 0
145 161 0
140 154 0
146 162 0
144 160 0
153 165 0
140 155 0
134 149 0
140 152 0
139 157 0
149 164 0
138 151 0
145 160 0
146 156 0
147 155 0
141 150 0
137 147 0
144 147 0
145 155 0
136 147 0
138 144 0
145 149 0
147 149 0
146 154 0
147 155 0
148 154 0
142 147 0
145 149 0
148 153 0
141 145 0
142 152 0
153 158 0
146 150 0
146 147 0
145 151 0
144 145 0
140 146 0
140 144 0
149 153 0
144 149 0
143 149 0
142 144 0
147 150 0
142 145 0
149 152 0
146 149 0
145 145 0
158 162 0
146 149 0
149 156 0
154 155 0
146 149 0
145 148 0
147 149 0
148 150 0
153 154 0
152 155 0
153 158 0
155 160 0
154 156 0
149 152 0
154 156 0
153 160 0
154 156 0
158 162 0
155 158 0
157 163 0
153 157 0
153 158 0
154 160 0
161 170 0
156 163 0
155 163 0
156 160 0
158 164 0
152 157 0
163 172 0
156 162 0
160 166 0
161 169 0
166 178 0
158 166 0
162 169 0
164 174 0
162 172 0
158 168 0
163 175 0
163 172 0
159 170 0
175 197 0
172 196 0
172 196 0
172 196 0
171 195 0
172 196 0
171 195 0
174 197 0
173 195 0
173 196 0
171 195 0
173 196 0
171 196 0
168 194 0
172 196 0
171 196 0
170 195 0
175 197 0
171 196 0
167 193 0
169 195 0
170 195 0
172 195 0
171 195 0
172 196 0
168 195 0
170 194 0
169 194 0
171 195 0
171 195 0
170 195 0
168 194 0
171 195 0
173 196 0
172 196 0
170 195 0
169 194 0
168 193 0
168 194 0
170 194 0
169 195 0
168 194 0
173 196 0
169 194 0
170 194 0
173 196 0
173 197 0
169 194 0
164 192 0
168 194 0
167 193 0
170 195 0
169 194 0
162 190 0
166 193 0
170 195 0
170 194 0
167 194 0
168 194 0
167 193 0
165 192 0
168 194 0
171 194 0
168 195 0
168 193 0
165 193 0
164 193 0
169 195 0
162 192 0
166 193 0
164 193 0
157 188 0
161 192 0
161 192 0
165 193 0
161 191 0
159 191 0
164 192 0
157 188 0
164 192 0
162 191 0
162 192 0
162 192 0
164 194 0
163 191 0
162 191 0
164 193 0
161 192 0
159 191 0
166 193 0
155 188 0
158 191 0
162 192 0
159 191 0
159 192 0
158 190 0
158 191 0
161 192 0
153 188 0
159 191 0
156 188 0
158 191 0
153 186 0
163 191 0
159 189 0
163 193 0
164 194 0
160 189 0
163 193 0
146 185 0
156 187 0
155 188 0
157 190 0
154 190 0
155 189 0
157 190 0
153 189 0
156 190 0
153 188 0
152 189 0
155 189 0
156 189 0
152 189 0
154 189 0
154 186 0
157 190 0
149 188 0
157 190 0
154 189 0
147 186 0
151 188 0
158 190 0
149 187 0
151 186 0
149 186 0
153 187 0
152 185 0
150 184 0
152 186 0
157 190 0
144 185 0
156 189 0
160 190 0
143 185 0
145 182 0
156 190 0
148 188 0
145 184 0
139 181 0
160 190 0
153 187 0
153 188 0
145 183 0
146 185 0
138 181 0
153 187 0
139 182 0
145 182 0
148 184 0
141 182 0
144 182 0
146 183 0
146 184 0
152 186 0
146 185 0
138 179 0
149 185 0
146 182 0
142 181 0
140 181 0
138 178 0
141 180 0
147 185 0
142 180 0
139 180 0
136 180 0
142 180 0
137 180 0
137 180 0
143 181 0
139 179 0
143 184 0
143 180 0
136 177 0
136 181 0
134 175 0
134 177 0
143 183 0
131 173 0
143 180 0
137 178 0
135 180 0
134 175 0
137 176 0
134 177 0
137 179 0
136 176 0
139 178 0
140 180 0
134 177 0
136 178 0
136 179 0
126 170 0
140 181 0
132 177 0
140 178 0
128 173 0
143 181 0
134 175 0
136 178 0
127 172 0
132 173 0
136 175 0
131 176 0
136 174 0
141 177 0
137 173 0
128 172 0
126 169 0
136 177 0
136 178 0
134 172 0
142 178 0
139 176 0
139 172 0
127 173 0
148 178 0
130 173 0
141 175 0
134 171 0
134 174 0
138 173 0
142 177 0
139 171 0
141 173 0
121 162 0
146 176 0
140 174 0
145 181 0
139 175 0
141 172 0
138 177 0
142 174 0
138 173 0
141 173 0
136 173 0
142 175 0
137 170 0
135 172 0
139 172 0
151 178 0
132 169 0
140 170 0
135 173 0
138 170 0
144 175 0
139 171 0
140 172 0
144 171 0
149 178 0
142 174 0
140 173 0
134 166 0
138 165 0
147 174 0
137 169 0
134 162 0
145 172 0
139 169 0
145 173 0
140 169 0
146 173 0
145 170 0
142 172 0
142 168 0
150 171 0
141 165 0
144 171 0
137 162 0
148 170 0
141 167 0
143 168 0
141 167 0
150 172 0
147 169 0
148 170 0
150 175 0
144 165 0
139 163 0
142 167 0
137 159 0
142 167 0
146 167 0
142 167 0
143 159 0
145 168 0
141 163 0
138 163 0
148 169 0
149 165 0
139 158 0
150 171 0
143 165 0
153 170 0
147 165 0
132 154 0
147 164 0
146 164 0
140 157 0
142 162 0
140 156 0
147 165 0
139 157 0
137 154 0
149 161 0
142 157 0
143 156 0
143 159 0
143 157 0
150 162 0
139 153 0
143 157 0
149 164 0
146 161 0
148 163 0
145 157 0
144 156 0
147 154 0
141 148 0
149 158 0
148 154 0
151 159 0
150 160 0
136 143 0
142 149 0
139 147 0
141 150 0
147 158 0
149 155 0
150 155 0
148 154 0
147 157 0
145 148 0
144 149 0
139 145 0
143 146 0
149 156 0
141 147 0
153 160 0
142 148 0
145 144 0
151 154 0
147 151 0
148 153 0
145 147 0
144 151 0
148 156 0
148 152 0
152 158 0
144 147 0
150 154 0
147 150 0
147 150 0
148 148 0
148 151 0
156 161 0
150 150 0
148 149 0
157 161 0
158 164 0
148 151 0
147 151 0
155 158 0
158 163 0
157 163 0
153 159 0
155 159 0
157 164 0
159 165 0
155 163 0
159 166 0
157 166 0
158 164 0
152 154 0
155 160 0
154 158 0
159 168 0
158 165 0
157 161 0
158 166 0
161 170 0
162 171 0
159 166 0
160 170 0
163 175 0
164 173 0
160 171 0
161 171 0
157 166 0
163 172 0
171 195 0
172 196 0
171 196 0
173 196 0
173 197 0
174 197 0
171 195 0
171 195 0
173 197 0
173 195 0
169 195 0
170 194 0
175 196 0
170 194 0
172 196 0
172 196 0
166 191 0
171 194 0
171 195 0
171 196 0
174 196 0
173 196 0
169 194 0
172 196 0
169 194 0
166 193 0
170 195 0
166 193 0
172 195 0
169 193 0
174 196 0
172 196 0
170 195 0
171 196 0
170 194 0
173 197 0
168 193 0
172 196 0
172 196 0
167 194 0
168 193 0
169 194 0
173 195 0
169 193 0
171 194 0
172 196 0
170 194 0
165 191 0
167 193 0
168 194 0
169 195 0
165 192 0
166 193 0
165 191 0
171 195 0
166 193 0
170 194 0
168 193 0
166 193 0
164 190 0
162 190 0
169 194 0
165 193 0
167 192 0
171 195 0
165 193 0
163 192 0
165 192 0
165 191 0
166 193 0
161 191 0
159 190 0
166 193 0
165 192 0
161 190 0
164 193 0
167 193 0
163 193 0
162 191 0
160 190 0
160 191 0
165 193 0
163 191 0
159 190 0
159 190 0
158 189 0
161 190 0
159 191 0
155 189 0
162 192 0
160 190 0
154 186 0
160 192 0
165 193 0
146 185 0
160 191 0
153 187 0
152 188 0
150 188 0
158 191 0
164 193 0
162 191 0
164 192 0
151 186 0
158 191 0
157 191 0
152 188 0
154 189 0
152 187 0
161 191 0
154 189 0
162 191 0
159 192 0
153 189 0
155 190 0
151 187 0
158 189 0
147 186 0
158 190 0
157 190 0
160 190 0
154 189 0
153 189 0
152 188 0
156 189 0
156 190 0
155 188 0
152 186 0
158 189 0
154 189 0
151 189 0
154 189 0
153 187 0
153 187 0
150 187 0
144 183 0
144 187 0
147 186 0
149 186 0
154 187 0
157 189 0
153 190 0
150 186 0
147 184 0
149 186 0
153 187 0
150 186 0
147 183 0
148 186 0
147 185 0
148 187 0
148 184 0
148 185 0
148 186 0
145 185 0
146 184 0
150 189 0
137 181 0
152 186 0
146 182 0
154 189 0
149 185 0
148 184 0
145 183 0
149 185 0
143 184 0
147 185 0
139 181 0
142 183 0
145 183 0
141 181 0
141 182 0
146 186 0
144 180 0
144 182 0
145 181 0
143 182 0
142 181 0
140 182 0
141 180 0
141 179 0
148 184 0
143 180 0
142 180 0
139 181 0
128 175 0
141 181 0
137 179 0
139 182 0
136 179 0
145 185 0
142 179 0
137 178 0
135 177 0
142 180 0
139 180 0
135 177 0
130 177 0
134 179 0
136 179 0
132 179 0
136 180 0
139 179 0
139 179 0
139 179 0
139 178 0
133 176 0
142 181 0
136 176 0
135 175 0
134 173 0
137 176 0
139 179 0
143 180 0
146 179 0
127 172 0
134 176 0
129 172 0
130 173 0
130 177 0
143 178 0
138 180 0
144 181 0
138 176 0
137 171 0
138 173 0
137 178 0
136 175 0
140 177 0
131 174 0
136 174 0
132 168 0
139 180 0
146 181 0
135 171 0
141 176 0
135 171 0
145 178 0
139 172 0
137 170 0
143 178 0
136 174 0
144 176 0
143 178 0
143 175 0
141 174 0
135 169 0
147 181 0
144 179 0
146 176 0
147 173 0
142 176 0
145 175 0
148 176 0
148 179 0
141 169 0
137 168 0
149 178 0
143 172 0
141 172 0
151 178 0
142 172 0
141 171 0
142 172 0
142 171 0
145 175 0
140 168 0
138 168 0
141 174 0
134 173 0
140 169 0
141 169 0
140 169 0
143 170 0
141 169 0
141 169 0
139 169 0
144 170 0
146 172 0
143 169 0
138 170 0
135 164 0
151 176 0
142 168 0
138 164 0
141 168 0
139 162 0
139 167 0
147 171 0
136 158 0
139 168 0
138 164 0
139 169 0
151 173 0
147 169 0
138 166 0
138 164 0
141 158 0
149 167 0
144 166 0
146 166 0
144 164 0
143 162 0
141 163 0
144 164 0
152 171 0
148 165 0
144 160 0
140 161 0
149 168 0
144 161 0
139 157 0
143 157 0
145 163 0
146 166 0
145 162 0
145 161 0
141 156 0
144 158 0
146 160 0
148 164 0
150 161 0
138 153 0
141 151 0
144 155 0
150 160 0
145 158 0
150 163 0
141 154 0
145 154 0
142 155 0
153 161 0
148 160 0
140 149 0
148 160 0
144 153 0
146 156 0
143 153 0
155 163 0
151 157 0
146 154 0
143 147 0
147 159 0
150 152 0
144 148 0
144 150 0
146 152 0
149 160 0
147 151 0
150 154 0
152 160 0
145 153 0
149 152 0
149 150 0
146 149 0
148 155 0
148 150 0
147 147 0
148 151 0
152 154 0
149 154 0
149 154 0
147 150 0
153 158 0
152 157 0
148 152 0
153 158 0
152 156 0
150 153 0
154 158 0
143 147 0
148 153 0
154 159 0
153 156 0
152 156 0
152 157 0
150 154 0
152 155 0
153 159 0
157 160 0
154 160 0
160 167 0
157 164 0
155 158 0
158 164 0
156 162 0
156 164 0
156 164 0
154 163 0
160 169 0
158 166 0
161 170 0
167 177 0
163 173 0
157 165 0
159 166 0
158 167 0
157 165 0
157 168 0
161 169 0
170 194 0
175 198 0
173 196 0
172 196 0
171 195 0
173 196 0
168 193 0
175 196 0
174 197 0
173 196 0
173 196 0
170 195 0
173 197 0
171 195 0
174 197 0
171 195 0
169 195 0
171 196 0
170 195 0
170 195 0
170 196 0
169 194 0
170 194 0
173 195 0
175 196 0
169 194 0
171 195 0
172 195 0
168 193 0
171 195 0
172 196 0
172 196 0
169 194 0
170 194 0
169 192 0
173 196 0
173 196 0
170 195 0
169 194 0
172 196 0
171 195 0
168 194 0
165 193 0
172 196 0
170 194 0
171 194 0
168 193 0
170 195 0
166 192 0
169 194 0
166 194 0
168 194 0
170 194 0
167 193 0
163 191 0
165 192 0
169 194 0
168 193 0
169 193 0
167 193 0
161 191 0
168 193 0
166 194 0
165 193 0
167 193 0
158 189 0
171 196 0
161 190 0
164 193 0
164 192 0
161 190 0
163 192 0
168 194 0
164 192 0
161 192 0
168 195 0
161 191 0
158 190 0
156 191 0
165 194 0
157 190 0
166 194 0
162 191 0
159 189 0
169 194 0
161 190 0
159 189 0
155 190 0
162 192 0
156 190 0
157 189 0
164 194 0
160 191 0
165 194 0
153 189 0
161 191 0
160 192 0
153 187 0
154 188 0
156 190 0
159 189 0
158 189 0
159 190 0
161 191 0
155 190 0
158 188 0
153 188 0
155 190 0
154 189 0
155 191 0
152 188 0
160 190 0
157 191 0
162 191 0
156 189 0
161 190 0
152 187 0
152 186 0
152 187 0
151 187 0
157 190 0
161 192 0
158 190 0
158 191 0
160 191 0
156 189 0
148 186 0
157 189 0
156 188 0
155 188 0
154 187 0
149 186 0
151 187 0
149 187 0
150 187 0
151 186 0
153 188 0
154 188 0
151 188 0
154 189 0
140 184 0
154 189 0
152 186 0
154 188 0
155 188 0
146 184 0
147 186 0
150 186 0
144 185 0
141 182 0
148 185 0
151 188 0
155 188 0
153 188 0
153 186 0
149 185 0
147 183 0
146 183 0
140 180 0
146 182 0
145 184 0
147 186 0
142 182 0
147 185 0
150 185 0
144 185 0
139 180 0
149 184 0
148 182 0
147 183 0
141 182 0
144 184 0
143 182 0
149 183 0
140 179 0
138 183 0
139 183 0
144 183 0
142 182 0
144 184 0
136 178 0
141 179 0
134 178 0
147 184 0
147 184 0
142 182 0
137 180 0
142 183 0
141 179 0
134 179 0
138 179 0
134 177 0
142 180 0
145 182 0
139 176 0
142 181 0
141 179 0
132 175 0
137 180 0
139 178 0
137 177 0
126 173 0
141 182 0
140 180 0
134 175 0
137 178 0
135 176 0
145 179 0
136 177 0
139 178 0
137 178 0
136 174 0
130 175 0
142 175 0
148 185 0
145 181 0
136 176 0
140 179 0
129 171 0
135 173 0
134 170 0
141 175 0
133 174 0
143 177 0
145 178 0
145 179 0
143 175 0
143 179 0
136 173 0
124 172 0
139 174 0
139 174 0
141 181 0
137 171 0
135 171 0
143 176 0
137 174 0
136 171 0
140 173 0
143 180 0
139 174 0
129 167 0
137 174 0
142 176 0
138 173 0
153 180 0
146 177 0
146 178 0
145 178 0
142 176 0
147 179 0
142 174 0
147 175 0
144 175 0
148 177 0
133 168 0
145 176 0
143 171 0
148 180 0
148 174 0
142 175 0
135 168 0
131 164 0
143 171 0
144 173 0
137 169 0
147 178 0
145 172 0
135 168 0
132 165 0
139 168 0
143 170 0
142 169 0
146 172 0
137 168 0
143 173 0
138 171 0
146 172 0
150 175 0
151 173 0
143 171 0
148 175 0
142 170 0
144 168 0
144 168 0
143 172 0
143 166 0
146 171 0
147 169 0
142 168 0
141 166 0
141 166 0
146 170 0
139 164 0
146 166 0
151 169 0
139 162 0
145 164 0
142 164 0
145 167 0
147 167 0
145 164 0
145 165 0
147 161 0
151 171 0
137 161 0
150 167 0
149 167 0
145 168 0
150 168 0
145 161 0
150 163 0
145 161 0
150 166 0
148 166 0
140 156 0
151 168 0
139 157 0
144 161 0
150 167 0
139 156 0
146 160 0
140 156 0
142 160 0
143 158 0
151 165 0
148 161 0
146 157 0
142 153 0
155 167 0
148 161 0
152 161 0
152 166 0
152 165 0
151 164 0
147 161 0
149 161 0
149 158 0
139 148 0
148 163 0
150 158 0
142 155 0
150 154 0
145 153 0
150 161 0
146 152 0
152 160 0
150 158 0
150 159 0
139 145 0
147 152 0
155 162 0
150 154 0
151 161 0
150 159 0
148 154 0
143 144 0
148 152 0
149 155 0
148 155 0
150 154 0
146 151 0
149 154 0
149 156 0
153 158 0
157 165 0
153 157 0
151 158 0
150 155 0
147 147 0
153 158 0
152 158 0
152 155 0
150 151 0
159 162 0
154 162 0
158 164 0
152 158 0
152 161 0
157 164 0
155 160 0
153 157 0
156 161 0
155 161 0
154 160 0
158 166 0
160 171 0
152 157 0
156 164 0
157 163 0
159 168 0
162 172 0
166 176 0
157 163 0
161 169 0
159 165 0
159 165 0
165 175 0
157 166 0
158 166 0
172 196 0
172 196 0
171 195 0
171 194 0
172 196 0
170 195 0
172 196 0
169 194 0
172 196 0
174 197 0
169 195 0
171 196 0
172 195 0
173 196 0
171 194 0
172 196 0
169 193 0
172 196 0
172 194 0
170 196 0
173 195 0
170 194 0
173 196 0
176 198 0
170 195 0
174 196 0
172 195 0
170 193 0
172 194 0
172 196 0
173 196 0
171 196 0
170 192 0
169 195 0
170 195 0
169 193 0
174 197 0
168 195 0
169 194 0
171 196 0
169 195 0
165 192 0
173 196 0
171 195 0
167 194 0
169 193 0
168 194 0
169 194 0
167 193 0
167 194 0
164 191 0
171 196 0
169 194 0
164 191 0
162 192 0
162 191 0
166 193 0
171 194 0
167 194 0
167 193 0
167 194 0
165 192 0
166 192 0
161 189 0
161 191 0
169 194 0
167 193 0
162 191 0
166 193 0
165 194 0
164 192 0
161 191 0
162 190 0
162 190 0
166 194 0
158 189 0
165 194 0
163 193 0
161 191 0
164 193 0
160 191 0
166 194 0
161 191 0
164 192 0
165 192 0
161 192 0
161 191 0
163 191 0
165 193 0
161 191 0
160 191 0
157 189 0
154 188 0
159 190 0
161 191 0
161 191 0
160 190 0
159 191 0
160 192 0
158 190 0
159 190 0
152 187 0
163 193 0
166 194 0
159 191 0
158 191 0
156 188 0
164 192 0
154 188 0
157 190 0
154 190 0
160 191 0
157 188 0
153 188 0
156 191 0
155 190 0
149 186 0
148 185 0
157 189 0
164 193 0
155 190 0
158 190 0
152 188 0
155 189 0
153 187 0
150 188 0
149 186 0
150 187 0
153 188 0
148 188 0
146 187 0
149 185 0
147 186 0
152 188 0
153 186 0
150 187 0
154 187 0
158 190 0
148 185 0
154 188 0
151 188 0
150 186 0
150 184 0
153 188 0
158 190 0
145 183 0
149 184 0
152 186 0
145 185 0
151 187 0
152 187 0
152 188 0
152 186 0
144 183 0
150 186 0
149 185 0
148 184 0
145 186 0
146 183 0
146 186 0
143 183 0
145 183 0
143 180 0
143 181 0
151 186 0
154 187 0
140 181 0
144 184 0
145 181 0
142 181 0
143 184 0
141 182 0
142 182 0
142 182 0
131 175 0
145 182 0
138 182 0
149 183 0
133 177 0
142 183 0
138 178 0
142 180 0
144 183 0
148 184 0
143 184 0
141 181 0
142 180 0
145 184 0
144 184 0
133 177 0
142 181 0
142 181 0
142 178 0
145 183 0
142 182 0
150 182 0
135 173 0
143 180 0
139 178 0
146 183 0
134 176 0
149 186 0
139 178 0
139 177 0
139 178 0
132 178 0
143 180 0
138 179 0
137 176 0
131 175 0
140 177 0
145 179 0
144 182 0
146 179 0
140 179 0
137 176 0
149 180 0
144 178 0
144 181 0
140 178 0
134 172 0
136 175 0
136 177 0
141 181 0
131 171 0
140 177 0
144 178 0
137 173 0
143 179 0
141 176 0
143 179 0
142 179 0
137 175 0
153 185 0
138 175 0
144 179 0
140 176 0
136 173 0
140 178 0
138 175 0
146 176 0
139 174 0
142 174 0
140 174 0
141 177 0
147 179 0
136 173 0
140 174 0
142 176 0
138 170 0
139 169 0
142 174 0
150 177 0
144 178 0
148 178 0
147 178 0
140 173 0
137 173 0
142 173 0
150 176 0
140 173 0
146 172 0
140 170 0
147 175 0
143 167 0
143 175 0
140 172 0
145 176 0
139 168 0
146 174 0
143 173 0
146 173 0
142 171 0
140 169 0
144 171 0
143 170 0
138 165 0
146 174 0
146 174 0
143 168 0
145 171 0
154 179 0
148 174 0
152 174 0
142 173 0
140 167 0
146 168 0
144 168 0
144 167 0
150 171 0
140 168 0
144 172 0
146 170 0
147 167 0
147 174 0
143 167 0
152 173 0
146 167 0
142 164 0
140 164 0
147 169 0
143 170 0
144 164 0
145 162 0
144 167 0
144 168 0
152 173 0
148 163 0
149 168 0
142 160 0
149 165 0
152 172 0
146 167 0
146 166 0
144 162 0
152 170 0
145 166 0
147 164 0
142 158 0
151 165 0
150 166 0
143 162 0
146 160 0
147 158 0
151 167 0
143 157 0
153 168 0
142 157 0
150 165 0
154 166 0
146 155 0
145 162 0
149 164 0
149 164 0
145 159 0
141 153 0
145 156 0
144 156 0
148 158 0
146 158 0
153 164 0
154 164 0
144 154 0
148 157 0
154 162 0
150 156 0
149 154 0
156 165 0
152 161 0
148 159 0
147 152 0
151 157 0
144 152 0
149 157 0
157 166 0
150 159 0
152 154 0
156 162 0
147 153 0
152 160 0
150 156 0
154 162 0
144 151 0
152 161 0
144 147 0
154 159 0
149 152 0
151 157 0
152 157 0
155 160 0
153 158 0
155 161 0
152 156 0
154 157 0
155 160 0
154 160 0
156 159 0
153 158 0
158 164 0
158 163 0
152 157 0
155 162 0
160 168 0
159 167 0
159 164 0
157 164 0
159 166 0
152 159 0
161 171 0
160 168 0
164 173 0
157 164 0
160 167 0
155 162 0
158 167 0
158 165 0
158 166 0
160 167 0
164 173 0
162 173 0
170 195 0
171 196 0
170 195 0
173 196 0
173 196 0
170 193 0
173 197 0
170 194 0
172 195 0
172 196 0
170 195 0
170 195 0
173 197 0
169 194 0
171 195 0
170 195 0
171 196 0
174 197 0
170 195 0
169 194 0
169 193 0
177 198 0
167 193 0
171 195 0
168 194 0
167 193 0
171 195 0
169 193 0
170 196 0
173 196 0
168 194 0
170 196 0
172 195 0
171 195 0
170 194 0
170 195 0
169 194 0
169 193 0
164 192 0
168 194 0
166 193 0
166 192 0
169 193 0
169 194 0
173 196 0
168 193 0
166 192 0
168 194 0
169 194 0
170 195 0
167 194 0
169 193 0
164 193 0
170 195 0
167 195 0
160 190 0
167 193 0
167 192 0
166 193 0
160 191 0
163 193 0
165 192 0
165 195 0
161 191 0
163 193 0
168 194 0
158 191 0
160 189 0
161 191 0
164 192 0
165 193 0
168 193 0
162 192 0
168 195 0
164 193 0
161 191 0
164 192 0
157 189 0
160 190 0
168 193 0
161 191 0
166 195 0
162 192 0
163 193 0
159 189 0
165 192 0
162 191 0
159 189 0
158 190 0
161 192 0
161 192 0
157 188 0
162 191 0
162 191 0
161 191 0
162 191 0
160 190 0
156 189 0
161 192 0
163 193 0
158 190 0
157 190 0
158 190 0
158 192 0
154 189 0
156 189 0
156 189 0
156 189 0
156 190 0
152 187 0
157 189 0
154 188 0
156 188 0
160 190 0
157 190 0
157 189 0
154 188 0
156 189 0
151 187 0
153 190 0
157 192 0
155 187 0
153 189 0
146 186 0
162 191 0
157 189 0
155 189 0
155 189 0
151 186 0
152 190 0
149 186 0
153 189 0
163 191 0
152 187 0
154 190 0
154 186 0
150 188 0
151 186 0
157 190 0
149 186 0
150 186 0
143 184 0
151 188 0
143 181 0
159 192 0
146 185 0
143 182 0
141 183 0
153 187 0
146 183 0
144 184 0
153 188 0
154 187 0
152 187 0
151 187 0
142 179 0
149 186 0
144 180 0
141 180 0
157 188 0
151 184 0
147 185 0
154 188 0
139 180 0
146 185 0
148 184 0
141 184 0
146 183 0
145 181 0
142 181 0
146 181 0
140 181 0
147 184 0
142 180 0
136 181 0
145 183 0
142 182 0
152 185 0
149 185 0
141 182 0
142 181 0
146 183 0
146 181 0
141 181 0
141 181 0
134 175 0
143 179 0
142 180 0
147 184 0
140 181 0
136 178 0
137 178 0
147 183 0
139 180 0
145 182 0
139 181 0
145 184 0
141 179 0
143 179 0
140 179 0
151 187 0
140 179 0
145 182 0
142 183 0
136 177 0
144 177 0
145 183 0
147 182 0
137 177 0
122 172 0
139 174 0
152 184 0
137 175 0
142 180 0
139 178 0
149 182 0
143 179 0
135 176 0
127 174 0
140 178 0
150 180 0
134 171 0
130 171 0
132 175 0
132 174 0
150 181 0
140 175 0
140 177 0
150 180 0
132 172 0
143 180 0
144 177 0
137 171 0
139 178 0
144 181 0
140 175 0
146 177 0
146 179 0
133 173 0
142 178 0
135 171 0
142 178 0
141 175 0
142 173 0
141 175 0
139 173 0
146 175 0
135 172 0
151 177 0
134 171 0
140 175 0
138 172 0
136 169 0
151 181 0
148 180 0
139 174 0
142 173 0
136 172 0
140 174 0
139 172 0
145 175 0
150 177 0
155 179 0
140 174 0
143 175 0
151 173 0
144 169 0
144 174 0
135 171 0
141 170 0
153 178 0
142 176 0
148 175 0
142 170 0
146 178 0
150 176 0
145 170 0
135 166 0
145 175 0
144 170 0
146 171 0
145 173 0
143 172 0
140 174 0
146 166 0
148 171 0
143 168 0
147 175 0
147 172 0
148 172 0
138 166 0
146 168 0
147 174 0
143 164 0
136 166 0
141 161 0
140 166 0
134 159 0
145 166 0
144 165 0
145 166 0
147 166 0
147 165 0
141 168 0
141 161 0
137 160 0
147 168 0
152 174 0
148 165 0
145 164 0
146 165 0
146 163 0
142 163 0
147 164 0
145 161 0
146 163 0
148 164 0
138 159 0
142 159 0
146 164 0
147 164 0
141 160 0
149 160 0
152 163 0
144 160 0
147 161 0
144 158 0
145 160 0
152 169 0
148 159 0
149 161 0
153 164 0
151 164 0
141 153 0
151 161 0
148 161 0
142 149 0
144 154 0
149 156 0
143 149 0
155 164 0
152 161 0
152 162 0
150 159 0
150 163 0
146 159 0
150 156 0
149 157 0
151 158 0
145 154 0
150 161 0
154 159 0
152 160 0
157 167 0
148 156 0
151 156 0
154 160 0
151 157 0
149 157 0
146 153 0
141 147 0
150 159 0
146 154 0
154 161 0
153 161 0
153 159 0
149 154 0
151 157 0
148 153 0
149 152 0
155 162 0
152 159 0
147 151 0
149 151 0
156 163 0
154 160 0
156 162 0
157 164 0
153 161 0
153 160 0
152 161 0
155 162 0
150 152 0
153 160 0
157 164 0
154 163 0
161 169 0
160 166 0
156 162 0
162 171 0
160 169 0
155 162 0
162 168 0
158 167 0
154 158 0
160 167 0
155 160 0
160 170 0
160 170 0
158 165 0
172 196 0
173 196 0
173 196 0
173 197 0
171 195 0
166 193 0
171 195 0
173 197 0
171 196 0
171 195 0
175 197 0
173 196 0
171 195 0
173 197 0
172 196 0
170 193 0
168 195 0
171 195 0
172 197 0
174 197 0
172 195 0
170 195 0
169 194 0
172 195 0
173 196 0
171 195 0
172 196 0
171 195 0
167 193 0
169 194 0
171 194 0
171 194 0
169 194 0
170 195 0
170 195 0
168 194 0
169 195 0
164 192 0
168 194 0
168 194 0
164 191 0
169 195 0
170 194 0
169 193 0
170 195 0
166 193 0
168 194 0
167 195 0
168 194 0
166 193 0
163 191 0
173 196 0
167 194 0
169 194 0
168 195 0
163 191 0
168 195 0
167 194 0
171 195 0
169 196 0
163 193 0
163 191 0
163 192 0
158 190 0
166 195 0
156 189 0
170 194 0
166 193 0
163 191 0
164 193 0
160 190 0
167 194 0
159 192 0
160 190 0
166 193 0
161 192 0
164 191 0
158 189 0
161 191 0
160 189 0
158 191 0
160 190 0
168 195 0
165 194 0
158 190 0
165 194 0
162 193 0
164 193 0
160 191 0
160 191 0
161 191 0
159 191 0
157 190 0
157 190 0
153 190 0
159 190 0
160 191 0
161 193 0
157 190 0
160 190 0
155 190 0
158 190 0
160 193 0
156 188 0
161 192 0
153 190 0
157 188 0
167 193 0
156 190 0
162 192 0
154 188 0
156 190 0
161 192 0
157 189 0
156 190 0
154 189 0
151 187 0
158 189 0
160 191 0
159 190 0
157 187 0
154 188 0
159 190 0
154 188 0
156 189 0
149 186 0
157 190 0
150 188 0
150 187 0
143 185 0
153 188 0
151 185 0
152 187 0
155 189 0
152 187 0
155 188 0
154 188 0
151 188 0
154 188 0
146 185 0
147 187 0
152 188 0
153 187 0
147 185 0
149 186 0
140 183 0
153 185 0
147 186 0
152 188 0
155 188 0
154 188 0
145 184 0
147 184 0
149 185 0
154 188 0
151 185 0
150 185 0
155 190 0
154 189 0
150 185 0
142 183 0
154 187 0
145 185 0
145 183 0
147 186 0
138 181 0
144 184 0
148 187 0
131 176 0
144 182 0
149 185 0
150 187 0
136 181 0
141 183 0
143 184 0
144 183 0
148 182 0
138 179 0
143 182 0
143 181 0
143 182 0
148 185 0
148 183 0
145 183 0
142 179 0
142 184 0
139 178 0
149 184 0
135 178 0
134 176 0
137 181 0
134 177 0
141 177 0
142 180 0
142 179 0
146 184 0
147 182 0
142 182 0
142 180 0
135 176 0
134 175 0
130 176 0
135 177 0
141 182 0
141 177 0
137 178 0
143 178 0
140 181 0
138 176 0
136 177 0
144 181 0
138 178 0
147 179 0
131 178 0
136 174 0
140 178 0
136 179 0
138 177 0
141 177 0
150 182 0
147 181 0
135 177 0
132 173 0
142 177 0
130 169 0
150 183 0
141 177 0
145 180 0
146 182 0
146 180 0
140 175 0
135 178 0
138 175 0
144 177 0
141 179 0
142 179 0
128 170 0
140 176 0
137 170 0
142 178 0
135 171 0
143 178 0
146 180 0
146 177 0
130 170 0
143 178 0
147 176 0
145 177 0
139 174 0
143 177 0
139 173 0
140 176 0
143 178 0
138 172 0
150 177 0
147 179 0
142 174 0
145 175 0
142 173 0
142 178 0
148 177 0
142 174 0
144 174 0
152 180 0
148 173 0
150 179 0
141 172 0
144 170 0
147 175 0
144 172 0
146 174 0
144 170 0
152 178 0
140 171 0
143 175 0
143 172 0
152 177 0
140 169 0
136 167 0
145 173 0
149 175 0
141 171 0
146 173 0
145 172 0
142 170 0
146 171 0
154 179 0
151 173 0
145 172 0
146 171 0
144 169 0
156 177 0
153 178 0
148 175 0
142 167 0
149 171 0
145 167 0
145 173 0
143 166 0
148 169 0
145 170 0
143 165 0
144 165 0
145 167 0
153 170 0
147 170 0
149 168 0
146 167 0
142 165 0
142 163 0
143 163 0
139 162 0
148 169 0
150 170 0
152 168 0
139 161 0
151 167 0
141 165 0
147 164 0
147 168 0
143 161 0
152 167 0
141 160 0
143 161 0
147 163 0
146 162 0
150 164 0
141 158 0
145 162 0
147 158 0
148 160 0
153 167 0
149 162 0
152 162 0
153 162 0
146 154 0
144 158 0
150 159 0
147 159 0
149 161 0
155 166 0
153 167 0
154 166 0
154 165 0
152 161 0
150 158 0
155 167 0
155 163 0
148 159 0
149 157 0
149 158 0
153 161 0
151 157 0
148 153 0
154 163 0
149 157 0
155 164 0
153 160 0
145 151 0
147 150 0
157 163 0
150 153 0
147 152 0
147 151 0
152 157 0
151 158 0
156 166 0
151 159 0
149 155 0
150 155 0
153 161 0
154 160 0
152 157 0
151 156 0
152 158 0
158 166 0
157 162 0
155 163 0
156 161 0
155 159 0
155 161 0
161 169 0
156 162 0
157 166 0
158 166 0
159 166 0
157 166 0
156 162 0
158 168 0
160 169 0
159 165 0
161 171 0
161 169 0
159 170 0
156 165 0
161 170 0
162 173 0
159 167 0
158 168 0
157 166 0
176 198 0
172 195 0
174 197 0
171 195 0
171 195 0
169 194 0
171 195 0
171 195 0
169 193 0
172 195 0
171 196 0
168 194 0
170 195 0
168 193 0
171 196 0
173 197 0
169 194 0
170 194 0
169 195 0
172 195 0
170 194 0
168 194 0
173 197 0
169 194 0
172 196 0
173 196 0
167 194 0
165 193 0
171 196 0
171 195 0
165 192 0
172 195 0
167 193 0
168 194 0
169 193 0
169 196 0
166 193 0
170 195 0
169 195 0
171 195 0
172 196 0
163 192 0
169 193 0
169 194 0
163 194 0
167 194 0
164 193 0
166 194 0
165 194 0
166 193 0
167 193 0
164 192 0
163 192 0
164 193 0
167 195 0
169 194 0
166 193 0
163 191 0
161 190 0
165 194 0
167 193 0
165 194 0
166 193 0
165 193 0
161 190 0
162 192 0
166 193 0
162 190 0
164 193 0
165 193 0
162 192 0
164 193 0
163 192 0
163 192 0
165 193 0
160 190 0
158 189 0
166 193 0
162 191 0
160 189 0
166 193 0
159 191 0
166 193 0
157 190 0
159 190 0
167 194 0
160 192 0
159 191 0
165 193 0
161 192 0
158 191 0
158 189 0
151 187 0
158 190 0
161 191 0
160 190 0
164 193 0
161 190 0
159 190 0
156 190 0
157 190 0
157 190 0
152 188 0
155 189 0
161 190 0
156 189 0
154 188 0
162 193 0
159 191 0
160 190 0
158 191 0
160 190 0
161 190 0
160 191 0
163 192 0
159 191 0
148 187 0
152 188 0
155 188 0
159 191 0
158 190 0
156 189 0
154 189 0
150 186 0
161 192 0
156 189 0
155 189 0
152 187 0
159 189 0
149 187 0
156 190 0
154 188 0
151 187 0
148 187 0
146 187 0
148 185 0
150 186 0
151 188 0
160 190 0
154 189 0
151 187 0
151 187 0
144 184 0
149 187 0
146 185 0
144 186 0
146 184 0
147 186 0
152 186 0
145 185 0
148 186 0
150 186 0
143 182 0
145 184 0
150 187 0
154 187 0
144 182 0
141 181 0
139 182 0
151 185 0
135 178 0
147 183 0
143 185 0
144 182 0
140 182 0
145 185 0
149 186 0
144 181 0
141 182 0
152 186 0
147 185 0
142 183 0
147 184 0
145 182 0
146 182 0
154 189 0
136 175 0
144 182 0
146 182 0
149 186 0
138 178 0
147 184 0
136 179 0
137 181 0
144 182 0
145 183 0
150 184 0
146 183 0
145 182 0
142 182 0
147 184 0
142 184 0
150 184 0
148 185 0
139 180 0
143 181 0
136 180 0
145 182 0
143 179 0
146 181 0
140 178 0
144 182 0
131 174 0
146 183 0
131 178 0
151 186 0
145 181 0
138 179 0
138 176 0
145 181 0
142 180 0
142 179 0
141 179 0
138 179 0
138 178 0
140 176 0
137 176 0
141 178 0
137 176 0
139 178 0
143 178 0
144 179 0
145 179 0
146 179 0
143 179 0
144 179 0
140 178 0
145 181 0
148 184 0
147 178 0
140 172 0
138 176 0
140 177 0
151 181 0
141 176 0
144 176 0
141 181 0
139 176 0
137 177 0
140 178 0
154 184 0
154 180 0
149 179 0
146 176 0
141 172 0
152 180 0
139 175 0
147 177 0
149 179 0
148 177 0
132 174 0
151 179 0
142 172 0
139 175 0
139 173 0
145 174 0
143 171 0
152 181 0
144 175 0
150 178 0
146 176 0
138 169 0
146 176 0
143 175 0
143 176 0
147 176 0
142 176 0
147 178 0
148 171 0
144 174 0
149 177 0
144 174 0
140 171 0
147 176 0
152 177 0
144 174 0
150 175 0
149 174 0
150 176 0
150 176 0
146 174 0
132 161 0
149 177 0
149 177 0
154 175 0
144 170 0
144 170 0
140 164 0
151 173 0
143 167 0
141 167 0
147 172 0
143 171 0
148 174 0
141 164 0
148 171 0
144 166 0
146 171 0
150 173 0
143 167 0
148 171 0
142 165 0
148 173 0
140 164 0
142 164 0
142 166 0
146 167 0
144 170 0
151 166 0
151 171 0
146 169 0
146 168 0
141 163 0
154 174 0
148 170 0
141 162 0
142 160 0
157 174 0
142 161 0
157 173 0
148 165 0
148 166 0
139 161 0
147 165 0
145 162 0
152 168 0
152 168 0
153 167 0
150 164 0
150 163 0
153 165 0
146 160 0
142 158 0
145 161 0
147 165 0
147 160 0
141 154 0
146 156 0
151 163 0
152 162 0
151 161 0
144 158 0
148 158 0
152 163 0
150 161 0
149 159 0
147 155 0
149 157 0
148 160 0
155 164 0
154 164 0
146 158 0
146 150 0
151 161 0
145 156 0
153 164 0
147 153 0
155 165 0
152 161 0
148 155 0
158 168 0
149 156 0
149 156 0
153 159 0
155 163 0
157 165 0
159 165 0
152 157 0
150 155 0
152 157 0
153 159 0
154 163 0
156 162 0
154 159 0
155 164 0
156 162 0
155 160 0
156 165 0
156 164 0
152 159 0
159 167 0
156 163 0
155 162 0
159 168 0
151 155 0
156 163 0
156 163 0
156 163 0
155 160 0
159 168 0
162 172 0
157 167 0
159 165 0
158 168 0
159 169 0
153 159 0
158 165 0
156 164 0
164 173 0
164 174 0
171 196 0
171 196 0
170 194 0
172 196 0
169 195 0
173 196 0
171 194 0
171 196 0
171 195 0
172 195 0
170 195 0
171 196 0
169 194 0
165 192 0
170 195 0
170 195 0
172 196 0
171 195 0
170 194 0
175 197 0
173 197 0
171 194 0
172 196 0
170 194 0
170 194 0
169 195 0
168 193 0
166 193 0
169 194 0
173 196 0
166 192 0
173 197 0
164 191 0
173 195 0
167 193 0
168 194 0
171 195 0
166 193 0
167 194 0
167 193 0
169 194 0
169 195 0
168 195 0
163 190 0
164 193 0
169 194 0
174 196 0
168 193 0
168 193 0
163 191 0
168 194 0
167 194 0
165 192 0
164 192 0
166 193 0
167 194 0
169 195 0
162 191 0
166 193 0
164 192 0
162 192 0
162 191 0
161 190 0
167 194 0
167 194 0
165 193 0
166 194 0
168 193 0
159 190 0
165 192 0
167 194 0
161 190 0
162 192 0
164 192 0
165 193 0
158 191 0
157 189 0
162 191 0
160 190 0
164 193 0
161 191 0
162 192 0
151 187 0
155 190 0
161 193 0
158 191 0
158 188 0
162 192 0
163 191 0
155 191 0
161 192 0
158 191 0
160 191 0
162 192 0
160 190 0
157 191 0
153 189 0
161 191 0
159 190 0
154 189 0
165 194 0
160 191 0
162 193 0
167 194 0
162 192 0
160 191 0
155 189 0
163 192 0
162 191 0
157 189 0
157 188 0
154 190 0
161 192 0
159 191 0
161 192 0
158 191 0
153 188 0
161 192 0
157 191 0
159 192 0
151 188 0
159 190 0
150 186 0
156 189 0
157 191 0
158 190 0
155 191 0
154 187 0
159 191 0
154 189 0
152 186 0
148 187 0
154 187 0
151 187 0
151 186 0
154 187 0
155 188 0
161 191 0
145 185 0
147 185 0
158 191 0
153 188 0
152 188 0
152 187 0
146 184 0
145 182 0
153 189 0
150 187 0
151 186 0
154 187 0
151 186 0
148 185 0
146 183 0
151 186 0
145 180 0
148 186 0
152 186 0
144 181 0
144 182 0
145 182 0
148 185 0
158 190 0
144 182 0
142 184 0
152 189 0
143 183 0
145 182 0
140 181 0
148 187 0
152 187 0
151 184 0
142 183 0
139 181 0
151 187 0
140 182 0
147 186 0
143 182 0
147 184 0
149 184 0
141 180 0
142 181 0
139 180 0
139 181 0
142 180 0
147 185 0
149 184 0
148 182 0
150 184 0
146 182 0
137 179 0
138 179 0
143 180 0
141 182 0
138 176 0
145 183 0
142 180 0
142 182 0
137 177 0
137 179 0
144 180 0
139 181 0
149 184 0
145 182 0
141 181 0
146 182 0
140 177 0
140 179 0
136 177 0
138 179 0
134 173 0
141 177 0
141 181 0
145 182 0
147 179 0
133 174 0
137 177 0
142 179 0
144 180 0
137 178 0
136 178 0
144 178 0
143 181 0
150 182 0
145 175 0
137 179 0
146 181 0
141 174 0
150 183 0
142 182 0
141 176 0
141 178 0
145 178 0
142 178 0
139 175 0
139 175 0
150 180 0
140 177 0
143 176 0
143 178 0
146 181 0
140 176 0
138 172 0
137 174 0
142 178 0
139 175 0
144 174 0
141 177 0
150 181 0
139 176 0
143 178 0
146 179 0
141 177 0
141 176 0
140 177 0
146 176 0
139 173 0
142 175 0
147 176 0
144 175 0
154 184 0
145 173 0
143 176 0
147 177 0
147 175 0
151 181 0
138 172 0
143 176 0
145 173 0
145 177 0
142 170 0
141 172 0
143 174 0
149 176 0
151 179 0
147 173 0
145 171 0
147 175 0
151 178 0
142 171 0
154 175 0
145 174 0
144 176 0
146 174 0
142 173 0
146 172 0
146 174 0
141 167 0
152 174 0
141 170 0
144 172 0
149 173 0
146 172 0
138 164 0
146 169 0
148 173 0
148 169 0
149 173 0
147 169 0
150 169 0
148 171 0
146 170 0
147 168 0
144 167 0
148 170 0
145 167 0
153 173 0
146 170 0
146 167 0
148 168 0
151 170 0
147 169 0
148 171 0
144 171 0
142 165 0
145 165 0
151 169 0
144 166 0
144 164 0
153 171 0
157 174 0
143 164 0
153 168 0
149 163 0
145 163 0
146 161 0
157 171 0
141 158 0
144 163 0
153 168 0
153 169 0
142 157 0
155 170 0
146 160 0
146 160 0
153 167 0
141 156 0
151 162 0
149 161 0
143 155 0
151 162 0
154 165 0
146 161 0
146 162 0
150 162 0
151 163 0
147 154 0
148 163 0
152 164 0
152 164 0
146 157 0
154 167 0
154 165 0
148 158 0
150 164 0
145 152 0
158 170 0
152 164 0
153 164 0
150 158 0
160 169 0
152 162 0
155 167 0
156 163 0
149 158 0
151 160 0
150 161 0
153 161 0
157 165 0
143 152 0
154 166 0
157 163 0
157 163 0
153 161 0
158 165 0
156 163 0
155 162 0
157 166 0
156 163 0
157 166 0
154 163 0
154 160 0
157 166 0
155 163 0
158 166 0
155 162 0
156 164 0
153 161 0
162 173 0
154 161 0
158 167 0
155 166 0
156 166 0
161 171 0
161 171 0
159 169 0
157 167 0
163 171 0
153 160 0
162 172 0
160 168 0
171 195 0
170 196 0
170 194 0
168 194 0
171 195 0
174 196 0
176 198 0
167 193 0
168 194 0
174 196 0
173 196 0
172 196 0
172 196 0
171 196 0
169 195 0
169 194 0
171 195 0
171 194 0
171 196 0
166 192 0
172 196 0
166 193 0
168 194 0
171 194 0
169 194 0
171 195 0
170 195 0
169 195 0
171 195 0
172 196 0
166 194 0
165 192 0
167 194 0
171 195 0
166 193 0
169 195 0
165 193 0
165 192 0
166 192 0
168 194 0
165 193 0
169 195 0
167 192 0
169 194 0
168 194 0
169 195 0
168 192 0
166 193 0
159 190 0
164 192 0
168 194 0
164 191 0
169 194 0
168 194 0
164 191 0
162 192 0
165 193 0
162 192 0
164 192 0
162 192 0
161 191 0
170 194 0
164 192 0
162 192 0
166 192 0
166 193 0
161 192 0
164 191 0
164 190 0
166 194 0
158 190 0
164 192 0
162 192 0
160 192 0
155 189 0
158 191 0
161 191 0
165 192 0
165 192 0
164 193 0
161 191 0
162 193 0
166 194 0
169 195 0
155 189 0
163 192 0
165 192 0
162 191 0
164 192 0
165 194 0
150 188 0
160 191 0
158 189 0
157 190 0
163 192 0
159 191 0
154 188 0
163 193 0
155 190 0
162 192 0
154 188 0
152 186 0
160 191 0
155 190 0
153 187 0
153 187 0
156 189 0
154 189 0
161 192 0
155 189 0
163 193 0
157 190 0
159 191 0
151 187 0
154 187 0
156 190 0
159 190 0
159 191 0
158 190 0
156 188 0
157 189 0
158 189 0
158 190 0
152 187 0
152 186 0
161 192 0
156 189 0
161 190 0
154 188 0
152 186 0
151 187 0
152 186 0
155 189 0
153 189 0
159 189 0
153 188 0
157 191 0
153 186 0
156 189 0
145 183 0
155 188 0
151 186 0
151 187 0
154 188 0
151 187 0
154 186 0
150 187 0
157 189 0
155 188 0
148 184 0
145 184 0
153 187 0
148 187 0
157 190 0
149 185 0
151 186 0
158 189 0
157 189 0
149 185 0
138 183 0
146 185 0
147 185 0
151 186 0
150 185 0
149 185 0
142 183 0
151 186 0
151 187 0
151 185 0
152 185 0
146 183 0
150 185 0
152 186 0
151 185 0
146 182 0
151 185 0
153 187 0
147 185 0
150 184 0
147 186 0
152 185 0
149 184 0
138 180 0
151 187 0
147 181 0
147 184 0
139 180 0
142 182 0
139 180 0
145 179 0
144 182 0
148 183 0
141 178 0
137 176 0
149 184 0
144 182 0
147 183 0
137 177 0
149 182 0
150 181 0
153 186 0
151 186 0
139 179 0
140 181 0
129 175 0
141 182 0
145 181 0
144 181 0
142 183 0
149 185 0
142 180 0
139 178 0
146 183 0
143 181 0
145 178 0
139 177 0
137 179 0
141 181 0
136 173 0
141 176 0
142 178 0
138 176 0
137 176 0
140 177 0
135 176 0
139 178 0
141 177 0
140 177 0
136 174 0
136 174 0
145 180 0
137 174 0
139 176 0
147 180 0
147 183 0
142 175 0
142 176 0
147 181 0
139 175 0
145 179 0
140 177 0
139 175 0
148 179 0
151 182 0
152 183 0
146 176 0
147 180 0
152 181 0
143 178 0
141 176 0
146 177 0
150 180 0
147 179 0
146 178 0
139 174 0
143 175 0
143 176 0
143 176 0
143 178 0
147 179 0
149 176 0
134 172 0
151 179 0
142 177 0
144 173 0
144 175 0
151 178 0
151 177 0
151 177 0
142 172 0
142 172 0
146 175 0
147 172 0
147 173 0
144 172 0
148 178 0
147 175 0
152 179 0
141 173 0
154 179 0
146 175 0
151 179 0
150 174 0
151 177 0
145 173 0
145 172 0
148 173 0
149 174 0
147 174 0
154 178 0
144 167 0
143 169 0
151 174 0
146 172 0
149 173 0
142 165 0
146 169 0
144 168 0
150 176 0
150 176 0
146 165 0
148 172 0
148 170 0
146 163 0
148 168 0
147 166 0
144 166 0
151 172 0
153 171 0
150 168 0
147 163 0
146 169 0
148 169 0
152 170 0
151 171 0
152 173 0
149 170 0
146 165 0
151 170 0
149 166 0
147 167 0
145 164 0
147 165 0
158 172 0
151 165 0
143 158 0
146 164 0
152 168 0
153 166 0
154 169 0
151 167 0
146 165 0
147 159 0
149 163 0
149 165 0
152 166 0
150 166 0
153 166 0
144 160 0
150 162 0
146 165 0
150 164 0
156 167 0
149 161 0
150 163 0
151 163 0
152 167 0
147 158 0
146 157 0
153 166 0
148 159 0
148 155 0
146 156 0
150 162 0
153 166 0
153 164 0
150 159 0
154 165 0
153 164 0
153 164 0
148 161 0
151 163 0
154 162 0
156 164 0
155 164 0
153 160 0
154 163 0
154 161 0
157 165 0
154 162 0
157 164 0
152 157 0
156 167 0
155 163 0
158 169 0
154 162 0
154 162 0
156 165 0
156 162 0
156 165 0
160 170 0
153 159 0
156 161 0
154 159 0
158 166 0
154 161 0
155 161 0
157 167 0
157 165 0
161 171 0
155 164 0
158 167 0
158 166 0
156 167 0
158 167 0
161 169 0
162 172 0
161 168 0
157 165 0
161 170 0
169 194 0
173 196 0
169 195 0
171 195 0
168 195 0
172 195 0
171 194 0
173 196 0
171 196 0
171 196 0
167 192 0
171 195 0
174 198 0
172 195 0
170 194 0
166 193 0
171 196 0
164 190 0
170 194 0
168 193 0
171 195 0
168 193 0
172 195 0
171 194 0
167 194 0
171 195 0
170 195 0
169 193 0
167 192 0
167 194 0
171 196 0
169 194 0
168 193 0
172 196 0
161 190 0
172 195 0
170 194 0
164 192 0
168 194 0
165 193 0
164 191 0
167 194 0
170 195 0
162 191 0
170 195 0
167 193 0
167 194 0
164 193 0
172 195 0
164 192 0
164 192 0
169 195 0
162 191 0
162 190 0
167 194 0
166 193 0
164 192 0
160 191 0
166 193 0
163 191 0
166 194 0
164 192 0
168 194 0
161 190 0
165 193 0
162 191 0
161 191 0
161 191 0
163 193 0
161 191 0
164 193 0
164 192 0
163 192 0
165 192 0
161 191 0
157 189 0
161 192 0
162 191 0
163 191 0
163 193 0
157 191 0
154 190 0
164 194 0
156 189 0
162 193 0
167 194 0
161 192 0
161 192 0
157 190 0
164 194 0
161 191 0
163 193 0
158 190 0
157 189 0
159 190 0
158 191 0
159 190 0
161 192 0
160 189 0
159 191 0
157 189 0
160 191 0
153 187 0
156 190 0
159 191 0
153 187 0
156 189 0
159 190 0
156 190 0
153 189 0
154 188 0
155 189 0
161 191 0
157 190 0
158 190 0
157 190 0
153 188 0
158 191 0
153 188 0
159 190 0
160 191 0
150 186 0
153 189 0
151 189 0
157 189 0
156 188 0
155 189 0
157 189 0
147 185 0
155 189 0
155 186 0
162 192 0
153 189 0
154 188 0
150 187 0
148 184 0
154 188 0
150 185 0
158 190 0
154 188 0
155 189 0
149 185 0
158 189 0
158 191 0
156 187 0
154 188 0
151 188 0
147 185 0
150 185 0
148 183 0
159 189 0
153 188 0
149 185 0
157 188 0
145 185 0
154 187 0
145 185 0
151 184 0
143 185 0
139 183 0
152 187 0
146 185 0
146 185 0
144 182 0
143 184 0
153 188 0
154 184 0
147 184 0
155 187 0
152 185 0
146 184 0
153 187 0
144 184 0
145 184 0
139 181 0
149 183 0
153 187 0
147 185 0
144 182 0
147 184 0
145 184 0
154 189 0
145 182 0
154 189 0
151 187 0
140 181 0
140 178 0
152 185 0
133 176 0
146 183 0
140 180 0
147 184 0
154 184 0
146 182 0
149 186 0
143 181 0
148 182 0
144 183 0
148 181 0
138 178 0
140 182 0
144 179 0
145 181 0
136 178 0
148 184 0
137 176 0
146 181 0
143 178 0
145 181 0
145 180 0
140 179 0
144 180 0
140 179 0
134 175 0
141 177 0
146 185 0
137 178 0
144 181 0
134 173 0
141 179 0
144 180 0
134 177 0
142 181 0
146 179 0
147 181 0
144 178 0
145 178 0
149 181 0
139 175 0
144 179 0
145 176 0
135 175 0
141 177 0
144 180 0
139 178 0
142 175 0
145 178 0
134 172 0
148 181 0
142 176 0
142 177 0
138 174 0
150 180 0
152 180 0
143 177 0
149 181 0
152 182 0
145 178 0
144 177 0
137 171 0
145 179 0
141 177 0
145 177 0
137 172 0
139 173 0
145 176 0
154 182 0
149 178 0
149 175 0
140 174 0
149 178 0
148 177 0
153 181 0
146 175 0
150 177 0
144 175 0
143 175 0
148 176 0
145 173 0
138 172 0
147 178 0
145 178 0
143 177 0
147 172 0
145 171 0
152 181 0
154 178 0
145 174 0
155 179 0
147 175 0
147 172 0
145 173 0
146 172 0
153 178 0
146 175 0
145 173 0
151 177 0
149 174 0
149 174 0
149 176 0
146 170 0
150 172 0
152 174 0
145 168 0
155 181 0
147 168 0
145 174 0
148 172 0
149 177 0
141 164 0
147 176 0
151 174 0
149 168 0
151 169 0
137 164 0
144 167 0
152 171 0
147 169 0
155 173 0
149 168 0
154 174 0
151 170 0
153 171 0
153 173 0
153 171 0
154 171 0
144 164 0
149 171 0
143 163 0
148 166 0
147 162 0
150 169 0
150 171 0
151 169 0
150 168 0
149 164 0
148 165 0
150 170 0
152 167 0
147 165 0
145 161 0
141 161 0
149 166 0
147 163 0
155 169 0
148 161 0
150 167 0
149 166 0
148 165 0
152 168 0
147 163 0
148 164 0
154 173 0
152 163 0
152 163 0
155 170 0
149 159 0
153 165 0
158 170 0
146 157 0
153 164 0
149 162 0
155 165 0
153 165 0
152 164 0
155 164 0
157 166 0
152 165 0
148 160 0
150 160 0
156 165 0
150 160 0
153 162 0
156 167 0
151 158 0
153 163 0
153 166 0
156 165 0
150 158 0
157 165 0
152 161 0
156 166 0
152 159 0
154 163 0
157 164 0
153 165 0
151 161 0
155 164 0
156 165 0
149 156 0
160 171 0
156 160 0
154 162 0
154 164 0
161 172 0
158 167 0
155 164 0
159 166 0
159 169 0
154 163 0
154 164 0
158 165 0
158 167 0
158 167 0
160 169 0
160 168 0
162 172 0
164 174 0
165 176 0
152 156 0
170 194 0
173 196 0
171 196 0
170 195 0
174 197 0
169 194 0
170 195 0
173 196 0
172 196 0
168 194 0
169 193 0
168 193 0
171 195 0
170 195 0
168 193 0
171 195 0
171 195 0
170 195 0
170 194 0
170 195 0
168 194 0
172 195 0
169 194 0
173 196 0
173 196 0
167 193 0
163 191 0
167 193 0
168 193 0
166 193 0
167 193 0
170 194 0
168 194 0
165 193 0
170 195 0
165 192 0
164 192 0
167 194 0
168 194 0
168 194 0
162 191 0
172 195 0
168 195 0
165 191 0
169 195 0
170 195 0
163 191 0
163 192 0
168 194 0
165 193 0
167 193 0
164 194 0
160 191 0
162 191 0
163 193 0
166 194 0
171 195 0
161 193 0
165 193 0
160 191 0
167 194 0
167 193 0
164 192 0
159 191 0
161 192 0
168 194 0
164 192 0
164 192 0
157 190 0
165 193 0
160 191 0
158 191 0
160 190 0
166 192 0
161 190 0
164 194 0
163 192 0
163 191 0
163 192 0
158 190 0
163 193 0
164 193 0
165 194 0
160 191 0
160 191 0
161 192 0
157 189 0
160 191 0
163 192 0
163 192 0
159 191 0
157 191 0
168 195 0
161 191 0
158 191 0
156 189 0
159 190 0
155 188 0
160 191 0
157 191 0
158 191 0
164 192 0
161 192 0
158 191 0
155 186 0
153 189 0
154 188 0
153 188 0
153 187 0
161 190 0
157 189 0
159 190 0
161 191 0
160 191 0
161 192 0
150 188 0
150 185 0
160 191 0
150 187 0
153 186 0
158 190 0
154 189 0
144 184 0
154 187 0
158 189 0
161 192 0
150 188 0
155 189 0
157 191 0
156 190 0
140 183 0
155 188 0
153 188 0
152 187 0
153 188 0
152 188 0
151 186 0
153 187 0
159 190 0
155 189 0
141 185 0
152 186 0
160 190 0
153 188 0
154 185 0
157 187 0
152 188 0
147 186 0
155 189 0
149 185 0
151 188 0
158 190 0
146 184 0
151 184 0
147 184 0
146 183 0
149 186 0
153 188 0
155 188 0
151 187 0
151 187 0
148 187 0
145 183 0
146 183 0
154 188 0
151 186 0
142 181 0
155 189 0
152 186 0
151 185 0
147 184 0
151 188 0
146 185 0
150 186 0
153 186 0
144 182 0
147 184 0
142 181 0
145 184 0
141 180 0
142 180 0
148 186 0
151 187 0
144 182 0
143 182 0
141 181 0
154 185 0
145 181 0
151 186 0
142 180 0
156 185 0
140 179 0
141 181 0
139 182 0
147 182 0
144 182 0
149 184 0
151 182 0
146 181 0
143 180 0
143 182 0
149 183 0
140 178 0
148 182 0
142 178 0
144 180 0
146 180 0
143 182 0
150 184 0
145 182 0
145 181 0
146 180 0
148 181 0
146 181 0
143 183 0
135 174 0
142 180 0
137 177 0
142 178 0
146 182 0
155 186 0
137 177 0
141 175 0
139 176 0
141 178 0
139 177 0
143 177 0
134 172 0
150 180 0
143 176 0
148 182 0
145 177 0
134 173 0
147 182 0
147 183 0
149 177 0
138 175 0
145 176 0
139 178 0
140 174 0
150 179 0
146 179 0
144 175 0
147 182 0
142 177 0
145 178 0
147 180 0
143 179 0
152 182 0
142 177 0
152 180 0
149 178 0
148 174 0
141 176 0
149 179 0
151 182 0
143 174 0
144 176 0
143 176 0
151 179 0
145 176 0
144 176 0
151 178 0
152 181 0
144 177 0
144 172 0
146 178 0
148 177 0
149 176 0
149 178 0
146 173 0
144 174 0
143 175 0
147 173 0
153 176 0
150 178 0
140 171 0
146 173 0
158 184 0
143 171 0
141 170 0
154 176 0
146 174 0
152 178 0
143 171 0
153 175 0
154 178 0
150 173 0
153 182 0
156 180 0
148 174 0
146 173 0
146 171 0
148 172 0
145 167 0
150 173 0
151 174 0
140 169 0
143 172 0
146 171 0
150 172 0
154 179 0
153 174 0
149 169 0
149 176 0
151 172 0
152 178 0
148 172 0
147 165 0
151 177 0
157 176 0
142 164 0
148 168 0
147 169 0
146 167 0
146 164 0
147 169 0
149 167 0
144 163 0
143 165 0
159 177 0
145 170 0
150 169 0
156 176 0
155 172 0
147 166 0
153 171 0
151 168 0
150 169 0
151 168 0
151 168 0
146 166 0
150 167 0
149 164 0
152 168 0
151 169 0
151 166 0
152 169 0
154 168 0
153 165 0
149 162 0
152 167 0
151 167 0
154 168 0
154 170 0
151 172 0
148 164 0
154 168 0
154 164 0
154 168 0
153 167 0
151 163 0
153 165 0
151 164 0
157 168 0
155 168 0
151 165 0
152 166 0
154 164 0
158 172 0
149 159 0
151 161 0
151 163 0
144 155 0
155 167 0
156 167 0
153 163 0
158 167 0
158 165 0
151 162 0
149 158 0
151 158 0
153 161 0
155 167 0
161 171 0
153 163 0
152 160 0
156 165 0
162 172 0
155 163 0
155 162 0
157 168 0
155 164 0
155 163 0
156 164 0
161 171 0
155 163 0
158 171 0
155 160 0
161 174 0
158 166 0
158 167 0
161 171 0
156 163 0
162 172 0
160 167 0
158 166 0
160 168 0
162 172 0
154 160 0
174 197 0
175 198 0
171 195 0
169 195 0
172 195 0
170 194 0
171 196 0
169 194 0
169 194 0
172 196 0
174 198 0
171 195 0
173 197 0
169 194 0
172 196 0
168 192 0
172 197 0
173 195 0
167 193 0
169 194 0
170 196 0
169 193 0
171 194 0
168 194 0
166 192 0
169 193 0
170 195 0
171 195 0
168 194 0
172 196 0
168 193 0
169 195 0
167 194 0
165 191 0
163 191 0
168 194 0
164 192 0
166 193 0
170 196 0
165 193 0
167 194 0
169 194 0
167 194 0
165 193 0
171 196 0
169 195 0
158 189 0
166 193 0
164 193 0
168 195 0
165 193 0
164 192 0
168 194 0
163 193 0
167 194 0
165 193 0
160 191 0
160 191 0
164 193 0
166 194 0
160 191 0
164 193 0
166 194 0
163 192 0
161 191 0
160 192 0
156 190 0
169 195 0
162 191 0
161 191 0
161 192 0
162 191 0
163 193 0
163 193 0
156 189 0
163 192 0
163 193 0
164 193 0
162 191 0
163 192 0
162 191 0
154 188 0
163 192 0
164 193 0
160 191 0
162 192 0
162 192 0
158 190 0
167 194 0
161 190 0
162 193 0
159 189 0
153 188 0
163 194 0
160 191 0
155 190 0
160 191 0
155 189 0
159 191 0
162 191 0
161 192 0
161 192 0
162 192 0
155 188 0
163 192 0
161 192 0
160 190 0
153 188 0
156 190 0
159 192 0
156 189 0
155 190 0
153 186 0
163 191 0
159 190 0
156 190 0
161 191 0
161 191 0
158 190 0
161 192 0
156 188 0
159 190 0
153 190 0
155 188 0
161 192 0
161 191 0
154 189 0
157 190 0
161 191 0
156 189 0
154 189 0
159 191 0
145 185 0
152 186 0
154 187 0
155 190 0
149 185 0
148 185 0
150 187 0
157 190 0
148 184 0
154 187 0
150 185 0
159 190 0
149 185 0
154 188 0
151 185 0
147 184 0
150 186 0
157 190 0
148 184 0
152 186 0
154 187 0
151 186 0
150 187 0
149 188 0
150 186 0
141 183 0
149 184 0
145 184 0
150 185 0
153 189 0
150 186 0
150 186 0
153 185 0
150 182 0
152 184 0
143 182 0
139 181 0
142 180 0
149 184 0
149 185 0
139 181 0
147 184 0
145 184 0
137 177 0
148 183 0
148 183 0
146 183 0
150 185 0
147 183 0
145 185 0
157 188 0
148 183 0
150 183 0
149 184 0
139 179 0
156 187 0
151 185 0
147 184 0
151 185 0
144 183 0
146 183 0
142 180 0
145 182 0
152 186 0
145 183 0
148 184 0
143 182 0
145 180 0
143 180 0
146 185 0
151 183 0
140 179 0
144 183 0
146 182 0
149 183 0
141 180 0
139 180 0
142 179 0
148 182 0
144 179 0
140 178 0
148 181 0
142 182 0
143 179 0
142 180 0
143 179 0
137 175 0
149 183 0
138 176 0
147 181 0
147 184 0
150 185 0
145 180 0
135 176 0
146 180 0
147 178 0
145 178 0
148 181 0
146 181 0
136 175 0
147 179 0
141 181 0
137 175 0
141 178 0
142 177 0
150 182 0
138 177 0
141 175 0
146 181 0
142 179 0
149 182 0
149 181 0
148 179 0
141 175 0
146 181 0
151 179 0
148 181 0
143 176 0
148 181 0
146 177 0
147 178 0
141 178 0
147 175 0
146 179 0
151 179 0
150 179 0
144 177 0
141 172 0
142 177 0
140 173 0
137 175 0
152 180 0
152 179 0
146 176 0
145 174 0
146 179 0
143 173 0
140 170 0
147 177 0
143 174 0
151 174 0
148 174 0
153 177 0
152 179 0
147 174 0
148 174 0
150 178 0
148 176 0
150 176 0
148 174 0
144 175 0
148 179 0
143 170 0
145 171 0
146 173 0
148 172 0
145 173 0
138 169 0
152 176 0
143 167 0
148 169 0
154 177 0
150 177 0
148 174 0
150 169 0
152 176 0
149 174 0
145 169 0
154 178 0
153 178 0
159 182 0
147 174 0
146 169 0
151 176 0
138 161 0
150 172 0
145 170 0
154 175 0
152 172 0
152 175 0
150 170 0
148 170 0
145 169 0
145 168 0
150 169 0
147 168 0
157 176 0
152 170 0
154 173 0
147 165 0
145 165 0
150 171 0
150 171 0
148 167 0
143 165 0
156 172 0
150 167 0
145 162 0
147 164 0
153 170 0
152 173 0
152 173 0
149 167 0
156 171 0
149 165 0
146 167 0
155 170 0
154 165 0
150 166 0
148 165 0
151 169 0
155 171 0
149 163 0
155 170 0
152 165 0
150 163 0
156 166 0
148 160 0
149 165 0
155 168 0
151 164 0
152 167 0
152 165 0
157 170 0
152 161 0
153 164 0
153 165 0
159 170 0
155 165 0
157 167 0
152 163 0
154 164 0
152 162 0
154 165 0
146 158 0
149 160 0
150 163 0
160 171 0
153 159 0
153 162 0
157 167 0
157 166 0
154 166 0
156 165 0
155 164 0
152 161 0
153 163 0
162 172 0
159 168 0
160 173 0
154 163 0
156 164 0
155 160 0
160 172 0
158 169 0
155 165 0
161 174 0
154 162 0
157 167 0
160 170 0
161 171 0
162 172 0
155 161 0
157 167 0
155 161 0
157 166 0
160 171 0
160 172 0
172 196 0
174 197 0
173 196 0
170 194 0
170 194 0
170 194 0
169 194 0
171 194 0
172 195 0
172 196 0
170 194 0
169 194 0
169 195 0
167 194 0
171 195 0
171 195 0
173 196 0
170 195 0
170 195 0
166 194 0
170 194 0
166 193 0
173 196 0
169 194 0
170 195 0
165 192 0
173 196 0
173 197 0
165 193 0
168 193 0
171 195 0
167 194 0
169 195 0
166 192 0
168 195 0
168 193 0
168 195 0
165 194 0
163 190 0
163 193 0
168 194 0
161 191 0
167 194 0
167 194 0
164 192 0
164 193 0
169 194 0
167 195 0
160 191 0
168 193 0
166 194 0
164 192 0
154 188 0
163 192 0
159 189 0
164 193 0
161 189 0
164 192 0
161 191 0
163 192 0
167 192 0
165 193 0
154 189 0
169 194 0
162 194 0
161 191 0
157 190 0
164 192 0
160 191 0
167 193 0
164 193 0
164 194 0
164 194 0
165 194 0
164 193 0
161 191 0
165 193 0
166 193 0
162 191 0
162 192 0
163 192 0
163 193 0
160 191 0
164 193 0
160 191 0
159 191 0
162 192 0
153 190 0
162 192 0
168 195 0
159 192 0
163 191 0
157 190 0
162 192 0
153 189 0
160 191 0
160 191 0
155 190 0
158 189 0
162 192 0
160 191 0
156 189 0
164 192 0
161 193 0
155 189 0
154 188 0
155 190 0
157 189 0
161 191 0
159 188 0
156 189 0
165 193 0
163 192 0
155 189 0
158 189 0
163 191 0
156 189 0
162 191 0
158 189 0
155 189 0
149 186 0
156 190 0
163 193 0
156 187 0
152 186 0
158 189 0
153 189 0
159 189 0
154 189 0
162 191 0
155 188 0
153 187 0
153 187 0
152 188 0
156 188 0
151 187 0
149 187 0
145 186 0
157 187 0
155 188 0
161 189 0
155 189 0
162 191 0
154 187 0
154 186 0
153 187 0
157 189 0
154 189 0
150 187 0
155 188 0
143 183 0
153 185 0
159 188 0
155 188 0
156 188 0
148 184 0
145 184 0
147 182 0
156 188 0
146 185 0
155 188 0
149 186 0
157 189 0
149 186 0
156 189 0
153 187 0
146 185 0
147 185 0
150 184 0
154 188 0
151 185 0
139 182 0
144 183 0
155 188 0
148 185 0
146 186 0
152 186 0
144 181 0
148 184 0
149 185 0
152 185 0
146 181 0
147 182 0
144 180 0
143 181 0
140 182 0
152 185 0
141 181 0
147 182 0
152 184 0
149 185 0
141 181 0
152 186 0
147 182 0
143 182 0
143 181 0
138 181 0
146 180 0
145 182 0
133 176 0
146 179 0
143 181 0
154 188 0
143 180 0
145 181 0
145 181 0
144 178 0
151 186 0
152 184 0
144 182 0
143 181 0
151 180 0
144 183 0
134 179 0
151 183 0
144 180 0
141 179 0
146 184 0
134 174 0
150 184 0
143 179 0
141 174 0
150 182 0
151 184 0
144 178 0
149 183 0
138 177 0
147 180 0
146 179 0
152 183 0
143 178 0
144 181 0
146 179 0
146 181 0
148 180 0
149 180 0
145 182 0
151 183 0
144 179 0
150 182 0
144 178 0
151 180 0
143 177 0
146 178 0
154 181 0
148 182 0
152 179 0
145 173 0
143 178 0
150 181 0
150 179 0
152 176 0
147 178 0
143 174 0
146 176 0
149 178 0
140 172 0
151 180 0
141 176 0
146 177 0
145 177 0
152 183 0
144 176 0
151 180 0
146 174 0
148 175 0
143 173 0
140 173 0
151 178 0
145 175 0
148 178 0
142 175 0
149 176 0
151 179 0
137 170 0
143 176 0
146 171 0
148 180 0
146 175 0
148 173 0
146 173 0
151 177 0
150 176 0
149 175 0
149 178 0
146 174 0
144 175 0
153 175 0
148 175 0
146 175 0
145 177 0
147 180 0
148 175 0
148 173 0
154 177 0
151 175 0
156 177 0
145 172 0
146 170 0
148 169 0
150 176 0
153 176 0
150 172 0
146 170 0
143 171 0
146 171 0
152 173 0
147 168 0
145 172 0
155 172 0
156 178 0
152 173 0
146 168 0
150 171 0
145 168 0
155 179 0
150 174 0
149 168 0
153 173 0
149 168 0
145 165 0
144 161 0
152 173 0
148 173 0
145 166 0
158 176 0
148 170 0
142 162 0
154 172 0
152 169 0
154 174 0
162 177 0
150 165 0
154 170 0
151 168 0
154 172 0
154 169 0
146 163 0
154 174 0
148 169 0
151 163 0
146 165 0
152 166 0
156 173 0
151 169 0
152 167 0
153 171 0
153 167 0
153 168 0
149 168 0
150 163 0
153 164 0
154 168 0
150 161 0
160 176 0
155 171 0
157 169 0
157 171 0
151 164 0
158 171 0
155 164 0
156 171 0
155 166 0
151 166 0
156 172 0
155 165 0
149 161 0
154 166 0
156 168 0
157 165 0
151 160 0
151 158 0
148 159 0
155 167 0
153 161 0
156 167 0
156 167 0
157 169 0
160 168 0
152 165 0
153 164 0
159 168 0
154 164 0
154 164 0
159 168 0
153 160 0
158 169 0
164 175 0
155 164 0
162 172 0
161 167 0
166 179 0
164 173 0
157 169 0
160 170 0
160 169 0
161 172 0
156 163 0
161 172 0
160 170 0
175 197 0
170 194 0
167 193 0
174 197 0
170 194 0
172 196 0
169 194 0
167 194 0
170 194 0
170 194 0
166 193 0
167 193 0
170 196 0
172 196 0
169 194 0
174 197 0
170 194 0
170 195 0
171 195 0
164 192 0
165 193 0
165 194 0
169 193 0
168 194 0
171 195 0
171 195 0
168 194 0
165 194 0
169 195 0
165 192 0
164 192 0
167 193 0
170 194 0
169 194 0
166 194 0
166 193 0
166 193 0
165 191 0
168 195 0
164 192 0
161 191 0
164 193 0
166 193 0
163 192 0
168 194 0
163 193 0
166 193 0
170 196 0
166 193 0
169 195 0
157 188 0
163 191 0
165 192 0
167 195 0
169 196 0
163 192 0
161 193 0
164 193 0
162 190 0
159 191 0
166 194 0
163 192 0
163 192 0
169 195 0
164 192 0
167 193 0
164 193 0
162 192 0
165 193 0
161 191 0
159 190 0
160 191 0
156 187 0
163 192 0
160 192 0
162 192 0
161 190 0
153 188 0
163 192 0
162 193 0
160 191 0
165 193 0
155 190 0
164 191 0
159 190 0
161 191 0
162 192 0
163 193 0
158 191 0
157 190 0
152 189 0
165 193 0
162 192 0
158 191 0
157 190 0
155 188 0
161 190 0
156 190 0
160 191 0
156 189 0
159 190 0
161 191 0
158 190 0
158 190 0
164 192 0
156 187 0
156 190 0
160 191 0
162 192 0
162 192 0
160 191 0
161 192 0
163 193 0
159 189 0
162 192 0
162 192 0
153 188 0
156 190 0
155 188 0
159 190 0
161 191 0
161 193 0
161 192 0
148 187 0
158 189 0
155 189 0
158 191 0
150 188 0
159 191 0
157 189 0
160 191 0
150 189 0
152 187 0
153 187 0
161 191 0
150 186 0
158 190 0
150 188 0
154 189 0
154 188 0
158 189 0
152 187 0
142 182 0
150 185 0
157 189 0
149 186 0
155 188 0
149 186 0
145 184 0
153 188 0
150 186 0
153 190 0
154 187 0
149 186 0
153 188 0
151 187 0
154 188 0
148 186 0
158 189 0
144 184 0
145 184 0
147 184 0
153 186 0
141 182 0
152 187 0
144 183 0
148 185 0
153 189 0
149 186 0
145 184 0
143 183 0
149 185 0
144 184 0
144 182 0
149 186 0
154 187 0
146 185 0
142 179 0
156 188 0
150 186 0
145 183 0
149 187 0
145 182 0
144 183 0
147 184 0
145 184 0
143 183 0
149 184 0
143 181 0
150 184 0
139 181 0
152 183 0
146 184 0
150 184 0
143 181 0
139 180 0
140 178 0
145 181 0
141 179 0
142 182 0
149 184 0
144 180 0
146 183 0
136 179 0
136 178 0
144 181 0
146 184 0
147 183 0
138 179 0
151 183 0
144 180 0
151 185 0
145 183 0
140 178 0
136 174 0
145 179 0
142 179 0
144 180 0
149 178 0
153 184 0
146 180 0
136 175 0
140 178 0
145 181 0
136 177 0
145 182 0
140 177 0
150 183 0
139 178 0
138 177 0
139 172 0
142 175 0
153 182 0
147 180 0
143 179 0
150 182 0
142 179 0
160 188 0
150 182 0
149 182 0
147 180 0
149 183 0
152 183 0
153 184 0
151 182 0
141 176 0
151 181 0
145 179 0
146 176 0
151 183 0
146 177 0
154 180 0
150 181 0
141 172 0
141 176 0
142 175 0
145 176 0
141 172 0
143 175 0
150 181 0
146 175 0
149 177 0
141 174 0
143 171 0
154 183 0
150 179 0
144 171 0
142 171 0
152 179 0
150 178 0
149 175 0
141 175 0
150 180 0
152 179 0
151 179 0
145 174 0
157 183 0
148 177 0
152 178 0
145 173 0
154 181 0
145 174 0
133 172 0
152 176 0
153 177 0
156 183 0
154 178 0
148 177 0
147 175 0
152 174 0
147 173 0
151 176 0
150 178 0
151 176 0
148 173 0
153 177 0
150 175 0
151 175 0
145 172 0
146 170 0
146 171 0
143 168 0
152 174 0
144 171 0
153 177 0
153 172 0
152 175 0
151 174 0
148 169 0
157 177 0
145 169 0
151 174 0
146 170 0
153 176 0
151 174 0
154 173 0
146 168 0
155 173 0
152 172 0
153 174 0
152 175 0
152 170 0
154 171 0
152 171 0
146 167 0
147 170 0
151 173 0
145 164 0
153 171 0
144 166 0
147 167 0
148 164 0
148 167 0
150 169 0
149 167 0
153 171 0
152 168 0
157 173 0
149 167 0
155 172 0
146 162 0
153 169 0
157 174 0
151 166 0
158 170 0
146 165 0
147 167 0
153 167 0
148 156 0
150 164 0
152 167 0
156 173 0
149 160 0
151 167 0
154 170 0
158 169 0
155 168 0
155 170 0
154 166 0
149 162 0
154 167 0
151 163 0
159 173 0
155 168 0
161 171 0
151 167 0
154 166 0
160 171 0
154 166 0
156 170 0
156 168 0
159 172 0
151 159 0
148 159 0
156 165 0
155 165 0
158 168 0
153 163 0
157 167 0
155 166 0
157 166 0
152 162 0
160 171 0
158 168 0
160 172 0
158 169 0
155 162 0
155 167 0
161 171 0
159 170 0
153 162 0
154 166 0
151 157 0
160 170 0
161 170 0
161 172 0
159 171 0
159 171 0
152 160 0
159 165 0
172 195 0
167 193 0
167 194 0
167 194 0
165 191 0
172 196 0
170 195 0
168 193 0
169 194 0
170 196 0
166 191 0
171 195 0
169 194 0
166 194 0
167 193 0
169 194 0
168 194 0
169 194 0
167 193 0
167 193 0
165 193 0
173 196 0
168 194 0
167 192 0
167 192 0
172 196 0
165 193 0
172 196 0
166 194 0
169 195 0
171 195 0
168 194 0
163 193 0
167 193 0
170 196 0
168 195 0
165 193 0
165 193 0
168 194 0
163 192 0
163 191 0
168 194 0
161 192 0
166 194 0
164 191 0
168 194 0
164 192 0
169 194 0
162 192 0
169 195 0
164 193 0
164 192 0
162 192 0
166 191 0
162 192 0
159 189 0
163 193 0
164 194 0
165 193 0
164 192 0
162 191 0
164 193 0
162 193 0
162 192 0
164 192 0
163 191 0
155 190 0
163 192 0
166 193 0
161 192 0
164 193 0
163 193 0
162 192 0
169 195 0
165 192 0
161 193 0
166 193 0
160 192 0
160 191 0
159 190 0
159 191 0
167 195 0
158 188 0
165 192 0
158 189 0
153 186 0
156 190 0
157 191 0
151 189 0
162 191 0
156 190 0
163 192 0
169 194 0
159 190 0
155 189 0
156 190 0
159 191 0
161 191 0
159 191 0
158 190 0
156 190 0
161 191 0
157 190 0
162 193 0
155 188 0
161 190 0
159 189 0
154 187 0
158 190 0
150 186 0
162 192 0
161 191 0
159 191 0
154 190 0
161 192 0
162 192 0
160 190 0
157 191 0
160 190 0
152 188 0
153 188 0
155 189 0
158 190 0
157 191 0
158 190 0
156 189 0
156 189 0
156 186 0
154 188 0
157 190 0
155 187 0
152 191 0
150 189 0
147 184 0
156 189 0
146 186 0
152 187 0
154 188 0
154 187 0
147 185 0
156 187 0
153 187 0
152 187 0
156 189 0
157 188 0
151 187 0
164 192 0
146 186 0
153 188 0
150 187 0
156 190 0
163 192 0
156 188 0
155 190 0
149 185 0
152 186 0
153 188 0
147 185 0
152 186 0
144 184 0
149 187 0
149 185 0
153 186 0
141 183 0
152 189 0
155 189 0
144 182 0
146 183 0
150 185 0
146 184 0
158 189 0
147 182 0
151 187 0
152 185 0
142 182 0
147 184 0
152 185 0
143 181 0
145 183 0
146 184 0
150 185 0
155 188 0
147 184 0
151 186 0
143 181 0
144 180 0
139 178 0
148 181 0
150 182 0
142 179 0
150 185 0
139 178 0
155 187 0
149 184 0
145 183 0
142 182 0
147 185 0
150 184 0
144 182 0
147 185 0
136 178 0
149 183 0
151 188 0
146 184 0
150 185 0
143 181 0
150 184 0
147 185 0
144 183 0
144 179 0
150 183 0
137 178 0
148 182 0
148 183 0
138 176 0
147 185 0
151 185 0
141 178 0
150 183 0
147 183 0
141 176 0
143 179 0
147 179 0
138 181 0
143 180 0
152 187 0
153 184 0
138 177 0
138 174 0
151 182 0
145 180 0
148 184 0
140 179 0
141 176 0
144 179 0
150 181 0
137 175 0
148 182 0
147 180 0
145 178 0
148 180 0
144 178 0
150 182 0
135 172 0
138 174 0
149 180 0
146 180 0
145 178 0
145 179 0
148 181 0
142 179 0
147 179 0
141 176 0
138 176 0
145 176 0
146 182 0
143 174 0
146 175 0
142 177 0
142 178 0
151 182 0
146 176 0
147 175 0
140 175 0
144 178 0
142 174 0
144 177 0
154 178 0
157 184 0
151 180 0
150 179 0
151 180 0
154 180 0
151 178 0
147 179 0
153 180 0
153 180 0
145 174 0
145 177 0
148 177 0
152 179 0
154 181 0
152 176 0
146 175 0
151 175 0
152 179 0
148 175 0
152 179 0
148 172 0
150 175 0
148 174 0
153 180 0
153 178 0
152 178 0
154 176 0
155 176 0
152 175 0
145 172 0
149 176 0
152 179 0
143 169 0
145 172 0
147 170 0
152 173 0
149 173 0
143 169 0
147 169 0
154 176 0
155 179 0
149 173 0
150 173 0
149 172 0
146 169 0
156 175 0
151 171 0
149 172 0
148 174 0
150 172 0
148 172 0
153 174 0
149 169 0
155 176 0
155 177 0
149 169 0
145 166 0
149 170 0
150 171 0
155 171 0
148 167 0
150 167 0
151 170 0
153 172 0
153 171 0
155 174 0
148 165 0
154 174 0
154 171 0
154 172 0
152 163 0
153 169 0
153 171 0
153 168 0
144 166 0
148 166 0
152 166 0
155 169 0
152 167 0
158 173 0
151 171 0
155 170 0
156 170 0
154 171 0
153 167 0
154 168 0
157 174 0
160 177 0
156 167 0
156 169 0
153 165 0
160 172 0
152 163 0
154 167 0
159 175 0
157 171 0
155 167 0
157 168 0
156 167 0
156 169 0
154 164 0
161 174 0
158 169 0
158 167 0
156 165 0
153 166 0
152 162 0
158 168 0
157 169 0
160 173 0
159 171 0
156 167 0
155 167 0
155 164 0
155 165 0
155 169 0
156 169 0
160 173 0
155 162 0
156 167 0
163 174 0
163 172 0
159 169 0
159 168 0
159 168 0
158 170 0
163 174 0
159 171 0
158 167 0
159 171 0
160 172 0
157 166 0
169 194 0
172 195 0
168 193 0
172 196 0
168 193 0
164 192 0
169 195 0
168 195 0
170 194 0
171 196 0
169 194 0
171 195 0
167 194 0
171 196 0
170 195 0
166 194 0
167 194 0
169 194 0
166 194 0
170 195 0
172 196 0
167 194 0
163 191 0
168 195 0
169 195 0
165 193 0
165 192 0
167 195 0
167 193 0
166 192 0
167 194 0
163 191 0
164 193 0
171 195 0
165 191 0
165 193 0
168 194 0
167 194 0
172 196 0
165 194 0
164 193 0
167 194 0
166 193 0
169 194 0
164 192 0
165 193 0
166 193 0
164 192 0
167 194 0
170 195 0
166 192 0
165 193 0
166 194 0
164 192 0
165 194 0
167 195 0
162 191 0
169 194 0
168 194 0
167 194 0
157 191 0
160 192 0
157 189 0
164 191 0
164 193 0
160 192 0
165 193 0
161 193 0
164 194 0
161 192 0
168 194 0
165 193 0
162 192 0
164 191 0
164 192 0
158 189 0
164 192 0
166 194 0
161 191 0
162 192 0
162 190 0
164 193 0
156 189 0
157 190 0
165 192 0
155 189 0
158 190 0
159 191 0
160 191 0
157 189 0
160 192 0
155 189 0
161 190 0
161 192 0
162 192 0
154 189 0
155 189 0
158 191 0
162 191 0
164 191 0
163 193 0
157 189 0
163 192 0
156 190 0
158 190 0
154 186 0
162 192 0
160 191 0
157 190 0
156 190 0
159 189 0
156 188 0
157 190 0
159 190 0
152 188 0
158 191 0
151 187 0
160 190 0
158 191 0
154 188 0
154 188 0
157 191 0
156 188 0
154 187 0
166 194 0
149 187 0
155 188 0
149 185 0
155 190 0
160 190 0
153 188 0
149 187 0
156 188 0
157 191 0
155 188 0
161 190 0
150 185 0
159 191 0
155 188 0
153 188 0
163 192 0
159 190 0
153 189 0
155 185 0
154 187 0
155 187 0
159 190 0
151 186 0
157 188 0
151 186 0
160 190 0
155 189 0
155 187 0
153 189 0
154 187 0
148 185 0
149 187 0
149 186 0
148 183 0
160 190 0
148 185 0
149 185 0
149 185 0
156 190 0
153 187 0
158 189 0
145 184 0
149 185 0
146 184 0
157 190 0
150 185 0
151 186 0
151 185 0
151 185 0
144 182 0
146 184 0
147 183 0
147 185 0
149 183 0
149 183 0
150 184 0
154 187 0
134 180 0
143 181 0
146 182 0
150 184 0
150 185 0
150 184 0
150 183 0
141 180 0
149 184 0
147 183 0
145 184 0
147 184 0
147 184 0
141 181 0
141 182 0
143 181 0
153 187 0
156 186 0
147 184 0
143 184 0
152 184 0
147 182 0
142 183 0
152 183 0
149 183 0
144 182 0
143 182 0
142 181 0
140 175 0
142 181 0
149 183 0
146 181 0
146 179 0
152 185 0
148 182 0
155 185 0
144 180 0
150 183 0
146 181 0
145 180 0
144 181 0
135 174 0
148 182 0
141 178 0
148 181 0
144 180 0
149 180 0
149 182 0
150 182 0
153 182 0
146 181 0
150 183 0
137 174 0
148 178 0
148 180 0
140 177 0
152 182 0
143 179 0
149 180 0
144 180 0
144 178 0
152 182 0
147 183 0
151 185 0
148 176 0
153 183 0
146 176 0
144 180 0
150 180 0
147 179 0
150 183 0
148 180 0
139 174 0
148 180 0
152 182 0
147 179 0
147 178 0
143 178 0
148 175 0
155 182 0
141 176 0
148 178 0
155 184 0
148 176 0
154 180 0
142 175 0
148 176 0
149 177 0
141 176 0
149 174 0
146 178 0
146 175 0
150 179 0
141 174 0
147 175 0
150 179 0
155 182 0
145 177 0
152 176 0
155 179 0
148 182 0
152 175 0
140 170 0
155 178 0
150 176 0
148 177 0
145 176 0
142 173 0
144 173 0
144 174 0
151 179 0
151 178 0
143 171 0
148 173 0
150 174 0
153 179 0
151 174 0
153 176 0
151 176 0
155 174 0
155 178 0
156 176 0
156 183 0
150 173 0
149 173 0
152 178 0
148 175 0
158 179 0
145 166 0
151 174 0
151 172 0
150 174 0
149 174 0
154 174 0
148 171 0
146 165 0
153 174 0
151 172 0
156 181 0
150 171 0
151 171 0
147 172 0
150 169 0
152 171 0
155 174 0
146 168 0
152 175 0
155 174 0
154 169 0
151 172 0
150 173 0
155 173 0
160 176 0
154 172 0
151 169 0
155 174 0
153 171 0
158 178 0
149 168 0
159 178 0
150 166 0
159 172 0
144 166 0
153 172 0
158 172 0
152 168 0
156 171 0
148 162 0
153 170 0
154 172 0
156 169 0
153 167 0
154 171 0
156 169 0
149 164 0
156 171 0
162 177 0
155 169 0
151 170 0
156 170 0
153 167 0
157 170 0
158 170 0
149 160 0
158 172 0
157 169 0
156 166 0
159 173 0
159 170 0
157 171 0
160 171 0
150 168 0
157 166 0
157 169 0
158 169 0
160 171 0
156 164 0
155 169 0
157 167 0
154 164 0
156 164 0
156 167 0
163 177 0
160 171 0
155 164 0
157 169 0
156 167 0
156 169 0
155 165 0
155 163 0
159 167 0
162 173 0
161 172 0
162 175 0
157 169 0
154 167 0
157 166 0
160 173 0
174 197 0
168 194 0
166 193 0
170 195 0
168 195 0
166 193 0
170 193 0
171 195 0
168 194 0
171 194 0
171 195 0
169 194 0
171 195 0
170 195 0
172 196 0
168 194 0
168 194 0
166 192 0
168 195 0
171 195 0
169 194 0
167 194 0
171 196 0
166 192 0
168 194 0
167 193 0
168 194 0
172 196 0
164 192 0
166 193 0
169 193 0
162 191 0
167 193 0
166 195 0
164 193 0
168 194 0
164 191 0
163 191 0
169 195 0
165 192 0
165 192 0
165 194 0
167 194 0
168 194 0
160 191 0
161 191 0
164 191 0
163 192 0
166 193 0
160 191 0
167 194 0
163 193 0
162 191 0
167 194 0
162 192 0
157 190 0
168 194 0
165 192 0
159 190 0
160 192 0
158 190 0
167 194 0
165 194 0
160 192 0
164 193 0
165 192 0
161 193 0
161 192 0
162 192 0
161 191 0
161 192 0
158 190 0
164 194 0
164 194 0
162 191 0
161 192 0
159 191 0
162 192 0
162 192 0
165 192 0
159 190 0
164 193 0
160 190 0
161 192 0
161 191 0
156 190 0
162 192 0
161 193 0
153 189 0
163 192 0
167 195 0
152 186 0
162 191 0
159 189 0
162 192 0
155 192 0
165 193 0
156 189 0
162 191 0
156 191 0
156 189 0
159 191 0
156 187 0
158 192 0
160 191 0
159 190 0
161 191 0
159 189 0
160 192 0
158 190 0
159 192 0
159 190 0
156 192 0
158 188 0
157 189 0
159 188 0
157 190 0
161 191 0
162 192 0
160 191 0
153 189 0
157 190 0
154 186 0
160 191 0
157 190 0
162 191 0
156 189 0
155 188 0
155 189 0
160 191 0
157 189 0
157 190 0
155 188 0
154 188 0
152 189 0
160 190 0
151 188 0
153 188 0
148 186 0
160 191 0
149 188 0
154 187 0
158 189 0
150 186 0
151 186 0
153 190 0
150 186 0
147 184 0
163 192 0
150 186 0
151 187 0
152 187 0
154 187 0
151 187 0
152 185 0
151 188 0
155 189 0
158 192 0
149 185 0
143 183 0
153 186 0
152 186 0
149 184 0
154 187 0
148 186 0
154 186 0
146 186 0
141 184 0
150 184 0
153 186 0
148 184 0
153 188 0
154 187 0
148 185 0
158 189 0
158 188 0
149 185 0
142 182 0
148 183 0
149 184 0
154 185 0
151 186 0
153 188 0
147 185 0
147 186 0
152 187 0
149 185 0
151 186 0
149 186 0
153 185 0
142 179 0
149 184 0
154 187 0
150 186 0
147 181 0
151 182 0
138 178 0
149 184 0
151 184 0
136 176 0
146 181 0
148 182 0
142 178 0
150 182 0
151 184 0
153 186 0
147 182 0
146 181 0
150 184 0
148 185 0
147 182 0
152 185 0
143 181 0
148 181 0
149 182 0
148 184 0
139 180 0
140 180 0
141 178 0
151 183 0
145 182 0
142 177 0
148 181 0
147 182 0
149 184 0
149 182 0
153 185 0
150 183 0
142 178 0
142 178 0
147 180 0
147 179 0
141 177 0
139 174 0
147 179 0
142 177 0
141 180 0
146 179 0
151 182 0
140 174 0
141 178 0
149 180 0
151 182 0
147 181 0
152 184 0
144 178 0
147 180 0
148 180 0
146 177 0
147 176 0
141 176 0
151 182 0
152 181 0
145 178 0
144 179 0
148 178 0
149 179 0
150 179 0
150 181 0
151 178 0
149 179 0
144 178 0
150 182 0
142 175 0
140 174 0
150 179 0
149 174 0
149 177 0
146 176 0
151 182 0
148 178 0
155 183 0
151 178 0
149 179 0
152 176 0
150 177 0
151 181 0
147 178 0
150 179 0
148 178 0
145 178 0
149 180 0
144 175 0
144 170 0
154 180 0
147 173 0
149 175 0
146 173 0
149 176 0
147 176 0
150 172 0
146 170 0
153 180 0
148 177 0
148 173 0
158 180 0
150 178 0
145 173 0
147 173 0
150 174 0
153 179 0
157 178 0
145 167 0
146 173 0
141 165 0
153 176 0
145 175 0
145 171 0
153 176 0
152 174 0
155 176 0
152 177 0
148 171 0
157 178 0
143 170 0
153 177 0
156 174 0
141 167 0
149 173 0
154 174 0
158 178 0
148 170 0
153 173 0
156 174 0
144 167 0
148 171 0
148 174 0
149 171 0
157 178 0
154 174 0
151 176 0
152 173 0
151 171 0
152 170 0
154 175 0
153 174 0
146 167 0
151 172 0
153 171 0
151 167 0
159 174 0
151 167 0
150 169 0
152 171 0
154 168 0
149 169 0
151 167 0
158 179 0
152 169 0
150 171 0
153 168 0
150 164 0
152 168 0
157 172 0
153 168 0
154 167 0
155 168 0
157 171 0
155 168 0
148 163 0
154 168 0
159 172 0
156 169 0
152 167 0
159 171 0
150 165 0
152 168 0
158 170 0
152 164 0
153 165 0
156 171 0
156 170 0
154 167 0
159 174 0
156 171 0
157 170 0
151 165 0
153 166 0
158 165 0
156 169 0
160 173 0
158 169 0
159 171 0
163 173 0
161 173 0
159 171 0
156 167 0
156 169 0
154 164 0
156 166 0
156 166 0
161 171 0
162 173 0
156 166 0
158 170 0
157 168 0
157 169 0
158 170 0
159 168 0
159 168 0
171 196 0
172 196 0
169 194 0
171 195 0
168 194 0
166 192 0
167 193 0
171 196 0
172 195 0
167 193 0
172 196 0
167 194 0
170 195 0
170 195 0
170 195 0
170 195 0
171 196 0
171 195 0
169 195 0
166 192 0
172 195 0
165 191 0
165 193 0
169 195 0
170 195 0
172 196 0
169 194 0
167 194 0
169 194 0
168 194 0
168 194 0
166 192 0
164 192 0
163 192 0
169 195 0
167 194 0
170 195 0
165 192 0
167 194 0
167 193 0
164 193 0
166 193 0
167 194 0
165 194 0
169 195 0
165 193 0
161 191 0
166 192 0
165 194 0
168 195 0
162 193 0
161 190 0
168 194 0
161 192 0
163 193 0
162 191 0
162 191 0
171 195 0
167 194 0
160 191 0
162 192 0
162 192 0
161 190 0
166 194 0
166 194 0
161 192 0
165 194 0
166 194 0
161 191 0
158 189 0
165 193 0
160 191 0
161 192 0
163 193 0
157 190 0
161 192 0
158 190 0
163 191 0
161 192 0
160 190 0
163 191 0
159 191 0
162 192 0
157 191 0
159 190 0
157 191 0
160 190 0
164 191 0
163 192 0
161 192 0
154 187 0
162 192 0
161 191 0
161 191 0
155 189 0
163 193 0
156 191 0
162 191 0
156 190 0
154 188 0
165 193 0
158 191 0
151 188 0
154 189 0
157 190 0
161 193 0
159 191 0
156 190 0
156 190 0
155 190 0
161 193 0
164 192 0
162 192 0
152 187 0
157 190 0
157 189 0
158 192 0
155 190 0
155 189 0
149 187 0
154 188 0
156 191 0
154 186 0
156 189 0
154 188 0
159 190 0
152 186 0
157 189 0
152 188 0
147 188 0
154 187 0
158 189 0
155 188 0
157 189 0
150 185 0
152 187 0
156 188 0
157 189 0
152 189 0
155 189 0
154 188 0
154 186 0
153 186 0
154 188 0
153 189 0
154 189 0
155 187 0
159 189 0
153 188 0
151 186 0
151 187 0
156 188 0
149 186 0
152 184 0
158 189 0
150 189 0
155 188 0
152 185 0
148 185 0
153 186 0
151 185 0
151 186 0
151 186 0
150 184 0
149 186 0
147 186 0
151 186 0
144 182 0
147 185 0
154 189 0
147 185 0
148 185 0
152 185 0
150 183 0
152 187 0
154 187 0
155 187 0
152 186 0
148 184 0
155 186 0
147 183 0
153 186 0
143 184 0
150 185 0
148 185 0
146 183 0
155 187 0
144 180 0
149 188 0
147 184 0
150 186 0
147 182 0
152 184 0
154 186 0
136 180 0
148 181 0
149 188 0
151 184 0
154 183 0
152 185 0
149 184 0
145 180 0
150 185 0
136 178 0
137 174 0
143 181 0
147 183 0
149 185 0
147 180 0
151 186 0
144 179 0
148 181 0
152 185 0
142 181 0
155 185 0
151 179 0
144 179 0
148 184 0
136 180 0
150 185 0
150 183 0
136 176 0
145 180 0
149 184 0
146 179 0
152 183 0
155 187 0
153 182 0
146 184 0
156 187 0
146 179 0
144 180 0
151 182 0
154 183 0
148 183 0
143 181 0
143 181 0
150 183 0
153 185 0
142 179 0
144 175 0
151 181 0
148 182 0
147 180 0
155 184 0
146 179 0
152 183 0
142 177 0
144 178 0
149 178 0
151 180 0
143 177 0
146 180 0
147 177 0
143 173 0
149 180 0
153 182 0
139 171 0
143 177 0
146 178 0
142 173 0
148 178 0
143 175 0
145 175 0
149 177 0
151 180 0
146 176 0
144 171 0
143 177 0
152 182 0
149 179 0
151 180 0
150 177 0
146 180 0
154 180 0
152 179 0
146 177 0
153 179 0
148 177 0
150 180 0
143 173 0
147 174 0
150 177 0
147 178 0
152 181 0
154 178 0
151 176 0
148 173 0
150 180 0
155 178 0
153 179 0
145 172 0
150 177 0
151 178 0
149 177 0
153 181 0
155 180 0
152 180 0
149 177 0
150 176 0
148 177 0
144 168 0
146 173 0
150 177 0
148 171 0
146 174 0
146 167 0
144 172 0
153 176 0
141 168 0
150 172 0
152 175 0
159 179 0
158 177 0
155 175 0
154 178 0
151 171 0
151 171 0
156 178 0
149 171 0
151 170 0
157 178 0
151 172 0
156 175 0
151 173 0
153 174 0
152 172 0
152 173 0
154 173 0
153 176 0
149 170 0
146 169 0
161 178 0
150 168 0
151 173 0
156 173 0
153 171 0
151 168 0
145 166 0
157 177 0
152 170 0
149 165 0
160 175 0
151 170 0
156 173 0
154 171 0
153 167 0
158 173 0
155 172 0
146 163 0
152 165 0
154 171 0
149 166 0
151 166 0
156 168 0
154 168 0
150 168 0
157 173 0
149 166 0
155 171 0
156 169 0
154 168 0
157 172 0
149 167 0
149 165 0
157 169 0
149 164 0
160 170 0
154 168 0
156 169 0
158 168 0
154 165 0
155 169 0
152 164 0
153 169 0
161 175 0
160 176 0
158 170 0
151 166 0
157 171 0
158 166 0
160 173 0
154 164 0
160 175 0
153 166 0
161 173 0
156 167 0
155 165 0
156 167 0
159 170 0
160 172 0
160 172 0
156 168 0
159 170 0
161 174 0
156 169 0
158 170 0
158 173 0
164 174 0
158 166 0
169 195 0
171 196 0
168 194 0
170 195 0
170 194 0
167 194 0
169 194 0
170 195 0
173 196 0
170 195 0
168 195 0
169 195 0
170 195 0
169 195 0
167 194 0
166 192 0
168 194 0
163 193 0
169 194 0
166 194 0
166 193 0
163 192 0
168 194 0
171 196 0
165 194 0
162 192 0
167 193 0
169 195 0
166 193 0
167 193 0
169 195 0
166 193 0
162 191 0
166 194 0
165 193 0
169 195 0
161 191 0
161 191 0
160 191 0
168 194 0
166 194 0
168 194 0
167 194 0
162 192 0
162 193 0
165 193 0
164 192 0
166 193 0
161 192 0
165 193 0
162 192 0
165 192 0
167 194 0
166 193 0
162 190 0
166 194 0
160 190 0
164 193 0
163 193 0
162 192 0
157 191 0
161 191 0
158 192 0
163 192 0
164 193 0
165 194 0
166 194 0
157 191 0
163 191 0
169 195 0
162 193 0
157 190 0
162 192 0
165 194 0
163 193 0
162 193 0
159 189 0
158 189 0
157 188 0
162 193 0
160 192 0
157 189 0
159 190 0
157 189 0
162 192 0
155 188 0
162 191 0
166 192 0
163 194 0
162 192 0
154 189 0
162 190 0
154 187 0
162 191 0
159 190 0
157 190 0
164 193 0
158 189 0
159 192 0
155 190 0
156 187 0
159 190 0
159 190 0
158 192 0
158 189 0
159 189 0
157 190 0
156 191 0
160 190 0
161 190 0
159 190 0
154 187 0
157 189 0
160 191 0
161 191 0
156 188 0
158 191 0
162 192 0
160 191 0
153 187 0
163 193 0
155 187 0
161 191 0
158 189 0
161 190 0
157 189 0
151 186 0
156 188 0
160 190 0
154 188 0
150 188 0
163 191 0
156 187 0
154 187 0
157 189 0
153 188 0
156 191 0
154 189 0
155 188 0
150 185 0
156 188 0
157 191 0
153 187 0
159 190 0
152 188 0
159 190 0
155 189 0
145 184 0
157 191 0
153 186 0
151 187 0
154 187 0
150 187 0
159 188 0
147 186 0
147 185 0
156 189 0
147 181 0
152 188 0
153 187 0
152 188 0
154 187 0
150 185 0
149 184 0
152 187 0
153 189 0
145 183 0
150 185 0
146 182 0
152 185 0
150 185 0
149 185 0
156 188 0
154 187 0
156 187 0
146 182 0
152 186 0
154 188 0
153 185 0
141 182 0
141 182 0
152 186 0
154 187 0
156 188 0
151 188 0
143 180 0
150 186 0
149 184 0
146 183 0
150 186 0
139 180 0
152 187 0
147 182 0
150 184 0
146 181 0
142 181 0
144 181 0
143 181 0
152 188 0
153 187 0
154 186 0
151 185 0
147 185 0
151 186 0
152 182 0
151 185 0
146 183 0
150 185 0
142 179 0
141 181 0
148 184 0
151 184 0
148 183 0
140 179 0
141 181 0
147 184 0
146 181 0
145 181 0
147 183 0
152 183 0
151 185 0
144 182 0
147 181 0
146 179 0
148 182 0
144 178 0
149 183 0
146 181 0
150 183 0
141 179 0
141 177 0
147 181 0
153 182 0
141 179 0
150 182 0
150 181 0
153 186 0
151 184 0
145 181 0
150 182 0
154 186 0
148 180 0
146 180 0
147 177 0
149 178 0
144 176 0
150 181 0
144 175 0
153 183 0
154 183 0
150 180 0
148 180 0
153 184 0
153 181 0
154 182 0
159 185 0
148 181 0
158 186 0
146 180 0
153 182 0
146 178 0
155 183 0
148 177 0
149 182 0
150 177 0
140 172 0
154 183 0
149 178 0
154 184 0
146 176 0
150 180 0
148 178 0
156 183 0
152 180 0
151 180 0
154 180 0
147 177 0
154 182 0
154 182 0
150 179 0
151 178 0
151 180 0
150 178 0
155 180 0
149 179 0
151 180 0
150 176 0
148 174 0
151 177 0
152 178 0
150 176 0
152 179 0
152 177 0
145 172 0
156 179 0
143 171 0
144 171 0
144 176 0
153 179 0
148 174 0
155 179 0
154 178 0
150 175 0
150 175 0
149 172 0
154 178 0
145 171 0
159 181 0
144 166 0
149 176 0
150 175 0
149 172 0
143 173 0
154 177 0
151 174 0
158 180 0
158 180 0
150 174 0
155 180 0
147 171 0
153 176 0
148 172 0
154 175 0
150 170 0
154 171 0
158 175 0
157 180 0
151 173 0
155 179 0
147 169 0
160 181 0
158 175 0
150 173 0
160 179 0
150 172 0
155 175 0
156 174 0
148 169 0
159 176 0
152 171 0
152 169 0
157 175 0
154 173 0
150 169 0
154 171 0
152 165 0
152 167 0
158 173 0
150 167 0
156 175 0
149 166 0
150 166 0
156 173 0
159 173 0
156 171 0
154 168 0
159 174 0
153 168 0
160 177 0
157 170 0
152 170 0
157 170 0
157 170 0
153 168 0
154 166 0
156 170 0
153 163 0
154 169 0
157 174 0
155 167 0
153 170 0
157 171 0
156 169 0
156 165 0
158 172 0
159 173 0
160 173 0
152 164 0
164 176 0
159 169 0
160 172 0
161 172 0
162 175 0
156 168 0
156 168 0
149 160 0
152 166 0
157 172 0
158 169 0
156 164 0
156 166 0
155 167 0
159 173 0
161 171 0
158 170 0
161 174 0
162 173 0
164 177 0
160 171 0
160 172 0
169 194 0
169 194 0
169 194 0
167 194 0
171 195 0
170 195 0
168 194 0
168 194 0
166 192 0
170 195 0
168 194 0
167 192 0
165 193 0
169 195 0
167 193 0
166 193 0
172 196 0
169 195 0
167 195 0
166 192 0
166 193 0
171 195 0
168 194 0
168 194 0
169 196 0
168 194 0
163 191 0
167 194 0
166 193 0
164 192 0
167 194 0
164 192 0
169 194 0
165 192 0
168 194 0
170 194 0
166 192 0
166 194 0
168 195 0
165 194 0
164 192 0
166 193 0
159 189 0
161 191 0
167 195 0
163 191 0
168 194 0
168 194 0
160 191 0
167 193 0
167 194 0
167 195 0
163 191 0
164 192 0
165 194 0
164 193 0
165 192 0
162 192 0
163 191 0
164 194 0
166 193 0
161 191 0
161 193 0
164 192 0
162 193 0
161 191 0
164 192 0
160 191 0
158 190 0
161 191 0
165 194 0
163 193 0
158 191 0
162 191 0
156 191 0
160 191 0
160 191 0
161 192 0
163 193 0
164 192 0
160 190 0
158 190 0
160 189 0
160 192 0
156 189 0
162 193 0
159 191 0
161 192 0
161 192 0
155 188 0
160 191 0
157 189 0
162 192 0
162 191 0
160 190 0
156 190 0
155 188 0
158 190 0
155 188 0
159 190 0
160 190 0
156 188 0
158 189 0
158 190 0
162 191 0
154 189 0
160 191 0
154 187 0
158 190 0
156 190 0
157 190 0
160 190 0
159 190 0
161 189 0
151 188 0
154 189 0
153 187 0
154 189 0
155 190 0
159 190 0
161 191 0
156 189 0
152 187 0
152 187 0
161 192 0
160 190 0
151 186 0
159 189 0
153 188 0
152 185 0
146 185 0
154 187 0
146 185 0
152 188 0
152 186 0
152 188 0
159 189 0
151 186 0
149 185 0
155 189 0
155 189 0
157 188 0
156 191 0
155 186 0
157 188 0
150 187 0
155 188 0
156 187 0
155 188 0
147 183 0
155 188 0
155 186 0
147 185 0
151 186 0
154 187 0
155 187 0
157 188 0
150 187 0
148 186 0
147 187 0
151 189 0
152 186 0
144 181 0
154 187 0
151 186 0
148 186 0
148 184 0
152 186 0
153 185 0
154 187 0
158 188 0
149 182 0
151 188 0
148 184 0
156 189 0
149 185 0
153 185 0
153 188 0
148 184 0
152 186 0
152 188 0
148 186 0
149 184 0
146 184 0
146 182 0
145 182 0
146 185 0
143 180 0
143 185 0
152 188 0
152 185 0
149 184 0
155 188 0
155 185 0
154 183 0
150 186 0
150 184 0
156 188 0
141 181 0
155 187 0
153 185 0
144 181 0
144 181 0
150 179 0
149 184 0
151 183 0
156 188 0
150 184 0
152 183 0
147 183 0
150 183 0
144 181 0
147 185 0
151 182 0
154 185 0
143 177 0
153 185 0
145 179 0
152 186 0
149 183 0
149 183 0
145 179 0
155 184 0
146 181 0
146 180 0
150 182 0
142 178 0
141 180 0
150 180 0
144 178 0
146 182 0
156 184 0
148 182 0
150 182 0
147 179 0
150 181 0
145 180 0
143 180 0
148 182 0
150 182 0
155 183 0
152 185 0
149 179 0
155 187 0
147 179 0
147 181 0
143 176 0
151 182 0
151 181 0
143 176 0
153 180 0
151 182 0
151 183 0
158 183 0
145 178 0
146 176 0
146 179 0
151 180 0
151 182 0
151 179 0
151 181 0
151 179 0
146 177 0
148 180 0
149 179 0
150 180 0
147 178 0
154 183 0
151 177 0
158 184 0
149 180 0
153 181 0
151 180 0
150 179 0
151 180 0
152 179 0
153 180 0
153 181 0
146 174 0
155 184 0
154 182 0
152 181 0
156 182 0
147 175 0
156 182 0
153 183 0
145 172 0
151 176 0
148 173 0
151 178 0
151 182 0
149 173 0
158 179 0
154 179 0
148 177 0
154 178 0
149 178 0
146 177 0
150 178 0
155 180 0
144 168 0
153 177 0
154 181 0
152 179 0
154 179 0
155 182 0
150 178 0
147 174 0
159 181 0
149 175 0
155 176 0
150 175 0
152 177 0
150 173 0
135 164 0
150 175 0
149 174 0
146 170 0
156 178 0
157 176 0
153 174 0
149 173 0
152 175 0
156 179 0
152 175 0
148 176 0
156 177 0
156 177 0
155 177 0
160 177 0
156 174 0
156 178 0
155 174 0
155 174 0
151 173 0
147 168 0
157 173 0
151 168 0
148 169 0
156 175 0
150 165 0
153 169 0
152 174 0
148 172 0
155 173 0
156 174 0
146 163 0
154 173 0
154 171 0
150 169 0
159 177 0
159 175 0
152 173 0
153 172 0
158 174 0
155 168 0
155 173 0
151 170 0
162 171 0
152 170 0
156 174 0
156 174 0
153 170 0
151 168 0
149 165 0
158 177 0
154 168 0
153 167 0
157 168 0
159 171 0
161 175 0
157 173 0
157 174 0
158 169 0
160 177 0
153 170 0
153 165 0
161 174 0
162 178 0
156 171 0
156 169 0
158 174 0
159 172 0
157 173 0
152 165 0
159 171 0
158 167 0
157 169 0
156 170 0
154 167 0
163 174 0
162 174 0
160 173 0
161 173 0
156 170 0
161 171 0
158 172 0
158 172 0
161 172 0
160 174 0
169 194 0
168 193 0
169 194 0
169 195 0
170 196 0
168 194 0
166 193 0
167 194 0
170 196 0
170 195 0
169 194 0
170 195 0
167 193 0
169 195 0
163 193 0
169 195 0
168 194 0
166 193 0
165 194 0
167 194 0
171 196 0
171 196 0
168 194 0
170 196 0
171 196 0
162 192 0
165 193 0
172 196 0
166 194 0
169 195 0
167 195 0
165 195 0
169 195 0
168 194 0
167 193 0
164 193 0
167 192 0
164 193 0
168 195 0
167 195 0
168 194 0
165 193 0
167 193 0
162 189 0
165 193 0
163 193 0
163 192 0
169 195 0
165 193 0
166 194 0
163 192 0
167 194 0
165 193 0
167 194 0
165 191 0
165 193 0
168 194 0
165 192 0
164 193 0
167 195 0
163 192 0
168 195 0
166 193 0
164 193 0
163 191 0
167 195 0
165 194 0
159 190 0
163 192 0
165 192 0
161 192 0
164 192 0
161 191 0
160 191 0
162 191 0
160 190 0
155 189 0
155 190 0
166 192 0
158 190 0
163 193 0
161 191 0
163 192 0
167 194 0
161 191 0
164 191 0
162 192 0
162 192 0
160 191 0
154 188 0
159 190 0
163 192 0
164 193 0
157 190 0
159 191 0
157 188 0
158 191 0
163 192 0
155 187 0
161 191 0
158 191 0
151 188 0
163 192 0
154 189 0
161 192 0
162 190 0
155 189 0
165 193 0
156 190 0
157 190 0
164 191 0
162 191 0
161 191 0
154 188 0
147 184 0
155 187 0
149 186 0
156 189 0
155 189 0
156 189 0
155 189 0
152 187 0
153 188 0
166 193 0
157 189 0
156 188 0
164 192 0
160 189 0
155 187 0
161 192 0
150 184 0
156 188 0
155 186 0
153 188 0
151 187 0
160 191 0
150 185 0
156 189 0
154 187 0
152 186 0
153 187 0
152 190 0
147 185 0
156 189 0
153 189 0
156 189 0
156 189 0
154 188 0
155 189 0
156 190 0
150 186 0
159 186 0
156 187 0
162 191 0
160 190 0
150 188 0
155 188 0
150 185 0
151 187 0
154 184 0
164 192 0
153 187 0
149 187 0
149 186 0
145 184 0
154 188 0
146 184 0
146 182 0
157 187 0
154 189 0
148 185 0
148 185 0
154 185 0
149 185 0
153 186 0
155 187 0
146 184 0
144 184 0
148 184 0
156 188 0
150 184 0
151 187 0
148 186 0
145 182 0
154 185 0
151 186 0
158 188 0
149 185 0
147 182 0
150 184 0
151 187 0
148 180 0
148 182 0
145 181 0
148 183 0
134 179 0
149 182 0
154 185 0
143 181 0
142 182 0
156 188 0
147 182 0
152 185 0
155 188 0
153 186 0
155 188 0
154 187 0
147 183 0
151 185 0
145 182 0
147 183 0
147 183 0
154 184 0
148 183 0
149 179 0
146 178 0
153 182 0
146 182 0
152 186 0
150 183 0
148 181 0
155 185 0
139 179 0
152 183 0
145 180 0
148 182 0
152 181 0
146 184 0
149 181 0
153 184 0
152 184 0
154 184 0
144 179 0
150 181 0
151 182 0
143 179 0
145 178 0
141 178 0
148 182 0
148 181 0
148 180 0
153 181 0
155 185 0
154 181 0
152 185 0
151 181 0
147 180 0
155 184 0
146 178 0
147 176 0
154 184 0
153 181 0
150 183 0
155 184 0
150 181 0
152 180 0
148 176 0
146 176 0
149 178 0
151 180 0
150 181 0
157 182 0
147 179 0
151 179 0
145 177 0
152 181 0
150 178 0
147 177 0
151 181 0
148 181 0
157 179 0
152 177 0
149 177 0
153 182 0
150 181 0
149 179 0
152 180 0
154 179 0
153 181 0
151 179 0
146 179 0
150 178 0
147 177 0
150 179 0
153 179 0
151 179 0
152 179 0
147 174 0
156 182 0
149 178 0
151 179 0
151 178 0
147 172 0
153 178 0
152 181 0
155 178 0
147 173 0
160 185 0
149 177 0
157 183 0
159 180 0
151 176 0
149 175 0
151 174 0
148 175 0
156 178 0
153 177 0
150 175 0
155 177 0
156 179 0
151 179 0
153 177 0
154 178 0
147 174 0
153 178 0
149 175 0
149 175 0
147 172 0
152 177 0
160 181 0
158 177 0
152 174 0
154 179 0
152 180 0
153 175 0
150 169 0
152 175 0
151 174 0
154 176 0
149 171 0
152 174 0
153 176 0
154 170 0
153 173 0
156 174 0
156 176 0
156 176 0
157 179 0
156 174 0
151 170 0
155 177 0
156 171 0
153 174 0
147 167 0
149 170 0
154 174 0
157 174 0
150 173 0
155 175 0
153 172 0
157 174 0
160 177 0
155 175 0
151 170 0
154 170 0
156 175 0
160 179 0
155 175 0
149 168 0
160 173 0
153 167 0
150 169 0
165 182 0
156 172 0
156 170 0
153 171 0
155 171 0
156 172 0
159 170 0
161 178 0
159 174 0
153 168 0
157 172 0
157 172 0
161 172 0
159 173 0
157 170 0
158 171 0
153 168 0
157 171 0
160 172 0
153 166 0
159 172 0
158 169 0
157 171 0
158 170 0
162 176 0
159 174 0
160 174 0
158 173 0
159 169 0
157 174 0
162 174 0
157 169 0
160 172 0
162 173 0
159 172 0
162 174 0
161 173 0
159 171 0
170 195 0
168 194 0
168 194 0
167 194 0
168 194 0
167 192 0
170 195 0
166 194 0
172 196 0
169 194 0
170 195 0
167 195 0
168 195 0
166 193 0
168 195 0
170 195 0
167 194 0
170 195 0
172 196 0
170 195 0
163 191 0
166 193 0
168 193 0
163 192 0
164 191 0
167 193 0
165 193 0
166 193 0
168 194 0
161 192 0
166 193 0
164 192 0
167 193 0
162 192 0
166 193 0
168 193 0
165 192 0
167 194 0
165 193 0
168 193 0
165 193 0
168 194 0
164 192 0
162 192 0
172 196 0
163 193 0
165 192 0
165 194 0
162 192 0
161 191 0
165 193 0
161 190 0
158 190 0
161 191 0
169 195 0
162 193 0
162 191 0
161 190 0
164 192 0
163 193 0
162 191 0
160 192 0
163 193 0
157 190 0
159 191 0
167 192 0
163 192 0
166 194 0
157 190 0
157 189 0
163 191 0
162 192 0
158 191 0
165 193 0
163 190 0
166 194 0
161 190 0
158 191 0
163 192 0
163 192 0
157 190 0
160 191 0
162 191 0
163 191 0
156 189 0
160 192 0
161 191 0
158 188 0
157 189 0
148 185 0
157 189 0
161 191 0
158 189 0
154 190 0
159 190 0
160 189 0
155 188 0
157 190 0
160 191 0
155 188 0
164 193 0
151 188 0
161 191 0
156 189 0
155 189 0
155 189 0
158 189 0
162 193 0
153 188 0
157 189 0
159 191 0
155 189 0
157 189 0
152 188 0
155 187 0
158 190 0
154 189 0
157 189 0
159 191 0
160 190 0
148 186 0
155 189 0
158 189 0
158 191 0
154 188 0
154 187 0
161 190 0
158 189 0
160 192 0
152 185 0
161 192 0
154 187 0
155 189 0
152 187 0
159 191 0
156 188 0
156 189 0
157 190 0
152 188 0
161 191 0
153 186 0
154 188 0
156 189 0
158 189 0
152 186 0
149 186 0
158 187 0
153 188 0
155 189 0
163 190 0
149 185 0
151 186 0
153 189 0
155 187 0
157 189 0
150 185 0
148 186 0
145 181 0
154 186 0
153 187 0
154 189 0
154 187 0
149 185 0
149 183 0
152 184 0
149 185 0
148 186 0
151 184 0
153 184 0
157 188 0
146 185 0
148 185 0
154 188 0
154 185 0
154 187 0
151 187 0
152 186 0
153 188 0
146 181 0
147 182 0
153 186 0
152 186 0
145 185 0
155 186 0
154 188 0
147 186 0
148 186 0
152 187 0
144 184 0
146 182 0
148 185 0
151 187 0
149 184 0
152 188 0
153 186 0
152 186 0
152 185 0
146 183 0
150 185 0
156 186 0
153 188 0
149 182 0
154 186 0
149 185 0
154 184 0
144 183 0
153 185 0
148 184 0
149 182 0
154 186 0
149 184 0
148 184 0
152 184 0
147 183 0
152 184 0
138 178 0
146 178 0
144 185 0
160 186 0
147 184 0
153 185 0
153 183 0
147 181 0
149 181 0
147 187 0
145 180 0
148 182 0
149 182 0
152 185 0
155 185 0
152 185 0
145 179 0
149 183 0
151 183 0
151 183 0
149 181 0
152 181 0
157 187 0
149 180 0
149 180 0
156 186 0
136 175 0
148 178 0
153 183 0
151 183 0
155 183 0
149 180 0
150 180 0
144 177 0
150 182 0
148 181 0
152 181 0
150 178 0
150 182 0
145 179 0
143 176 0
148 180 0
159 185 0
149 181 0
149 181 0
148 180 0
158 185 0
153 183 0
153 180 0
144 175 0
153 181 0
143 175 0
151 178 0
148 179 0
148 180 0
158 184 0
149 178 0
151 179 0
153 179 0
158 186 0
148 180 0
147 175 0
146 178 0
150 178 0
145 175 0
151 179 0
148 179 0
144 176 0
149 178 0
151 178 0
146 176 0
150 179 0
152 180 0
148 174 0
153 180 0
150 179 0
147 177 0
152 177 0
152 179 0
145 172 0
155 180 0
151 180 0
159 181 0
152 177 0
153 182 0
142 170 0
144 170 0
153 178 0
153 176 0
155 177 0
147 172 0
157 180 0
148 175 0
151 178 0
155 178 0
153 175 0
160 183 0
149 175 0
153 175 0
156 176 0
150 176 0
158 179 0
153 177 0
149 175 0
154 175 0
158 182 0
155 177 0
146 172 0
156 178 0
157 181 0
154 174 0
148 168 0
150 173 0
153 175 0
149 167 0
146 168 0
153 176 0
156 176 0
154 173 0
152 174 0
149 172 0
153 175 0
154 173 0
156 177 0
155 180 0
151 169 0
159 177 0
150 171 0
150 168 0
151 168 0
155 174 0
157 176 0
159 178 0
155 174 0
153 170 0
157 177 0
156 173 0
146 165 0
153 172 0
153 171 0
154 171 0
156 175 0
155 173 0
154 172 0
157 175 0
152 169 0
151 171 0
161 180 0
150 168 0
155 169 0
155 174 0
162 176 0
160 176 0
155 169 0
149 164 0
158 172 0
158 173 0
154 169 0
155 172 0
163 178 0
148 162 0
156 168 0
157 174 0
156 168 0
153 168 0
159 172 0
154 169 0
160 172 0
160 178 0
156 169 0
159 175 0
159 170 0
154 167 0
160 170 0
159 172 0
159 172 0
163 175 0
162 174 0
155 165 0
157 167 0
158 172 0
158 172 0
159 170 0
161 173 0
162 172 0
171 195 0
171 196 0
170 194 0
172 196 0
167 194 0
164 193 0
168 195 0
169 194 0
170 194 0
172 195 0
168 195 0
169 194 0
169 194 0
169 194 0
165 193 0
170 194 0
168 195 0
170 195 0
169 195 0
170 195 0
168 195 0
168 194 0
168 195 0
167 193 0
165 194 0
164 193 0
166 194 0
169 195 0
167 194 0
168 195 0
171 196 0
165 192 0
164 193 0
165 192 0
162 191 0
163 192 0
166 194 0
163 193 0
169 195 0
163 192 0
160 191 0
164 194 0
166 193 0
164 193 0
159 191 0
168 195 0
166 192 0
169 195 0
167 194 0
166 193 0
161 191 0
161 190 0
169 196 0
159 190 0
164 193 0
165 192 0
166 193 0
168 194 0
163 193 0
162 192 0
167 194 0
165 194 0
165 194 0
164 192 0
167 194 0
162 192 0
160 191 0
163 193 0
161 190 0
159 190 0
159 190 0
157 190 0
167 194 0
160 191 0
162 192 0
162 191 0
163 191 0
162 193 0
166 194 0
164 192 0
161 191 0
162 191 0
164 192 0
164 194 0
161 191 0
161 192 0
162 192 0
163 192 0
160 190 0
163 193 0
160 191 0
159 191 0
162 192 0
161 192 0
161 192 0
160 191 0
160 189 0
153 188 0
163 192 0
158 189 0
158 189 0
159 190 0
159 191 0
161 191 0
158 190 0
164 192 0
159 190 0
157 190 0
166 195 0
157 188 0
151 186 0
159 190 0
164 192 0
151 188 0
163 192 0
158 191 0
159 190 0
159 190 0
164 192 0
157 188 0
159 191 0
162 192 0
154 190 0
157 189 0
160 190 0
152 186 0
159 191 0
157 190 0
159 190 0
159 189 0
152 186 0
159 189 0
158 191 0
156 190 0
152 187 0
153 186 0
152 187 0
147 186 0
156 187 0
157 189 0
153 189 0
162 192 0
157 189 0
154 188 0
147 187 0
160 189 0
158 190 0
150 185 0
152 185 0
154 186 0
148 186 0
154 188 0
157 189 0
155 189 0
153 187 0
151 186 0
148 185 0
149 184 0
153 185 0
158 190 0
155 188 0
165 193 0
156 185 0
160 189 0
152 186 0
153 187 0
146 186 0
156 188 0
151 187 0
153 187 0
151 187 0
156 189 0
152 187 0
149 183 0
153 185 0
156 188 0
155 187 0
151 185 0
151 183 0
154 188 0
156 187 0
151 187 0
147 184 0
149 185 0
152 188 0
148 185 0
145 183 0
145 184 0
144 181 0
158 188 0
154 186 0
151 183 0
152 183 0
152 183 0
151 184 0
154 186 0
147 185 0
144 182 0
156 186 0
153 183 0
148 182 0
144 181 0
139 179 0
148 183 0
141 179 0
146 184 0
157 187 0
153 186 0
146 180 0
151 187 0
151 186 0
148 184 0
145 181 0
150 183 0
147 181 0
153 186 0
149 183 0
147 180 0
154 184 0
137 179 0
154 184 0
151 185 0
150 185 0
148 181 0
143 181 0
152 184 0
155 187 0
153 183 0
150 181 0
147 184 0
159 186 0
148 183 0
149 183 0
148 183 0
150 182 0
151 184 0
145 180 0
151 184 0
154 185 0
154 183 0
156 185 0
140 177 0
156 184 0
151 183 0
153 180 0
154 185 0
144 178 0
152 183 0
149 180 0
152 180 0
149 181 0
152 181 0
150 181 0
145 180 0
153 184 0
151 182 0
144 176 0
142 176 0
144 178 0
152 180 0
156 183 0
145 180 0
147 178 0
144 176 0
149 181 0
150 180 0
147 176 0
146 179 0
148 179 0
146 178 0
154 183 0
150 179 0
149 178 0
146 176 0
156 184 0
155 182 0
147 179 0
154 179 0
151 178 0
153 182 0
148 179 0
152 179 0
147 177 0
150 179 0
147 177 0
151 176 0
149 179 0
147 178 0
146 173 0
154 180 0
150 181 0
142 175 0
145 178 0
152 178 0
155 183 0
152 176 0
160 182 0
148 178 0
146 172 0
154 179 0
152 180 0
146 173 0
155 179 0
157 181 0
153 174 0
152 178 0
155 178 0
140 166 0
156 180 0
150 177 0
156 181 0
154 178 0
156 181 0
160 178 0
152 178 0
151 177 0
158 178 0
154 177 0
160 182 0
146 170 0
156 176 0
151 177 0
162 177 0
153 174 0
149 172 0
154 176 0
157 182 0
150 170 0
145 170 0
156 179 0
154 175 0
155 176 0
146 169 0
152 174 0
155 176 0
156 175 0
153 175 0
154 176 0
157 174 0
153 174 0
149 165 0
160 182 0
155 171 0
148 170 0
157 174 0
155 173 0
152 172 0
158 176 0
151 173 0
154 172 0
157 175 0
157 175 0
154 169 0
153 171 0
156 175 0
157 176 0
159 178 0
151 170 0
153 168 0
153 175 0
153 166 0
146 166 0
152 169 0
156 173 0
156 170 0
157 171 0
160 175 0
155 170 0
159 178 0
156 171 0
152 170 0
160 173 0
158 174 0
156 173 0
154 169 0
157 172 0
158 172 0
156 175 0
160 173 0
157 169 0
153 168 0
152 169 0
161 172 0
158 171 0
157 175 0
152 171 0
154 167 0
155 171 0
162 173 0
160 174 0
160 172 0
158 173 0
162 173 0
156 168 0
160 171 0
156 167 0
163 178 0
160 173 0
159 172 0
160 171 0
164 192 0
166 193 0
167 195 0
169 195 0
172 197 0
167 193 0
167 193 0
167 193 0
171 194 0
169 195 0
168 194 0
166 193 0
170 195 0
167 194 0
169 194 0
164 192 0
168 193 0
169 195 0
170 196 0
171 196 0
163 192 0
169 193 0
165 192 0
170 195 0
160 192 0
170 196 0
164 192 0
161 191 0
164 193 0
169 195 0
160 190 0
162 192 0
162 192 0
164 193 0
161 191 0
163 191 0
164 194 0
172 196 0
162 193 0
167 194 0
161 191 0
165 193 0
161 191 0
167 195 0
163 191 0
165 193 0
165 193 0
164 193 0
163 194 0
162 191 0
162 191 0
170 195 0
163 193 0
164 193 0
168 196 0
162 192 0
167 194 0
161 192 0
160 192 0
164 192 0
169 194 0
164 193 0
164 193 0
163 191 0
159 190 0
165 192 0
157 190 0
164 192 0
165 193 0
164 193 0
167 193 0
152 188 0
160 190 0
160 190 0
158 188 0
164 193 0
160 191 0
165 193 0
156 190 0
163 193 0
160 191 0
162 191 0
161 191 0
164 193 0
158 189 0
163 191 0
156 189 0
157 189 0
160 191 0
161 192 0
156 190 0
162 190 0
161 192 0
162 192 0
160 192 0
159 192 0
163 192 0
158 189 0
161 191 0
150 186 0
158 190 0
158 189 0
155 189 0
156 189 0
161 190 0
163 192 0
154 189 0
157 191 0
156 187 0
156 190 0
154 188 0
156 190 0
156 188 0
161 192 0
162 192 0
147 185 0
154 188 0
158 189 0
157 191 0
156 188 0
154 187 0
162 190 0
162 191 0
160 189 0
150 186 0
158 191 0
162 191 0
158 191 0
152 189 0
156 188 0
154 188 0
158 192 0
153 188 0
160 190 0
155 189 0
153 188 0
157 189 0
145 182 0
151 188 0
157 189 0
157 190 0
151 186 0
155 189 0
158 188 0
155 186 0
151 188 0
149 186 0
155 189 0
149 188 0
155 187 0
158 188 0
156 187 0
151 186 0
148 185 0
154 187 0
162 192 0
146 184 0
154 187 0
155 189 0
156 188 0
158 188 0
151 186 0
147 186 0
156 189 0
148 186 0
156 187 0
150 185 0
155 185 0
153 184 0
155 188 0
143 182 0
157 189 0
152 187 0
153 184 0
149 186 0
143 179 0
152 184 0
153 187 0
151 186 0
152 185 0
148 186 0
152 186 0
149 184 0
146 183 0
150 184 0
159 188 0
149 185 0
146 184 0
151 185 0
145 183 0
148 183 0
154 188 0
150 182 0
149 185 0
152 183 0
154 188 0
145 184 0
154 187 0
146 182 0
154 188 0
157 188 0
153 185 0
152 184 0
144 181 0
155 188 0
147 182 0
156 188 0
150 185 0
147 180 0
144 183 0
139 176 0
140 176 0
151 184 0
152 184 0
141 175 0
153 183 0
152 185 0
150 182 0
152 186 0
149 183 0
147 178 0
144 179 0
148 181 0
151 184 0
152 180 0
149 184 0
149 181 0
154 187 0
153 184 0
157 187 0
147 183 0
146 178 0
155 188 0
148 183 0
148 182 0
152 183 0
147 183 0
148 182 0
153 183 0
153 183 0
151 181 0
153 185 0
151 183 0
149 181 0
155 184 0
146 179 0
151 181 0
149 183 0
148 180 0
152 180 0
150 183 0
145 178 0
150 180 0
149 179 0
147 177 0
152 182 0
152 182 0
150 184 0
153 181 0
141 173 0
157 184 0
149 180 0
154 181 0
151 183 0
150 180 0
151 184 0
151 180 0
151 179 0
152 180 0
149 182 0
156 184 0
152 181 0
155 183 0
147 176 0
153 182 0
151 177 0
149 179 0
150 178 0
150 180 0
153 180 0
151 181 0
153 180 0
152 180 0
148 179 0
151 179 0
157 183 0
150 179 0
156 181 0
153 179 0
150 175 0
157 184 0
147 176 0
147 174 0
152 175 0
148 179 0
148 175 0
147 175 0
151 178 0
155 183 0
157 178 0
157 181 0
151 179 0
155 181 0
151 175 0
154 178 0
162 185 0
156 182 0
155 180 0
152 178 0
155 176 0
159 183 0
156 178 0
147 171 0
146 173 0
150 175 0
160 182 0
151 174 0
147 174 0
151 170 0
150 172 0
153 177 0
154 173 0
161 184 0
153 175 0
147 172 0
157 176 0
154 177 0
156 179 0
155 178 0
152 173 0
146 173 0
154 178 0
163 182 0
150 177 0
153 175 0
152 171 0
158 181 0
148 172 0
154 177 0
157 180 0
153 172 0
157 174 0
158 177 0
154 177 0
155 175 0
152 174 0
154 171 0
148 171 0
158 175 0
151 170 0
151 173 0
161 178 0
157 175 0
156 171 0
153 174 0
153 174 0
160 178 0
153 171 0
156 175 0
160 178 0
159 177 0
149 164 0
160 175 0
160 177 0
155 170 0
156 171 0
157 168 0
157 173 0
154 170 0
154 171 0
153 169 0
155 175 0
153 167 0
161 176 0
155 167 0
159 175 0
160 177 0
157 171 0
153 167 0
155 171 0
152 168 0
157 173 0
158 175 0
150 165 0
160 174 0
159 176 0
160 176 0
152 168 0
156 169 0
156 169 0
161 175 0
159 173 0
156 167 0
160 174 0
161 173 0
159 173 0
158 172 0
162 176 0
158 170 0
164 178 0
166 193 0
170 195 0
168 194 0
168 193 0
168 195 0
167 193 0
166 193 0
170 196 0
171 195 0
169 194 0
169 194 0
165 192 0
168 194 0
167 194 0
170 195 0
165 193 0
163 191 0
165 193 0
165 192 0
167 193 0
168 195 0
165 192 0
168 195 0
167 194 0
163 192 0
169 195 0
165 192 0
163 193 0
164 192 0
156 189 0
168 195 0
164 193 0
164 192 0
163 192 0
167 194 0
162 191 0
168 194 0
166 194 0
165 193 0
165 194 0
168 195 0
161 191 0
165 193 0
163 193 0
166 194 0
162 192 0
166 193 0
160 192 0
160 190 0
167 194 0
164 192 0
164 193 0
161 192 0
165 193 0
164 194 0
163 192 0
160 192 0
162 190 0
162 191 0
164 193 0
161 190 0
168 193 0
161 193 0
160 190 0
160 190 0
155 189 0
167 195 0
163 193 0
164 194 0
164 193 0
160 191 0
156 190 0
154 190 0
158 191 0
162 191 0
156 189 0
158 189 0
157 190 0
159 191 0
161 192 0
162 193 0
163 193 0
166 194 0
154 188 0
160 191 0
156 190 0
157 189 0
161 191 0
161 191 0
161 191 0
158 189 0
158 189 0
164 193 0
155 189 0
157 190 0
153 189 0
159 191 0
164 192 0
156 191 0
161 192 0
155 189 0
152 189 0
159 191 0
156 188 0
152 188 0
158 191 0
162 193 0
159 190 0
155 189 0
155 188 0
156 187 0
160 191 0
163 191 0
163 192 0
158 190 0
160 191 0
157 190 0
162 193 0
159 192 0
153 188 0
157 190 0
159 191 0
152 188 0
161 191 0
161 192 0
158 189 0
161 191 0
155 187 0
155 188 0
156 189 0
156 189 0
153 188 0
161 190 0
163 190 0
160 192 0
154 187 0
154 188 0
162 189 0
154 186 0
156 187 0
153 189 0
157 188 0
156 188 0
157 189 0
155 187 0
152 189 0
151 186 0
155 188 0
151 186 0
154 189 0
159 190 0
148 184 0
149 185 0
152 187 0
153 185 0
157 188 0
155 189 0
158 189 0
154 185 0
156 189 0
146 186 0
156 188 0
151 185 0
147 186 0
159 191 0
151 186 0
153 189 0
155 188 0
159 190 0
152 185 0
143 181 0
149 183 0
152 186 0
155 188 0
146 183 0
150 184 0
144 185 0
151 186 0
150 184 0
156 187 0
150 185 0
155 187 0
152 187 0
153 188 0
155 187 0
152 184 0
147 182 0
151 185 0
150 184 0
142 181 0
151 185 0
153 186 0
149 184 0
149 183 0
153 186 0
147 182 0
145 180 0
156 186 0
149 185 0
149 182 0
144 183 0
154 184 0
146 182 0
149 183 0
151 187 0
155 185 0
143 179 0
150 185 0
147 181 0
147 183 0
152 187 0
153 186 0
151 184 0
152 185 0
148 184 0
152 186 0
151 185 0
146 184 0
144 181 0
156 186 0
145 180 0
151 184 0
147 180 0
146 180 0
153 180 0
150 182 0
149 183 0
150 183 0
147 184 0
152 184 0
142 179 0
151 181 0
148 184 0
146 181 0
154 186 0
146 181 0
150 181 0
148 184 0
148 182 0
146 180 0
149 180 0
156 187 0
147 183 0
151 182 0
153 182 0
151 181 0
158 186 0
153 183 0
148 180 0
154 184 0
150 184 0
152 183 0
158 187 0
148 183 0
147 180 0
154 184 0
153 184 0
149 181 0
149 181 0
151 182 0
152 182 0
149 176 0
151 181 0
146 180 0
155 184 0
158 184 0
151 180 0
155 182 0
152 183 0
146 178 0
152 180 0
152 179 0
160 183 0
158 187 0
146 177 0
153 182 0
156 183 0
150 178 0
150 177 0
152 179 0
148 181 0
150 181 0
150 178 0
156 184 0
148 178 0
152 182 0
156 179 0
154 178 0
155 182 0
149 181 0
147 176 0
151 177 0
147 177 0
154 178 0
154 177 0
151 178 0
156 182 0
150 177 0
155 177 0
148 177 0
154 184 0
148 178 0
154 176 0
151 174 0
155 177 0
152 175 0
143 172 0
153 176 0
153 176 0
156 177 0
148 175 0
150 172 0
153 176 0
160 181 0
157 175 0
148 174 0
154 178 0
155 179 0
149 175 0
156 178 0
155 180 0
147 170 0
149 173 0
152 178 0
156 182 0
150 173 0
153 173 0
152 174 0
158 181 0
151 177 0
154 175 0
155 176 0
152 173 0
156 178 0
150 172 0
159 178 0
153 172 0
148 171 0
160 182 0
150 176 0
156 175 0
154 175 0
158 179 0
153 172 0
156 176 0
155 175 0
152 172 0
158 177 0
155 174 0
153 171 0
155 174 0
158 176 0
152 170 0
157 178 0
151 169 0
156 177 0
162 177 0
154 171 0
152 172 0
149 166 0
153 169 0
161 179 0
156 176 0
157 173 0
157 173 0
161 180 0
154 173 0
156 176 0
159 176 0
160 178 0
155 172 0
159 176 0
150 165 0
154 171 0
157 171 0
160 181 0
157 175 0
160 174 0
159 172 0
160 176 0
155 170 0
152 170 0
157 172 0
157 169 0
161 178 0
154 168 0
160 174 0
156 171 0
161 175 0
162 177 0
156 171 0
161 177 0
161 175 0
157 171 0
161 176 0
152 162 0
158 168 0
155 170 0
165 177 0
159 169 0
172 195 0
172 195 0
164 193 0
169 195 0
168 194 0
168 195 0
165 192 0
165 194 0
170 195 0
168 195 0
165 192 0
169 195 0
170 195 0
171 196 0
169 195 0
171 196 0
166 193 0
164 192 0
168 193 0
164 193 0
165 192 0
169 194 0
170 195 0
164 193 0
165 193 0
164 192 0
164 191 0
164 193 0
168 194 0
165 193 0
169 195 0
164 193 0
167 194 0
167 193 0
166 193 0
158 189 0
167 194 0
166 193 0
165 193 0
161 192 0
165 192 0
162 193 0
164 193 0
167 195 0
163 192 0
163 192 0
157 190 0
163 193 0
164 193 0
168 195 0
160 191 0
164 191 0
163 192 0
163 191 0
164 191 0
163 193 0
167 193 0
163 192 0
165 192 0
169 195 0
161 190 0
163 193 0
167 194 0
160 190 0
161 192 0
165 193 0
163 192 0
163 193 0
160 190 0
165 193 0
160 189 0
161 191 0
162 191 0
161 192 0
162 191 0
164 192 0
161 191 0
161 190 0
160 191 0
160 191 0
162 192 0
159 191 0
161 192 0
165 192 0
156 189 0
158 191 0
161 192 0
160 192 0
156 188 0
156 190 0
158 189 0
160 189 0
162 193 0
162 191 0
161 192 0
160 191 0
154 190 0
153 189 0
158 190 0
156 189 0
162 191 0
158 190 0
161 192 0
157 190 0
159 191 0
157 189 0
154 188 0
150 186 0
163 193 0
152 188 0
158 190 0
160 189 0
160 190 0
149 188 0
156 191 0
157 190 0
157 187 0
155 189 0
159 190 0
156 188 0
153 187 0
148 185 0
159 190 0
154 188 0
158 189 0
167 193 0
161 191 0
153 189 0
163 191 0
157 189 0
157 189 0
157 190 0
160 189 0
148 187 0
158 190 0
152 187 0
156 188 0
165 193 0
160 191 0
158 190 0
159 191 0
155 190 0
149 185 0
151 187 0
157 190 0
153 186 0
148 184 0
152 187 0
153 187 0
144 182 0
157 189 0
159 190 0
153 188 0
157 189 0
155 188 0
158 188 0
152 188 0
156 188 0
154 186 0
155 189 0
153 189 0
154 187 0
145 184 0
156 188 0
152 186 0
155 187 0
155 188 0
153 186 0
153 188 0
150 186 0
151 185 0
154 186 0
159 190 0
155 188 0
162 190 0
148 183 0
157 189 0
146 184 0
151 185 0
147 186 0
154 188 0
154 187 0
153 186 0
156 186 0
143 181 0
146 181 0
153 187 0
154 189 0
154 186 0
154 188 0
151 184 0
146 183 0
155 187 0
148 183 0
156 185 0
158 187 0
144 183 0
155 187 0
153 186 0
159 188 0
151 186 0
147 184 0
144 180 0
155 187 0
151 185 0
150 183 0
149 183 0
159 188 0
147 183 0
158 189 0
151 184 0
144 183 0
155 186 0
149 180 0
160 190 0
154 186 0
150 182 0
144 183 0
150 183 0
154 186 0
155 188 0
147 181 0
148 181 0
150 182 0
156 186 0
152 185 0
147 182 0
159 187 0
151 181 0
152 183 0
147 182 0
154 184 0
145 180 0
141 178 0
151 183 0
149 182 0
152 185 0
148 178 0
161 189 0
142 178 0
155 184 0
143 181 0
151 182 0
153 185 0
145 180 0
154 183 0
149 182 0
153 183 0
150 181 0
154 186 0
154 183 0
149 181 0
150 181 0
155 186 0
147 178 0
152 181 0
149 179 0
149 181 0
148 178 0
153 182 0
142 177 0
150 182 0
156 185 0
152 182 0
150 182 0
151 179 0
153 179 0
147 181 0
154 183 0
149 176 0
150 179 0
144 174 0
152 181 0
152 179 0
149 182 0
157 180 0
159 187 0
155 186 0
147 176 0
148 178 0
157 183 0
148 179 0
152 179 0
156 183 0
153 181 0
156 185 0
153 180 0
152 180 0
157 183 0
158 181 0
157 182 0
150 177 0
157 182 0
155 179 0
155 181 0
154 180 0
156 182 0
149 179 0
152 174 0
156 175 0
151 175 0
156 181 0
146 173 0
154 184 0
160 184 0
154 178 0
155 182 0
150 177 0
161 182 0
152 176 0
156 181 0
151 178 0
149 175 0
153 178 0
154 180 0
154 174 0
146 172 0
154 176 0
155 175 0
153 176 0
151 171 0
155 180 0
159 180 0
159 182 0
144 170 0
150 170 0
151 174 0
158 180 0
150 176 0
151 176 0
150 174 0
153 173 0
160 177 0
158 178 0
158 176 0
154 180 0
156 175 0
151 170 0
155 176 0
153 177 0
153 178 0
154 179 0
148 171 0
152 171 0
154 175 0
160 181 0
160 181 0
159 179 0
155 175 0
152 172 0
155 177 0
151 172 0
150 171 0
158 177 0
156 173 0
160 177 0
160 177 0
158 177 0
162 177 0
157 174 0
157 171 0
159 175 0
150 169 0
157 173 0
157 174 0
157 175 0
153 172 0
155 176 0
151 170 0
163 180 0
161 175 0
153 173 0
158 175 0
153 169 0
155 171 0
160 177 0
154 170 0
159 177 0
150 168 0
157 171 0
159 173 0
162 176 0
159 176 0
159 175 0
154 170 0
160 176 0
159 172 0
158 175 0
154 167 0
158 177 0
160 171 0
163 178 0
156 171 0
155 172 0
160 173 0
161 176 0
158 172 0
162 177 0
162 177 0
157 170 0
165 194 0
169 195 0
169 195 0
169 194 0
168 194 0
170 195 0
166 193 0
169 194 0
168 194 0
164 193 0
164 192 0
164 194 0
167 193 0
161 190 0
168 194 0
166 193 0
168 193 0
165 193 0
166 193 0
172 196 0
169 195 0
167 194 0
164 193 0
167 194 0
168 195 0
168 194 0
169 195 0
168 194 0
166 193 0
165 193 0
168 194 0
165 193 0
163 193 0
167 192 0
169 195 0
167 194 0
166 194 0
158 191 0
161 192 0
162 192 0
168 194 0
170 196 0
162 193 0
166 192 0
164 192 0
164 192 0
164 192 0
164 191 0
165 193 0
159 190 0
163 193 0
167 195 0
162 192 0
167 194 0
168 195 0
167 193 0
164 193 0
163 193 0
166 194 0
163 193 0
162 193 0
161 192 0
164 193 0
163 192 0
158 189 0
164 192 0
164 191 0
165 193 0
166 194 0
163 191 0
160 192 0
164 193 0
161 193 0
160 192 0
166 194 0
158 190 0
161 192 0
154 190 0
160 190 0
164 193 0
160 191 0
163 192 0
159 191 0
155 188 0
165 194 0
159 191 0
163 192 0
155 189 0
165 193 0
157 189 0
160 191 0
162 191 0
160 190 0
164 193 0
158 190 0
158 188 0
162 192 0
165 193 0
158 191 0
156 189 0
162 192 0
154 187 0
162 192 0
159 192 0
161 191 0
159 190 0
164 192 0
166 194 0
160 191 0
158 190 0
159 190 0
164 193 0
161 191 0
159 190 0
156 191 0
159 190 0
155 189 0
156 188 0
158 191 0
154 188 0
161 192 0
163 192 0
161 191 0
156 190 0
169 195 0
159 190 0
164 194 0
160 190 0
157 190 0
149 188 0
155 190 0
160 192 0
152 187 0
156 190 0
153 186 0
154 188 0
156 189 0
154 191 0
157 187 0
157 187 0
156 190 0
156 190 0
157 190 0
161 192 0
159 190 0
157 190 0
154 188 0
149 187 0
151 186 0
154 188 0
153 186 0
153 190 0
157 189 0
153 188 0
153 186 0
154 188 0
153 188 0
154 187 0
153 189 0
150 184 0
156 189 0
156 189 0
154 189 0
153 189 0
151 187 0
156 188 0
153 186 0
159 189 0
156 187 0
159 189 0
147 183 0
152 188 0
157 189 0
154 190 0
149 185 0
147 182 0
159 190 0
152 187 0
150 186 0
153 187 0
151 186 0
153 187 0
153 187 0
152 187 0
152 184 0
155 189 0
157 189 0
159 190 0
148 185 0
159 186 0
154 187 0
151 187 0
146 185 0
151 183 0
157 190 0
148 183 0
155 186 0
155 186 0
144 181 0
155 187 0
148 183 0
149 183 0
152 186 0
148 185 0
158 188 0
153 187 0
152 185 0
145 182 0
149 183 0
154 188 0
150 182 0
156 187 0
155 186 0
154 185 0
145 181 0
151 184 0
148 181 0
152 184 0
153 187 0
150 185 0
156 186 0
148 181 0
146 181 0
151 185 0
158 185 0
147 180 0
150 183 0
154 184 0
144 180 0
154 184 0
146 180 0
154 185 0
151 183 0
150 183 0
156 184 0
153 187 0
143 180 0
153 184 0
151 183 0
162 189 0
158 185 0
151 181 0
154 184 0
140 179 0
151 181 0
143 180 0
152 183 0
147 179 0
151 183 0
153 182 0
151 177 0
154 185 0
151 180 0
147 178 0
154 182 0
152 182 0
146 180 0
145 175 0
153 184 0
150 179 0
153 180 0
146 181 0
154 182 0
151 179 0
153 182 0
153 181 0
151 179 0
143 180 0
157 182 0
152 181 0
155 185 0
153 180 0
143 176 0
149 179 0
149 180 0
153 179 0
142 173 0
159 184 0
147 180 0
155 184 0
154 184 0
149 176 0
148 176 0
148 177 0
153 182 0
149 180 0
150 179 0
156 183 0
155 181 0
144 171 0
149 180 0
153 180 0
153 178 0
156 178 0
149 176 0
153 181 0
156 183 0
152 181 0
156 181 0
158 183 0
156 179 0
150 177 0
150 176 0
152 177 0
153 178 0
153 176 0
154 176 0
149 178 0
151 176 0
150 176 0
156 183 0
159 182 0
150 176 0
152 180 0
153 176 0
155 180 0
149 175 0
152 176 0
147 172 0
159 180 0
155 176 0
153 177 0
155 181 0
153 175 0
151 176 0
157 179 0
153 174 0
150 174 0
151 174 0
153 179 0
154 174 0
151 176 0
158 177 0
159 179 0
158 181 0
162 178 0
153 174 0
153 174 0
155 178 0
156 175 0
153 175 0
157 177 0
155 175 0
153 173 0
158 181 0
153 173 0
150 169 0
161 178 0
145 167 0
148 168 0
157 176 0
153 170 0
161 180 0
158 177 0
160 176 0
156 174 0
155 175 0
152 175 0
154 174 0
159 177 0
159 177 0
160 175 0
151 168 0
154 175 0
155 177 0
159 174 0
160 175 0
162 177 0
159 178 0
155 174 0
158 173 0
154 174 0
158 172 0
156 172 0
158 177 0
158 178 0
156 174 0
150 168 0
158 176 0
160 178 0
154 167 0
158 175 0
157 173 0
155 172 0
158 173 0
155 167 0
157 174 0
161 177 0
160 172 0
159 178 0
159 180 0
158 173 0
160 175 0
161 178 0
160 174 0
155 170 0
156 174 0
160 176 0
157 170 0
159 173 0
167 193 0
165 193 0
166 194 0
168 194 0
167 194 0
166 194 0
167 193 0
166 194 0
165 194 0
169 194 0
167 194 0
171 196 0
169 195 0
165 193 0
171 195 0
165 192 0
164 193 0
167 194 0
168 195 0
170 195 0
171 195 0
163 192 0
164 192 0
166 194 0
164 193 0
168 194 0
163 193 0
162 191 0
165 193 0
167 193 0
166 193 0
169 194 0
167 193 0
166 193 0
162 192 0
167 193 0
167 194 0
167 195 0
164 192 0
166 193 0
168 195 0
164 193 0
166 192 0
169 195 0
167 195 0
162 191 0
162 191 0
167 193 0
166 194 0
166 192 0
161 191 0
165 193 0
160 191 0
163 193 0
158 189 0
167 194 0
166 194 0
160 191 0
163 192 0
161 190 0
161 191 0
161 190 0
161 191 0
167 194 0
161 191 0
159 193 0
162 192 0
160 191 0
168 194 0
165 194 0
159 189 0
165 193 0
166 194 0
165 193 0
160 191 0
160 190 0
164 192 0
162 190 0
162 191 0
157 190 0
165 194 0
162 192 0
165 192 0
158 191 0
160 191 0
163 192 0
165 193 0
159 190 0
167 195 0
161 191 0
154 188 0
156 189 0
155 191 0
157 189 0
161 191 0
161 190 0
158 190 0
160 190 0
159 191 0
161 191 0
156 188 0
160 190 0
156 189 0
157 190 0
155 188 0
154 189 0
156 190 0
160 191 0
160 192 0
159 191 0
161 192 0
156 189 0
157 191 0
158 189 0
156 188 0
155 189 0
158 189 0
158 190 0
164 190 0
157 188 0
155 189 0
157 189 0
155 189 0
158 190 0
165 192 0
158 190 0
159 190 0
159 190 0
160 190 0
156 188 0
155 188 0
161 191 0
153 188 0
149 186 0
156 188 0
155 190 0
150 188 0
157 189 0
157 190 0
159 191 0
155 188 0
154 188 0
162 191 0
154 188 0
153 189 0
153 187 0
156 189 0
147 185 0
160 190 0
151 185 0
155 189 0
153 188 0
150 187 0
160 191 0
150 186 0
153 188 0
154 189 0
155 187 0
156 189 0
153 186 0
155 186 0
148 184 0
152 185 0
152 186 0
155 187 0
154 189 0
154 186 0
154 187 0
156 189 0
150 184 0
152 187 0
160 190 0
159 188 0
151 187 0
155 186 0
151 186 0
156 190 0
146 182 0
154 188 0
147 185 0
153 188 0
155 185 0
148 184 0
148 184 0
153 186 0
158 189 0
140 178 0
155 185 0
154 187 0
151 183 0
151 186 0
149 183 0
157 186 0
158 189 0
154 185 0
154 185 0
149 184 0
145 184 0
154 186 0
150 184 0
151 185 0
153 182 0
155 186 0
151 184 0
157 187 0
157 187 0
160 191 0
148 184 0
143 181 0
154 185 0
147 183 0
149 184 0
156 187 0
154 184 0
156 185 0
159 186 0
153 182 0
152 183 0
153 186 0
148 183 0
152 183 0
155 186 0
150 183 0
144 182 0
152 183 0
153 183 0
150 183 0
156 186 0
155 186 0
152 184 0
155 185 0
152 186 0
156 187 0
147 183 0
152 184 0
156 185 0
145 181 0
153 184 0
153 185 0
154 183 0
152 181 0
149 182 0
144 180 0
148 181 0
153 182 0
156 185 0
154 184 0
154 186 0
157 182 0
150 182 0
152 184 0
149 179 0
151 182 0
152 182 0
152 181 0
155 185 0
151 179 0
150 182 0
149 183 0
154 182 0
148 182 0
153 183 0
154 182 0
157 185 0
150 181 0
151 182 0
147 180 0
151 178 0
155 181 0
149 180 0
156 186 0
150 182 0
152 179 0
154 181 0
148 180 0
153 180 0
152 178 0
153 181 0
151 182 0
153 182 0
152 180 0
153 182 0
149 182 0
151 181 0
146 179 0
147 175 0
153 177 0
152 180 0
149 180 0
157 184 0
151 180 0
155 180 0
151 181 0
154 179 0
158 182 0
151 183 0
150 176 0
156 182 0
159 181 0
153 180 0
148 177 0
152 180 0
154 180 0
161 183 0
151 179 0
160 182 0
148 176 0
159 184 0
156 179 0
156 180 0
152 175 0
152 178 0
161 182 0
161 182 0
156 179 0
152 177 0
159 182 0
152 179 0
153 178 0
164 185 0
151 177 0
155 178 0
152 175 0
150 174 0
155 179 0
150 176 0
147 172 0
162 183 0
156 180 0
156 178 0
156 174 0
154 175 0
156 179 0
155 175 0
156 179 0
158 178 0
153 172 0
156 179 0
154 179 0
151 176 0
157 179 0
160 182 0
154 175 0
149 170 0
162 184 0
147 173 0
151 172 0
155 177 0
155 175 0
151 171 0
153 175 0
161 177 0
152 173 0
162 182 0
153 176 0
154 174 0
156 175 0
158 178 0
159 176 0
155 178 0
153 174 0
159 177 0
158 179 0
154 173 0
154 173 0
155 176 0
157 174 0
150 165 0
157 173 0
162 183 0
158 174 0
161 175 0
158 176 0
157 174 0
157 174 0
158 175 0
153 169 0
157 177 0
155 170 0
162 178 0
153 170 0
154 172 0
156 171 0
162 178 0
165 178 0
154 170 0
155 170 0
154 170 0
153 170 0
149 167 0
160 174 0
162 175 0
158 175 0
156 173 0
163 179 0
161 172 0
157 169 0
159 172 0
160 175 0
159 174 0
168 195 0
169 195 0
167 193 0
168 194 0
169 194 0
166 193 0
170 195 0
165 192 0
166 192 0
165 194 0
168 195 0
166 192 0
169 195 0
165 194 0
167 193 0
169 194 0
166 193 0
169 195 0
167 195 0
167 195 0
168 195 0
164 192 0
163 194 0
165 193 0
168 194 0
168 195 0
162 192 0
165 193 0
166 193 0
172 196 0
170 195 0
164 193 0
168 194 0
164 192 0
165 193 0
164 193 0
165 193 0
162 192 0
165 194 0
163 192 0
159 191 0
169 194 0
165 191 0
162 191 0
162 191 0
163 192 0
161 192 0
164 191 0
161 190 0
161 189 0
164 191 0
158 191 0
166 194 0
158 190 0
157 191 0
156 190 0
159 190 0
162 192 0
160 191 0
164 192 0
167 194 0
163 191 0
165 192 0
161 191 0
161 192 0
165 193 0
162 193 0
160 191 0
166 194 0
159 190 0
153 189 0
155 188 0
167 193 0
161 192 0
163 192 0
161 191 0
154 190 0
161 191 0
161 191 0
162 192 0
159 190 0
166 193 0
157 188 0
155 189 0
162 191 0
159 189 0
163 193 0
160 191 0
166 193 0
158 190 0
154 187 0
158 190 0
158 189 0
160 191 0
159 191 0
158 192 0
161 192 0
160 191 0
159 191 0
167 194 0
155 189 0
168 194 0
163 193 0
157 190 0
152 188 0
162 192 0
158 190 0
160 191 0
163 192 0
156 190 0
162 192 0
151 188 0
154 188 0
157 190 0
159 188 0
160 191 0
161 192 0
156 190 0
156 189 0
160 190 0
156 190 0
151 188 0
159 189 0
152 190 0
155 189 0
159 191 0
157 190 0
156 190 0
154 187 0
153 189 0
155 189 0
152 188 0
162 192 0
156 187 0
162 192 0
156 188 0
155 189 0
149 186 0
155 187 0
164 192 0
152 186 0
155 187 0
160 190 0
155 189 0
158 189 0
151 186 0
157 188 0
154 189 0
157 189 0
152 188 0
157 189 0
156 187 0
155 186 0
154 188 0
155 188 0
161 190 0
149 185 0
149 187 0
151 185 0
158 188 0
160 189 0
159 189 0
157 189 0
150 186 0
146 185 0
151 186 0
153 185 0
149 185 0
150 183 0
147 185 0
152 186 0
151 187 0
156 188 0
154 188 0
156 189 0
156 186 0
141 181 0
150 186 0
161 189 0
148 186 0
146 183 0
146 182 0
149 182 0
148 184 0
159 190 0
155 186 0
143 180 0
153 185 0
153 186 0
155 185 0
150 187 0
154 187 0
145 182 0
152 186 0
155 187 0
151 185 0
154 186 0
152 184 0
155 187 0
148 184 0
149 182 0
145 180 0
155 188 0
151 186 0
153 185 0
151 183 0
154 187 0
144 180 0
142 179 0
150 183 0
157 187 0
149 183 0
153 184 0
156 186 0
152 185 0
152 183 0
147 182 0
145 182 0
157 186 0
147 179 0
155 187 0
153 185 0
148 181 0
155 185 0
156 187 0
147 182 0
151 185 0
156 187 0
146 180 0
151 184 0
149 184 0
152 185 0
147 184 0
148 180 0
152 184 0
154 187 0
150 180 0
147 182 0
157 186 0
156 186 0
154 185 0
155 182 0
151 180 0
157 182 0
153 187 0
156 186 0
159 188 0
149 181 0
151 182 0
141 176 0
149 178 0
158 187 0
154 185 0
152 184 0
150 181 0
151 184 0
150 178 0
151 183 0
153 185 0
152 179 0
156 183 0
151 182 0
153 181 0
152 184 0
148 178 0
156 185 0
152 180 0
147 179 0
143 172 0
150 182 0
150 181 0
153 183 0
150 178 0
152 183 0
153 182 0
149 180 0
153 179 0
153 181 0
149 179 0
146 176 0
155 185 0
157 185 0
148 179 0
152 180 0
156 182 0
157 181 0
150 177 0
153 181 0
152 179 0
147 180 0
155 183 0
157 182 0
150 177 0
153 183 0
151 179 0
149 178 0
158 184 0
154 181 0
150 176 0
156 183 0
150 176 0
156 180 0
156 181 0
151 177 0
149 180 0
152 179 0
160 185 0
156 179 0
153 175 0
148 174 0
157 180 0
149 175 0
153 178 0
160 184 0
152 177 0
149 173 0
158 183 0
160 184 0
151 178 0
157 182 0
151 177 0
150 176 0
155 175 0
161 182 0
162 185 0
152 177 0
151 174 0
157 181 0
150 173 0
157 181 0
152 173 0
147 172 0
160 182 0
155 179 0
155 179 0
157 176 0
158 178 0
147 171 0
157 180 0
153 177 0
156 176 0
158 177 0
158 180 0
162 179 0
154 172 0
156 174 0
153 174 0
160 179 0
147 169 0
159 178 0
150 169 0
156 177 0
157 173 0
157 176 0
158 180 0
151 169 0
150 169 0
157 180 0
155 176 0
155 173 0
154 172 0
155 174 0
158 176 0
156 173 0
156 177 0
159 177 0
154 174 0
161 181 0
155 173 0
153 170 0
158 177 0
156 173 0
155 174 0
156 174 0
157 175 0
156 176 0
157 174 0
159 175 0
155 172 0
154 172 0
161 177 0
159 176 0
157 176 0
162 180 0
160 177 0
158 170 0
157 172 0
158 176 0
164 180 0
158 171 0
159 175 0
164 179 0
160 175 0
163 179 0
157 172 0
165 180 0
158 175 0
162 177 0
160 177 0
162 177 0
165 193 0
171 194 0
167 194 0
164 193 0
167 192 0
168 194 0
171 195 0
171 195 0
170 195 0
167 195 0
165 192 0
166 192 0
164 192 0
165 192 0
165 191 0
163 192 0
166 193 0
169 195 0
170 195 0
168 193 0
170 196 0
166 194 0
167 194 0
163 193 0
162 193 0
165 192 0
165 193 0
166 193 0
169 194 0
165 194 0
162 193 0
162 193 0
167 193 0
161 191 0
165 194 0
160 193 0
164 193 0
166 193 0
161 191 0
162 191 0
168 194 0
159 191 0
164 193 0
167 194 0
165 194 0
166 194 0
159 190 0
162 192 0
163 193 0
168 192 0
163 193 0
159 190 0
162 192 0
162 192 0
161 192 0
164 192 0
162 192 0
163 194 0
161 191 0
157 191 0
162 191 0
165 193 0
160 190 0
165 192 0
158 190 0
159 192 0
159 189 0
164 193 0
161 191 0
158 188 0
158 189 0
163 193 0
164 193 0
160 192 0
163 192 0
160 192 0
164 193 0
165 193 0
158 190 0
163 192 0
166 194 0
162 191 0
158 190 0
160 192 0
164 193 0
159 191 0
163 192 0
165 193 0
164 192 0
159 189 0
166 193 0
163 192 0
159 189 0
156 189 0
155 188 0
157 191 0
154 187 0
164 191 0
161 191 0
160 192 0
157 187 0
164 194 0
156 191 0
158 189 0
159 190 0
162 191 0
162 191 0
161 192 0
160 192 0
163 190 0
159 190 0
157 189 0
153 186 0
157 189 0
154 189 0
159 189 0
158 191 0
162 192 0
155 189 0
163 192 0
152 187 0
154 188 0
152 186 0
155 189 0
155 188 0
166 193 0
143 185 0
158 189 0
150 185 0
158 189 0
159 191 0
157 190 0
153 187 0
161 192 0
160 190 0
155 188 0
153 190 0
158 190 0
158 189 0
153 189 0
155 190 0
158 189 0
154 187 0
158 188 0
160 190 0
159 190 0
156 189 0
156 187 0
155 187 0
143 182 0
157 188 0
157 189 0
148 184 0
162 189 0
158 190 0
148 186 0
155 188 0
152 186 0
155 188 0
156 188 0
159 190 0
151 186 0
156 189 0
155 185 0
163 190 0
148 186 0
154 188 0
154 187 0
155 188 0
153 188 0
158 188 0
157 189 0
155 186 0
141 183 0
151 183 0
154 187 0
155 187 0
157 189 0
155 186 0
158 189 0
156 188 0
157 187 0
157 189 0
154 186 0
161 189 0
154 188 0
152 187 0
149 186 0
150 186 0
159 190 0
154 186 0
146 183 0
151 186 0
157 188 0
158 188 0
155 187 0
154 183 0
154 186 0
158 188 0
152 186 0
152 186 0
148 184 0
153 185 0
157 187 0
156 187 0
146 184 0
143 181 0
155 187 0
149 184 0
150 183 0
150 184 0
147 182 0
151 184 0
161 191 0
150 183 0
152 187 0
152 184 0
155 184 0
152 184 0
153 185 0
146 182 0
150 183 0
148 184 0
148 182 0
151 184 0
150 182 0
153 184 0
154 188 0
152 185 0
153 185 0
156 186 0
153 183 0
152 183 0
155 187 0
152 184 0
149 180 0
157 185 0
158 186 0
147 184 0
150 181 0
147 182 0
149 179 0
155 187 0
148 180 0
153 186 0
156 186 0
150 180 0
156 181 0
152 182 0
158 184 0
159 185 0
147 181 0
149 181 0
158 187 0
151 181 0
155 186 0
150 182 0
152 181 0
149 180 0
155 184 0
157 184 0
150 180 0
153 183 0
153 185 0
158 185 0
155 182 0
150 178 0
153 182 0
150 183 0
144 178 0
151 180 0
150 180 0
151 181 0
159 185 0
155 183 0
148 174 0
150 179 0
155 184 0
151 184 0
157 185 0
152 182 0
160 188 0
152 179 0
152 182 0
152 180 0
151 180 0
155 183 0
155 183 0
156 181 0
151 181 0
151 179 0
154 180 0
144 175 0
148 178 0
156 179 0
155 181 0
151 180 0
154 183 0
163 185 0
152 180 0
161 185 0
152 180 0
152 181 0
150 178 0
153 179 0
160 182 0
150 182 0
155 180 0
154 183 0
149 177 0
162 187 0
156 178 0
151 176 0
154 182 0
155 180 0
150 177 0
154 180 0
157 179 0
149 176 0
153 173 0
153 178 0
154 174 0
150 179 0
150 175 0
150 172 0
158 182 0
159 180 0
150 176 0
154 172 0
155 179 0
156 179 0
155 174 0
153 176 0
151 173 0
155 179 0
157 179 0
159 180 0
158 181 0
160 183 0
156 179 0
153 175 0
158 178 0
152 174 0
158 180 0
156 178 0
159 182 0
146 172 0
154 174 0
152 175 0
156 178 0
152 169 0
151 174 0
156 175 0
152 172 0
157 176 0
154 170 0
155 176 0
152 172 0
155 179 0
151 171 0
156 173 0
158 175 0
158 177 0
156 176 0
155 172 0
161 180 0
154 173 0
157 178 0
160 174 0
151 171 0
160 181 0
155 175 0
154 171 0
153 171 0
159 177 0
154 173 0
153 173 0
157 175 0
162 178 0
163 182 0
153 173 0
159 175 0
159 175 0
158 174 0
156 177 0
158 177 0
157 172 0
158 174 0
163 178 0
153 170 0
159 174 0
158 174 0
155 172 0
153 171 0
157 174 0
159 171 0
156 172 0
163 178 0
161 178 0
162 178 0
167 194 0
166 194 0
171 196 0
169 196 0
168 194 0
169 195 0
170 195 0
161 192 0
162 192 0
166 193 0
163 192 0
168 195 0
169 194 0
167 195 0
166 194 0
162 192 0
170 195 0
168 195 0
166 193 0
165 194 0
166 192 0
164 192 0
166 195 0
164 192 0
166 193 0
168 195 0
161 192 0
163 194 0
166 192 0
163 192 0
160 191 0
165 193 0
162 193 0
166 194 0
171 195 0
159 190 0
166 194 0
161 192 0
163 192 0
162 192 0
165 193 0
167 193 0
161 191 0
168 194 0
162 192 0
162 192 0
164 193 0
161 193 0
164 193 0
163 193 0
164 193 0
166 194 0
167 195 0
157 189 0
165 192 0
166 193 0
162 193 0
168 194 0
162 192 0
158 191 0
162 192 0
164 193 0
163 193 0
161 190 0
160 191 0
161 191 0
162 191 0
158 191 0
159 190 0
164 191 0
164 192 0
163 193 0
162 191 0
161 192 0
156 190 0
160 191 0
156 188 0
158 190 0
156 190 0
161 191 0
160 191 0
160 190 0
165 192 0
159 190 0
164 193 0
159 190 0
158 191 0
160 190 0
162 192 0
163 192 0
160 191 0
159 192 0
156 188 0
154 190 0
158 190 0
159 192 0
161 191 0
160 190 0
158 191 0
159 190 0
155 189 0
161 191 0
160 191 0
160 192 0
166 193 0
160 190 0
160 190 0
160 190 0
156 189 0
156 189 0
152 186 0
157 189 0
163 192 0
158 190 0
163 191 0
156 189 0
158 191 0
160 188 0
156 189 0
158 190 0
158 189 0
162 191 0
157 190 0
162 192 0
157 188 0
155 190 0
159 191 0
156 189 0
165 194 0
158 191 0
150 186 0
156 189 0
161 193 0
159 187 0
156 189 0
163 191 0
152 188 0
155 189 0
156 189 0
154 188 0
157 189 0
164 192 0
154 188 0
158 189 0
155 188 0
162 190 0
157 188 0
150 185 0
162 191 0
158 188 0
156 189 0
155 188 0
160 188 0
155 188 0
155 190 0
152 185 0
155 188 0
155 189 0
157 190 0
156 186 0
149 186 0
155 188 0
152 187 0
150 187 0
154 188 0
151 186 0
151 185 0
152 185 0
153 187 0
159 189 0
151 188 0
157 187 0
149 185 0
157 188 0
152 186 0
154 188 0
157 187 0
152 186 0
151 186 0
158 188 0
158 188 0
156 187 0
151 186 0
155 186 0
152 186 0
157 189 0
156 187 0
160 189 0
153 187 0
152 186 0
152 184 0
150 184 0
155 187 0
149 183 0
152 187 0
154 187 0
138 181 0
150 185 0
156 188 0
156 186 0
158 189 0
158 188 0
151 183 0
154 187 0
153 184 0
146 180 0
157 187 0
158 187 0
150 183 0
148 184 0
150 186 0
155 185 0
147 182 0
156 187 0
151 186 0
152 183 0
157 188 0
151 185 0
151 185 0
151 184 0
151 185 0
144 180 0
160 190 0
156 186 0
157 186 0
154 188 0
152 185 0
150 183 0
152 186 0
148 181 0
156 186 0
150 184 0
152 181 0
157 186 0
149 183 0
152 183 0
153 184 0
148 182 0
160 187 0
156 188 0
147 181 0
154 184 0
158 189 0
152 183 0
152 183 0
154 183 0
154 185 0
153 184 0
159 188 0
155 183 0
150 183 0
148 180 0
159 186 0
151 183 0
154 185 0
146 177 0
148 181 0
154 186 0
153 183 0
153 184 0
154 187 0
154 182 0
146 177 0
159 188 0
148 177 0
152 181 0
151 180 0
155 184 0
161 188 0
150 181 0
151 182 0
149 183 0
149 179 0
160 187 0
158 186 0
160 186 0
150 180 0
155 183 0
149 180 0
149 180 0
156 183 0
157 184 0
152 178 0
154 178 0
151 182 0
154 181 0
160 186 0
151 182 0
156 183 0
155 181 0
151 175 0
155 179 0
157 182 0
157 185 0
152 177 0
155 182 0
162 187 0
156 183 0
153 179 0
156 181 0
155 183 0
147 174 0
159 184 0
158 180 0
152 179 0
155 181 0
154 178 0
159 182 0
152 176 0
154 183 0
154 179 0
154 177 0
151 179 0
155 180 0
157 183 0
157 180 0
163 188 0
157 182 0
157 183 0
152 178 0
153 177 0
156 175 0
151 174 0
155 178 0
156 179 0
155 177 0
161 181 0
160 185 0
154 175 0
154 177 0
159 181 0
147 171 0
156 179 0
155 179 0
156 178 0
158 182 0
153 178 0
158 179 0
155 176 0
156 178 0
158 181 0
153 174 0
152 174 0
156 176 0
148 175 0
155 178 0
156 179 0
155 177 0
159 176 0
157 177 0
153 173 0
150 170 0
156 177 0
158 179 0
156 178 0
160 180 0
158 177 0
149 173 0
156 178 0
153 173 0
156 176 0
156 176 0
157 176 0
154 173 0
156 175 0
152 172 0
152 168 0
155 174 0
155 171 0
157 172 0
155 177 0
157 173 0
161 178 0
155 172 0
157 174 0
159 180 0
162 180 0
155 175 0
152 173 0
155 173 0
156 171 0
154 168 0
158 177 0
159 175 0
154 170 0
160 177 0
158 175 0
152 167 0
159 179 0
160 175 0
157 169 0
164 183 0
156 171 0
155 172 0
160 176 0
161 174 0
158 173 0
157 172 0
165 182 0
160 176 0
168 194 0
166 193 0
166 194 0
166 193 0
165 193 0
165 193 0
166 194 0
166 194 0
169 194 0
168 193 0
167 194 0
165 194 0
168 194 0
166 192 0
166 193 0
162 192 0
164 192 0
161 190 0
166 194 0
167 195 0
164 192 0
161 192 0
162 192 0
167 195 0
168 195 0
164 192 0
169 195 0
164 192 0
160 192 0
164 193 0
166 193 0
161 192 0
168 194 0
161 191 0
164 193 0
160 191 0
162 192 0
158 191 0
160 191 0
160 191 0
165 193 0
164 193 0
156 189 0
164 192 0
169 194 0
165 193 0
166 194 0
165 193 0
163 191 0
160 191 0
160 190 0
165 194 0
164 192 0
166 194 0
164 191 0
167 192 0
166 193 0
163 193 0
165 193 0
165 194 0
163 189 0
161 191 0
166 195 0
156 190 0
162 191 0
158 188 0
161 192 0
162 192 0
163 191 0
155 189 0
163 193 0
159 190 0
165 193 0
162 191 0
162 191 0
159 191 0
167 194 0
160 190 0
158 191 0
165 193 0
166 193 0
161 191 0
164 192 0
164 192 0
158 191 0
166 193 0
163 192 0
162 192 0
156 190 0
159 189 0
160 190 0
158 190 0
157 190 0
163 192 0
161 190 0
161 191 0
159 191 0
158 190 0
155 188 0
159 190 0
152 185 0
160 191 0
161 192 0
157 190 0
152 187 0
159 189 0
157 188 0
157 188 0
155 189 0
157 189 0
160 191 0
161 190 0
153 188 0
164 192 0
157 188 0
160 191 0
156 190 0
160 191 0
163 191 0
156 190 0
160 190 0
158 189 0
152 187 0
161 192 0
158 190 0
161 191 0
159 191 0
154 188 0
155 189 0
162 192 0
155 189 0
160 191 0
153 188 0
163 192 0
158 191 0
157 188 0
157 189 0
154 188 0
161 190 0
157 188 0
161 189 0
157 189 0
151 187 0
155 189 0
159 190 0
156 187 0
157 190 0
160 189 0
157 190 0
155 187 0
154 186 0
146 185 0
159 187 0
154 186 0
156 190 0
150 185 0
162 190 0
159 190 0
159 190 0
156 189 0
153 189 0
151 187 0
151 186 0
155 189 0
148 186 0
156 188 0
160 192 0
154 188 0
158 189 0
157 188 0
151 185 0
146 183 0
150 186 0
153 190 0
157 188 0
151 187 0
156 188 0
164 191 0
154 187 0
154 187 0
152 186 0
157 189 0
153 188 0
162 189 0
153 188 0
150 183 0
158 188 0
145 182 0
157 187 0
150 185 0
148 181 0
157 187 0
153 185 0
155 186 0
157 188 0
158 188 0
154 188 0
152 186 0
152 185 0
161 190 0
149 183 0
150 186 0
144 181 0
148 185 0
146 183 0
156 189 0
153 184 0
158 189 0
153 186 0
156 189 0
156 186 0
154 186 0
150 184 0
147 183 0
155 186 0
158 187 0
146 181 0
149 183 0
146 183 0
157 186 0
156 186 0
156 188 0
153 184 0
160 186 0
161 189 0
151 183 0
148 184 0
155 184 0
150 182 0
147 182 0
158 190 0
153 185 0
153 185 0
151 184 0
153 184 0
153 184 0
152 182 0
159 186 0
160 188 0
154 189 0
153 186 0
149 182 0
156 185 0
145 180 0
159 187 0
151 183 0
150 183 0
157 186 0
158 186 0
156 182 0
154 184 0
155 182 0
150 183 0
153 184 0
150 183 0
153 187 0
150 183 0
155 185 0
158 182 0
148 180 0
154 183 0
154 184 0
154 180 0
165 190 0
157 184 0
153 183 0
155 181 0
159 187 0
154 182 0
153 181 0
153 178 0
148 178 0
164 188 0
154 184 0
151 182 0
154 182 0
153 185 0
153 184 0
154 182 0
155 183 0
152 179 0
148 179 0
151 178 0
154 183 0
154 178 0
157 185 0
153 180 0
154 181 0
148 178 0
147 178 0
155 182 0
158 183 0
151 180 0
157 185 0
156 184 0
151 178 0
151 179 0
147 174 0
155 179 0
156 181 0
149 178 0
150 178 0
155 184 0
152 174 0
149 174 0
143 177 0
150 179 0
153 175 0
151 177 0
155 185 0
152 175 0
151 177 0
157 181 0
154 175 0
149 177 0
149 176 0
151 177 0
152 176 0
154 179 0
157 184 0
155 180 0
157 181 0
155 181 0
152 175 0
155 179 0
155 177 0
152 175 0
154 177 0
146 177 0
159 182 0
156 178 0
156 180 0
150 177 0
158 180 0
154 179 0
160 182 0
159 179 0
156 181 0
153 179 0
159 181 0
156 180 0
155 176 0
156 180 0
161 183 0
154 177 0
153 179 0
153 178 0
158 177 0
151 175 0
157 181 0
160 180 0
157 177 0
158 176 0
157 182 0
156 174 0
152 173 0
157 176 0
158 178 0
157 178 0
163 183 0
152 177 0
154 176 0
151 173 0
158 177 0
153 176 0
155 176 0
152 170 0
162 178 0
156 177 0
156 175 0
157 173 0
155 173 0
159 176 0
159 176 0
158 176 0
152 170 0
159 173 0
156 177 0
162 182 0
158 175 0
162 178 0
156 172 0
158 174 0
158 175 0
159 175 0
157 172 0
157 176 0
163 180 0
158 174 0
155 173 0
157 173 0
156 171 0
156 173 0
163 178 0
159 174 0
156 173 0
153 173 0
160 175 0
162 179 0
159 169 0
167 194 0
168 193 0
168 193 0
162 192 0
166 194 0
164 192 0
166 194 0
165 193 0
165 192 0
171 196 0
168 194 0
168 193 0
170 195 0
171 196 0
165 192 0
167 194 0
170 195 0
170 195 0
161 190 0
164 193 0
165 192 0
170 194 0
162 191 0
165 194 0
161 191 0
166 193 0
165 193 0
161 191 0
165 193 0
165 192 0
165 193 0
167 194 0
166 194 0
164 193 0
167 194 0
165 191 0
162 191 0
162 192 0
164 194 0
162 193 0
161 191 0
167 193 0
156 187 0
163 191 0
163 192 0
167 193 0
168 194 0
159 190 0
167 194 0
166 194 0
166 192 0
162 192 0
160 192 0
165 193 0
162 191 0
160 190 0
165 192 0
160 192 0
162 191 0
164 193 0
164 193 0
162 192 0
163 193 0
160 191 0
164 193 0
162 191 0
158 192 0
161 193 0
164 193 0
162 192 0
164 193 0
164 194 0
161 191 0
161 191 0
161 193 0
164 193 0
162 190 0
157 190 0
167 194 0
166 194 0
157 191 0
158 190 0
167 194 0
155 188 0
162 191 0
160 191 0
163 192 0
160 190 0
161 190 0
158 191 0
161 190 0
155 190 0
153 187 0
158 189 0
157 190 0
158 190 0
162 192 0
154 188 0
165 194 0
157 190 0
157 190 0
159 191 0
158 188 0
164 192 0
162 192 0
159 191 0
159 189 0
158 190 0
155 189 0
156 189 0
160 191 0
156 187 0
154 189 0
152 189 0
158 190 0
154 188 0
161 190 0
154 186 0
153 187 0
155 189 0
156 189 0
166 191 0
154 188 0
153 187 0
159 190 0
161 190 0
160 191 0
155 191 0
157 188 0
157 190 0
159 189 0
160 190 0
159 189 0
159 192 0
160 191 0
147 183 0
152 185 0
161 189 0
161 189 0
153 187 0
158 189 0
161 191 0
158 189 0
162 192 0
160 191 0
160 190 0
156 189 0
151 185 0
159 189 0
152 187 0
156 188 0
159 189 0
151 186 0
159 190 0
156 188 0
153 188 0
154 187 0
154 187 0
149 185 0
149 186 0
150 187 0
157 187 0
155 187 0
155 188 0
156 188 0
151 187 0
156 190 0
159 189 0
146 185 0
152 186 0
158 189 0
151 186 0
155 188 0
150 186 0
153 186 0
158 188 0
149 186 0
159 191 0
150 184 0
151 184 0
162 191 0
153 184 0
152 184 0
156 188 0
159 187 0
155 186 0
159 189 0
147 185 0
146 180 0
157 189 0
150 185 0
155 186 0
145 184 0
151 186 0
157 187 0
155 187 0
155 189 0
154 183 0
158 188 0
148 183 0
151 184 0
154 187 0
149 186 0
152 186 0
150 183 0
153 188 0
156 187 0
153 185 0
155 186 0
156 186 0
151 187 0
156 184 0
145 180 0
160 190 0
156 187 0
148 183 0
149 184 0
156 184 0
149 181 0
145 182 0
153 185 0
148 184 0
157 187 0
149 183 0
153 184 0
147 181 0
153 182 0
152 183 0
154 185 0
150 181 0
157 186 0
150 185 0
148 180 0
152 182 0
149 185 0
147 184 0
152 183 0
150 185 0
151 181 0
156 187 0
149 182 0
154 185 0
154 184 0
149 180 0
158 191 0
149 182 0
150 184 0
147 180 0
153 183 0
150 181 0
150 182 0
152 182 0
151 184 0
152 179 0
146 178 0
149 181 0
154 185 0
153 181 0
152 181 0
151 181 0
151 182 0
149 181 0
153 185 0
157 186 0
149 181 0
143 176 0
155 184 0
154 182 0
156 183 0
160 186 0
158 185 0
150 179 0
150 182 0
147 180 0
147 179 0
157 186 0
154 182 0
151 179 0
156 186 0
158 185 0
152 181 0
159 186 0
153 179 0
157 184 0
152 182 0
157 184 0
151 178 0
155 183 0
157 184 0
160 186 0
150 177 0
157 184 0
155 180 0
159 185 0
151 178 0
158 186 0
155 185 0
160 185 0
152 177 0
155 182 0
156 183 0
151 174 0
147 176 0
158 184 0
161 186 0
149 175 0
147 174 0
152 180 0
156 182 0
152 181 0
158 182 0
156 181 0
152 175 0
157 183 0
161 186 0
159 185 0
150 176 0
157 180 0
158 183 0
151 175 0
153 178 0
153 178 0
159 181 0
149 172 0
159 186 0
157 181 0
156 179 0
156 179 0
154 178 0
158 184 0
156 185 0
156 176 0
157 178 0
154 176 0
155 179 0
158 180 0
153 175 0
160 184 0
155 180 0
152 176 0
149 171 0
154 178 0
158 181 0
156 175 0
151 173 0
161 183 0
154 176 0
155 179 0
160 179 0
157 179 0
155 175 0
156 178 0
155 174 0
152 173 0
153 174 0
158 179 0
155 176 0
161 177 0
156 177 0
155 173 0
156 177 0
158 175 0
157 176 0
153 176 0
163 180 0
158 179 0
158 179 0
155 173 0
160 180 0
153 174 0
154 172 0
156 178 0
163 183 0
162 181 0
161 181 0
156 174 0
162 179 0
164 184 0
154 174 0
155 173 0
157 175 0
159 179 0
155 171 0
159 179 0
165 182 0
155 173 0
161 179 0
158 174 0
158 175 0
155 169 0
162 178 0
155 174 0
158 173 0
163 179 0
160 176 0
156 169 0
159 176 0
159 179 0
161 179 0
165 183 0
168 194 0
167 194 0
165 191 0
168 193 0
168 193 0
161 191 0
167 194 0
165 194 0
169 194 0
169 194 0
164 193 0
166 194 0
162 190 0
166 193 0
164 193 0
167 194 0
168 194 0
167 193 0
168 193 0
171 195 0
161 192 0
160 191 0
166 194 0
166 192 0
165 193 0
165 193 0
168 194 0
165 193 0
166 191 0
159 192 0
173 196 0
165 193 0
166 192 0
166 193 0
165 193 0
169 195 0
159 191 0
165 193 0
165 192 0
166 193 0
161 192 0
160 190 0
167 195 0
164 192 0
168 195 0
165 192 0
161 191 0
165 192 0
162 191 0
165 194 0
159 191 0
161 192 0
158 191 0
161 191 0
162 191 0
161 192 0
164 193 0
164 193 0
162 193 0
157 189 0
161 193 0
163 192 0
162 191 0
162 192 0
161 191 0
164 192 0
162 193 0
164 193 0
166 194 0
163 191 0
162 191 0
158 191 0
162 191 0
164 193 0
164 192 0
164 192 0
160 189 0
158 190 0
163 192 0
166 194 0
164 193 0
158 192 0
157 190 0
161 192 0
161 191 0
159 189 0
160 191 0
160 192 0
159 191 0
159 191 0
158 190 0
161 192 0
159 191 0
165 193 0
158 190 0
160 191 0
165 194 0
158 188 0
155 189 0
158 191 0
161 193 0
158 189 0
161 191 0
160 191 0
156 190 0
161 190 0
157 191 0
162 192 0
157 191 0
158 190 0
158 189 0
157 189 0
159 190 0
161 191 0
156 188 0
164 192 0
156 189 0
154 186 0
161 190 0
164 192 0
160 191 0
162 190 0
155 188 0
156 189 0
155 187 0
158 189 0
156 188 0
161 191 0
152 189 0
159 190 0
161 191 0
163 192 0
163 190 0
157 188 0
159 190 0
143 182 0
158 188 0
159 190 0
155 189 0
157 189 0
158 189 0
156 188 0
161 190 0
153 186 0
159 191 0
156 190 0
155 189 0
161 189 0
155 189 0
161 190 0
155 185 0
156 188 0
151 187 0
157 189 0
148 184 0
156 189 0
149 186 0
157 189 0
156 190 0
156 190 0
147 182 0
155 188 0
157 188 0
150 186 0
154 188 0
156 187 0
154 188 0
155 188 0
149 185 0
150 187 0
151 186 0
144 182 0
151 187 0
155 185 0
147 183 0
156 187 0
158 188 0
159 189 0
151 186 0
154 185 0
154 186 0
163 190 0
155 184 0
148 183 0
153 186 0
153 186 0
154 187 0
158 189 0
144 183 0
156 187 0
153 185 0
155 186 0
158 188 0
151 186 0
157 187 0
156 188 0
152 184 0
154 185 0
150 182 0
151 186 0
153 184 0
152 185 0
156 190 0
157 188 0
155 188 0
147 185 0
148 185 0
148 182 0
153 186 0
158 188 0
157 185 0
157 188 0
153 185 0
155 186 0
150 184 0
162 188 0
153 187 0
156 187 0
157 186 0
158 187 0
148 186 0
149 181 0
149 182 0
154 187 0
154 188 0
156 186 0
155 187 0
147 182 0
155 184 0
158 186 0
154 185 0
153 184 0
146 184 0
150 181 0
153 183 0
151 185 0
156 187 0
151 183 0
158 187 0
158 188 0
154 183 0
151 183 0
152 185 0
158 186 0
153 183 0
145 178 0
149 180 0
147 182 0
151 182 0
157 185 0
148 177 0
152 182 0
151 182 0
158 186 0
153 183 0
147 176 0
152 182 0
148 179 0
155 184 0
159 188 0
155 182 0
158 185 0
152 183 0
154 183 0
149 180 0
154 182 0
157 185 0
156 187 0
157 186 0
152 181 0
158 187 0
150 179 0
154 182 0
157 185 0
165 190 0
152 181 0
151 180 0
158 187 0
155 184 0
153 181 0
158 185 0
155 186 0
153 181 0
149 181 0
150 181 0
155 183 0
154 182 0
150 179 0
155 183 0
153 185 0
153 181 0
154 180 0
156 183 0
146 178 0
160 185 0
154 183 0
158 184 0
154 182 0
153 179 0
159 182 0
152 179 0
153 181 0
153 180 0
152 177 0
157 183 0
158 181 0
151 180 0
154 178 0
155 181 0
160 183 0
155 181 0
155 181 0
150 175 0
156 180 0
156 181 0
158 183 0
160 185 0
155 181 0
156 181 0
157 182 0
155 179 0
160 183 0
158 184 0
155 181 0
153 174 0
155 178 0
155 178 0
148 177 0
155 180 0
157 181 0
157 178 0
155 182 0
154 177 0
155 182 0
158 179 0
152 178 0
155 174 0
160 178 0
147 172 0
153 175 0
157 179 0
156 179 0
150 175 0
155 174 0
150 172 0
163 180 0
159 177 0
164 183 0
162 182 0
151 179 0
158 180 0
159 179 0
160 181 0
159 180 0
149 168 0
158 178 0
158 178 0
154 176 0
154 174 0
160 180 0
155 178 0
156 178 0
158 175 0
153 173 0
158 177 0
157 174 0
156 173 0
155 173 0
157 177 0
155 175 0
158 174 0
159 179 0
155 173 0
159 177 0
161 180 0
157 178 0
160 178 0
155 179 0
153 171 0
154 175 0
159 176 0
160 179 0
161 182 0
159 176 0
158 175 0
155 173 0
164 183 0
162 178 0
159 175 0
153 172 0
160 176 0
160 175 0
154 173 0
157 175 0
155 171 0
158 175 0
161 178 0
157 172 0
158 173 0
162 176 0
167 193 0
168 194 0
173 196 0
168 195 0
167 194 0
167 194 0
168 195 0
166 193 0
166 194 0
172 196 0
165 194 0
169 195 0
165 193 0
164 192 0
170 195 0
167 194 0
163 190 0
165 194 0
166 192 0
167 194 0
164 192 0
167 195 0
165 194 0
163 192 0
164 193 0
167 194 0
163 192 0
166 193 0
165 194 0
161 191 0
167 194 0
165 192 0
165 193 0
168 195 0
164 192 0
166 193 0
165 193 0
166 193 0
160 191 0
164 192 0
163 192 0
162 192 0
163 193 0
158 190 0
160 189 0
155 188 0
162 192 0
170 195 0
166 193 0
160 191 0
167 194 0
162 192 0
163 193 0
163 192 0
157 189 0
160 191 0
164 194 0
164 193 0
161 191 0
163 191 0
160 190 0
165 192 0
159 190 0
164 192 0
160 192 0
162 191 0
163 191 0
161 189 0
166 193 0
164 192 0
159 190 0
168 194 0
166 193 0
163 193 0
163 192 0
159 191 0
166 193 0
163 191 0
156 190 0
161 192 0
161 193 0
164 193 0
158 192 0
161 191 0
164 193 0
163 193 0
165 193 0
161 192 0
164 192 0
159 190 0
157 191 0
159 189 0
152 186 0
161 192 0
165 193 0
161 192 0
160 190 0
162 192 0
158 189 0
160 192 0
162 192 0
161 191 0
159 190 0
158 189 0
164 193 0
160 192 0
165 193 0
160 191 0
155 187 0
156 188 0
162 192 0
160 190 0
159 191 0
156 189 0
152 186 0
167 194 0
163 192 0
156 188 0
162 191 0
155 187 0
157 189 0
162 192 0
158 189 0
154 190 0
162 190 0
160 191 0
161 189 0
157 190 0
161 190 0
152 187 0
151 188 0
152 188 0
154 188 0
154 187 0
160 190 0
154 187 0
157 189 0
155 188 0
161 191 0
156 189 0
157 189 0
160 190 0
161 191 0
159 189 0
155 187 0
155 188 0
156 190 0
153 187 0
149 185 0
156 188 0
154 188 0
156 188 0
157 190 0
156 189 0
150 186 0
167 194 0
152 187 0
160 190 0
154 187 0
156 187 0
154 188 0
149 183 0
157 188 0
158 191 0
154 187 0
154 186 0
154 187 0
156 187 0
157 190 0
156 186 0
157 188 0
157 187 0
152 186 0
155 186 0
153 184 0
150 187 0
157 188 0
152 183 0
148 184 0
156 188 0
156 188 0
159 189 0
147 184 0
154 185 0
152 186 0
152 186 0
156 188 0
162 191 0
153 186 0
156 187 0
154 187 0
160 189 0
148 182 0
155 188 0
153 186 0
147 184 0
147 185 0
152 184 0
154 185 0
147 184 0
156 186 0
159 189 0
153 185 0
155 186 0
153 187 0
152 184 0
157 189 0
152 184 0
154 184 0
158 189 0
149 183 0
159 187 0
157 187 0
153 187 0
153 187 0
155 187 0
154 186 0
155 188 0
148 182 0
152 188 0
155 182 0
155 187 0
147 183 0
153 185 0
150 183 0
148 181 0
154 187 0
153 185 0
153 182 0
149 184 0
144 179 0
154 183 0
163 189 0
147 181 0
153 184 0
157 186 0
154 184 0
156 186 0
154 185 0
152 184 0
157 185 0
154 182 0
149 181 0
154 184 0
155 185 0
153 183 0
158 186 0
151 182 0
146 179 0
151 185 0
154 184 0
149 183 0
151 184 0
153 184 0
150 178 0
152 182 0
155 184 0
153 184 0
158 185 0
145 180 0
149 178 0
156 186 0
153 183 0
151 183 0
148 181 0
150 182 0
154 183 0
156 187 0
154 181 0
162 188 0
152 184 0
151 180 0
158 184 0
158 183 0
159 188 0
152 180 0
158 187 0
158 188 0
154 182 0
148 180 0
153 179 0
159 187 0
151 183 0
150 180 0
158 185 0
156 185 0
154 181 0
153 178 0
154 182 0
160 185 0
152 185 0
149 176 0
155 184 0
151 182 0
158 182 0
160 186 0
156 185 0
151 178 0
152 178 0
152 182 0
156 182 0
151 178 0
153 182 0
159 182 0
154 180 0
155 183 0
158 185 0
150 177 0
160 187 0
160 184 0
150 178 0
155 181 0
155 178 0
154 181 0
155 181 0
152 179 0
159 184 0
156 181 0
156 180 0
161 181 0
154 181 0
156 179 0
160 181 0
151 174 0
154 179 0
156 180 0
150 181 0
151 174 0
153 179 0
154 178 0
160 183 0
153 180 0
155 178 0
154 180 0
155 180 0
156 176 0
156 179 0
155 177 0
160 184 0
157 177 0
162 183 0
156 179 0
157 181 0
156 176 0
157 183 0
159 179 0
160 182 0
152 173 0
157 179 0
160 182 0
159 179 0
156 177 0
152 176 0
161 180 0
161 182 0
157 178 0
158 177 0
152 175 0
157 180 0
159 181 0
153 173 0
158 180 0
159 177 0
151 177 0
155 173 0
156 177 0
159 178 0
154 176 0
160 179 0
158 176 0
157 177 0
162 180 0
151 172 0
156 171 0
159 178 0
153 172 0
157 175 0
157 177 0
160 178 0
163 184 0
157 175 0
163 182 0
154 179 0
157 172 0
156 173 0
160 181 0
159 172 0
162 179 0
157 173 0
155 175 0
162 181 0
159 173 0
161 178 0
161 179 0
157 174 0
161 181 0
163 182 0
156 173 0
159 176 0
162 179 0
