P3
400 225
255
204 225 254
203 225 254
203 225 254
203 225 254
203 225 254
203 225 254
203 225 254
203 225 254
203 225 254
203 225 254
203 225 254
203 225 254
203 225 254
203 225 254
203 225 254
203 225 254
203 225 254
203 225 254
203 225 254
202 225 254
202 225 254
202 225 254
202 225 254
202 225 254
202 225 254
202 225 254
202 224 254
202 224 254
202 224 254
202 224 254
202 224 254
202 224 254
202 224 254
202 224 254
202 224 254
201 224 254
201 224 254
201 224 254
201 224 254
201 224 254
201 224 254
201 224 254
201 224 254
201 224 254
201 224 254
201 224 254
201 224 254
201 224 254
201 224 254
201 224 254
201 224 254
200 224 254
200 224 254
200 224 254
200 224 254
200 224 254
200 223 254
200 223 254
200 223 254
200 223 254
200 223 254
200 223 254
200 223 254
200 223 254
200 223 254
200 223 254
199 223 254
199 223 254
199 223 254
199 223 254
199 223 254
199 223 254
199 223 254
199 223 254
199 223 254
199 223 254
199 223 254
199 223 254
199 223 254
199 223 254
199 223 254
198 223 254
198 223 254
198 222 254
198 222 254
198 222 254
198 222 254
198 222 254
198 222 254
198 222 254
198 222 254
198 222 254
198 222 254
198 222 254
198 222 254
197 222 254
197 222 254
197 222 254
197 222 254
197 222 254
197 222 254
197 222 254
197 222 254
197 222 254
197 222 254
197 222 254
197 222 254
197 222 254
197 222 254
196 222 254
196 221 254
196 221 254
196 221 254
196 221 254
196 221 254
196 221 254
196 221 254
196 221 254
196 221 254
196 221 254
196 221 254
196 221 254
196 221 254
196 221 254
195 221 254
195 221 254
195 221 254
195 221 254
195 221 254
195 221 254
195 221 254
195 221 254
195 221 254
195 221 254
195 221 254
195 221 254
195 221 254
195 221 254
195 221 254
195 220 254
195 220 254
194 220 254
194 220 254
194 220 254
194 220 254
194 220 254
194 220 254
194 220 254
194 220 254
194 220 254
194 220 254
194 220 254
194 220 254
194 220 254
194 220 254
194 220 254
194 220 254
194 220 254
194 220 254
194 220 254
194 220 254
193 220 254
193 220 254
193 220 254
193 220 254
193 220 254
193 220 254
193 220 254
193 220 254
193 220 254
193 220 254
193 220 254
193 220 254
193 220 254
193 220 254
193 220 254
193 220 254
193 220 254
193 220 254
193 220 254
193 220 254
193 220 254
193 220 254
193 220 254
193 220 254
193 220 254
193 220 254
193 220 254
193 220 254
193 220 254
193 220 254
193 219 254
193 219 254
193 219 254
193 219 254
193 219 254
193 219 254
193 219 254
193 219 254
193 219 254
193 219 254
193 219 254
193 219 254
193 219 254
193 219 254
193 219 254
193 219 254
193 219 254
193 220 254
193 220 254
193 220 254
193 220 254
193 220 254
193 220 254
193 220 254
193 220 254
193 220 254
193 220 254
193 220 254
193 220 254
193 220 254
193 220 254
193 220 254
193 220 254
193 220 254
193 220 254
193 220 254
193 220 254
193 220 254
193 220 254
193 220 254
193 220 254
193 220 254
193 220 254
193 220 254
193 220 254
193 220 254
193 220 254
193 220 254
194 220 254
194 220 254
194 220 254
194 220 254
194 220 254
194 220 254
194 220 254
194 220 254
194 220 254
194 220 254
194 220 254
194 220 254
194 220 254
194 220 254
194 220 254
194 220 254
194 220 254
194 220 254
194 220 254
194 220 254
195 220 254
195 220 254
195 221 254
195 221 254
195 221 254
195 221 254
195 221 254
195 221 254
195 221 254
195 221 254
195 221 254
195 221 254
195 221 254
195 221 254
195 221 254
195 221 254
195 221 254
196 221 254
196 221 254
196 221 254
196 221 254
196 221 254
196 221 254
196 221 254
196 221 254
196 221 254
196 221 254
196 221 254
196 221 254
196 221 254
196 221 254
196 222 254
197 222 254
197 222 254
197 222 254
197 222 254
197 222 254
197 222 254
197 222 254
197 222 254
197 222 254
197 222 254
197 222 254
197 222 254
197 222 254
197 222 254
198 222 254
198 222 254
198 222 254
198 222 254
198 222 254
198 222 254
198 222 254
198 222 254
198 222 254
198 222 254
198 222 254
198 222 254
198 223 254
198 223 254
199 223 254
199 223 254
199 223 254
199 223 254
199 223 254
199 223 254
199 223 254
199 223 254
199 223 254
199 223 254
199 223 254
199 223 254
199 223 254
199 223 254
199 223 254
200 223 254
200 223 254
200 223 254
200 223 254
200 223 254
200 223 254
200 223 254
200 223 254
200 223 254
200 223 254
200 224 254
200 224 254
200 224 254
200 224 254
200 224 254
201 224 254
201 224 254
201 224 254
201 224 254
201 224 254
201 224 254
201 224 254
201 224 254
201 224 254
201 224 254
201 224 254
201 224 254
201 224 254
201 224 254
201 224 254
201 224 254
202 224 254
202 224 254
202 224 254
202 224 254
202 224 254
202 224 254
202 224 254
202 224 254
202 225 254
202 225 254
202 225 254
202 225 254
202 225 254
202 225 254
202 225 254
202 225 254
203 225 254
203 225 254
203 225 254
203 225 254
203 225 254
203 225 254
203 225 254
203 225 254
203 225 254
203 225 254
203 225 254
203 225 254
203 225 254
203 225 254
203 225 254
203 225 254
203 225 254
203 225 254
204 225 254
204 225 254
204 225 254
204 225 254
203 225 254
203 225 254
203 225 254
203 225 254
203 225 254
203 225 254
203 225 254
203 225 254
203 225 254
203 225 254
203 225 254
203 225 254
203 225 254
203 225 254
203 225 254
203 225 254
203 225 254
203 225 254
202 225 254
202 225 254
202 225 254
202 225 254
202 225 254
202 225 254
202 225 254
202 225 254
202 224 254
202 224 254
202 224 254
202 224 254
202 224 254
202 224 254
202 224 254
202 224 254
202 224 254
201 224 254
201 224 254
201 224 254
201 224 254
201 224 254
201 224 254
201 224 254
201 224 254
201 224 254
201 224 254
201 224 254
201 224 254
201 224 254
201 224 254
201 224 254
200 224 254
200 224 254
200 224 254
200 224 254
200 224 254
200 223 254
200 223 254
200 223 254
200 223 254
200 223 254
200 223 254
200 223 254
200 223 254
200 223 254
200 223 254
199 223 254
199 223 254
199 223 254
199 223 254
199 223 254
199 223 254
199 223 254
199 223 254
199 223 254
199 223 254
199 223 254
199 223 254
199 223 254
199 223 254
199 223 254
198 223 254
198 223 254
198 222 254
198 222 254
198 222 254
198 222 254
198 222 254
198 222 254
198 222 254
198 222 254
198 222 254
198 222 254
198 222 254
198 222 254
197 222 254
197 222 254
197 222 254
197 222 254
197 222 254
197 222 254
197 222 254
197 222 254
197 222 254
197 222 254
197 222 254
197 222 254
197 222 254
197 222 254
196 222 254
196 221 254
196 221 254
196 221 254
196 221 254
196 221 254
196 221 254
196 221 254
196 221 254
196 221 254
196 221 254
196 221 254
196 221 254
196 221 254
196 221 254
196 221 254
195 221 254
195 221 254
195 221 254
195 221 254
195 221 254
195 221 254
195 221 254
195 221 254
195 221 254
195 221 254
195 221 254
195 221 254
195 221 254
195 221 254
195 221 254
195 220 254
194 220 254
194 220 254
194 220 254
194 220 254
194 220 254
194 220 254
194 220 254
194 220 254
194 220 254
194 220 254
194 220 254
194 220 254
194 220 254
194 220 254
194 220 254
194 220 254
194 220 254
194 220 254
194 220 254
194 220 254
194 220 254
193 220 254
193 220 254
193 220 254
193 220 254
193 220 254
193 220 254
193 220 254
193 220 254
193 220 254
193 220 254
193 220 254
193 220 254
193 220 254
193 220 254
193 220 254
193 220 254
193 220 254
193 220 254
193 220 254
193 220 254
193 220 254
193 220 254
193 220 254
193 220 254
193 220 254
193 220 254
193 220 254
193 220 254
193 220 254
193 220 254
193 220 254
193 220 254
193 220 254
193 220 254
193 220 254
193 220 254
193 220 254
193 220 254
193 220 254
193 220 254
193 220 254
193 220 254
193 220 254
193 220 254
193 220 254
193 220 254
193 220 254
193 220 254
193 220 254
193 220 254
193 220 254
193 220 254
193 220 254
193 220 254
193 220 254
193 220 254
193 220 254
193 220 254
193 220 254
193 220 254
193 220 254
193 220 254
193 220 254
193 220 254
193 220 254
193 220 254
193 220 254
193 220 254
193 220 254
193 220 254
193 220 254
193 220 254
194 220 254
194 220 254
194 220 254
194 220 254
194 220 254
194 220 254
194 220 254
194 220 254
194 220 254
194 220 254
194 220 254
194 220 254
194 220 254
194 220 254
194 220 254
194 220 254
194 220 254
194 220 254
194 220 254
194 220 254
194 220 254
195 220 254
195 221 254
195 221 254
195 221 254
195 221 254
195 221 254
195 221 254
195 221 254
195 221 254
195 221 254
195 221 254
195 221 254
195 221 254
195 221 254
195 221 254
195 221 254
196 221 254
196 221 254
196 221 254
196 221 254
196 221 254
196 221 254
196 221 254
196 221 254
196 221 254
196 221 254
196 221 254
196 221 254
196 221 254
196 221 254
196 221 254
196 222 254
197 222 254
197 222 254
197 222 254
197 222 254
197 222 254
197 222 254
197 222 254
197 222 254
197 222 254
197 222 254
197 222 254
197 222 254
197 222 254
197 222 254
198 222 254
198 222 254
198 222 254
198 222 254
198 222 254
198 222 254
198 222 254
198 222 254
198 222 254
198 222 254
198 222 254
198 222 254
198 223 254
198 223 254
199 223 254
199 223 254
199 223 254
199 223 254
199 223 254
199 223 254
199 223 254
199 223 254
199 223 254
199 223 254
199 223 254
199 223 254
199 223 254
199 223 254
199 223 254
200 223 254
200 223 254
200 223 254
200 223 254
200 223 254
200 223 254
200 223 254
200 223 254
200 223 254
200 223 254
200 224 254
200 224 254
200 224 254
200 224 254
200 224 254
201 224 254
201 224 254
201 224 254
201 224 254
201 224 254
201 224 254
201 224 254
201 224 254
201 224 254
201 224 254
201 224 254
201 224 254
201 224 254
201 224 254
201 224 254
202 224 254
202 224 254
202 224 254
202 224 254
202 224 254
202 224 254
202 224 254
202 224 254
202 224 254
202 225 254
202 225 254
202 225 254
202 225 254
202 225 254
202 225 254
202 225 254
202 225 254
203 225 254
203 225 254
203 225 254
203 225 254
203 225 254
203 225 254
203 225 254
203 225 254
203 225 254
203 225 254
203 225 254
203 225 254
203 225 254
203 225 254
203 225 254
203 225 254
203 225 254
203 225 254
204 225 254
204 225 254
204 225 254
204 225 254
204 225 254
204 225 254
204 225 254
204 225 254
204 225 254
203 225 254
203 225 254
203 225 254
203 225 254
203 225 254
203 225 254
203 225 254
203 225 254
203 225 254
203 225 254
203 225 254
203 225 254
203 225 254
203 225 254
203 225 254
203 225 254
203 225 254
202 225 254
202 225 254
202 225 254
202 225 254
202 225 254
202 225 254
202 225 254
202 225 254
202 224 254
202 224 254
202 224 254
202 224 254
202 224 254
202 224 254
202 224 254
202 224 254
202 224 254
201 224 254
201 224 254
201 224 254
201 224 254
201 224 254
201 224 254
201 224 254
201 224 254
201 224 254
201 224 254
201 224 254
201 224 254
201 224 254
201 224 254
201 224 254
200 224 254
200 224 254
200 224 254
200 224 254
200 224 254
200 223 254
200 223 254
200 223 254
200 223 254
200 223 254
200 223 254
200 223 254
200 223 254
200 223 254
200 223 254
199 223 254
199 223 254
199 223 254
199 223 254
199 223 254
199 223 254
199 223 254
199 223 254
199 223 254
199 223 254
199 223 254
199 223 254
199 223 254
199 223 254
199 223 254
198 223 254
198 223 254
198 222 254
198 222 254
198 222 254
198 222 254
198 222 254
198 222 254
198 222 254
198 222 254
198 222 254
198 222 254
198 222 254
198 222 254
197 222 254
197 222 254
197 222 254
197 222 254
197 222 254
197 222 254
197 222 254
197 222 254
197 222 254
197 222 254
197 222 254
197 222 254
197 222 254
197 222 254
196 222 254
196 221 254
196 221 254
196 221 254
196 221 254
196 221 254
196 221 254
196 221 254
196 221 254
196 221 254
196 221 254
196 221 254
196 221 254
196 221 254
196 221 254
196 221 254
195 221 254
195 221 254
195 221 254
195 221 254
195 221 254
195 221 254
195 221 254
195 221 254
195 221 254
195 221 254
195 221 254
195 221 254
195 221 254
195 221 254
195 221 254
195 220 254
195 220 254
194 220 254
194 220 254
194 220 254
194 220 254
194 220 254
194 220 254
194 220 254
194 220 254
194 220 254
194 220 254
194 220 254
194 220 254
194 220 254
194 220 254
194 220 254
194 220 254
194 220 254
194 220 254
194 220 254
194 220 254
194 220 254
194 220 254
193 220 254
193 220 254
193 220 254
193 220 254
193 220 254
193 220 254
193 220 254
193 220 254
193 220 254
193 220 254
193 220 254
193 220 254
193 220 254
193 220 254
193 220 254
193 220 254
193 220 254
193 220 254
193 220 254
193 220 254
193 220 254
193 220 254
193 220 254
193 220 254
193 220 254
193 220 254
193 220 254
193 220 254
193 220 254
193 220 254
193 220 254
193 220 254
193 220 254
193 220 254
193 220 254
193 220 254
193 220 254
193 220 254
193 220 254
193 220 254
193 220 254
193 220 254
193 220 254
193 220 254
193 220 254
193 220 254
193 220 254
193 220 254
193 220 254
193 220 254
193 220 254
193 220 254
193 220 254
193 220 254
193 220 254
193 220 254
193 220 254
193 220 254
193 220 254
193 220 254
193 220 254
193 220 254
193 220 254
193 220 254
193 220 254
194 220 254
194 220 254
194 220 254
194 220 254
194 220 254
194 220 254
194 220 254
194 220 254
194 220 254
194 220 254
194 220 254
194 220 254
194 220 254
194 220 254
194 220 254
194 220 254
194 220 254
194 220 254
194 220 254
194 220 254
194 220 254
195 220 254
195 220 254
195 221 254
195 221 254
195 221 254
195 221 254
195 221 254
195 221 254
195 221 254
195 221 254
195 221 254
195 221 254
195 221 254
195 221 254
195 221 254
195 221 254
195 221 254
196 221 254
196 221 254
196 221 254
196 221 254
196 221 254
196 221 254
196 221 254
196 221 254
196 221 254
196 221 254
196 221 254
196 221 254
196 221 254
196 221 254
196 221 254
196 222 254
197 222 254
197 222 254
197 222 254
197 222 254
197 222 254
197 222 254
197 222 254
197 222 254
197 222 254
197 222 254
197 222 254
197 222 254
197 222 254
197 222 254
198 222 254
198 222 254
198 222 254
198 222 254
198 222 254
198 222 254
198 222 254
198 222 254
198 222 254
198 222 254
198 222 254
198 222 254
198 223 254
198 223 254
199 223 254
199 223 254
199 223 254
199 223 254
199 223 254
199 223 254
199 223 254
199 223 254
199 223 254
199 223 254
199 223 254
199 223 254
199 223 254
199 223 254
199 223 254
200 223 254
200 223 254
200 223 254
200 223 254
200 223 254
200 223 254
200 223 254
200 223 254
200 223 254
200 223 254
200 224 254
200 224 254
200 224 254
200 224 254
200 224 254
201 224 254
201 224 254
201 224 254
201 224 254
201 224 254
201 224 254
201 224 254
201 224 254
201 224 254
201 224 254
201 224 254
201 224 254
201 224 254
201 224 254
201 224 254
202 224 254
202 224 254
202 224 254
202 224 254
202 224 254
202 224 254
202 224 254
202 224 254
202 224 254
202 225 254
202 225 254
202 225 254
202 225 254
202 225 254
202 225 254
202 225 254
202 225 254
203 225 254
203 225 254
203 225 254
203 225 254
203 225 254
203 225 254
203 225 254
203 225 254
203 225 254
203 225 254
203 225 254
203 225 254
203 225 254
203 225 254
203 225 254
203 225 254
203 225 254
204 225 254
204 225 254
204 225 254
204 225 254
204 225 254
204 225 254
204 226 254
204 225 254
204 225 254
204 225 254
204 225 254
204 225 254
204 225 254
204 225 254
203 225 254
203 225 254
203 225 254
203 225 254
203 225 254
203 225 254
203 225 254
203 225 254
203 225 254
203 225 254
203 225 254
203 225 254
203 225 254
203 225 254
203 225 254
203 225 254
203 225 254
202 225 254
202 225 254
202 225 254
202 225 254
202 225 254
202 225 254
202 225 254
202 225 254
202 224 254
202 224 254
202 224 254
202 224 254
202 224 254
202 224 254
202 224 254
202 224 254
202 224 254
201 224 254
201 224 254
201 224 254
201 224 254
201 224 254
201 224 254
201 224 254
201 224 254
201 224 254
201 224 254
201 224 254
201 224 254
201 224 254
201 224 254
201 224 254
200 224 254
200 224 254
200 224 254
200 224 254
200 224 254
200 223 254
200 223 254
200 223 254
200 223 254
200 223 254
200 223 254
200 223 254
200 223 254
200 223 254
200 223 254
199 223 254
199 223 254
199 223 254
199 223 254
199 223 254
199 223 254
199 223 254
199 223 254
199 223 254
199 223 254
199 223 254
199 223 254
199 223 254
199 223 254
199 223 254
198 223 254
198 223 254
198 222 254
198 222 254
198 222 254
198 222 254
198 222 254
198 222 254
198 222 254
198 222 254
198 222 254
198 222 254
198 222 254
198 222 254
197 222 254
197 222 254
197 222 254
197 222 254
197 222 254
197 222 254
197 222 254
197 222 254
197 222 254
197 222 254
197 222 254
197 222 254
197 222 254
197 222 254
197 222 254
196 221 254
196 221 254
196 221 254
196 221 254
196 221 254
196 221 254
196 221 254
196 221 254
196 221 254
196 221 254
196 221 254
196 221 254
196 221 254
196 221 254
196 221 254
195 221 254
195 221 254
195 221 254
195 221 254
195 221 254
195 221 254
195 221 254
195 221 254
195 221 254
195 221 254
195 221 254
195 221 254
195 221 254
195 221 254
195 221 254
195 221 254
195 220 254
194 220 254
194 220 254
194 220 254
194 220 254
194 220 254
194 220 254
194 220 254
194 220 254
194 220 254
194 220 254
194 220 254
194 220 254
194 220 254
194 220 254
194 220 254
194 220 254
194 220 254
194 220 254
194 220 254
194 220 254
194 220 254
194 220 254
194 220 254
194 220 254
193 220 254
193 220 254
193 220 254
193 220 254
193 220 254
193 220 254
193 220 254
193 220 254
193 220 254
193 220 254
193 220 254
193 220 254
193 220 254
193 220 254
193 220 254
193 220 254
193 220 254
193 220 254
193 220 254
193 220 254
193 220 254
193 220 254
193 220 254
193 220 254
193 220 254
193 220 254
193 220 254
193 220 254
193 220 254
193 220 254
193 220 254
193 220 254
193 220 254
193 220 254
193 220 254
193 220 254
193 220 254
193 220 254
193 220 254
193 220 254
193 220 254
193 220 254
193 220 254
193 220 254
193 220 254
193 220 254
193 220 254
193 220 254
193 220 254
193 220 254
193 220 254
193 220 254
193 220 254
193 220 254
193 220 254
193 220 254
194 220 254
194 220 254
194 220 254
194 220 254
194 220 254
194 220 254
194 220 254
194 220 254
194 220 254
194 220 254
194 220 254
194 220 254
194 220 254
194 220 254
194 220 254
194 220 254
194 220 254
194 220 254
194 220 254
194 220 254
194 220 254
194 220 254
194 220 254
194 220 254
195 220 254
195 221 254
195 221 254
195 221 254
195 221 254
195 221 254
195 221 254
195 221 254
195 221 254
195 221 254
195 221 254
195 221 254
195 221 254
195 221 254
195 221 254
195 221 254
195 221 254
196 221 254
196 221 254
196 221 254
196 221 254
196 221 254
196 221 254
196 221 254
196 221 254
196 221 254
196 221 254
196 221 254
196 221 254
196 221 254
196 221 254
196 221 254
197 222 254
197 222 254
197 222 254
197 222 254
197 222 254
197 222 254
197 222 254
197 222 254
197 222 254
197 222 254
197 222 254
197 222 254
197 222 254
197 222 254
197 222 254
198 222 254
198 222 254
198 222 254
198 222 254
198 222 254
198 222 254
198 222 254
198 222 254
198 222 254
198 222 254
198 222 254
198 222 254
198 223 254
198 223 254
199 223 254
199 223 254
199 223 254
199 223 254
199 223 254
199 223 254
199 223 254
199 223 254
199 223 254
199 223 254
199 223 254
199 223 254
199 223 254
199 223 254
199 223 254
200 223 254
200 223 254
200 223 254
200 223 254
200 223 254
200 223 254
200 223 254
200 223 254
200 223 254
200 223 254
200 224 254
200 224 254
200 224 254
200 224 254
201 224 254
201 224 254
201 224 254
201 224 254
201 224 254
201 224 254
201 224 254
201 224 254
201 224 254
201 224 254
201 224 254
201 224 254
201 224 254
201 224 254
201 224 254
201 224 254
202 224 254
202 224 254
202 224 254
202 224 254
202 224 254
202 224 254
202 224 254
202 224 254
202 224 254
202 225 254
202 225 254
202 225 254
202 225 254
202 225 254
202 225 254
202 225 254
203 225 254
203 225 254
203 225 254
203 225 254
203 225 254
203 225 254
203 225 254
203 225 254
203 225 254
203 225 254
203 225 254
203 225 254
203 225 254
203 225 254
203 225 254
203 225 254
203 225 254
203 225 254
204 225 254
204 225 254
204 225 254
204 225 254
204 225 254
204 225 254
204 225 254
204 226 254
204 226 254
204 226 254
204 226 254
204 225 254
204 225 254
204 225 254
204 225 254
204 225 254
204 225 254
204 225 254
203 225 254
203 225 254
203 225 254
203 225 254
203 225 254
203 225 254
203 225 254
203 225 254
203 225 254
203 225 254
203 225 254
203 225 254
203 225 254
203 225 254
203 225 254
203 225 254
203 225 254
203 225 254
202 225 254
202 225 254
202 225 254
202 225 254
202 225 254
202 225 254
202 225 254
202 224 254
202 224 254
202 224 254
202 224 254
202 224 254
202 224 254
202 224 254
202 224 254
202 224 254
201 224 254
201 224 254
201 224 254
201 224 254
201 224 254
201 224 254
201 224 254
201 224 254
201 224 254
201 224 254
201 224 254
201 224 254
201 224 254
201 224 254
201 224 254
201 224 254
200 224 254
200 224 254
200 224 254
200 224 254
200 223 254
200 223 254
200 223 254
200 223 254
200 223 254
200 223 254
200 223 254
200 223 254
200 223 254
200 223 254
199 223 254
199 223 254
199 223 254
199 223 254
199 223 254
199 223 254
199 223 254
199 223 254
199 223 254
199 223 254
199 223 254
199 223 254
199 223 254
199 223 254
199 223 254
198 223 254
198 223 254
198 222 254
198 222 254
198 222 254
198 222 254
198 222 254
198 222 254
198 222 254
198 222 254
198 222 254
198 222 254
198 222 254
198 222 254
197 222 254
197 222 254
197 222 254
197 222 254
197 222 254
197 222 254
197 222 254
197 222 254
197 222 254
197 222 254
197 222 254
197 222 254
197 222 254
197 222 254
197 222 254
196 222 254
196 221 254
196 221 254
196 221 254
196 221 254
196 221 254
196 221 254
196 221 254
196 221 254
196 221 254
196 221 254
196 221 254
196 221 254
196 221 254
196 221 254
195 221 254
195 221 254
195 221 254
195 221 254
195 221 254
195 221 254
195 221 254
195 221 254
195 221 254
195 221 254
195 221 254
195 221 254
195 221 254
195 221 254
195 221 254
195 221 254
195 221 254
195 220 254
194 220 254
194 220 254
194 220 254
194 220 254
194 220 254
194 220 254
194 220 254
194 220 254
194 220 254
194 220 254
194 220 254
194 220 254
194 220 254
194 220 254
194 220 254
194 220 254
194 220 254
194 220 254
194 220 254
194 220 254
194 220 254
194 220 254
194 220 254
194 220 254
194 220 254
194 220 254
193 220 254
193 220 254
193 220 254
193 220 254
193 220 254
193 220 254
193 220 254
193 220 254
193 220 254
193 220 254
193 220 254
193 220 254
193 220 254
193 220 254
193 220 254
193 220 254
193 220 254
193 220 254
193 220 254
193 220 254
193 220 254
193 220 254
193 220 254
193 220 254
193 220 254
193 220 254
193 220 254
193 220 254
193 220 254
193 220 254
193 220 254
193 220 254
193 220 254
193 220 254
193 220 254
193 220 254
193 220 254
193 220 254
193 220 254
193 220 254
193 220 254
193 220 254
193 220 254
193 220 254
193 220 254
193 220 254
193 220 254
194 220 254
194 220 254
194 220 254
194 220 254
194 220 254
194 220 254
194 220 254
194 220 254
194 220 254
194 220 254
194 220 254
194 220 254
194 220 254
194 220 254
194 220 254
194 220 254
194 220 254
194 220 254
194 220 254
194 220 254
194 220 254
194 220 254
194 220 254
194 220 254
194 220 254
195 220 254
195 221 254
195 221 254
195 221 254
195 221 254
195 221 254
195 221 254
195 221 254
195 221 254
195 221 254
195 221 254
195 221 254
195 221 254
195 221 254
195 221 254
195 221 254
195 221 254
195 221 254
196 221 254
196 221 254
196 221 254
196 221 254
196 221 254
196 221 254
196 221 254
196 221 254
196 221 254
196 221 254
196 221 254
196 221 254
196 221 254
196 221 254
196 222 254
197 222 254
197 222 254
197 222 254
197 222 254
197 222 254
197 222 254
197 222 254
197 222 254
197 222 254
197 222 254
197 222 254
197 222 254
197 222 254
197 222 254
197 222 254
198 222 254
198 222 254
198 222 254
198 222 254
198 222 254
198 222 254
198 222 254
198 222 254
198 222 254
198 222 254
198 222 254
198 222 254
198 223 254
198 223 254
199 223 254
199 223 254
199 223 254
199 223 254
199 223 254
199 223 254
199 223 254
199 223 254
199 223 254
199 223 254
199 223 254
199 223 254
199 223 254
199 223 254
199 223 254
200 223 254
200 223 254
200 223 254
200 223 254
200 223 254
200 223 254
200 223 254
200 223 254
200 223 254
200 223 254
200 224 254
200 224 254
200 224 254
200 224 254
201 224 254
201 224 254
201 224 254
201 224 254
201 224 254
201 224 254
201 224 254
201 224 254
201 224 254
201 224 254
201 224 254
201 224 254
201 224 254
201 224 254
201 224 254
201 224 254
202 224 254
202 224 254
202 224 254
202 224 254
202 224 254
202 224 254
202 224 254
202 224 254
202 224 254
202 225 254
202 225 254
202 225 254
202 225 254
202 225 254
202 225 254
202 225 254
203 225 254
203 225 254
203 225 254
203 225 254
203 225 254
203 225 254
203 225 254
203 225 254
203 225 254
203 225 254
203 225 254
203 225 254
203 225 254
203 225 254
203 225 254
203 225 254
203 225 254
203 225 254
204 225 254
204 225 254
204 225 254
204 225 254
204 225 254
204 225 254
204 225 254
204 226 254
204 226 254
204 226 254
204 226 254
204 226 254
204 226 254
204 226 254
204 226 254
204 226 254
204 225 254
204 225 254
204 225 254
204 225 254
204 225 254
204 225 254
204 225 254
203 225 254
203 225 254
203 225 254
203 225 254
203 225 254
203 225 254
203 225 254
203 225 254
203 225 254
203 225 254
203 225 254
203 225 254
203 225 254
203 225 254
203 225 254
203 225 254
203 225 254
202 225 254
202 225 254
202 225 254
202 225 254
202 225 254
202 225 254
202 225 254
202 225 254
202 224 254
202 224 254
202 224 254
202 224 254
202 224 254
202 224 254
202 224 254
202 224 254
202 224 254
201 224 254
201 224 254
201 224 254
201 224 254
201 224 254
201 224 254
201 224 254
201 224 254
201 224 254
201 224 254
201 224 254
201 224 254
201 224 254
201 224 254
201 224 254
200 224 254
200 224 254
200 224 254
200 224 254
200 223 254
200 223 254
200 223 254
200 223 254
200 223 254
200 223 254
200 223 254
200 223 254
200 223 254
200 223 254
199 223 254
199 223 254
199 223 254
199 223 254
199 223 254
199 223 254
199 223 254
199 223 254
199 223 254
199 223 254
199 223 254
199 223 254
199 223 254
199 223 254
199 223 254
198 223 254
198 223 254
198 223 254
198 222 254
198 222 254
198 222 254
198 222 254
198 222 254
198 222 254
198 222 254
198 222 254
198 222 254
198 222 254
198 222 254
197 222 254
197 222 254
197 222 254
197 222 254
197 222 254
197 222 254
197 222 254
197 222 254
197 222 254
197 222 254
197 222 254
197 222 254
197 222 254
197 222 254
197 222 254
196 222 254
196 221 254
196 221 254
196 221 254
196 221 254
196 221 254
196 221 254
196 221 254
196 221 254
196 221 254
196 221 254
196 221 254
196 221 254
196 221 254
196 221 254
196 221 254
195 221 254
195 221 254
195 221 254
195 221 254
195 221 254
195 221 254
195 221 254
195 221 254
195 221 254
195 221 254
195 221 254
195 221 254
195 221 254
195 221 254
195 221 254
195 221 254
195 221 254
195 220 254
194 220 254
194 220 254
194 220 254
194 220 254
194 220 254
194 220 254
194 220 254
194 220 254
194 220 254
194 220 254
194 220 254
194 220 254
194 220 254
194 220 254
194 220 254
194 220 254
194 220 254
194 220 254
194 220 254
194 220 254
194 220 254
194 220 254
194 220 254
194 220 254
194 220 254
194 220 254
194 220 254
194 220 254
194 220 254
193 220 254
193 220 254
193 220 254
193 220 254
193 220 254
193 220 254
193 220 254
193 220 254
193 220 254
193 220 254
193 220 254
193 220 254
193 220 254
193 220 254
193 220 254
193 220 254
193 220 254
193 220 254
193 220 254
193 220 254
193 220 254
193 220 254
193 220 254
193 220 254
193 220 254
193 220 254
193 220 254
193 220 254
193 220 254
193 220 254
193 220 254
193 220 254
193 220 254
193 220 254
193 220 254
194 220 254
194 220 254
194 220 254
194 220 254
194 220 254
194 220 254
194 220 254
194 220 254
194 220 254
194 220 254
194 220 254
194 220 254
194 220 254
194 220 254
194 220 254
194 220 254
194 220 254
194 220 254
194 220 254
194 220 254
194 220 254
194 220 254
194 220 254
194 220 254
194 220 254
194 220 254
194 220 254
194 220 254
195 220 254
195 221 254
195 221 254
195 221 254
195 221 254
195 221 254
195 221 254
195 221 254
195 221 254
195 221 254
195 221 254
195 221 254
195 221 254
195 221 254
195 221 254
195 221 254
195 221 254
195 221 254
196 221 254
196 221 254
196 221 254
196 221 254
196 221 254
196 221 254
196 221 254
196 221 254
196 221 254
196 221 254
196 221 254
196 221 254
196 221 254
196 221 254
196 221 254
196 222 254
197 222 254
197 222 254
197 222 254
197 222 254
197 222 254
197 222 254
197 222 254
197 222 254
197 222 254
197 222 254
197 222 254
197 222 254
197 222 254
197 222 254
197 222 254
198 222 254
198 222 254
198 222 254
198 222 254
198 222 254
198 222 254
198 222 254
198 222 254
198 222 254
198 222 254
198 222 254
198 222 254
198 223 254
198 223 254
199 223 254
199 223 254
199 223 254
199 223 254
199 223 254
199 223 254
199 223 254
199 223 254
199 223 254
199 223 254
199 223 254
199 223 254
199 223 254
199 223 254
200 223 254
200 223 254
200 223 254
200 223 254
200 223 254
200 223 254
200 223 254
200 223 254
200 223 254
200 223 254
200 223 254
200 224 254
200 224 254
200 224 254
200 224 254
201 224 254
201 224 254
201 224 254
201 224 254
201 224 254
201 224 254
201 224 254
201 224 254
201 224 254
201 224 254
201 224 254
201 224 254
201 224 254
201 224 254
201 224 254
202 224 254
202 224 254
202 224 254
202 224 254
202 224 254
202 224 254
202 224 254
202 224 254
202 224 254
202 225 254
202 225 254
202 225 254
202 225 254
202 225 254
202 225 254
202 225 254
202 225 254
203 225 254
203 225 254
203 225 254
203 225 254
203 225 254
203 225 254
203 225 254
203 225 254
203 225 254
203 225 254
203 225 254
203 225 254
203 225 254
203 225 254
203 225 254
203 225 254
203 225 254
204 225 254
204 225 254
204 225 254
204 225 254
204 225 254
204 225 254
204 225 254
204 226 254
204 226 254
204 226 254
204 226 254
204 226 254
204 226 254
204 226 254
204 226 254
204 226 254
204 226 254
204 226 254
204 226 254
204 226 254
204 226 254
204 225 254
204 225 254
204 225 254
204 225 254
204 225 254
204 225 254
204 225 254
203 225 254
203 225 254
203 225 254
203 225 254
203 225 254
203 225 254
203 225 254
203 225 254
203 225 254
203 225 254
203 225 254
203 225 254
203 225 254
203 225 254
203 225 254
203 225 254
203 225 254
203 225 254
202 225 254
202 225 254
202 225 254
202 225 254
202 225 254
202 225 254
202 225 254
202 224 254
202 224 254
202 224 254
202 224 254
202 224 254
202 224 254
202 224 254
202 224 254
202 224 254
201 224 254
201 224 254
201 224 254
201 224 254
201 224 254
201 224 254
201 224 254
201 224 254
201 224 254
201 224 254
201 224 254
201 224 254
201 224 254
201 224 254
201 224 254
200 224 254
200 224 254
200 224 254
200 224 254
200 224 254
200 223 254
200 223 254
200 223 254
200 223 254
200 223 254
200 223 254
200 223 254
200 223 254
200 223 254
200 223 254
199 223 254
199 223 254
199 223 254
199 223 254
199 223 254
199 223 254
199 223 254
199 223 254
199 223 254
199 223 254
199 223 254
199 223 254
199 223 254
199 223 254
198 223 254
198 223 254
198 222 254
198 222 254
198 222 254
198 222 254
198 222 254
198 222 254
198 222 254
198 222 254
198 222 254
198 222 254
198 222 254
198 222 254
198 222 254
197 222 254
197 222 254
197 222 254
197 222 254
197 222 254
197 222 254
197 222 254
197 222 254
197 222 254
197 222 254
197 222 254
197 222 254
197 222 254
197 222 254
196 222 254
196 221 254
196 221 254
196 221 254
196 221 254
196 221 254
196 221 254
196 221 254
196 221 254
196 221 254
196 221 254
196 221 254
196 221 254
196 221 254
196 221 254
196 221 254
195 221 254
195 221 254
195 221 254
195 221 254
195 221 254
195 221 254
195 221 254
195 221 254
195 221 254
195 221 254
195 221 254
195 221 254
195 221 254
195 221 254
195 221 254
195 221 254
195 221 254
195 221 254
195 220 254
194 220 254
194 220 254
194 220 254
194 220 254
194 220 254
194 220 254
194 220 254
194 220 254
194 220 254
194 220 254
194 220 254
194 220 254
194 220 254
194 220 254
194 220 254
194 220 254
194 220 254
194 220 254
194 220 254
194 220 254
194 220 254
194 220 254
194 220 254
194 220 254
194 220 254
194 220 254
194 220 254
194 220 254
194 220 254
194 220 254
194 220 254
194 220 254
194 220 254
194 220 254
193 220 254
193 220 254
193 220 254
193 220 254
193 220 254
193 220 254
193 220 254
193 220 254
193 220 254
193 220 254
193 220 254
193 220 254
193 220 254
193 220 254
193 220 254
193 220 254
193 220 254
194 220 254
194 220 254
194 220 254
194 220 254
194 220 254
194 220 254
194 220 254
194 220 254
194 220 254
194 220 254
194 220 254
194 220 254
194 220 254
194 220 254
194 220 254
194 220 254
194 220 254
194 220 254
194 220 254
194 220 254
194 220 254
194 220 254
194 220 254
194 220 254
194 220 254
194 220 254
194 220 254
194 220 254
194 220 254
194 220 254
194 220 254
194 220 254
194 220 254
194 220 254
194 220 254
195 220 254
195 221 254
195 221 254
195 221 254
195 221 254
195 221 254
195 221 254
195 221 254
195 221 254
195 221 254
195 221 254
195 221 254
195 221 254
195 221 254
195 221 254
195 221 254
195 221 254
195 221 254
195 221 254
196 221 254
196 221 254
196 221 254
196 221 254
196 221 254
196 221 254
196 221 254
196 221 254
196 221 254
196 221 254
196 221 254
196 221 254
196 221 254
196 221 254
196 221 254
196 222 254
197 222 254
197 222 254
197 222 254
197 222 254
197 222 254
197 222 254
197 222 254
197 222 254
197 222 254
197 222 254
197 222 254
197 222 254
197 222 254
197 222 254
197 222 254
198 222 254
198 222 254
198 222 254
198 222 254
198 222 254
198 222 254
198 222 254
198 222 254
198 222 254
198 222 254
198 222 254
198 222 254
198 223 254
198 223 254
199 223 254
199 223 254
199 223 254
199 223 254
199 223 254
199 223 254
199 223 254
199 223 254
199 223 254
199 223 254
199 223 254
199 223 254
199 223 254
199 223 254
200 223 254
200 223 254
200 223 254
200 223 254
200 223 254
200 223 254
200 223 254
200 223 254
200 223 254
200 223 254
200 224 254
200 224 254
200 224 254
200 224 254
200 224 254
201 224 254
201 224 254
201 224 254
201 224 254
201 224 254
201 224 254
201 224 254
201 224 254
201 224 254
201 224 254
201 224 254
201 224 254
201 224 254
201 224 254
201 224 254
202 224 254
202 224 254
202 224 254
202 224 254
202 224 254
202 224 254
202 224 254
202 224 254
202 224 254
202 225 254
202 225 254
202 225 254
202 225 254
202 225 254
202 225 254
202 225 254
203 225 254
203 225 254
203 225 254
203 225 254
203 225 254
203 225 254
203 225 254
203 225 254
203 225 254
203 225 254
203 225 254
203 225 254
203 225 254
203 225 254
203 225 254
203 225 254
203 225 254
203 225 254
204 225 254
204 225 254
204 225 254
204 225 254
204 225 254
204 225 254
204 225 254
204 226 254
204 226 254
204 226 254
204 226 254
204 226 254
204 226 254
204 226 254
204 226 254
204 226 254
204 226 254
204 226 254
204 226 254
204 226 254
204 226 254
204 226 254
204 226 254
204 226 254
204 226 254
204 226 254
204 225 254
204 225 254
204 225 254
204 225 254
204 225 254
204 225 254
204 225 254
203 225 254
203 225 254
203 225 254
203 225 254
203 225 254
203 225 254
203 225 254
203 225 254
203 225 254
203 225 254
203 225 254
203 225 254
203 225 254
203 225 254
203 225 254
203 225 254
203 225 254
202 225 254
202 225 254
202 225 254
202 225 254
202 225 254
202 225 254
202 225 254
202 224 254
202 224 254
202 224 254
202 224 254
202 224 254
202 224 254
202 224 254
202 224 254
202 224 254
201 224 254
201 224 254
201 224 254
201 224 254
201 224 254
201 224 254
201 224 254
201 224 254
201 224 254
201 224 254
201 224 254
201 224 254
201 224 254
201 224 254
201 224 254
200 224 254
200 224 254
200 224 254
200 224 254
200 224 254
200 223 254
200 223 254
200 223 254
200 223 254
200 223 254
200 223 254
200 223 254
200 223 254
200 223 254
200 223 254
199 223 254
199 223 254
199 223 254
199 223 254
199 223 254
199 223 254
199 223 254
199 223 254
199 223 254
199 223 254
199 223 254
199 223 254
199 223 254
199 223 254
198 223 254
198 223 254
198 223 254
198 222 254
198 222 254
198 222 254
198 222 254
198 222 254
198 222 254
198 222 254
198 222 254
198 222 254
198 222 254
198 222 254
198 222 254
197 222 254
197 222 254
197 222 254
197 222 254
197 222 254
197 222 254
197 222 254
197 222 254
197 222 254
197 222 254
197 222 254
197 222 254
197 222 254
197 222 254
197 222 254
196 221 254
196 221 254
196 221 254
196 221 254
196 221 254
196 221 254
196 221 254
196 221 254
196 221 254
196 221 254
196 221 254
196 221 254
196 221 254
196 221 254
196 221 254
196 221 254
195 221 254
195 221 254
195 221 254
195 221 254
195 221 254
195 221 254
195 221 254
195 221 254
195 221 254
195 221 254
195 221 254
195 221 254
195 221 254
195 221 254
195 221 254
195 221 254
195 221 254
195 221 254
195 220 254
195 220 254
194 220 254
194 220 254
194 220 254
194 220 254
194 220 254
194 220 254
194 220 254
194 220 254
194 220 254
194 220 254
194 220 254
194 220 254
194 220 254
194 220 254
194 220 254
194 220 254
194 220 254
194 220 254
194 220 254
194 220 254
194 220 254
194 220 254
194 220 254
194 220 254
194 220 254
194 220 254
194 220 254
194 220 254
194 220 254
194 220 254
194 220 254
194 220 254
194 220 254
194 220 254
194 220 254
194 220 254
194 220 254
194 220 254
194 220 254
194 220 254
194 220 254
194 220 254
194 220 254
194 220 254
194 220 254
194 220 254
194 220 254
194 220 254
194 220 254
194 220 254
194 220 254
194 220 254
194 220 254
194 220 254
194 220 254
194 220 254
194 220 254
194 220 254
194 220 254
194 220 254
194 220 254
194 220 254
194 220 254
194 220 254
194 220 254
194 220 254
194 220 254
194 220 254
194 220 254
194 220 254
194 220 254
194 220 254
194 220 254
194 220 254
194 220 254
194 220 254
194 220 254
194 220 254
195 220 254
195 220 254
195 221 254
195 221 254
195 221 254
195 221 254
195 221 254
195 221 254
195 221 254
195 221 254
195 221 254
195 221 254
195 221 254
195 221 254
195 221 254
195 221 254
195 221 254
195 221 254
195 221 254
195 221 254
196 221 254
196 221 254
196 221 254
196 221 254
196 221 254
196 221 254
196 221 254
196 221 254
196 221 254
196 221 254
196 221 254
196 221 254
196 221 254
196 221 254
196 221 254
196 221 254
197 222 254
197 222 254
197 222 254
197 222 254
197 222 254
197 222 254
197 222 254
197 222 254
197 222 254
197 222 254
197 222 254
197 222 254
197 222 254
197 222 254
197 222 254
198 222 254
198 222 254
198 222 254
198 222 254
198 222 254
198 222 254
198 222 254
198 222 254
198 222 254
198 222 254
198 222 254
198 222 254
198 223 254
198 223 254
198 223 254
199 223 254
199 223 254
199 223 254
199 223 254
199 223 254
199 223 254
199 223 254
199 223 254
199 223 254
199 223 254
199 223 254
199 223 254
199 223 254
199 223 254
200 223 254
200 223 254
200 223 254
200 223 254
200 223 254
200 223 254
200 223 254
200 223 254
200 223 254
200 223 254
200 224 254
200 224 254
200 224 254
200 224 254
200 224 254
201 224 254
201 224 254
201 224 254
201 224 254
201 224 254
201 224 254
201 224 254
201 224 254
201 224 254
201 224 254
201 224 254
201 224 254
201 224 254
201 224 254
201 224 254
202 224 254
202 224 254
202 224 254
202 224 254
202 224 254
202 224 254
202 224 254
202 224 254
202 224 254
202 225 254
202 225 254
202 225 254
202 225 254
202 225 254
202 225 254
202 225 254
203 225 254
203 225 254
203 225 254
203 225 254
203 225 254
203 225 254
203 225 254
203 225 254
203 225 254
203 225 254
203 225 254
203 225 254
203 225 254
203 225 254
203 225 254
203 225 254
203 225 254
204 225 254
204 225 254
204 225 254
204 225 254
204 225 254
204 225 254
204 225 254
204 226 254
204 226 254
204 226 254
204 226 254
204 226 254
204 226 254
204 226 254
204 226 254
204 226 254
204 226 254
204 226 254
205 226 254
205 226 254
204 226 254
204 226 254
204 226 254
204 226 254
204 226 254
204 226 254
204 226 254
204 226 254
204 226 254
204 226 254
204 226 254
204 225 254
204 225 254
204 225 254
204 225 254
204 225 254
204 225 254
204 225 254
203 225 254
203 225 254
203 225 254
203 225 254
203 225 254
203 225 254
203 225 254
203 225 254
203 225 254
203 225 254
203 225 254
203 225 254
203 225 254
203 225 254
203 225 254
203 225 254
203 225 254
202 225 254
202 225 254
202 225 254
202 225 254
202 225 254
202 225 254
202 225 254
202 224 254
202 224 254
202 224 254
202 224 254
202 224 254
202 224 254
202 224 254
202 224 254
202 224 254
201 224 254
201 224 254
201 224 254
201 224 254
201 224 254
201 224 254
201 224 254
201 224 254
201 224 254
201 224 254
201 224 254
201 224 254
201 224 254
201 224 254
201 224 254
200 224 254
200 224 254
200 224 254
200 224 254
200 224 254
200 223 254
200 223 254
200 223 254
200 223 254
200 223 254
200 223 254
200 223 254
200 223 254
200 223 254
200 223 254
199 223 254
199 223 254
199 223 254
199 223 254
199 223 254
199 223 254
199 223 254
199 223 254
199 223 254
199 223 254
199 223 254
199 223 254
199 223 254
199 223 254
198 223 254
198 223 254
198 223 254
198 222 254
198 222 254
198 222 254
198 222 254
198 222 254
198 222 254
198 222 254
198 222 254
198 222 254
198 222 254
198 222 254
198 222 254
197 222 254
197 222 254
197 222 254
197 222 254
197 222 254
197 222 254
197 222 254
197 222 254
197 222 254
197 222 254
197 222 254
197 222 254
197 222 254
197 222 254
197 222 254
196 222 254
196 221 254
196 221 254
196 221 254
196 221 254
196 221 254
196 221 254
196 221 254
196 221 254
196 221 254
196 221 254
196 221 254
196 221 254
196 221 254
196 221 254
196 221 254
196 221 254
195 221 254
195 221 254
195 221 254
195 221 254
195 221 254
195 221 254
195 221 254
195 221 254
195 221 254
195 221 254
195 221 254
195 221 254
195 221 254
195 221 254
195 221 254
195 221 254
195 221 254
195 221 254
195 220 254
195 220 254
194 220 254
194 220 254
194 220 254
194 220 254
194 220 254
194 220 254
194 220 254
194 220 254
194 220 254
194 220 254
194 220 254
194 220 254
194 220 254
194 220 254
194 220 254
194 220 254
194 220 254
194 220 254
194 220 254
194 220 254
194 220 254
194 220 254
194 220 254
194 220 254
194 220 254
194 220 254
194 220 254
194 220 254
194 220 254
194 220 254
194 220 254
194 220 254
194 220 254
194 220 254
194 220 254
194 220 254
194 220 254
194 220 254
194 220 254
194 220 254
194 220 254
194 220 254
194 220 254
194 220 254
194 220 254
194 220 254
194 220 254
194 220 254
194 220 254
194 220 254
194 220 254
194 220 254
194 220 254
194 220 254
194 220 254
194 220 254
194 220 254
194 220 254
194 220 254
194 220 254
194 220 254
194 220 254
194 220 254
194 220 254
194 220 254
194 220 254
194 220 254
194 220 254
194 220 254
194 220 254
194 220 254
194 220 254
195 220 254
195 220 254
195 221 254
195 221 254
195 221 254
195 221 254
195 221 254
195 221 254
195 221 254
195 221 254
195 221 254
195 221 254
195 221 254
195 221 254
195 221 254
195 221 254
195 221 254
195 221 254
195 221 254
195 221 254
195 221 254
196 221 254
196 221 254
196 221 254
196 221 254
196 221 254
196 221 254
196 221 254
196 221 254
196 221 254
196 221 254
196 221 254
196 221 254
196 221 254
196 221 254
196 221 254
196 222 254
197 222 254
197 222 254
197 222 254
197 222 254
197 222 254
197 222 254
197 222 254
197 222 254
197 222 254
197 222 254
197 222 254
197 222 254
197 222 254
197 222 254
197 222 254
198 222 254
198 222 254
198 222 254
198 222 254
198 222 254
198 222 254
198 222 254
198 222 254
198 222 254
198 222 254
198 222 254
198 222 254
198 223 254
198 223 254
198 223 254
199 223 254
199 223 254
199 223 254
199 223 254
199 223 254
199 223 254
199 223 254
199 223 254
199 223 254
199 223 254
199 223 254
199 223 254
199 223 254
199 223 254
200 223 254
200 223 254
200 223 254
200 223 254
200 223 254
200 223 254
200 223 254
200 223 254
200 223 254
200 223 254
200 224 254
200 224 254
200 224 254
200 224 254
200 224 254
201 224 254
201 224 254
201 224 254
201 224 254
201 224 254
201 224 254
201 224 254
201 224 254
201 224 254
201 224 254
201 224 254
201 224 254
201 224 254
201 224 254
201 224 254
202 224 254
202 224 254
202 224 254
202 224 254
202 224 254
202 224 254
202 224 254
202 224 254
202 225 254
202 225 254
202 225 254
202 225 254
202 225 254
202 225 254
202 225 254
202 225 254
203 225 254
203 225 254
203 225 254
203 225 254
203 225 254
203 225 254
203 225 254
203 225 254
203 225 254
203 225 254
203 225 254
203 225 254
203 225 254
203 225 254
203 225 254
203 225 254
203 225 254
204 225 254
204 225 254
204 225 254
204 225 254
204 225 254
204 225 254
204 225 254
204 226 254
204 226 254
204 226 254
204 226 254
204 226 254
204 226 254
204 226 254
204 226 254
204 226 254
204 226 254
204 226 254
205 226 254
205 226 254
205 226 254
205 226 254
205 226 254
205 226 254
204 226 254
204 226 254
204 226 254
204 226 254
204 226 254
204 226 254
204 226 254
204 226 254
204 226 254
204 226 254
204 226 254
204 225 254
204 225 254
204 225 254
204 225 254
204 225 254
204 225 254
204 225 254
204 225 254
203 225 254
203 225 254
203 225 254
203 225 254
203 225 254
203 225 254
203 225 254
203 225 254
203 225 254
203 225 254
203 225 254
203 225 254
203 225 254
203 225 254
203 225 254
203 225 254
202 225 254
202 225 254
202 225 254
202 225 254
202 225 254
202 225 254
202 225 254
202 225 254
202 224 254
202 224 254
202 224 254
202 224 254
202 224 254
202 224 254
202 224 254
202 224 254
201 224 254
201 224 254
201 224 254
201 224 254
201 224 254
201 224 254
201 224 254
201 224 254
201 224 254
201 224 254
201 224 254
201 224 254
201 224 254
201 224 254
201 224 254
200 224 254
200 224 254
200 224 254
200 224 254
200 224 254
200 223 254
200 223 254
200 223 254
200 223 254
200 223 254
200 223 254
200 223 254
200 223 254
200 223 254
200 223 254
199 223 254
199 223 254
199 223 254
199 223 254
199 223 254
199 223 254
199 223 254
199 223 254
199 223 254
199 223 254
199 223 254
199 223 254
199 223 254
199 223 254
198 223 254
198 223 254
198 223 254
198 222 254
198 222 254
198 222 254
198 222 254
198 222 254
198 222 254
198 222 254
198 222 254
198 222 254
198 222 254
198 222 254
198 222 254
197 222 254
197 222 254
197 222 254
197 222 254
197 222 254
197 222 254
197 222 254
197 222 254
197 222 254
197 222 254
197 222 254
197 222 254
197 222 254
197 222 254
197 222 254
196 222 254
196 221 254
196 221 254
196 221 254
196 221 254
196 221 254
196 221 254
196 221 254
196 221 254
196 221 254
196 221 254
196 221 254
196 221 254
196 221 254
196 221 254
196 221 254
196 221 254
195 221 254
195 221 254
195 221 254
195 221 254
195 221 254
195 221 254
195 221 254
195 221 254
195 221 254
195 221 254
195 221 254
195 221 254
195 221 254
195 221 254
195 221 254
195 221 254
195 221 254
195 221 254
195 221 254
195 221 254
195 220 254
195 220 254
194 220 254
194 220 254
194 220 254
194 220 254
194 220 254
194 220 254
194 220 254
194 220 254
194 220 254
194 220 254
194 220 254
194 220 254
194 220 254
194 220 254
194 220 254
194 220 254
194 220 254
194 220 254
194 220 254
194 220 254
194 220 254
194 220 254
194 220 254
194 220 254
194 220 254
194 220 254
194 220 254
194 220 254
194 220 254
194 220 254
194 220 254
194 220 254
194 220 254
194 220 254
194 220 254
194 220 254
194 220 254
194 220 254
194 220 254
194 220 254
194 220 254
194 220 254
194 220 254
194 220 254
194 220 254
194 220 254
194 220 254
194 220 254
194 220 254
194 220 254
194 220 254
194 220 254
194 220 254
194 220 254
194 220 254
194 220 254
194 220 254
194 220 254
194 220 254
194 220 254
194 220 254
194 220 254
194 220 254
194 220 254
195 220 254
195 220 254
195 221 254
195 221 254
195 221 254
195 221 254
195 221 254
195 221 254
195 221 254
195 221 254
195 221 254
195 221 254
195 221 254
195 221 254
195 221 254
195 221 254
195 221 254
195 221 254
195 221 254
195 221 254
195 221 254
195 221 254
196 221 254
196 221 254
196 221 254
196 221 254
196 221 254
196 221 254
196 221 254
196 221 254
196 221 254
196 221 254
196 221 254
196 221 254
196 221 254
196 221 254
196 221 254
196 221 254
196 222 254
197 222 254
197 222 254
197 222 254
197 222 254
197 222 254
197 222 254
197 222 254
197 222 254
197 222 254
197 222 254
197 222 254
197 222 254
197 222 254
197 222 254
197 222 254
198 222 254
198 222 254
198 222 254
198 222 254
198 222 254
198 222 254
198 222 254
198 222 254
198 222 254
198 222 254
198 222 254
198 222 254
198 223 254
198 223 254
199 223 254
199 223 254
199 223 254
199 223 254
199 223 254
199 223 254
199 223 254
199 223 254
199 223 254
199 223 254
199 223 254
199 223 254
199 223 254
199 223 254
199 223 254
200 223 254
200 223 254
200 223 254
200 223 254
200 223 254
200 223 254
200 223 254
200 223 254
200 223 254
200 223 254
200 224 254
200 224 254
200 224 254
200 224 254
201 224 254
201 224 254
201 224 254
201 224 254
201 224 254
201 224 254
201 224 254
201 224 254
201 224 254
201 224 254
201 224 254
201 224 254
201 224 254
201 224 254
201 224 254
201 224 254
202 224 254
202 224 254
202 224 254
202 224 254
202 224 254
202 224 254
202 224 254
202 224 254
202 225 254
202 225 254
202 225 254
202 225 254
202 225 254
202 225 254
202 225 254
202 225 254
203 225 254
203 225 254
203 225 254
203 225 254
203 225 254
203 225 254
203 225 254
203 225 254
203 225 254
203 225 254
203 225 254
203 225 254
203 225 254
203 225 254
203 225 254
203 225 254
203 225 254
204 225 254
204 225 254
204 225 254
204 225 254
204 225 254
204 225 254
204 225 254
204 226 254
204 226 254
204 226 254
204 226 254
204 226 254
204 226 254
204 226 254
204 226 254
204 226 254
204 226 254
204 226 254
205 226 254
205 226 254
205 226 254
205 226 254
205 226 254
205 226 254
205 226 254
205 226 254
205 226 254
205 226 254
205 226 254
204 226 254
204 226 254
204 226 254
204 226 254
204 226 254
204 226 254
204 226 254
204 226 254
204 226 254
204 226 254
204 226 254
204 225 254
204 225 254
204 225 254
204 225 254
204 225 254
204 225 254
204 225 254
203 225 254
203 225 254
203 225 254
203 225 254
203 225 254
203 225 254
203 225 254
203 225 254
203 225 254
203 225 254
203 225 254
203 225 254
203 225 254
203 225 254
203 225 254
203 225 254
203 225 254
202 225 254
202 225 254
202 225 254
202 225 254
202 225 254
202 225 254
202 225 254
202 224 254
202 224 254
202 224 254
202 224 254
202 224 254
202 224 254
202 224 254
202 224 254
202 224 254
201 224 254
201 224 254
201 224 254
201 224 254
201 224 254
201 224 254
201 224 254
201 224 254
201 224 254
201 224 254
201 224 254
201 224 254
201 224 254
201 224 254
201 224 254
200 224 254
200 224 254
200 224 254
200 224 254
200 223 254
200 223 254
200 223 254
200 223 254
200 223 254
200 223 254
200 223 254
200 223 254
200 223 254
200 223 254
199 223 254
199 223 254
199 223 254
199 223 254
199 223 254
199 223 254
199 223 254
199 223 254
199 223 254
199 223 254
199 223 254
199 223 254
199 223 254
199 223 254
199 223 254
198 223 254
198 223 254
198 222 254
198 222 254
198 222 254
198 222 254
198 222 254
198 222 254
198 222 254
198 222 254
198 222 254
198 222 254
198 222 254
198 222 254
197 222 254
197 222 254
197 222 254
197 222 254
197 222 254
197 222 254
197 222 254
197 222 254
197 222 254
197 222 254
197 222 254
197 222 254
197 222 254
197 222 254
197 222 254
197 222 254
196 222 254
196 221 254
196 221 254
196 221 254
196 221 254
196 221 254
196 221 254
196 221 254
196 221 254
196 221 254
196 221 254
196 221 254
196 221 254
196 221 254
196 221 254
196 221 254
196 221 254
195 221 254
195 221 254
195 221 254
195 221 254
195 221 254
195 221 254
195 221 254
195 221 254
195 221 254
195 221 254
195 221 254
195 221 254
195 221 254
195 221 254
195 221 254
195 221 254
195 221 254
195 221 254
195 221 254
195 221 254
195 221 254
195 221 254
195 220 254
195 220 254
194 220 254
194 220 254
194 220 254
194 220 254
194 220 254
194 220 254
194 220 254
194 220 254
194 220 254
194 220 254
194 220 254
194 220 254
194 220 254
194 220 254
194 220 254
194 220 254
194 220 254
194 220 254
194 220 254
194 220 254
194 220 254
194 220 254
194 220 254
194 220 254
194 220 254
194 220 254
194 220 254
194 220 254
194 220 254
194 220 254
194 220 254
194 220 254
194 220 254
194 220 254
194 220 254
194 220 254
194 220 254
194 220 254
194 220 254
194 220 254
194 220 254
194 220 254
194 220 254
194 220 254
194 220 254
194 220 254
194 220 254
194 220 254
194 220 254
194 220 254
194 220 254
194 220 254
194 220 254
194 220 254
195 220 254
195 220 254
195 220 254
195 221 254
195 221 254
195 221 254
195 221 254
195 221 254
195 221 254
195 221 254
195 221 254
195 221 254
195 221 254
195 221 254
195 221 254
195 221 254
195 221 254
195 221 254
195 221 254
195 221 254
195 221 254
195 221 254
195 221 254
195 221 254
196 221 254
196 221 254
196 221 254
196 221 254
196 221 254
196 221 254
196 221 254
196 221 254
196 221 254
196 221 254
196 221 254
196 221 254
196 221 254
196 221 254
196 221 254
196 221 254
196 222 254
197 222 254
197 222 254
197 222 254
197 222 254
197 222 254
197 222 254
197 222 254
197 222 254
197 222 254
197 222 254
197 222 254
197 222 254
197 222 254
197 222 254
197 222 254
197 222 254
198 222 254
198 222 254
198 222 254
198 222 254
198 222 254
198 222 254
198 222 254
198 222 254
198 222 254
198 222 254
198 222 254
198 222 254
198 223 254
198 223 254
199 223 254
199 223 254
199 223 254
199 223 254
199 223 254
199 223 254
199 223 254
199 223 254
199 223 254
199 223 254
199 223 254
199 223 254
199 223 254
199 223 254
199 223 254
200 223 254
200 223 254
200 223 254
200 223 254
200 223 254
200 223 254
200 223 254
200 223 254
200 223 254
200 223 254
200 224 254
200 224 254
200 224 254
200 224 254
201 224 254
201 224 254
201 224 254
201 224 254
201 224 254
201 224 254
201 224 254
201 224 254
201 224 254
201 224 254
201 224 254
201 224 254
201 224 254
201 224 254
201 224 254
202 224 254
202 224 254
202 224 254
202 224 254
202 224 254
202 224 254
202 224 254
202 224 254
202 224 254
202 225 254
202 225 254
202 225 254
202 225 254
202 225 254
202 225 254
202 225 254
203 225 254
203 225 254
203 225 254
203 225 254
203 225 254
203 225 254
203 225 254
203 225 254
203 225 254
203 225 254
203 225 254
203 225 254
203 225 254
203 225 254
203 225 254
203 225 254
203 225 254
204 225 254
204 225 254
204 225 254
204 225 254
204 225 254
204 225 254
204 225 254
204 226 254
204 226 254
204 226 254
204 226 254
204 226 254
204 226 254
204 226 254
204 226 254
204 226 254
204 226 254
204 226 254
205 226 254
205 226 254
205 226 254
205 226 254
205 226 254
205 226 254
205 226 254
205 226 254
205 226 254
205 226 254
205 226 254
205 226 254
205 226 254
205 226 254
205 226 254
205 226 254
204 226 254
204 226 254
204 226 254
204 226 254
204 226 254
204 226 254
204 226 254
204 226 254
204 226 254
204 226 254
204 226 254
204 225 254
204 225 254
204 225 254
204 225 254
204 225 254
204 225 254
204 225 254
203 225 254
203 225 254
203 225 254
203 225 254
203 225 254
203 225 254
203 225 254
203 225 254
203 225 254
203 225 254
203 225 254
203 225 254
203 225 254
203 225 254
203 225 254
203 225 254
203 225 254
202 225 254
202 225 254
202 225 254
202 225 254
202 225 254
202 225 254
202 225 254
202 224 254
202 224 254
202 224 254
202 224 254
202 224 254
202 224 254
202 224 254
202 224 254
202 224 254
201 224 254
201 224 254
201 224 254
201 224 254
201 224 254
201 224 254
201 224 254
201 224 254
201 224 254
201 224 254
201 224 254
201 224 254
201 224 254
201 224 254
201 224 254
200 224 254
200 224 254
200 224 254
200 224 254
200 223 254
200 223 254
200 223 254
200 223 254
200 223 254
200 223 254
200 223 254
200 223 254
200 223 254
200 223 254
200 223 254
199 223 254
199 223 254
199 223 254
199 223 254
199 223 254
199 223 254
199 223 254
199 223 254
199 223 254
199 223 254
199 223 254
199 223 254
199 223 254
199 223 254
198 223 254
198 223 254
198 222 254
198 222 254
198 222 254
198 222 254
198 222 254
198 222 254
198 222 254
198 222 254
198 222 254
198 222 254
198 222 254
198 222 254
198 222 254
197 222 254
197 222 254
197 222 254
197 222 254
197 222 254
197 222 254
197 222 254
197 222 254
197 222 254
197 222 254
197 222 254
197 222 254
197 222 254
197 222 254
197 222 254
196 222 254
196 221 254
196 221 254
196 221 254
196 221 254
196 221 254
196 221 254
196 221 254
196 221 254
196 221 254
196 221 254
196 221 254
196 221 254
196 221 254
196 221 254
196 221 254
196 221 254
196 221 254
195 221 254
195 221 254
195 221 254
195 221 254
195 221 254
195 221 254
195 221 254
195 221 254
195 221 254
195 221 254
195 221 254
195 221 254
195 221 254
195 221 254
195 221 254
195 221 254
195 221 254
195 221 254
195 221 254
195 221 254
195 221 254
195 221 254
195 221 254
195 220 254
195 220 254
194 220 254
194 220 254
194 220 254
194 220 254
194 220 254
194 220 254
194 220 254
194 220 254
194 220 254
194 220 254
194 220 254
194 220 254
194 220 254
194 220 254
194 220 254
194 220 254
194 220 254
194 220 254
194 220 254
194 220 254
194 220 254
194 220 254
194 220 254
194 220 254
194 220 254
194 220 254
194 220 254
194 220 254
194 220 254
194 220 254
194 220 254
194 220 254
194 220 254
194 220 254
194 220 254
194 220 254
194 220 254
194 220 254
194 220 254
194 220 254
194 220 254
194 220 254
194 220 254
194 220 254
194 220 254
195 220 254
195 220 254
195 220 254
195 221 254
195 221 254
195 221 254
195 221 254
195 221 254
195 221 254
195 221 254
195 221 254
195 221 254
195 221 254
195 221 254
195 221 254
195 221 254
195 221 254
195 221 254
195 221 254
195 221 254
195 221 254
195 221 254
195 221 254
195 221 254
195 221 254
195 221 254
196 221 254
196 221 254
196 221 254
196 221 254
196 221 254
196 221 254
196 221 254
196 221 254
196 221 254
196 221 254
196 221 254
196 221 254
196 221 254
196 221 254
196 221 254
196 221 254
196 221 254
196 222 254
197 222 254
197 222 254
197 222 254
197 222 254
197 222 254
197 222 254
197 222 254
197 222 254
197 222 254
197 222 254
197 222 254
197 222 254
197 222 254
197 222 254
197 222 254
198 222 254
198 222 254
198 222 254
198 222 254
198 222 254
198 222 254
198 222 254
198 222 254
198 222 254
198 222 254
198 222 254
198 222 254
198 222 254
198 223 254
198 223 254
199 223 254
199 223 254
199 223 254
199 223 254
199 223 254
199 223 254
199 223 254
199 223 254
199 223 254
199 223 254
199 223 254
199 223 254
199 223 254
199 223 254
199 223 254
200 223 254
200 223 254
200 223 254
200 223 254
200 223 254
200 223 254
200 223 254
200 223 254
200 223 254
200 223 254
200 224 254
200 224 254
200 224 254
200 224 254
201 224 254
201 224 254
201 224 254
201 224 254
201 224 254
201 224 254
201 224 254
201 224 254
201 224 254
201 224 254
201 224 254
201 224 254
201 224 254
201 224 254
201 224 254
202 224 254
202 224 254
202 224 254
202 224 254
202 224 254
202 224 254
202 224 254
202 224 254
202 224 254
202 225 254
202 225 254
202 225 254
202 225 254
202 225 254
202 225 254
202 225 254
203 225 254
203 225 254
203 225 254
203 225 254
203 225 254
203 225 254
203 225 254
203 225 254
203 225 254
203 225 254
203 225 254
203 225 254
203 225 254
203 225 254
203 225 254
203 225 254
203 225 254
204 225 254
204 225 254
204 225 254
204 225 254
204 225 254
204 225 254
204 225 254
204 226 254
204 226 254
204 226 254
204 226 254
204 226 254
204 226 254
204 226 254
204 226 254
204 226 254
204 226 254
204 226 254
205 226 254
205 226 254
205 226 254
205 226 254
205 226 254
205 226 254
205 226 254
205 226 254
205 226 254
205 226 254
205 226 254
205 226 254
205 226 254
205 226 254
205 226 254
205 226 254
205 226 254
205 226 254
205 226 254
205 226 254
205 226 254
204 226 254
204 226 254
204 226 254
204 226 254
204 226 254
204 226 254
204 226 254
204 226 254
204 226 254
204 226 254
204 226 254
204 225 254
204 225 254
204 225 254
204 225 254
204 225 254
204 225 254
204 225 254
203 225 254
203 225 254
203 225 254
203 225 254
203 225 254
203 225 254
203 225 254
203 225 254
203 225 254
203 225 254
203 225 254
203 225 254
203 225 254
203 225 254
203 225 254
203 225 254
202 225 254
202 225 254
202 225 254
202 225 254
202 225 254
202 225 254
202 225 254
202 225 254
202 224 254
202 224 254
202 224 254
202 224 254
202 224 254
202 224 254
202 224 254
202 224 254
201 224 254
201 224 254
201 224 254
201 224 254
201 224 254
201 224 254
201 224 254
201 224 254
201 224 254
201 224 254
201 224 254
201 224 254
201 224 254
201 224 254
201 224 254
200 224 254
200 224 254
200 224 254
200 224 254
200 224 254
200 223 254
200 223 254
200 223 254
200 223 254
200 223 254
200 223 254
200 223 254
200 223 254
200 223 254
200 223 254
199 223 254
199 223 254
199 223 254
199 223 254
199 223 254
199 223 254
199 223 254
199 223 254
199 223 254
199 223 254
199 223 254
199 223 254
199 223 254
199 223 254
198 223 254
198 223 254
198 223 254
198 222 254
198 222 254
198 222 254
198 222 254
198 222 254
198 222 254
198 222 254
198 222 254
198 222 254
198 222 254
198 222 254
198 222 254
197 222 254
197 222 254
197 222 254
197 222 254
197 222 254
197 222 254
197 222 254
197 222 254
197 222 254
197 222 254
197 222 254
197 222 254
197 222 254
197 222 254
197 222 254
197 222 254
196 222 254
196 221 254
196 221 254
196 221 254
196 221 254
196 221 254
196 221 254
196 221 254
196 221 254
196 221 254
196 221 254
196 221 254
196 221 254
196 221 254
196 221 254
196 221 254
196 221 254
196 221 254
195 221 254
195 221 254
195 221 254
195 221 254
195 221 254
195 221 254
195 221 254
195 221 254
195 221 254
195 221 254
195 221 254
195 221 254
195 221 254
195 221 254
195 221 254
195 221 254
195 221 254
195 221 254
195 221 254
195 221 254
195 221 254
195 221 254
195 221 254
195 221 254
195 221 254
195 221 254
195 220 254
195 220 254
195 220 254
195 220 254
194 220 254
194 220 254
194 220 254
194 220 254
194 220 254
194 220 254
194 220 254
194 220 254
194 220 254
194 220 254
194 220 254
194 220 254
194 220 254
194 220 254
194 220 254
194 220 254
194 220 254
194 220 254
194 220 254
194 220 254
194 220 254
194 220 254
194 220 254
194 220 254
194 220 254
194 220 254
194 220 254
194 220 254
194 220 254
194 220 254
194 220 254
195 220 254
195 220 254
195 220 254
195 221 254
195 221 254
195 221 254
195 221 254
195 221 254
195 221 254
195 221 254
195 221 254
195 221 254
195 221 254
195 221 254
195 221 254
195 221 254
195 221 254
195 221 254
195 221 254
195 221 254
195 221 254
195 221 254
195 221 254
195 221 254
195 221 254
195 221 254
195 221 254
195 221 254
195 221 254
196 221 254
196 221 254
196 221 254
196 221 254
196 221 254
196 221 254
196 221 254
196 221 254
196 221 254
196 221 254
196 221 254
196 221 254
196 221 254
196 221 254
196 221 254
196 221 254
196 221 254
196 222 254
197 222 254
197 222 254
197 222 254
197 222 254
197 222 254
197 222 254
197 222 254
197 222 254
197 222 254
197 222 254
197 222 254
197 222 254
197 222 254
197 222 254
197 222 254
197 222 254
198 222 254
198 222 254
198 222 254
198 222 254
198 222 254
198 222 254
198 222 254
198 222 254
198 222 254
198 222 254
198 222 254
198 222 254
198 223 254
198 223 254
198 223 254
199 223 254
199 223 254
199 223 254
199 223 254
199 223 254
199 223 254
199 223 254
199 223 254
199 223 254
199 223 254
199 223 254
199 223 254
199 223 254
199 223 254
200 223 254
200 223 254
200 223 254
200 223 254
200 223 254
200 223 254
200 223 254
200 223 254
200 223 254
200 223 254
200 224 254
200 224 254
200 224 254
200 224 254
200 224 254
201 224 254
201 224 254
201 224 254
201 224 254
201 224 254
201 224 254
201 224 254
201 224 254
201 224 254
201 224 254
201 224 254
201 224 254
201 224 254
201 224 254
201 224 254
202 224 254
202 224 254
202 224 254
202 224 254
202 224 254
202 224 254
202 224 254
202 224 254
202 225 254
202 225 254
202 225 254
202 225 254
202 225 254
202 225 254
202 225 254
202 225 254
203 225 254
203 225 254
203 225 254
203 225 254
203 225 254
203 225 254
203 225 254
203 225 254
203 225 254
203 225 254
203 225 254
203 225 254
203 225 254
203 225 254
203 225 254
203 225 254
204 225 254
204 225 254
204 225 254
204 225 254
204 225 254
204 225 254
204 225 254
204 226 254
204 226 254
204 226 254
204 226 254
204 226 254
204 226 254
204 226 254
204 226 254
204 226 254
204 226 254
204 226 254
205 226 254
205 226 254
205 226 254
205 226 254
205 226 254
205 226 254
205 226 254
205 226 254
205 226 254
205 226 254
205 226 254
205 226 254
205 226 254
205 226 254
205 226 254
205 226 254
205 226 254
205 226 254
205 226 254
205 226 254
205 226 254
205 226 254
205 226 254
205 226 254
205 226 254
205 226 254
204 226 254
204 226 254
204 226 254
204 226 254
204 226 254
204 226 254
204 226 254
204 226 254
204 226 254
204 226 254
204 226 254
204 225 254
204 225 254
204 225 254
204 225 254
204 225 254
204 225 254
204 225 254
203 225 254
203 225 254
203 225 254
203 225 254
203 225 254
203 225 254
203 225 254
203 225 254
203 225 254
203 225 254
203 225 254
203 225 254
203 225 254
203 225 254
203 225 254
203 225 254
203 225 254
202 225 254
202 225 254
202 225 254
202 225 254
202 225 254
202 225 254
202 225 254
202 224 254
202 224 254
202 224 254
202 224 254
202 224 254
202 224 254
202 224 254
202 224 254
201 224 254
201 224 254
201 224 254
201 224 254
201 224 254
201 224 254
201 224 254
201 224 254
201 224 254
201 224 254
201 224 254
201 224 254
201 224 254
201 224 254
201 224 254
201 224 254
200 224 254
200 224 254
200 224 254
200 224 254
200 223 254
200 223 254
200 223 254
200 223 254
200 223 254
200 223 254
200 223 254
200 223 254
200 223 254
200 223 254
199 223 254
199 223 254
199 223 254
199 223 254
199 223 254
199 223 254
199 223 254
199 223 254
199 223 254
199 223 254
199 223 254
199 223 254
199 223 254
199 223 254
199 223 254
198 223 254
198 223 254
198 222 254
198 222 254
198 222 254
198 222 254
198 222 254
198 222 254
198 222 254
198 222 254
198 222 254
198 222 254
198 222 254
198 222 254
197 222 254
197 222 254
197 222 254
197 222 254
197 222 254
197 222 254
197 222 254
197 222 254
197 222 254
197 222 254
197 222 254
197 222 254
197 222 254
197 222 254
197 222 254
197 222 254
197 222 254
196 221 254
196 221 254
196 221 254
196 221 254
196 221 254
196 221 254
196 221 254
196 221 254
196 221 254
196 221 254
196 221 254
196 221 254
196 221 254
196 221 254
196 221 254
196 221 254
196 221 254
196 221 254
196 221 254
195 221 254
195 221 254
195 221 254
195 221 254
195 221 254
195 221 254
195 221 254
195 221 254
195 221 254
195 221 254
195 221 254
195 221 254
195 221 254
195 221 254
195 221 254
195 221 254
195 221 254
195 221 254
195 221 254
195 221 254
195 221 254
195 221 254
195 221 254
195 221 254
195 221 254
195 221 254
195 221 254
195 221 254
195 221 254
195 221 254
195 221 254
195 221 254
195 220 254
195 220 254
195 220 254
195 220 254
195 220 254
195 220 254
195 220 254
195 220 254
195 220 254
195 220 254
195 220 254
195 220 254
195 220 254
195 220 254
195 220 254
195 220 254
195 220 254
195 220 254
195 220 254
195 221 254
195 221 254
195 221 254
195 221 254
195 221 254
195 221 254
195 221 254
195 221 254
195 221 254
195 221 254
195 221 254
195 221 254
195 221 254
195 221 254
195 221 254
195 221 254
195 221 254
195 221 254
195 221 254
195 221 254
195 221 254
195 221 254
195 221 254
195 221 254
195 221 254
195 221 254
195 221 254
195 221 254
195 221 254
195 221 254
195 221 254
196 221 254
196 221 254
196 221 254
196 221 254
196 221 254
196 221 254
196 221 254
196 221 254
196 221 254
196 221 254
196 221 254
196 221 254
196 221 254
196 221 254
196 221 254
196 221 254
196 221 254
196 221 254
196 221 254
196 222 254
197 222 254
197 222 254
197 222 254
197 222 254
197 222 254
197 222 254
197 222 254
197 222 254
197 222 254
197 222 254
197 222 254
197 222 254
197 222 254
197 222 254
197 222 254
198 222 254
198 222 254
198 222 254
198 222 254
198 222 254
198 222 254
198 222 254
198 222 254
198 222 254
198 222 254
198 222 254
198 222 254
198 222 254
198 223 254
198 223 254
199 223 254
199 223 254
199 223 254
199 223 254
199 223 254
199 223 254
199 223 254
199 223 254
199 223 254
199 223 254
199 223 254
199 223 254
199 223 254
199 223 254
199 223 254
200 223 254
200 223 254
200 223 254
200 223 254
200 223 254
200 223 254
200 223 254
200 223 254
200 223 254
200 223 254
200 224 254
200 224 254
200 224 254
200 224 254
200 224 254
201 224 254
201 224 254
201 224 254
201 224 254
201 224 254
201 224 254
201 224 254
201 224 254
201 224 254
201 224 254
201 224 254
201 224 254
201 224 254
201 224 254
202 224 254
202 224 254
202 224 254
202 224 254
202 224 254
202 224 254
202 224 254
202 224 254
202 224 254
202 225 254
202 225 254
202 225 254
202 225 254
202 225 254
202 225 254
202 225 254
203 225 254
203 225 254
203 225 254
203 225 254
203 225 254
203 225 254
203 225 254
203 225 254
203 225 254
203 225 254
203 225 254
203 225 254
203 225 254
203 225 254
203 225 254
203 225 254
203 225 254
204 225 254
204 225 254
204 225 254
204 225 254
204 225 254
204 225 254
204 225 254
204 226 254
204 226 254
204 226 254
204 226 254
204 226 254
204 226 254
204 226 254
204 226 254
204 226 254
204 226 254
204 226 254
205 226 254
205 226 254
205 226 254
205 226 254
205 226 254
205 226 254
205 226 254
205 226 254
205 226 254
205 226 254
205 226 254
205 226 254
205 226 254
205 226 254
205 226 254
205 226 254
205 226 254
205 226 254
205 226 254
205 226 254
205 226 254
205 226 254
205 226 254
205 226 254
205 226 254
205 226 254
205 226 254
205 226 254
205 226 254
205 226 254
205 226 254
204 226 254
204 226 254
204 226 254
204 226 254
204 226 254
204 226 254
204 226 254
204 226 254
204 226 254
204 226 254
204 226 254
204 225 254
204 225 254
204 225 254
204 225 254
204 225 254
204 225 254
204 225 254
203 225 254
203 225 254
203 225 254
203 225 254
203 225 254
203 225 254
203 225 254
203 225 254
203 225 254
203 225 254
203 225 254
203 225 254
203 225 254
203 225 254
203 225 254
203 225 254
202 225 254
202 225 254
202 225 254
202 225 254
202 225 254
202 225 254
202 225 254
202 224 254
202 224 254
202 224 254
202 224 254
202 224 254
202 224 254
202 224 254
202 224 254
202 224 254
201 224 254
201 224 254
201 224 254
201 224 254
201 224 254
201 224 254
201 224 254
201 224 254
201 224 254
201 224 254
201 224 254
201 224 254
201 224 254
201 224 254
201 224 254
200 224 254
200 224 254
200 224 254
200 224 254
200 223 254
200 223 254
200 223 254
200 223 254
200 223 254
200 223 254
200 223 254
200 223 254
200 223 254
200 223 254
199 223 254
199 223 254
199 223 254
199 223 254
199 223 254
199 223 254
199 223 254
199 223 254
199 223 254
199 223 254
199 223 254
199 223 254
199 223 254
199 223 254
199 223 254
198 223 254
198 223 254
198 223 254
198 222 254
198 222 254
198 222 254
198 222 254
198 222 254
198 222 254
198 222 254
198 222 254
198 222 254
198 222 254
198 222 254
198 222 254
197 222 254
197 222 254
197 222 254
197 222 254
197 222 254
197 222 254
197 222 254
197 222 254
197 222 254
197 222 254
197 222 254
197 222 254
197 222 254
197 222 254
197 222 254
197 222 254
196 222 254
196 221 254
196 221 254
196 221 254
196 221 254
196 221 254
196 221 254
196 221 254
196 221 254
196 221 254
196 221 254
196 221 254
196 221 254
196 221 254
196 221 254
196 221 254
196 221 254
196 221 254
196 221 254
196 221 254
195 221 254
195 221 254
195 221 254
195 221 254
195 221 254
195 221 254
195 221 254
195 221 254
195 221 254
195 221 254
195 221 254
195 221 254
195 221 254
195 221 254
195 221 254
195 221 254
195 221 254
195 221 254
195 221 254
195 221 254
195 221 254
195 221 254
195 221 254
195 221 254
195 221 254
195 221 254
195 221 254
195 221 254
195 221 254
195 221 254
195 221 254
195 221 254
195 221 254
195 221 254
195 221 254
195 221 254
195 221 254
195 221 254
195 221 254
195 221 254
195 221 254
195 221 254
195 221 254
195 221 254
195 221 254
195 221 254
195 221 254
195 221 254
195 221 254
195 221 254
195 221 254
195 221 254
195 221 254
195 221 254
195 221 254
195 221 254
195 221 254
195 221 254
195 221 254
195 221 254
195 221 254
195 221 254
195 221 254
195 221 254
195 221 254
195 221 254
195 221 254
195 221 254
195 221 254
195 221 254
195 221 254
195 221 254
195 221 254
195 221 254
195 221 254
195 221 254
196 221 254
196 221 254
196 221 254
196 221 254
196 221 254
196 221 254
196 221 254
196 221 254
196 221 254
196 221 254
196 221 254
196 221 254
196 221 254
196 221 254
196 221 254
196 221 254
196 221 254
196 221 254
196 221 254
196 222 254
197 222 254
197 222 254
197 222 254
197 222 254
197 222 254
197 222 254
197 222 254
197 222 254
197 222 254
197 222 254
197 222 254
197 222 254
197 222 254
197 222 254
197 222 254
197 222 254
198 222 254
198 222 254
198 222 254
198 222 254
198 222 254
198 222 254
198 222 254
198 222 254
198 222 254
198 222 254
198 222 254
198 222 254
198 223 254
198 223 254
198 223 254
199 223 254
199 223 254
199 223 254
199 223 254
199 223 254
199 223 254
199 223 254
199 223 254
199 223 254
199 223 254
199 223 254
199 223 254
199 223 254
199 223 254
199 223 254
200 223 254
200 223 254
200 223 254
200 223 254
200 223 254
200 223 254
200 223 254
200 223 254
200 223 254
200 223 254
200 224 254
200 224 254
200 224 254
200 224 254
201 224 254
201 224 254
201 224 254
201 224 254
201 224 254
201 224 254
201 224 254
201 224 254
201 224 254
201 224 254
201 224 254
201 224 254
201 224 254
201 224 254
201 224 254
202 224 254
202 224 254
202 224 254
202 224 254
202 224 254
202 224 254
202 224 254
202 224 254
202 224 254
202 225 254
202 225 254
202 225 254
202 225 254
202 225 254
202 225 254
202 225 254
203 225 254
203 225 254
203 225 254
203 225 254
203 225 254
203 225 254
203 225 254
203 225 254
203 225 254
203 225 254
203 225 254
203 225 254
203 225 254
203 225 254
203 225 254
203 225 254
204 225 254
204 225 254
204 225 254
204 225 254
204 225 254
204 225 254
204 225 254
204 226 254
204 226 254
204 226 254
204 226 254
204 226 254
204 226 254
204 226 254
204 226 254
204 226 254
204 226 254
204 226 254
205 226 254
205 226 254
205 226 254
205 226 254
205 226 254
205 226 254
205 226 254
205 226 254
205 226 254
205 226 254
205 226 254
205 226 254
205 226 254
205 226 254
205 226 254
205 226 254
205 226 254
205 226 254
205 226 254
205 226 254
205 226 254
205 226 254
205 226 254
205 226 254
205 226 254
205 226 254
205 226 254
205 226 254
205 226 254
205 226 254
205 226 254
205 226 254
205 226 254
205 226 254
205 226 254
205 226 254
204 226 254
204 226 254
204 226 254
204 226 254
204 226 254
204 226 254
204 226 254
204 226 254
204 226 254
204 226 254
204 226 254
204 225 254
204 225 254
204 225 254
204 225 254
204 225 254
204 225 254
204 225 254
203 225 254
203 225 254
203 225 254
203 225 254
203 225 254
203 225 254
203 225 254
203 225 254
203 225 254
203 225 254
203 225 254
203 225 254
203 225 254
203 225 254
203 225 254
203 225 254
203 225 254
202 225 254
202 225 254
202 225 254
202 225 254
202 225 254
202 225 254
202 225 254
202 224 254
202 224 254
202 224 254
202 224 254
202 224 254
202 224 254
202 224 254
202 224 254
201 224 254
201 224 254
201 224 254
201 224 254
201 224 254
201 224 254
201 224 254
201 224 254
201 224 254
201 224 254
201 224 254
201 224 254
201 224 254
201 224 254
201 224 254
200 224 254
200 224 254
200 224 254
200 224 254
200 224 254
200 223 254
200 223 254
200 223 254
200 223 254
200 223 254
200 223 254
200 223 254
200 223 254
200 223 254
200 223 254
199 223 254
199 223 254
199 223 254
199 223 254
199 223 254
199 223 254
199 223 254
199 223 254
199 223 254
199 223 254
199 223 254
199 223 254
199 223 254
199 223 254
198 223 254
198 223 254
198 223 254
198 222 254
198 222 254
198 222 254
198 222 254
198 222 254
198 222 254
198 222 254
198 222 254
198 222 254
198 222 254
198 222 254
198 222 254
197 222 254
197 222 254
197 222 254
197 222 254
197 222 254
197 222 254
197 222 254
197 222 254
197 222 254
197 222 254
197 222 254
197 222 254
197 222 254
197 222 254
197 222 254
197 222 254
197 222 254
196 222 254
196 221 254
196 221 254
196 221 254
196 221 254
196 221 254
196 221 254
196 221 254
196 221 254
196 221 254
196 221 254
196 221 254
196 221 254
196 221 254
196 221 254
196 221 254
196 221 254
196 221 254
196 221 254
196 221 254
196 221 254
196 221 254
195 221 254
195 221 254
195 221 254
195 221 254
195 221 254
195 221 254
195 221 254
195 221 254
195 221 254
195 221 254
195 221 254
195 221 254
195 221 254
195 221 254
195 221 254
195 221 254
195 221 254
195 221 254
195 221 254
195 221 254
195 221 254
195 221 254
195 221 254
195 221 254
195 221 254
195 221 254
195 221 254
195 221 254
195 221 254
195 221 254
195 221 254
195 221 254
195 221 254
195 221 254
195 221 254
195 221 254
195 221 254
195 221 254
195 221 254
195 221 254
195 221 254
195 221 254
195 221 254
195 221 254
195 221 254
195 221 254
195 221 254
195 221 254
195 221 254
195 221 254
195 221 254
195 221 254
195 221 254
195 221 254
195 221 254
195 221 254
195 221 254
195 221 254
195 221 254
195 221 254
195 221 254
195 221 254
195 221 254
195 221 254
195 221 254
195 221 254
195 221 254
196 221 254
196 221 254
196 221 254
196 221 254
196 221 254
196 221 254
196 221 254
196 221 254
196 221 254
196 221 254
196 221 254
196 221 254
196 221 254
196 221 254
196 221 254
196 221 254
196 221 254
196 221 254
196 221 254
196 221 254
196 222 254
197 222 254
197 222 254
197 222 254
197 222 254
197 222 254
197 222 254
197 222 254
197 222 254
197 222 254
197 222 254
197 222 254
197 222 254
197 222 254
197 222 254
197 222 254
197 222 254
197 222 254
198 222 254
198 222 254
198 222 254
198 222 254
198 222 254
198 222 254
198 222 254
198 222 254
198 222 254
198 222 254
198 222 254
198 222 254
198 223 254
198 223 254
198 223 254
199 223 254
199 223 254
199 223 254
199 223 254
199 223 254
199 223 254
199 223 254
199 223 254
199 223 254
199 223 254
199 223 254
199 223 254
199 223 254
199 223 254
200 223 254
200 223 254
200 223 254
200 223 254
200 223 254
200 223 254
200 223 254
200 223 254
200 223 254
200 223 254
200 224 254
200 224 254
200 224 254
200 224 254
200 224 254
201 224 254
201 224 254
201 224 254
201 224 254
201 224 254
201 224 254
201 224 254
201 224 254
201 224 254
201 224 254
201 224 254
201 224 254
201 224 254
201 224 254
201 224 254
202 224 254
202 224 254
202 224 254
202 224 254
202 224 254
202 224 254
202 224 254
202 224 254
202 225 254
202 225 254
202 225 254
202 225 254
202 225 254
202 225 254
202 225 254
203 225 254
203 225 254
203 225 254
203 225 254
203 225 254
203 225 254
203 225 254
203 225 254
203 225 254
203 225 254
203 225 254
203 225 254
203 225 254
203 225 254
203 225 254
203 225 254
203 225 254
204 225 254
204 225 254
204 225 254
204 225 254
204 225 254
204 225 254
204 225 254
204 226 254
204 226 254
204 226 254
204 226 254
204 226 254
204 226 254
204 226 254
204 226 254
204 226 254
204 226 254
204 226 254
205 226 254
205 226 254
205 226 254
205 226 254
205 226 254
205 226 254
205 226 254
205 226 254
205 226 254
205 226 254
205 226 254
205 226 254
205 226 254
205 226 254
205 226 254
205 226 254
205 226 254
205 226 254
205 226 254
206 226 254
206 226 254
206 226 254
205 226 254
205 226 254
205 226 254
205 226 254
205 226 254
205 226 254
205 226 254
205 226 254
205 226 254
205 226 254
205 226 254
205 226 254
205 226 254
205 226 254
205 226 254
205 226 254
205 226 254
205 226 254
205 226 254
204 226 254
204 226 254
204 226 254
204 226 254
204 226 254
204 226 254
204 226 254
204 226 254
204 226 254
204 226 254
204 226 254
204 225 254
204 225 254
204 225 254
204 225 254
204 225 254
204 225 254
204 225 254
203 225 254
203 225 254
203 225 254
203 225 254
203 225 254
203 225 254
203 225 254
203 225 254
203 225 254
203 225 254
203 225 254
203 225 254
203 225 254
203 225 254
203 225 254
203 225 254
202 225 254
202 225 254
202 225 254
202 225 254
202 225 254
202 225 254
202 225 254
202 224 254
202 224 254
202 224 254
202 224 254
202 224 254
202 224 254
202 224 254
202 224 254
201 224 254
201 224 254
201 224 254
201 224 254
201 224 254
201 224 254
201 224 254
201 224 254
201 224 254
201 224 254
201 224 254
201 224 254
201 224 254
201 224 254
201 224 254
200 224 254
200 224 254
200 224 254
200 224 254
200 224 254
200 223 254
200 223 254
200 223 254
200 223 254
200 223 254
200 223 254
200 223 254
200 223 254
200 223 254
200 223 254
199 223 254
199 223 254
199 223 254
199 223 254
199 223 254
199 223 254
199 223 254
199 223 254
199 223 254
199 223 254
199 223 254
199 223 254
199 223 254
199 223 254
199 223 254
198 223 254
198 223 254
198 222 254
198 222 254
198 222 254
198 222 254
198 222 254
198 222 254
198 222 254
198 222 254
198 222 254
198 222 254
198 222 254
198 222 254
198 222 254
197 222 254
197 222 254
197 222 254
197 222 254
197 222 254
197 222 254
197 222 254
197 222 254
197 222 254
197 222 254
197 222 254
197 222 254
197 222 254
197 222 254
197 222 254
197 222 254
197 222 254
196 222 254
196 221 254
196 221 254
196 221 254
196 221 254
196 221 254
196 221 254
196 221 254
196 221 254
196 221 254
196 221 254
196 221 254
196 221 254
196 221 254
196 221 254
196 221 254
196 221 254
196 221 254
196 221 254
196 221 254
196 221 254
196 221 254
196 221 254
195 221 254
195 221 254
195 221 254
195 221 254
195 221 254
195 221 254
195 221 254
195 221 254
195 221 254
195 221 254
195 221 254
195 221 254
195 221 254
195 221 254
195 221 254
195 221 254
195 221 254
195 221 254
195 221 254
195 221 254
195 221 254
195 221 254
195 221 254
195 221 254
195 221 254
195 221 254
195 221 254
195 221 254
195 221 254
195 221 254
195 221 254
195 221 254
195 221 254
195 221 254
195 221 254
195 221 254
195 221 254
195 221 254
195 221 254
195 221 254
195 221 254
195 221 254
195 221 254
195 221 254
195 221 254
195 221 254
195 221 254
195 221 254
195 221 254
195 221 254
195 221 254
195 221 254
195 221 254
195 221 254
195 221 254
195 221 254
195 221 254
195 221 254
196 221 254
196 221 254
196 221 254
196 221 254
196 221 254
196 221 254
196 221 254
196 221 254
196 221 254
196 221 254
196 221 254
196 221 254
196 221 254
196 221 254
196 221 254
196 221 254
196 221 254
196 221 254
196 221 254
196 221 254
196 221 254
196 221 254
196 222 254
197 222 254
197 222 254
197 222 254
197 222 254
197 222 254
197 222 254
197 222 254
197 222 254
197 222 254
197 222 254
197 222 254
197 222 254
197 222 254
197 222 254
197 222 254
197 222 254
197 222 254
198 222 254
198 222 254
198 222 254
198 222 254
198 222 254
198 222 254
198 222 254
198 222 254
198 222 254
198 222 254
198 222 254
198 222 254
198 222 254
198 223 254
198 223 254
199 223 254
199 223 254
199 223 254
199 223 254
199 223 254
199 223 254
199 223 254
199 223 254
199 223 254
199 223 254
199 223 254
199 223 254
199 223 254
199 223 254
199 223 254
200 223 254
200 223 254
200 223 254
200 223 254
200 223 254
200 223 254
200 223 254
200 223 254
200 223 254
200 223 254
200 224 254
200 224 254
200 224 254
200 224 254
200 224 254
201 224 254
201 224 254
201 224 254
201 224 254
201 224 254
201 224 254
201 224 254
201 224 254
201 224 254
201 224 254
201 224 254
201 224 254
201 224 254
201 224 254
202 224 254
202 224 254
202 224 254
202 224 254
202 224 254
202 224 254
202 224 254
202 224 254
202 224 254
202 225 254
202 225 254
202 225 254
202 225 254
202 225 254
202 225 254
202 225 254
203 225 254
203 225 254
203 225 254
203 225 254
203 225 254
203 225 254
203 225 254
203 225 254
203 225 254
203 225 254
203 225 254
203 225 254
203 225 254
203 225 254
203 225 254
203 225 254
204 225 254
204 225 254
204 225 254
204 225 254
204 225 254
204 225 254
204 225 254
204 226 254
204 226 254
204 226 254
204 226 254
204 226 254
204 226 254
204 226 254
204 226 254
204 226 254
204 226 254
204 226 254
205 226 254
205 226 254
205 226 254
205 226 254
205 226 254
205 226 254
205 226 254
205 226 254
205 226 254
205 226 254
205 226 254
205 226 254
205 226 254
205 226 254
205 226 254
205 226 254
205 226 254
205 226 254
205 226 254
206 226 254
206 226 254
206 226 254
206 227 254
206 226 254
206 226 254
206 226 254
206 226 254
206 226 254
205 226 254
205 226 254
205 226 254
205 226 254
205 226 254
205 226 254
205 226 254
205 226 254
205 226 254
205 226 254
205 226 254
205 226 254
205 226 254
205 226 254
205 226 254
205 226 254
205 226 254
205 226 254
205 226 254
204 226 254
204 226 254
204 226 254
204 226 254
204 226 254
204 226 254
204 226 254
204 226 254
204 226 254
204 226 254
204 225 254
204 225 254
204 225 254
204 225 254
204 225 254
204 225 254
204 225 254
203 225 254
203 225 254
203 225 254
203 225 254
203 225 254
203 225 254
203 225 254
203 225 254
203 225 254
203 225 254
203 225 254
203 225 254
203 225 254
203 225 254
203 225 254
203 225 254
202 225 254
202 225 254
202 225 254
202 225 254
202 225 254
202 225 254
202 225 254
202 225 254
202 224 254
202 224 254
202 224 254
202 224 254
202 224 254
202 224 254
202 224 254
202 224 254
201 224 254
201 224 254
201 224 254
201 224 254
201 224 254
201 224 254
201 224 254
201 224 254
201 224 254
201 224 254
201 224 254
201 224 254
201 224 254
201 224 254
201 224 254
200 224 254
200 224 254
200 224 254
200 224 254
200 223 254
200 223 254
200 223 254
200 223 254
200 223 254
200 223 254
200 223 254
200 223 254
200 223 254
200 223 254
200 223 254
199 223 254
199 223 254
199 223 254
199 223 254
199 223 254
199 223 254
199 223 254
199 223 254
199 223 254
199 223 254
199 223 254
199 223 254
199 223 254
199 223 254
198 223 254
198 223 254
198 223 254
198 222 254
198 222 254
198 222 254
198 222 254
198 222 254
198 222 254
198 222 254
198 222 254
198 222 254
198 222 254
198 222 254
198 222 254
198 222 254
197 222 254
197 222 254
197 222 254
197 222 254
197 222 254
197 222 254
197 222 254
197 222 254
197 222 254
197 222 254
197 222 254
197 222 254
197 222 254
197 222 254
197 222 254
197 222 254
197 222 254
196 222 254
196 221 254
196 221 254
196 221 254
196 221 254
196 221 254
196 221 254
196 221 254
196 221 254
196 221 254
196 221 254
196 221 254
196 221 254
196 221 254
196 221 254
196 221 254
196 221 254
196 221 254
196 221 254
196 221 254
196 221 254
196 221 254
196 221 254
196 221 254
196 221 254
195 221 254
195 221 254
195 221 254
195 221 254
195 221 254
195 221 254
195 221 254
195 221 254
195 221 254
195 221 254
195 221 254
195 221 254
195 221 254
195 221 254
195 221 254
195 221 254
195 221 254
195 221 254
195 221 254
195 221 254
195 221 254
195 221 254
195 221 254
195 221 254
195 221 254
195 221 254
195 221 254
195 221 254
195 221 254
195 221 254
195 221 254
195 221 254
195 221 254
195 221 254
195 221 254
195 221 254
195 221 254
195 221 254
195 221 254
195 221 254
195 221 254
195 221 254
195 221 254
195 221 254
195 221 254
195 221 254
195 221 254
195 221 254
196 221 254
196 221 254
196 221 254
196 221 254
196 221 254
196 221 254
196 221 254
196 221 254
196 221 254
196 221 254
196 221 254
196 221 254
196 221 254
196 221 254
196 221 254
196 221 254
196 221 254
196 221 254
196 221 254
196 221 254
196 221 254
196 221 254
196 221 254
196 221 254
196 222 254
197 222 254
197 222 254
197 222 254
197 222 254
197 222 254
197 222 254
197 222 254
197 222 254
197 222 254
197 222 254
197 222 254
197 222 254
197 222 254
197 222 254
197 222 254
197 222 254
197 222 254
198 222 254
198 222 254
198 222 254
198 222 254
198 222 254
198 222 254
198 222 254
198 222 254
198 222 254
198 222 254
198 222 254
198 222 254
198 222 254
198 223 254
198 223 254
198 223 254
199 223 254
199 223 254
199 223 254
199 223 254
199 223 254
199 223 254
199 223 254
199 223 254
199 223 254
199 223 254
199 223 254
199 223 254
199 223 254
199 223 254
199 223 254
200 223 254
200 223 254
200 223 254
200 223 254
200 223 254
200 223 254
200 223 254
200 223 254
200 223 254
200 223 254
200 224 254
200 224 254
200 224 254
200 224 254
201 224 254
201 224 254
201 224 254
201 224 254
201 224 254
201 224 254
201 224 254
201 224 254
201 224 254
201 224 254
201 224 254
201 224 254
201 224 254
201 224 254
201 224 254
202 224 254
202 224 254
202 224 254
202 224 254
202 224 254
202 224 254
202 224 254
202 224 254
202 225 254
202 225 254
202 225 254
202 225 254
202 225 254
202 225 254
202 225 254
202 225 254
203 225 254
203 225 254
203 225 254
203 225 254
203 225 254
203 225 254
203 225 254
203 225 254
203 225 254
203 225 254
203 225 254
203 225 254
203 225 254
203 225 254
203 225 254
203 225 254
204 225 254
204 225 254
204 225 254
204 225 254
204 225 254
204 225 254
204 225 254
204 226 254
204 226 254
204 226 254
204 226 254
204 226 254
204 226 254
204 226 254
204 226 254
204 226 254
204 226 254
205 226 254
205 226 254
205 226 254
205 226 254
205 226 254
205 226 254
205 226 254
205 226 254
205 226 254
205 226 254
205 226 254
205 226 254
205 226 254
205 226 254
205 226 254
205 226 254
205 226 254
205 226 254
205 226 254
206 226 254
206 226 254
206 226 254
206 226 254
206 226 254
206 227 254
206 227 254
206 227 254
206 227 254
206 227 254
206 226 254
206 226 254
206 226 254
206 226 254
205 226 254
205 226 254
205 226 254
205 226 254
205 226 254
205 226 254
205 226 254
205 226 254
205 226 254
205 226 254
205 226 254
205 226 254
205 226 254
205 226 254
205 226 254
205 226 254
205 226 254
205 226 254
205 226 254
204 226 254
204 226 254
204 226 254
204 226 254
204 226 254
204 226 254
204 226 254
204 226 254
204 226 254
204 226 254
204 226 254
204 225 254
204 225 254
204 225 254
204 225 254
204 225 254
204 225 254
203 225 254
203 225 254
203 225 254
203 225 254
203 225 254
203 225 254
203 225 254
203 225 254
203 225 254
203 225 254
203 225 254
203 225 254
203 225 254
203 225 254
203 225 254
203 225 254
203 225 254
202 225 254
202 225 254
202 225 254
202 225 254
202 225 254
202 225 254
202 225 254
202 224 254
202 224 254
202 224 254
202 224 254
202 224 254
202 224 254
202 224 254
202 224 254
201 224 254
201 224 254
201 224 254
201 224 254
201 224 254
201 224 254
201 224 254
201 224 254
201 224 254
201 224 254
201 224 254
201 224 254
201 224 254
201 224 254
201 224 254
200 224 254
200 224 254
200 224 254
200 224 254
200 224 254
200 223 254
200 223 254
200 223 254
200 223 254
200 223 254
200 223 254
200 223 254
200 223 254
200 223 254
200 223 254
199 223 254
199 223 254
199 223 254
199 223 254
199 223 254
199 223 254
199 223 254
199 223 254
199 223 254
199 223 254
199 223 254
199 223 254
199 223 254
199 223 254
199 223 254
198 223 254
198 223 254
198 222 254
198 222 254
198 222 254
198 222 254
198 222 254
198 222 254
198 222 254
198 222 254
198 222 254
198 222 254
198 222 254
198 222 254
198 222 254
198 222 254
197 222 254
197 222 254
197 222 254
197 222 254
197 222 254
197 222 254
197 222 254
197 222 254
197 222 254
197 222 254
197 222 254
197 222 254
197 222 254
197 222 254
197 222 254
197 222 254
197 222 254
197 222 254
196 222 254
196 221 254
196 221 254
196 221 254
196 221 254
196 221 254
196 221 254
196 221 254
196 221 254
196 221 254
196 221 254
196 221 254
196 221 254
196 221 254
196 221 254
196 221 254
196 221 254
196 221 254
196 221 254
196 221 254
196 221 254
196 221 254
196 221 254
196 221 254
196 221 254
196 221 254
196 221 254
196 221 254
195 221 254
195 221 254
195 221 254
195 221 254
195 221 254
195 221 254
195 221 254
195 221 254
195 221 254
195 221 254
195 221 254
195 221 254
195 221 254
195 221 254
195 221 254
195 221 254
195 221 254
195 221 254
195 221 254
195 221 254
195 221 254
195 221 254
195 221 254
195 221 254
195 221 254
195 221 254
195 221 254
195 221 254
195 221 254
195 221 254
195 221 254
195 221 254
195 221 254
195 221 254
196 221 254
196 221 254
196 221 254
196 221 254
196 221 254
196 221 254
196 221 254
196 221 254
196 221 254
196 221 254
196 221 254
196 221 254
196 221 254
196 221 254
196 221 254
196 221 254
196 221 254
196 221 254
196 221 254
196 221 254
196 221 254
196 221 254
196 221 254
196 221 254
196 221 254
196 221 254
196 221 254
196 222 254
197 222 254
197 222 254
197 222 254
197 222 254
197 222 254
197 222 254
197 222 254
197 222 254
197 222 254
197 222 254
197 222 254
197 222 254
197 222 254
197 222 254
197 222 254
197 222 254
197 222 254
197 222 254
197 222 254
198 222 254
198 222 254
198 222 254
198 222 254
198 222 254
198 222 254
198 222 254
198 222 254
198 222 254
198 222 254
198 222 254
198 222 254
198 222 254
198 223 254
198 223 254
199 223 254
199 223 254
199 223 254
199 223 254
199 223 254
199 223 254
199 223 254
199 223 254
199 223 254
199 223 254
199 223 254
199 223 254
199 223 254
199 223 254
199 223 254
200 223 254
200 223 254
200 223 254
200 223 254
200 223 254
200 223 254
200 223 254
200 223 254
200 223 254
200 223 254
200 224 254
200 224 254
200 224 254
200 224 254
200 224 254
201 224 254
201 224 254
201 224 254
201 224 254
201 224 254
201 224 254
201 224 254
201 224 254
201 224 254
201 224 254
201 224 254
201 224 254
201 224 254
201 224 254
201 224 254
202 224 254
202 224 254
202 224 254
202 224 254
202 224 254
202 224 254
202 224 254
202 224 254
202 225 254
202 225 254
202 225 254
202 225 254
202 225 254
202 225 254
202 225 254
203 225 254
203 225 254
203 225 254
203 225 254
203 225 254
203 225 254
203 225 254
203 225 254
203 225 254
203 225 254
203 225 254
203 225 254
203 225 254
203 225 254
203 225 254
203 225 254
204 225 254
204 225 254
204 225 254
204 225 254
204 225 254
204 225 254
204 225 254
204 226 254
204 226 254
204 226 254
204 226 254
204 226 254
204 226 254
204 226 254
204 226 254
204 226 254
204 226 254
204 226 254
205 226 254
205 226 254
205 226 254
205 226 254
205 226 254
205 226 254
205 226 254
205 226 254
205 226 254
205 226 254
205 226 254
205 226 254
205 226 254
205 226 254
205 226 254
205 226 254
205 226 254
205 226 254
205 226 254
206 226 254
206 226 254
206 226 254
206 226 254
206 227 254
206 227 254
206 227 254
206 227 254
206 227 254
206 227 254
206 227 254
206 227 254
206 227 254
206 227 254
206 226 254
206 226 254
206 226 254
206 226 254
206 226 254
205 226 254
205 226 254
205 226 254
205 226 254
205 226 254
205 226 254
205 226 254
205 226 254
205 226 254
205 226 254
205 226 254
205 226 254
205 226 254
205 226 254
205 226 254
205 226 254
205 226 254
205 226 254
205 226 254
204 226 254
204 226 254
204 226 254
204 226 254
204 226 254
204 226 254
204 226 254
204 226 254
204 226 254
204 226 254
204 226 254
204 225 254
204 225 254
204 225 254
204 225 254
204 225 254
204 225 254
203 225 254
203 225 254
203 225 254
203 225 254
203 225 254
203 225 254
203 225 254
203 225 254
203 225 254
203 225 254
203 225 254
203 225 254
203 225 254
203 225 254
203 225 254
203 225 254
202 225 254
202 225 254
202 225 254
202 225 254
202 225 254
202 225 254
202 225 254
202 224 254
202 224 254
202 224 254
202 224 254
202 224 254
202 224 254
202 224 254
202 224 254
202 224 254
201 224 254
201 224 254
201 224 254
201 224 254
201 224 254
201 224 254
201 224 254
201 224 254
201 224 254
201 224 254
201 224 254
201 224 254
201 224 254
201 224 254
200 224 254
200 224 254
200 224 254
200 224 254
200 224 254
200 223 254
200 223 254
200 223 254
200 223 254
200 223 254
200 223 254
200 223 254
200 223 254
200 223 254
200 223 254
199 223 254
199 223 254
199 223 254
199 223 254
199 223 254
199 223 254
199 223 254
199 223 254
199 223 254
199 223 254
199 223 254
199 223 254
199 223 254
199 223 254
199 223 254
198 223 254
198 223 254
198 223 254
198 222 254
198 222 254
198 222 254
198 222 254
198 222 254
198 222 254
198 222 254
198 222 254
198 222 254
198 222 254
198 222 254
198 222 254
198 222 254
197 222 254
197 222 254
197 222 254
197 222 254
197 222 254
197 222 254
197 222 254
197 222 254
197 222 254
197 222 254
197 222 254
197 222 254
197 222 254
197 222 254
197 222 254
197 222 254
197 222 254
197 222 254
197 222 254
196 222 254
196 221 254
196 221 254
196 221 254
196 221 254
196 221 254
196 221 254
196 221 254
196 221 254
196 221 254
196 221 254
196 221 254
196 221 254
196 221 254
196 221 254
196 221 254
196 221 254
196 221 254
196 221 254
196 221 254
196 221 254
196 221 254
196 221 254
196 221 254
196 221 254
196 221 254
196 221 254
196 221 254
196 221 254
196 221 254
196 221 254
196 221 254
196 221 254
196 221 254
196 221 254
196 221 254
196 221 254
196 221 254
195 221 254
195 221 254
195 221 254
195 221 254
195 221 254
195 221 254
195 221 254
195 221 254
196 221 254
196 221 254
196 221 254
196 221 254
196 221 254
196 221 254
196 221 254
196 221 254
196 221 254
196 221 254
196 221 254
196 221 254
196 221 254
196 221 254
196 221 254
196 221 254
196 221 254
196 221 254
196 221 254
196 221 254
196 221 254
196 221 254
196 221 254
196 221 254
196 221 254
196 221 254
196 221 254
196 221 254
196 221 254
196 221 254
196 221 254
196 221 254
196 221 254
196 221 254
196 221 254
196 221 254
196 221 254
196 222 254
197 222 254
197 222 254
197 222 254
197 222 254
197 222 254
197 222 254
197 222 254
197 222 254
197 222 254
197 222 254
197 222 254
197 222 254
197 222 254
197 222 254
197 222 254
197 222 254
197 222 254
197 222 254
198 222 254
198 222 254
198 222 254
198 222 254
198 222 254
198 222 254
198 222 254
198 222 254
198 222 254
198 222 254
198 222 254
198 222 254
198 222 254
198 222 254
198 223 254
198 223 254
198 223 254
199 223 254
199 223 254
199 223 254
199 223 254
199 223 254
199 223 254
199 223 254
199 223 254
199 223 254
199 223 254
199 223 254
199 223 254
199 223 254
199 223 254
199 223 254
200 223 254
200 223 254
200 223 254
200 223 254
200 223 254
200 223 254
200 223 254
200 223 254
200 223 254
200 223 254
200 224 254
200 224 254
200 224 254
200 224 254
201 224 254
201 224 254
201 224 254
201 224 254
201 224 254
201 224 254
201 224 254
201 224 254
201 224 254
201 224 254
201 224 254
201 224 254
201 224 254
201 224 254
201 224 254
202 224 254
202 224 254
202 224 254
202 224 254
202 224 254
202 224 254
202 224 254
202 224 254
202 224 254
202 225 254
202 225 254
202 225 254
202 225 254
202 225 254
202 225 254
202 225 254
203 225 254
203 225 254
203 225 254
203 225 254
203 225 254
203 225 254
203 225 254
203 225 254
203 225 254
203 225 254
203 225 254
203 225 254
203 225 254
203 225 254
203 225 254
203 225 254
204 225 254
204 225 254
204 225 254
204 225 254
204 225 254
204 225 254
204 225 254
204 226 254
204 226 254
204 226 254
204 226 254
204 226 254
204 226 254
204 226 254
204 226 254
204 226 254
204 226 254
205 226 254
205 226 254
205 226 254
205 226 254
205 226 254
205 226 254
205 226 254
205 226 254
205 226 254
205 226 254
205 226 254
205 226 254
205 226 254
205 226 254
205 226 254
205 226 254
205 226 254
205 226 254
205 226 254
206 226 254
206 226 254
206 226 254
206 226 254
206 226 254
206 227 254
206 227 254
206 227 254
206 227 254
206 227 254
206 227 254
206 227 254
206 227 254
206 227 254
206 227 254
206 227 254
206 227 254
206 227 254
206 227 254
206 227 254
206 226 254
206 226 254
206 226 254
206 226 254
206 226 254
205 226 254
205 226 254
205 226 254
205 226 254
205 226 254
205 226 254
205 226 254
205 226 254
205 226 254
205 226 254
205 226 254
205 226 254
205 226 254
205 226 254
205 226 254
205 226 254
205 226 254
205 226 254
204 226 254
204 226 254
204 226 254
204 226 254
204 226 254
204 226 254
204 226 254
204 226 254
204 226 254
204 226 254
204 226 254
204 225 254
204 225 254
204 225 254
204 225 254
204 225 254
204 225 254
204 225 254
203 225 254
203 225 254
203 225 254
203 225 254
203 225 254
203 225 254
203 225 254
203 225 254
203 225 254
203 225 254
203 225 254
203 225 254
203 225 254
203 225 254
203 225 254
203 225 254
202 225 254
202 225 254
202 225 254
202 225 254
202 225 254
202 225 254
202 225 254
202 224 254
202 224 254
202 224 254
202 224 254
202 224 254
202 224 254
202 224 254
202 224 254
201 224 254
201 224 254
201 224 254
201 224 254
201 224 254
201 224 254
201 224 254
201 224 254
201 224 254
201 224 254
201 224 254
201 224 254
201 224 254
201 224 254
201 224 254
200 224 254
200 224 254
200 224 254
200 224 254
200 224 254
200 223 254
200 223 254
200 223 254
200 223 254
200 223 254
200 223 254
200 223 254
200 223 254
200 223 254
200 223 254
199 223 254
199 223 254
199 223 254
199 223 254
199 223 254
199 223 254
199 223 254
199 223 254
199 223 254
199 223 254
199 223 254
199 223 254
199 223 254
199 223 254
199 223 254
198 223 254
198 223 254
198 223 254
198 222 254
198 222 254
198 222 254
198 222 254
198 222 254
198 222 254
198 222 254
198 222 254
198 222 254
198 222 254
198 222 254
198 222 254
198 222 254
197 222 254
197 222 254
197 222 254
197 222 254
197 222 254
197 222 254
197 222 254
197 222 254
197 222 254
197 222 254
197 222 254
197 222 254
197 222 254
197 222 254
197 222 254
197 222 254
197 222 254
197 222 254
197 222 254
197 222 254
196 222 254
196 221 254
196 221 254
196 221 254
196 221 254
196 221 254
196 221 254
196 221 254
196 221 254
196 221 254
196 221 254
196 221 254
196 221 254
196 221 254
196 221 254
196 221 254
196 221 254
196 221 254
196 221 254
196 221 254
196 221 254
196 221 254
196 221 254
196 221 254
196 221 254
196 221 254
196 221 254
196 221 254
196 221 254
196 221 254
196 221 254
196 221 254
196 221 254
196 221 254
196 221 254
196 221 254
196 221 254
196 221 254
196 221 254
196 221 254
196 221 254
196 221 254
196 221 254
196 221 254
196 221 254
196 221 254
196 221 254
196 221 254
196 221 254
196 221 254
196 221 254
196 221 254
196 221 254
196 221 254
196 221 254
196 221 254
196 221 254
196 221 254
196 221 254
196 221 254
196 221 254
196 221 254
196 221 254
196 221 254
196 221 254
196 221 254
196 221 254
196 221 254
196 221 254
196 221 254
196 221 254
196 221 254
196 221 254
196 221 254
196 221 254
196 222 254
197 222 254
197 222 254
197 222 254
197 222 254
197 222 254
197 222 254
197 222 254
197 222 254
197 222 254
197 222 254
197 222 254
197 222 254
197 222 254
197 222 254
197 222 254
197 222 254
197 222 254
197 222 254
197 222 254
197 222 254
198 222 254
198 222 254
198 222 254
198 222 254
198 222 254
198 222 254
198 222 254
198 222 254
198 222 254
198 222 254
198 222 254
198 222 254
198 222 254
198 223 254
198 223 254
198 223 254
199 223 254
199 223 254
199 223 254
199 223 254
199 223 254
199 223 254
199 223 254
199 223 254
199 223 254
199 223 254
199 223 254
199 223 254
199 223 254
199 223 254
199 223 254
200 223 254
200 223 254
200 223 254
200 223 254
200 223 254
200 223 254
200 223 254
200 223 254
200 223 254
200 223 254
200 223 254
200 224 254
200 224 254
200 224 254
200 224 254
201 224 254
201 224 254
201 224 254
201 224 254
201 224 254
201 224 254
201 224 254
201 224 254
201 224 254
201 224 254
201 224 254
201 224 254
201 224 254
201 224 254
201 224 254
202 224 254
202 224 254
202 224 254
202 224 254
202 224 254
202 224 254
202 224 254
202 224 254
202 225 254
202 225 254
202 225 254
202 225 254
202 225 254
202 225 254
202 225 254
203 225 254
203 225 254
203 225 254
203 225 254
203 225 254
203 225 254
203 225 254
203 225 254
203 225 254
203 225 254
203 225 254
203 225 254
203 225 254
203 225 254
203 225 254
203 225 254
204 225 254
204 225 254
204 225 254
204 225 254
204 225 254
204 225 254
204 225 254
204 226 254
204 226 254
204 226 254
204 226 254
204 226 254
204 226 254
204 226 254
204 226 254
204 226 254
204 226 254
205 226 254
205 226 254
205 226 254
205 226 254
205 226 254
205 226 254
205 226 254
205 226 254
205 226 254
205 226 254
205 226 254
205 226 254
205 226 254
205 226 254
205 226 254
205 226 254
205 226 254
205 226 254
205 226 254
206 226 254
206 226 254
206 226 254
206 226 254
206 226 254
206 227 254
206 227 254
206 227 254
206 227 254
206 227 254
206 227 254
206 227 254
206 227 254
206 227 254
206 227 254
206 227 254
206 227 254
206 227 254
206 227 254
206 227 254
206 227 254
206 227 254
206 227 254
206 227 254
206 227 254
206 227 254
206 226 254
206 226 254
206 226 254
206 226 254
206 226 254
205 226 254
205 226 254
205 226 254
205 226 254
205 226 254
205 226 254
205 226 254
205 226 254
205 226 254
205 226 254
205 226 254
205 226 254
205 226 254
205 226 254
205 226 254
205 226 254
205 226 254
205 226 254
204 226 254
204 226 254
204 226 254
204 226 254
204 226 254
204 226 254
204 226 254
204 226 254
204 226 254
204 226 254
204 226 254
204 225 254
204 225 254
204 225 254
204 225 254
204 225 254
204 225 254
203 225 254
203 225 254
203 225 254
203 225 254
203 225 254
203 225 254
203 225 254
203 225 254
203 225 254
203 225 254
203 225 254
203 225 254
203 225 254
203 225 254
203 225 254
203 225 254
202 225 254
202 225 254
202 225 254
202 225 254
202 225 254
202 225 254
202 225 254
202 224 254
202 224 254
202 224 254
202 224 254
202 224 254
202 224 254
202 224 254
202 224 254
202 224 254
201 224 254
201 224 254
201 224 254
201 224 254
201 224 254
201 224 254
201 224 254
201 224 254
201 224 254
201 224 254
201 224 254
201 224 254
201 224 254
201 224 254
200 224 254
200 224 254
200 224 254
200 224 254
200 224 254
200 223 254
200 223 254
200 223 254
200 223 254
200 223 254
200 223 254
200 223 254
200 223 254
200 223 254
200 223 254
199 223 254
199 223 254
199 223 254
199 223 254
199 223 254
199 223 254
199 223 254
199 223 254
199 223 254
199 223 254
199 223 254
199 223 254
199 223 254
199 223 254
199 223 254
199 223 254
198 223 254
198 223 254
198 223 254
198 222 254
198 222 254
198 222 254
198 222 254
198 222 254
198 222 254
198 222 254
198 222 254
198 222 254
198 222 254
198 222 254
198 222 254
198 222 254
197 222 254
197 222 254
197 222 254
197 222 254
197 222 254
197 222 254
197 222 254
197 222 254
197 222 254
197 222 254
197 222 254
197 222 254
197 222 254
197 222 254
197 222 254
197 222 254
197 222 254
197 222 254
197 222 254
197 222 254
197 222 254
197 222 254
196 222 254
196 221 254
196 221 254
196 221 254
196 221 254
196 221 254
196 221 254
196 221 254
196 221 254
196 221 254
196 221 254
196 221 254
196 221 254
196 221 254
196 221 254
196 221 254
196 221 254
196 221 254
196 221 254
196 221 254
196 221 254
196 221 254
196 221 254
196 221 254
196 221 254
196 221 254
196 221 254
196 221 254
196 221 254
196 221 254
196 221 254
196 221 254
196 221 254
196 221 254
196 221 254
196 221 254
196 221 254
196 221 254
196 221 254
196 221 254
196 221 254
196 221 254
196 221 254
196 221 254
196 221 254
196 221 254
196 221 254
196 221 254
196 221 254
196 221 254
196 221 254
196 221 254
196 221 254
196 221 254
196 221 254
196 221 254
196 221 254
196 221 254
196 221 254
196 221 254
196 221 254
196 221 254
196 221 254
196 221 254
196 221 254
196 222 254
197 222 254
197 222 254
197 222 254
197 222 254
197 222 254
197 222 254
197 222 254
197 222 254
197 222 254
197 222 254
197 222 254
197 222 254
197 222 254
197 222 254
197 222 254
197 222 254
197 222 254
197 222 254
197 222 254
197 222 254
197 222 254
197 222 254
198 222 254
198 222 254
198 222 254
198 222 254
198 222 254
198 222 254
198 222 254
198 222 254
198 222 254
198 222 254
198 222 254
198 222 254
198 222 254
198 222 254
198 223 254
198 223 254
199 223 254
199 223 254
199 223 254
199 223 254
199 223 254
199 223 254
199 223 254
199 223 254
199 223 254
199 223 254
199 223 254
199 223 254
199 223 254
199 223 254
199 223 254
199 223 254
200 223 254
200 223 254
200 223 254
200 223 254
200 223 254
200 223 254
200 223 254
200 223 254
200 223 254
200 223 254
200 224 254
200 224 254
200 224 254
200 224 254
200 224 254
201 224 254
201 224 254
201 224 254
201 224 254
201 224 254
201 224 254
201 224 254
201 224 254
201 224 254
201 224 254
201 224 254
201 224 254
201 224 254
201 224 254
201 224 254
202 224 254
202 224 254
202 224 254
202 224 254
202 224 254
202 224 254
202 224 254
202 224 254
202 225 254
202 225 254
202 225 254
202 225 254
202 225 254
202 225 254
202 225 254
203 225 254
203 225 254
203 225 254
203 225 254
203 225 254
203 225 254
203 225 254
203 225 254
203 225 254
203 225 254
203 225 254
203 225 254
203 225 254
203 225 254
203 225 254
203 225 254
204 225 254
204 225 254
204 225 254
204 225 254
204 225 254
204 225 254
204 226 254
204 226 254
204 226 254
204 226 254
204 226 254
204 226 254
204 226 254
204 226 254
204 226 254
204 226 254
204 226 254
205 226 254
205 226 254
205 226 254
205 226 254
205 226 254
205 226 254
205 226 254
205 226 254
205 226 254
205 226 254
205 226 254
205 226 254
205 226 254
205 226 254
205 226 254
205 226 254
205 226 254
205 226 254
206 226 254
206 226 254
206 226 254
206 226 254
206 226 254
206 227 254
206 227 254
206 227 254
206 227 254
206 227 254
206 227 254
206 227 254
206 227 254
206 227 254
206 227 254
206 227 254
206 227 254
206 227 254
206 227 254
206 227 254
206 227 254
206 227 254
206 227 254
206 227 254
206 227 254
206 227 254
206 227 254
206 227 254
206 227 254
206 227 254
206 227 254
206 227 254
206 226 254
206 226 254
206 226 254
206 226 254
205 226 254
205 226 254
205 226 254
205 226 254
205 226 254
205 226 254
205 226 254
205 226 254
205 226 254
205 226 254
205 226 254
205 226 254
205 226 254
205 226 254
205 226 254
205 226 254
205 226 254
205 226 254
205 226 254
204 226 254
204 226 254
204 226 254
204 226 254
204 226 254
204 226 254
204 226 254
204 226 254
204 226 254
204 226 254
204 225 254
204 225 254
204 225 254
204 225 254
204 225 254
204 225 254
204 225 254
203 225 254
203 225 254
203 225 254
203 225 254
203 225 254
203 225 254
203 225 254
203 225 254
203 225 254
203 225 254
203 225 254
203 225 254
203 225 254
203 225 254
203 225 254
203 225 254
202 225 254
202 225 254
202 225 254
202 225 254
202 225 254
202 225 254
202 225 254
202 224 254
202 224 254
202 224 254
202 224 254
202 224 254
202 224 254
202 224 254
202 224 254
201 224 254
201 224 254
201 224 254
201 224 254
201 224 254
201 224 254
201 224 254
201 224 254
201 224 254
201 224 254
201 224 254
201 224 254
201 224 254
201 224 254
201 224 254
200 224 254
200 224 254
200 224 254
200 224 254
200 224 254
200 223 254
200 223 254
200 223 254
200 223 254
200 223 254
200 223 254
200 223 254
200 223 254
200 223 254
200 223 254
199 223 254
199 223 254
199 223 254
199 223 254
199 223 254
199 223 254
199 223 254
199 223 254
199 223 254
199 223 254
199 223 254
199 223 254
199 223 254
199 223 254
199 223 254
198 223 254
198 223 254
198 223 254
198 222 254
198 222 254
198 222 254
198 222 254
198 222 254
198 222 254
198 222 254
198 222 254
198 222 254
198 222 254
198 222 254
198 222 254
198 222 254
198 222 254
198 222 254
197 222 254
197 222 254
197 222 254
197 222 254
197 222 254
197 222 254
197 222 254
197 222 254
197 222 254
197 222 254
197 222 254
197 222 254
197 222 254
197 222 254
197 222 254
197 222 254
197 222 254
197 222 254
197 222 254
197 222 254
197 222 254
197 222 254
196 222 254
196 222 254
196 221 254
196 221 254
196 221 254
196 221 254
196 221 254
196 221 254
196 221 254
196 221 254
196 221 254
196 221 254
196 221 254
196 221 254
196 221 254
196 221 254
196 221 254
196 221 254
196 221 254
196 221 254
196 221 254
196 221 254
196 221 254
196 221 254
196 221 254
196 221 254
196 221 254
196 221 254
196 221 254
196 221 254
196 221 254
196 221 254
196 221 254
196 221 254
196 221 254
196 221 254
196 221 254
196 221 254
196 221 254
196 221 254
196 221 254
196 221 254
196 221 254
196 221 254
196 221 254
196 221 254
196 221 254
196 221 254
196 221 254
196 221 254
196 221 254
196 221 254
196 221 254
196 221 254
196 221 254
196 221 254
196 222 254
196 222 254
197 222 254
197 222 254
197 222 254
197 222 254
197 222 254
197 222 254
197 222 254
197 222 254
197 222 254
197 222 254
197 222 254
197 222 254
197 222 254
197 222 254
197 222 254
197 222 254
197 222 254
197 222 254
197 222 254
197 222 254
197 222 254
197 222 254
198 222 254
198 222 254
198 222 254
198 222 254
198 222 254
198 222 254
198 222 254
198 222 254
198 222 254
198 222 254
198 222 254
198 222 254
198 222 254
198 222 254
198 222 254
198 223 254
198 223 254
198 223 254
199 223 254
199 223 254
199 223 254
199 223 254
199 223 254
199 223 254
199 223 254
199 223 254
199 223 254
199 223 254
199 223 254
199 223 254
199 223 254
199 223 254
199 223 254
200 223 254
200 223 254
200 223 254
200 223 254
200 223 254
200 223 254
200 223 254
200 223 254
200 223 254
200 223 254
200 224 254
200 224 254
200 224 254
200 224 254
200 224 254
201 224 254
201 224 254
201 224 254
201 224 254
201 224 254
201 224 254
201 224 254
201 224 254
201 224 254
201 224 254
201 224 254
201 224 254
201 224 254
201 224 254
201 224 254
202 224 254
202 224 254
202 224 254
202 224 254
202 224 254
202 224 254
202 224 254
202 224 254
202 225 254
202 225 254
202 225 254
202 225 254
202 225 254
202 225 254
202 225 254
203 225 254
203 225 254
203 225 254
203 225 254
203 225 254
203 225 254
203 225 254
203 225 254
203 225 254
203 225 254
203 225 254
203 225 254
203 225 254
203 225 254
203 225 254
203 225 254
204 225 254
204 225 254
204 225 254
204 225 254
204 225 254
204 225 254
204 225 254
204 226 254
204 226 254
204 226 254
204 226 254
204 226 254
204 226 254
204 226 254
204 226 254
204 226 254
204 226 254
205 226 254
205 226 254
205 226 254
205 226 254
205 226 254
205 226 254
205 226 254
205 226 254
205 226 254
205 226 254
205 226 254
205 226 254
205 226 254
205 226 254
205 226 254
205 226 254
205 226 254
205 226 254
205 226 254
206 226 254
206 226 254
206 226 254
206 226 254
206 227 254
206 227 254
206 227 254
206 227 254
206 227 254
206 227 254
206 227 254
206 227 254
206 227 254
206 227 254
206 227 254
206 227 254
206 227 254
206 227 254
206 227 254
207 227 254
207 227 254
206 227 254
206 227 254
206 227 254
206 227 254
206 227 254
206 227 254
206 227 254
206 227 254
206 227 254
206 227 254
206 227 254
206 227 254
206 227 254
206 227 254
206 227 254
206 227 254
206 226 254
206 226 254
206 226 254
206 226 254
205 226 254
205 226 254
205 226 254
205 226 254
205 226 254
205 226 254
205 226 254
205 226 254
205 226 254
205 226 254
205 226 254
205 226 254
205 226 254
205 226 254
205 226 254
205 226 254
205 226 254
205 226 254
205 226 254
204 226 254
204 226 254
204 226 254
204 226 254
204 226 254
204 226 254
204 226 254
204 226 254
204 226 254
204 226 254
204 225 254
204 225 254
204 225 254
204 225 254
204 225 254
204 225 254
203 225 254
203 225 254
203 225 254
203 225 254
203 225 254
203 225 254
203 225 254
203 225 254
203 225 254
203 225 254
203 225 254
203 225 254
203 225 254
203 225 254
203 225 254
203 225 254
202 225 254
202 225 254
202 225 254
202 225 254
202 225 254
202 225 254
202 225 254
202 224 254
202 224 254
202 224 254
202 224 254
202 224 254
202 224 254
202 224 254
202 224 254
202 224 254
201 224 254
201 224 254
201 224 254
201 224 254
201 224 254
201 224 254
201 224 254
201 224 254
201 224 254
201 224 254
201 224 254
201 224 254
201 224 254
201 224 254
200 224 254
200 224 254
200 224 254
200 224 254
200 224 254
200 223 254
200 223 254
200 223 254
200 223 254
200 223 254
200 223 254
200 223 254
200 223 254
200 223 254
200 223 254
199 223 254
199 223 254
199 223 254
199 223 254
199 223 254
199 223 254
199 223 254
199 223 254
199 223 254
199 223 254
199 223 254
199 223 254
199 223 254
199 223 254
199 223 254
199 223 254
198 223 254
198 223 254
198 223 254
198 222 254
198 222 254
198 222 254
198 222 254
198 222 254
198 222 254
198 222 254
198 222 254
198 222 254
198 222 254
198 222 254
198 222 254
198 222 254
198 222 254
198 222 254
197 222 254
197 222 254
197 222 254
197 222 254
197 222 254
197 222 254
197 222 254
197 222 254
197 222 254
197 222 254
197 222 254
197 222 254
197 222 254
197 222 254
197 222 254
197 222 254
197 222 254
197 222 254
197 222 254
197 222 254
197 222 254
197 222 254
197 222 254
197 222 254
197 222 254
196 222 254
196 222 254
196 221 254
196 221 254
196 221 254
196 221 254
196 221 254
196 221 254
196 221 254
196 221 254
196 221 254
196 221 254
196 221 254
196 221 254
196 221 254
196 221 254
196 221 254
196 221 254
196 221 254
196 221 254
196 221 254
196 221 254
196 221 254
196 221 254
196 221 254
196 221 254
196 221 254
196 221 254
196 221 254
196 221 254
196 221 254
196 221 254
196 221 254
196 221 254
196 221 254
196 221 254
196 221 254
196 221 254
196 221 254
196 221 254
196 221 254
196 221 254
196 221 254
196 221 254
196 222 254
196 222 254
197 222 254
197 222 254
197 222 254
197 222 254
197 222 254
197 222 254
197 222 254
197 222 254
197 222 254
197 222 254
197 222 254
197 222 254
197 222 254
197 222 254
197 222 254
197 222 254
197 222 254
197 222 254
197 222 254
197 222 254
197 222 254
197 222 254
197 222 254
197 222 254
197 222 254
198 222 254
198 222 254
198 222 254
198 222 254
198 222 254
198 222 254
198 222 254
198 222 254
198 222 254
198 222 254
198 222 254
198 222 254
198 222 254
198 222 254
198 222 254
198 223 254
198 223 254
198 223 254
199 223 254
199 223 254
199 223 254
199 223 254
199 223 254
199 223 254
199 223 254
199 223 254
199 223 254
199 223 254
199 223 254
199 223 254
199 223 254
199 223 254
199 223 254
199 223 254
200 223 254
200 223 254
200 223 254
200 223 254
200 223 254
200 223 254
200 223 254
200 223 254
200 223 254
200 223 254
200 224 254
200 224 254
200 224 254
200 224 254
200 224 254
201 224 254
201 224 254
201 224 254
201 224 254
201 224 254
201 224 254
201 224 254
201 224 254
201 224 254
201 224 254
201 224 254
201 224 254
201 224 254
201 224 254
202 224 254
202 224 254
202 224 254
202 224 254
202 224 254
202 224 254
202 224 254
202 224 254
202 224 254
202 225 254
202 225 254
202 225 254
202 225 254
202 225 254
202 225 254
202 225 254
203 225 254
203 225 254
203 225 254
203 225 254
203 225 254
203 225 254
203 225 254
203 225 254
203 225 254
203 225 254
203 225 254
203 225 254
203 225 254
203 225 254
203 225 254
203 225 254
204 225 254
204 225 254
204 225 254
204 225 254
204 225 254
204 225 254
204 226 254
204 226 254
204 226 254
204 226 254
204 226 254
204 226 254
204 226 254
204 226 254
204 226 254
204 226 254
204 226 254
205 226 254
205 226 254
205 226 254
205 226 254
205 226 254
205 226 254
205 226 254
205 226 254
205 226 254
205 226 254
205 226 254
205 226 254
205 226 254
205 226 254
205 226 254
205 226 254
205 226 254
205 226 254
206 226 254
206 226 254
206 226 254
206 226 254
206 227 254
206 227 254
206 227 254
206 227 254
206 227 254
206 227 254
206 227 254
206 227 254
206 227 254
206 227 254
206 227 254
206 227 254
206 227 254
206 227 254
206 227 254
206 227 254
207 227 254
207 227 254
207 227 254
207 227 254
207 227 254
207 227 254
207 227 254
206 227 254
206 227 254
206 227 254
206 227 254
206 227 254
206 227 254
206 227 254
206 227 254
206 227 254
206 227 254
206 227 254
206 227 254
206 227 254
206 227 254
206 227 254
206 226 254
206 226 254
206 226 254
206 226 254
206 226 254
205 226 254
205 226 254
205 226 254
205 226 254
205 226 254
205 226 254
205 226 254
205 226 254
205 226 254
205 226 254
205 226 254
205 226 254
205 226 254
205 226 254
205 226 254
205 226 254
205 226 254
205 226 254
204 226 254
204 226 254
204 226 254
204 226 254
204 226 254
204 226 254
204 226 254
204 226 254
204 226 254
204 226 254
204 225 254
204 225 254
204 225 254
204 225 254
204 225 254
204 225 254
204 225 254
203 225 254
203 225 254
203 225 254
203 225 254
203 225 254
203 225 254
203 225 254
203 225 254
203 225 254
203 225 254
203 225 254
203 225 254
203 225 254
203 225 254
203 225 254
203 225 254
202 225 254
202 225 254
202 225 254
202 225 254
202 225 254
202 225 254
202 225 254
202 224 254
202 224 254
202 224 254
202 224 254
202 224 254
202 224 254
202 224 254
202 224 254
201 224 254
201 224 254
201 224 254
201 224 254
201 224 254
201 224 254
201 224 254
201 224 254
201 224 254
201 224 254
201 224 254
201 224 254
201 224 254
201 224 254
201 224 254
200 224 254
200 224 254
200 224 254
200 224 254
200 224 254
200 223 254
200 223 254
200 223 254
200 223 254
200 223 254
200 223 254
200 223 254
200 223 254
200 223 254
200 223 254
199 223 254
199 223 254
199 223 254
199 223 254
199 223 254
199 223 254
199 223 254
199 223 254
199 223 254
199 223 254
199 223 254
199 223 254
199 223 254
199 223 254
199 223 254
199 223 254
198 223 254
198 223 254
198 223 254
198 222 254
198 222 254
198 222 254
198 222 254
198 222 254
198 222 254
198 222 254
198 222 254
198 222 254
198 222 254
198 222 254
198 222 254
198 222 254
198 222 254
198 222 254
198 222 254
197 222 254
197 222 254
197 222 254
197 222 254
197 222 254
197 222 254
197 222 254
197 222 254
197 222 254
197 222 254
197 222 254
197 222 254
197 222 254
197 222 254
197 222 254
197 222 254
197 222 254
197 222 254
197 222 254
197 222 254
197 222 254
197 222 254
197 222 254
197 222 254
197 222 254
197 222 254
197 222 254
197 222 254
197 222 254
196 222 254
196 222 254
196 222 254
196 221 254
196 221 254
196 221 254
196 221 254
196 221 254
196 221 254
196 221 254
196 221 254
196 221 254
196 221 254
196 221 254
196 221 254
196 221 254
196 221 254
196 221 254
196 221 254
196 221 254
196 221 254
196 221 254
196 221 254
196 221 254
196 221 254
196 221 254
196 221 254
196 221 254
196 222 254
196 222 254
197 222 254
197 222 254
197 222 254
197 222 254
197 222 254
197 222 254
197 222 254
197 222 254
197 222 254
197 222 254
197 222 254
197 222 254
197 222 254
197 222 254
197 222 254
197 222 254
197 222 254
197 222 254
197 222 254
197 222 254
197 222 254
197 222 254
197 222 254
197 222 254
197 222 254
197 222 254
197 222 254
197 222 254
197 222 254
197 222 254
198 222 254
198 222 254
198 222 254
198 222 254
198 222 254
198 222 254
198 222 254
198 222 254
198 222 254
198 222 254
198 222 254
198 222 254
198 222 254
198 222 254
198 222 254
198 223 254
198 223 254
198 223 254
199 223 254
199 223 254
199 223 254
199 223 254
199 223 254
199 223 254
199 223 254
199 223 254
199 223 254
199 223 254
199 223 254
199 223 254
199 223 254
199 223 254
199 223 254
199 223 254
200 223 254
200 223 254
200 223 254
200 223 254
200 223 254
200 223 254
200 223 254
200 223 254
200 223 254
200 223 254
200 224 254
200 224 254
200 224 254
200 224 254
200 224 254
201 224 254
201 224 254
201 224 254
201 224 254
201 224 254
201 224 254
201 224 254
201 224 254
201 224 254
201 224 254
201 224 254
201 224 254
201 224 254
201 224 254
201 224 254
202 224 254
202 224 254
202 224 254
202 224 254
202 224 254
202 224 254
202 224 254
202 224 254
202 225 254
202 225 254
202 225 254
202 225 254
202 225 254
202 225 254
202 225 254
203 225 254
203 225 254
203 225 254
203 225 254
203 225 254
203 225 254
203 225 254
203 225 254
203 225 254
203 225 254
203 225 254
203 225 254
203 225 254
203 225 254
203 225 254
203 225 254
204 225 254
204 225 254
204 225 254
204 225 254
204 225 254
204 225 254
204 226 254
204 226 254
204 226 254
204 226 254
204 226 254
204 226 254
204 226 254
204 226 254
204 226 254
204 226 254
204 226 254
205 226 254
205 226 254
205 226 254
205 226 254
205 226 254
205 226 254
205 226 254
205 226 254
205 226 254
205 226 254
205 226 254
205 226 254
205 226 254
205 226 254
205 226 254
205 226 254
205 226 254
205 226 254
206 226 254
206 226 254
206 226 254
206 226 254
206 226 254
206 227 254
206 227 254
206 227 254
206 227 254
206 227 254
206 227 254
206 227 254
206 227 254
206 227 254
206 227 254
206 227 254
206 227 254
206 227 254
206 227 254
206 227 254
207 227 254
207 227 254
207 227 254
207 227 254
207 227 254
207 227 254
207 227 254
207 227 254
207 227 254
207 227 254
207 227 254
207 227 254
207 227 254
206 227 254
206 227 254
206 227 254
206 227 254
206 227 254
206 227 254
206 227 254
206 227 254
206 227 254
206 227 254
206 227 254
206 227 254
206 227 254
206 227 254
206 227 254
206 226 254
206 226 254
206 226 254
206 226 254
206 226 254
205 226 254
205 226 254
205 226 254
205 226 254
205 226 254
205 226 254
205 226 254
205 226 254
205 226 254
205 226 254
205 226 254
205 226 254
205 226 254
205 226 254
205 226 254
205 226 254
205 226 254
205 226 254
204 226 254
204 226 254
204 226 254
204 226 254
204 226 254
204 226 254
204 226 254
204 226 254
204 226 254
204 226 254
204 225 254
204 225 254
204 225 254
204 225 254
204 225 254
204 225 254
204 225 254
203 225 254
203 225 254
203 225 254
203 225 254
203 225 254
203 225 254
203 225 254
203 225 254
203 225 254
203 225 254
203 225 254
203 225 254
203 225 254
203 225 254
203 225 254
202 225 254
202 225 254
202 225 254
202 225 254
202 225 254
202 225 254
202 225 254
202 225 254
202 224 254
202 224 254
202 224 254
202 224 254
202 224 254
202 224 254
202 224 254
202 224 254
201 224 254
201 224 254
201 224 254
201 224 254
201 224 254
201 224 254
201 224 254
201 224 254
201 224 254
201 224 254
201 224 254
201 224 254
201 224 254
201 224 254
201 224 254
200 224 254
200 224 254
200 224 254
200 224 254
200 223 254
200 223 254
200 223 254
200 223 254
200 223 254
200 223 254
200 223 254
200 223 254
200 223 254
200 223 254
200 223 254
199 223 254
199 223 254
199 223 254
199 223 254
199 223 254
199 223 254
199 223 254
199 223 254
199 223 254
199 223 254
199 223 254
199 223 254
199 223 254
199 223 254
199 223 254
199 223 254
198 223 254
198 223 254
198 223 254
198 222 254
198 222 254
198 222 254
198 222 254
198 222 254
198 222 254
198 222 254
198 222 254
198 222 254
198 222 254
198 222 254
198 222 254
198 222 254
198 222 254
198 222 254
198 222 254
197 222 254
197 222 254
197 222 254
197 222 254
197 222 254
197 222 254
197 222 254
197 222 254
197 222 254
197 222 254
197 222 254
197 222 254
197 222 254
197 222 254
197 222 254
197 222 254
197 222 254
197 222 254
197 222 254
197 222 254
197 222 254
197 222 254
197 222 254
197 222 254
197 222 254
197 222 254
197 222 254
197 222 254
197 222 254
197 222 254
197 222 254
197 222 254
197 222 254
197 222 254
197 222 254
197 222 254
197 222 254
197 222 254
197 222 254
197 222 254
197 222 254
197 222 254
197 222 254
197 222 254
197 222 254
197 222 254
197 222 254
197 222 254
197 222 254
197 222 254
197 222 254
197 222 254
197 222 254
197 222 254
197 222 254
197 222 254
197 222 254
197 222 254
197 222 254
197 222 254
197 222 254
197 222 254
197 222 254
197 222 254
197 222 254
197 222 254
197 222 254
197 222 254
197 222 254
197 222 254
197 222 254
197 222 254
197 222 254
197 222 254
197 222 254
197 222 254
197 222 254
197 222 254
197 222 254
197 222 254
197 222 254
197 222 254
198 222 254
198 222 254
198 222 254
198 222 254
198 222 254
198 222 254
198 222 254
198 222 254
198 222 254
198 222 254
198 222 254
198 222 254
198 222 254
198 222 254
198 222 254
198 222 254
198 223 254
198 223 254
198 223 254
199 223 254
199 223 254
199 223 254
199 223 254
199 223 254
199 223 254
199 223 254
199 223 254
199 223 254
199 223 254
199 223 254
199 223 254
199 223 254
199 223 254
199 223 254
199 223 254
200 223 254
200 223 254
200 223 254
200 223 254
200 223 254
200 223 254
200 223 254
200 223 254
200 223 254
200 223 254
200 223 254
200 224 254
200 224 254
200 224 254
200 224 254
201 224 254
201 224 254
201 224 254
201 224 254
201 224 254
201 224 254
201 224 254
201 224 254
201 224 254
201 224 254
201 224 254
201 224 254
201 224 254
201 224 254
201 224 254
202 224 254
202 224 254
202 224 254
202 224 254
202 224 254
202 224 254
202 224 254
202 224 254
202 224 254
202 225 254
202 225 254
202 225 254
202 225 254
202 225 254
202 225 254
202 225 254
203 225 254
203 225 254
203 225 254
203 225 254
203 225 254
203 225 254
203 225 254
203 225 254
203 225 254
203 225 254
203 225 254
203 225 254
203 225 254
203 225 254
203 225 254
204 225 254
204 225 254
204 225 254
204 225 254
204 225 254
204 225 254
204 225 254
204 226 254
204 226 254
204 226 254
204 226 254
204 226 254
204 226 254
204 226 254
204 226 254
204 226 254
204 226 254
205 226 254
205 226 254
205 226 254
205 226 254
205 226 254
205 226 254
205 226 254
205 226 254
205 226 254
205 226 254
205 226 254
205 226 254
205 226 254
205 226 254
205 226 254
205 226 254
205 226 254
205 226 254
206 226 254
206 226 254
206 226 254
206 226 254
206 226 254
206 227 254
206 227 254
206 227 254
206 227 254
206 227 254
206 227 254
206 227 254
206 227 254
206 227 254
206 227 254
206 227 254
206 227 254
206 227 254
206 227 254
206 227 254
207 227 254
207 227 254
207 227 254
207 227 254
207 227 254
207 227 254
207 227 254
207 227 254
207 227 254
207 227 254
207 227 254
207 227 254
207 227 254
207 227 254
207 227 254
207 227 254
207 227 254
207 227 254
207 227 254
206 227 254
206 227 254
206 227 254
206 227 254
206 227 254
206 227 254
206 227 254
206 227 254
206 227 254
206 227 254
206 227 254
206 227 254
206 227 254
206 227 254
206 227 254
206 226 254
206 226 254
206 226 254
206 226 254
206 226 254
205 226 254
205 226 254
205 226 254
205 226 254
205 226 254
205 226 254
205 226 254
205 226 254
205 226 254
205 226 254
205 226 254
205 226 254
205 226 254
205 226 254
205 226 254
205 226 254
205 226 254
205 226 254
204 226 254
204 226 254
204 226 254
204 226 254
204 226 254
204 226 254
204 226 254
204 226 254
204 226 254
204 226 254
204 225 254
204 225 254
204 225 254
204 225 254
204 225 254
204 225 254
203 225 254
203 225 254
203 225 254
203 225 254
203 225 254
203 225 254
203 225 254
203 225 254
203 225 254
203 225 254
203 225 254
203 225 254
203 225 254
203 225 254
203 225 254
203 225 254
202 225 254
202 225 254
202 225 254
202 225 254
202 225 254
202 225 254
202 225 254
202 224 254
202 224 254
202 224 254
202 224 254
202 224 254
202 224 254
202 224 254
202 224 254
201 224 254
201 224 254
201 224 254
201 224 254
201 224 254
201 224 254
201 224 254
201 224 254
201 224 254
201 224 254
201 224 254
201 224 254
201 224 254
201 224 254
201 224 254
200 224 254
200 224 254
200 224 254
200 224 254
200 224 254
200 223 254
200 223 254
200 223 254
200 223 254
200 223 254
200 223 254
200 223 254
200 223 254
200 223 254
200 223 254
200 223 254
199 223 254
199 223 254
199 223 254
199 223 254
199 223 254
199 223 254
199 223 254
199 223 254
199 223 254
199 223 254
199 223 254
199 223 254
199 223 254
199 223 254
199 223 254
199 223 254
198 223 254
198 223 254
198 223 254
198 222 254
198 222 254
198 222 254
198 222 254
198 222 254
198 222 254
198 222 254
198 222 254
198 222 254
198 222 254
198 222 254
198 222 254
198 222 254
198 222 254
198 222 254
198 222 254
198 222 254
198 222 254
197 222 254
197 222 254
197 222 254
197 222 254
197 222 254
197 222 254
197 222 254
197 222 254
197 222 254
197 222 254
197 222 254
197 222 254
197 222 254
197 222 254
197 222 254
197 222 254
197 222 254
197 222 254
197 222 254
197 222 254
197 222 254
197 222 254
197 222 254
197 222 254
197 222 254
197 222 254
197 222 254
197 222 254
197 222 254
197 222 254
197 222 254
197 222 254
197 222 254
197 222 254
197 222 254
197 222 254
197 222 254
197 222 254
197 222 254
197 222 254
197 222 254
197 222 254
197 222 254
197 222 254
197 222 254
197 222 254
197 222 254
197 222 254
197 222 254
197 222 254
197 222 254
197 222 254
197 222 254
197 222 254
197 222 254
197 222 254
197 222 254
197 222 254
197 222 254
197 222 254
197 222 254
197 222 254
197 222 254
197 222 254
197 222 254
197 222 254
197 222 254
197 222 254
197 222 254
197 222 254
197 222 254
197 222 254
198 222 254
198 222 254
198 222 254
198 222 254
198 222 254
198 222 254
198 222 254
198 222 254
198 222 254
198 222 254
198 222 254
198 222 254
198 222 254
198 222 254
198 222 254
198 222 254
198 222 254
198 222 254
198 223 254
198 223 254
198 223 254
199 223 254
199 223 254
199 223 254
199 223 254
199 223 254
199 223 254
199 223 254
199 223 254
199 223 254
199 223 254
199 223 254
199 223 254
199 223 254
199 223 254
199 223 254
199 223 254
200 223 254
200 223 254
200 223 254
200 223 254
200 223 254
200 223 254
200 223 254
200 223 254
200 223 254
200 223 254
200 223 254
200 224 254
200 224 254
200 224 254
200 224 254
201 224 254
201 224 254
201 224 254
201 224 254
201 224 254
201 224 254
201 224 254
201 224 254
201 224 254
201 224 254
201 224 254
201 224 254
201 224 254
201 224 254
201 224 254
201 224 254
202 224 254
202 224 254
202 224 254
202 224 254
202 224 254
202 224 254
202 224 254
202 224 254
202 225 254
202 225 254
202 225 254
202 225 254
202 225 254
202 225 254
202 225 254
203 225 254
203 225 254
203 225 254
203 225 254
203 225 254
203 225 254
203 225 254
203 225 254
203 225 254
203 225 254
203 225 254
203 225 254
203 225 254
203 225 254
203 225 254
203 225 254
204 225 254
204 225 254
204 225 254
204 225 254
204 225 254
204 225 254
204 226 254
204 226 254
204 226 254
204 226 254
204 226 254
204 226 254
204 226 254
204 226 254
204 226 254
204 226 254
204 226 254
205 226 254
205 226 254
205 226 254
205 226 254
205 226 254
205 226 254
205 226 254
205 226 254
205 226 254
205 226 254
205 226 254
205 226 254
205 226 254
205 226 254
205 226 254
205 226 254
205 226 254
206 226 254
206 226 254
206 226 254
206 226 254
206 226 254
206 227 254
206 227 254
206 227 254
206 227 254
206 227 254
206 227 254
206 227 254
206 227 254
206 227 254
206 227 254
206 227 254
206 227 254
206 227 254
206 227 254
206 227 254
207 227 254
207 227 254
207 227 254
207 227 254
207 227 254
207 227 254
207 227 254
207 227 254
207 227 254
207 227 254
207 227 254
207 227 254
207 227 254
207 227 254
207 227 254
207 227 254
207 227 254
207 227 254
207 227 254
207 227 254
207 227 254
207 227 254
207 227 254
207 227 254
207 227 254
206 227 254
206 227 254
206 227 254
206 227 254
206 227 254
206 227 254
206 227 254
206 227 254
206 227 254
206 227 254
206 227 254
206 227 254
206 227 254
206 227 254
206 227 254
206 226 254
206 226 254
206 226 254
206 226 254
206 226 254
205 226 254
205 226 254
205 226 254
205 226 254
205 226 254
205 226 254
205 226 254
205 226 254
205 226 254
205 226 254
205 226 254
205 226 254
205 226 254
205 226 254
205 226 254
205 226 254
205 226 254
204 226 254
204 226 254
204 226 254
204 226 254
204 226 254
204 226 254
204 226 254
204 226 254
204 226 254
204 226 254
204 225 254
204 225 254
204 225 254
204 225 254
204 225 254
204 225 254
204 225 254
203 225 254
203 225 254
203 225 254
203 225 254
203 225 254
203 225 254
203 225 254
203 225 254
203 225 254
203 225 254
203 225 254
203 225 254
203 225 254
203 225 254
203 225 254
203 225 254
202 225 254
202 225 254
202 225 254
202 225 254
202 225 254
202 225 254
202 225 254
202 224 254
202 224 254
202 224 254
202 224 254
202 224 254
202 224 254
202 224 254
202 224 254
201 224 254
201 224 254
201 224 254
201 224 254
201 224 254
201 224 254
201 224 254
201 224 254
201 224 254
201 224 254
201 224 254
201 224 254
201 224 254
201 224 254
201 224 254
200 224 254
200 224 254
200 224 254
200 224 254
200 224 254
200 223 254
200 223 254
200 223 254
200 223 254
200 223 254
200 223 254
200 223 254
200 223 254
200 223 254
200 223 254
200 223 254
199 223 254
199 223 254
199 223 254
199 223 254
199 223 254
199 223 254
199 223 254
199 223 254
199 223 254
199 223 254
199 223 254
199 223 254
199 223 254
199 223 254
199 223 254
199 223 254
199 223 254
198 223 254
198 223 254
198 223 254
198 222 254
198 222 254
198 222 254
198 222 254
198 222 254
198 222 254
198 222 254
198 222 254
198 222 254
198 222 254
198 222 254
198 222 254
198 222 254
198 222 254
198 222 254
198 222 254
198 222 254
198 222 254
198 222 254
197 222 254
197 222 254
197 222 254
197 222 254
197 222 254
197 222 254
197 222 254
197 222 254
197 222 254
197 222 254
197 222 254
197 222 254
197 222 254
197 222 254
197 222 254
197 222 254
197 222 254
197 222 254
197 222 254
197 222 254
197 222 254
197 222 254
197 222 254
197 222 254
197 222 254
197 222 254
197 222 254
197 222 254
197 222 254
197 222 254
197 222 254
197 222 254
197 222 254
197 222 254
197 222 254
197 222 254
197 222 254
197 222 254
197 222 254
197 222 254
197 222 254
197 222 254
197 222 254
197 222 254
197 222 254
197 222 254
197 222 254
197 222 254
197 222 254
197 222 254
197 222 254
197 222 254
197 222 254
197 222 254
197 222 254
197 222 254
197 222 254
197 222 254
197 222 254
197 222 254
197 222 254
197 222 254
198 222 254
198 222 254
198 222 254
198 222 254
198 222 254
198 222 254
198 222 254
198 222 254
198 222 254
198 222 254
198 222 254
198 222 254
198 222 254
198 222 254
198 222 254
198 222 254
198 222 254
198 222 254
198 222 254
198 223 254
198 223 254
198 223 254
199 223 254
199 223 254
199 223 254
199 223 254
199 223 254
199 223 254
199 223 254
199 223 254
199 223 254
199 223 254
199 223 254
199 223 254
199 223 254
199 223 254
199 223 254
199 223 254
199 223 254
200 223 254
200 223 254
200 223 254
200 223 254
200 223 254
200 223 254
200 223 254
200 223 254
200 223 254
200 223 254
200 223 254
200 224 254
200 224 254
200 224 254
200 224 254
200 224 254
201 224 254
201 224 254
201 224 254
201 224 254
201 224 254
201 224 254
201 224 254
201 224 254
201 224 254
201 224 254
201 224 254
201 224 254
201 224 254
201 224 254
201 224 254
202 224 254
202 224 254
202 224 254
202 224 254
202 224 254
202 224 254
202 224 254
202 224 254
202 225 254
202 225 254
202 225 254
202 225 254
202 225 254
202 225 254
202 225 254
203 225 254
203 225 254
203 225 254
203 225 254
203 225 254
203 225 254
203 225 254
203 225 254
203 225 254
203 225 254
203 225 254
203 225 254
203 225 254
203 225 254
203 225 254
203 225 254
204 225 254
204 225 254
204 225 254
204 225 254
204 225 254
204 225 254
204 226 254
204 226 254
204 226 254
204 226 254
204 226 254
204 226 254
204 226 254
204 226 254
204 226 254
204 226 254
204 226 254
205 226 254
205 226 254
205 226 254
205 226 254
205 226 254
205 226 254
205 226 254
205 226 254
205 226 254
205 226 254
205 226 254
205 226 254
205 226 254
205 226 254
205 226 254
205 226 254
205 226 254
205 226 254
206 226 254
206 226 254
206 226 254
206 226 254
206 227 254
206 227 254
206 227 254
206 227 254
206 227 254
206 227 254
206 227 254
206 227 254
206 227 254
206 227 254
206 227 254
206 227 254
206 227 254
206 227 254
206 227 254
207 227 254
207 227 254
207 227 254
207 227 254
207 227 254
207 227 254
207 227 254
207 227 254
207 227 254
207 227 254
207 227 254
207 227 254
207 227 254
207 227 254
207 227 254
207 227 254
207 227 254
207 227 254
207 227 254
207 227 254
207 227 254
207 227 254
207 227 254
207 227 254
207 227 254
207 227 254
207 227 254
207 227 254
207 227 254
207 227 254
207 227 254
206 227 254
206 227 254
206 227 254
206 227 254
206 227 254
206 227 254
206 227 254
206 227 254
206 227 254
206 227 254
206 227 254
206 227 254
206 227 254
206 227 254
206 227 254
206 226 254
206 226 254
206 226 254
206 226 254
205 226 254
205 226 254
205 226 254
205 226 254
205 226 254
205 226 254
205 226 254
205 226 254
205 226 254
205 226 254
205 226 254
205 226 254
205 226 254
205 226 254
205 226 254
205 226 254
205 226 254
205 226 254
204 226 254
204 226 254
204 226 254
204 226 254
204 226 254
204 226 254
204 226 254
204 226 254
204 226 254
204 226 254
204 225 254
204 225 254
204 225 254
204 225 254
204 225 254
204 225 254
204 225 254
203 225 254
203 225 254
203 225 254
203 225 254
203 225 254
203 225 254
203 225 254
203 225 254
203 225 254
203 225 254
203 225 254
203 225 254
203 225 254
203 225 254
203 225 254
202 225 254
202 225 254
202 225 254
202 225 254
202 225 254
202 225 254
202 225 254
202 224 254
202 224 254
202 224 254
202 224 254
202 224 254
202 224 254
202 224 254
202 224 254
201 224 254
201 224 254
201 224 254
201 224 254
201 224 254
201 224 254
201 224 254
201 224 254
201 224 254
201 224 254
201 224 254
201 224 254
201 224 254
201 224 254
201 224 254
201 224 254
200 224 254
200 224 254
200 224 254
200 224 254
200 224 254
200 223 254
200 223 254
200 223 254
200 223 254
200 223 254
200 223 254
200 223 254
200 223 254
200 223 254
200 223 254
200 223 254
199 223 254
199 223 254
199 223 254
199 223 254
199 223 254
199 223 254
199 223 254
199 223 254
199 223 254
199 223 254
199 223 254
199 223 254
199 223 254
199 223 254
199 223 254
199 223 254
199 223 254
198 223 254
198 223 254
198 223 254
198 223 254
198 222 254
198 222 254
198 222 254
198 222 254
198 222 254
198 222 254
198 222 254
198 222 254
198 222 254
198 222 254
198 222 254
198 222 254
198 222 254
198 222 254
198 222 254
198 222 254
198 222 254
198 222 254
198 222 254
198 222 254
197 222 254
197 222 254
197 222 254
197 222 254
197 222 254
197 222 254
197 222 254
197 222 254
197 222 254
197 222 254
197 222 254
197 222 254
197 222 254
197 222 254
197 222 254
197 222 254
197 222 254
197 222 254
197 222 254
197 222 254
197 222 254
197 222 254
197 222 254
197 222 254
197 222 254
197 222 254
197 222 254
197 222 254
197 222 254
197 222 254
197 222 254
197 222 254
197 222 254
197 222 254
197 222 254
197 222 254
197 222 254
197 222 254
197 222 254
197 222 254
197 222 254
197 222 254
197 222 254
197 222 254
197 222 254
197 222 254
197 222 254
197 222 254
197 222 254
197 222 254
197 222 254
197 222 254
198 222 254
198 222 254
198 222 254
198 222 254
198 222 254
198 222 254
198 222 254
198 222 254
198 222 254
198 222 254
198 222 254
198 222 254
198 222 254
198 222 254
198 222 254
198 222 254
198 222 254
198 222 254
198 222 254
198 222 254
198 223 254
198 223 254
198 223 254
198 223 254
199 223 254
199 223 254
199 223 254
199 223 254
199 223 254
199 223 254
199 223 254
199 223 254
199 223 254
199 223 254
199 223 254
199 223 254
199 223 254
199 223 254
199 223 254
199 223 254
199 223 254
200 223 254
200 223 254
200 223 254
200 223 254
200 223 254
200 223 254
200 223 254
200 223 254
200 223 254
200 223 254
200 223 254
200 223 254
200 224 254
200 224 254
200 224 254
200 224 254
201 224 254
201 224 254
201 224 254
201 224 254
201 224 254
201 224 254
201 224 254
201 224 254
201 224 254
201 224 254
201 224 254
201 224 254
201 224 254
201 224 254
201 224 254
202 224 254
202 224 254
202 224 254
202 224 254
202 224 254
202 224 254
202 224 254
202 224 254
202 224 254
202 225 254
202 225 254
202 225 254
202 225 254
202 225 254
202 225 254
202 225 254
203 225 254
203 225 254
203 225 254
203 225 254
203 225 254
203 225 254
203 225 254
203 225 254
203 225 254
203 225 254
203 225 254
203 225 254
203 225 254
203 225 254
203 225 254
204 225 254
204 225 254
204 225 254
204 225 254
204 225 254
204 225 254
204 225 254
204 226 254
204 226 254
204 226 254
204 226 254
204 226 254
204 226 254
204 226 254
204 226 254
204 226 254
204 226 254
205 226 254
205 226 254
205 226 254
205 226 254
205 226 254
205 226 254
205 226 254
205 226 254
205 226 254
205 226 254
205 226 254
205 226 254
205 226 254
205 226 254
205 226 254
205 226 254
205 226 254
205 226 254
206 226 254
206 226 254
206 226 254
206 226 254
206 227 254
206 227 254
206 227 254
206 227 254
206 227 254
206 227 254
206 227 254
206 227 254
206 227 254
206 227 254
206 227 254
206 227 254
206 227 254
206 227 254
206 227 254
207 227 254
207 227 254
207 227 254
207 227 254
207 227 254
207 227 254
207 227 254
207 227 254
207 227 254
207 227 254
207 227 254
207 227 254
207 227 254
207 227 254
207 227 254
207 227 254
207 227 254
207 227 254
207 227 254
207 227 254
207 227 254
207 227 254
207 227 254
207 227 254
207 227 254
207 227 254
207 227 254
207 227 254
207 227 254
207 227 254
207 227 254
207 227 254
207 227 254
207 227 254
207 227 254
207 227 254
207 227 254
206 227 254
206 227 254
206 227 254
206 227 254
206 227 254
206 227 254
206 227 254
206 227 254
206 227 254
206 227 254
206 227 254
206 227 254
206 227 254
206 227 254
206 227 254
206 226 254
206 226 254
206 226 254
206 226 254
205 226 254
205 226 254
205 226 254
205 226 254
205 226 254
205 226 254
205 226 254
205 226 254
205 226 254
205 226 254
205 226 254
205 226 254
205 226 254
205 226 254
205 226 254
205 226 254
205 226 254
205 226 254
204 226 254
204 226 254
204 226 254
204 226 254
204 226 254
204 226 254
204 226 254
204 226 254
204 226 254
204 226 254
204 225 254
204 225 254
204 225 254
204 225 254
204 225 254
204 225 254
203 225 254
203 225 254
203 225 254
203 225 254
203 225 254
203 225 254
203 225 254
203 225 254
203 225 254
203 225 254
203 225 254
203 225 254
203 225 254
203 225 254
203 225 254
203 225 254
202 225 254
202 225 254
202 225 254
202 225 254
202 225 254
202 225 254
202 225 254
202 224 254
202 224 254
202 224 254
202 224 254
202 224 254
202 224 254
202 224 254
202 224 254
201 224 254
201 224 254
201 224 254
201 224 254
201 224 254
201 224 254
201 224 254
201 224 254
201 224 254
201 224 254
201 224 254
201 224 254
201 224 254
201 224 254
201 224 254
201 224 254
200 224 254
200 224 254
200 224 254
200 224 254
200 224 254
200 223 254
200 223 254
200 223 254
200 223 254
200 223 254
200 223 254
200 223 254
200 223 254
200 223 254
200 223 254
200 223 254
199 223 254
199 223 254
199 223 254
199 223 254
199 223 254
199 223 254
199 223 254
199 223 254
199 223 254
199 223 254
199 223 254
199 223 254
199 223 254
199 223 254
199 223 254
199 223 254
199 223 254
199 223 254
198 223 254
198 223 254
198 223 254
198 223 254
198 222 254
198 222 254
198 222 254
198 222 254
198 222 254
198 222 254
198 222 254
198 222 254
198 222 254
198 222 254
198 222 254
198 222 254
198 222 254
198 222 254
198 222 254
198 222 254
198 222 254
198 222 254
198 222 254
198 222 254
198 222 254
198 222 254
198 222 254
197 222 254
197 222 254
197 222 254
197 222 254
197 222 254
197 222 254
197 222 254
197 222 254
197 222 254
197 222 254
197 222 254
197 222 254
197 222 254
197 222 254
197 222 254
197 222 254
197 222 254
197 222 254
197 222 254
197 222 254
197 222 254
197 222 254
197 222 254
197 222 254
197 222 254
197 222 254
197 222 254
197 222 254
197 222 254
197 222 254
197 222 254
197 222 254
197 222 254
197 222 254
197 222 254
197 222 254
197 222 254
197 222 254
198 222 254
198 222 254
198 222 254
198 222 254
198 222 254
198 222 254
198 222 254
198 222 254
198 222 254
198 222 254
198 222 254
198 222 254
198 222 254
198 222 254
198 222 254
198 222 254
198 222 254
198 222 254
198 222 254
198 222 254
198 222 254
198 222 254
198 222 254
198 223 254
198 223 254
198 223 254
198 223 254
199 223 254
199 223 254
199 223 254
199 223 254
199 223 254
199 223 254
199 223 254
199 223 254
199 223 254
199 223 254
199 223 254
199 223 254
199 223 254
199 223 254
199 223 254
199 223 254
199 223 254
199 223 254
200 223 254
200 223 254
200 223 254
200 223 254
200 223 254
200 223 254
200 223 254
200 223 254
200 223 254
200 223 254
200 223 254
200 223 254
200 224 254
200 224 254
200 224 254
200 224 254
201 224 254
201 224 254
201 224 254
201 224 254
201 224 254
201 224 254
201 224 254
201 224 254
201 224 254
201 224 254
201 224 254
201 224 254
201 224 254
201 224 254
201 224 254
201 224 254
202 224 254
202 224 254
202 224 254
202 224 254
202 224 254
202 224 254
202 224 254
202 224 254
202 225 254
202 225 254
202 225 254
202 225 254
202 225 254
202 225 254
202 225 254
203 225 254
203 225 254
203 225 254
203 225 254
203 225 254
203 225 254
203 225 254
203 225 254
203 225 254
203 225 254
203 225 254
203 225 254
203 225 254
203 225 254
203 225 254
203 225 254
204 225 254
204 225 254
204 225 254
204 225 254
204 225 254
204 225 254
204 226 254
204 226 254
204 226 254
204 226 254
204 226 254
204 226 254
204 226 254
204 226 254
204 226 254
204 226 254
205 226 254
205 226 254
205 226 254
205 226 254
205 226 254
205 226 254
205 226 254
205 226 254
205 226 254
205 226 254
205 226 254
205 226 254
205 226 254
205 226 254
205 226 254
205 226 254
205 226 254
205 226 254
206 226 254
206 226 254
206 226 254
206 226 254
206 227 254
206 227 254
206 227 254
206 227 254
206 227 254
206 227 254
206 227 254
206 227 254
206 227 254
206 227 254
206 227 254
206 227 254
206 227 254
206 227 254
206 227 254
207 227 254
207 227 254
207 227 254
207 227 254
207 227 254
207 227 254
207 227 254
207 227 254
207 227 254
207 227 254
207 227 254
207 227 254
207 227 254
207 227 254
207 227 254
207 227 254
207 227 254
207 227 254
207 227 254
207 227 254
208 228 254
208 227 254
207 227 254
207 227 254
207 227 254
207 227 254
207 227 254
207 227 254
207 227 254
207 227 254
207 227 254
207 227 254
207 227 254
207 227 254
207 227 254
207 227 254
207 227 254
207 227 254
207 227 254
207 227 254
207 227 254
207 227 254
207 227 254
206 227 254
206 227 254
206 227 254
206 227 254
206 227 254
206 227 254
206 227 254
206 227 254
206 227 254
206 227 254
206 227 254
206 227 254
206 227 254
206 227 254
206 227 254
206 226 254
206 226 254
206 226 254
206 226 254
205 226 254
205 226 254
205 226 254
205 226 254
205 226 254
205 226 254
205 226 254
205 226 254
205 226 254
205 226 254
205 226 254
205 226 254
205 226 254
205 226 254
205 226 254
205 226 254
205 226 254
205 226 254
204 226 254
204 226 254
204 226 254
204 226 254
204 226 254
204 226 254
204 226 254
204 226 254
204 226 254
204 226 254
204 225 254
204 225 254
204 225 254
204 225 254
204 225 254
204 225 254
203 225 254
203 225 254
203 225 254
203 225 254
203 225 254
203 225 254
203 225 254
203 225 254
203 225 254
203 225 254
203 225 254
203 225 254
203 225 254
203 225 254
203 225 254
203 225 254
202 225 254
202 225 254
202 225 254
202 225 254
202 225 254
202 225 254
202 225 254
202 224 254
202 224 254
202 224 254
202 224 254
202 224 254
202 224 254
202 224 254
202 224 254
201 224 254
201 224 254
201 224 254
201 224 254
201 224 254
201 224 254
201 224 254
201 224 254
201 224 254
201 224 254
201 224 254
201 224 254
201 224 254
201 224 254
201 224 254
201 224 254
200 224 254
200 224 254
200 224 254
200 224 254
200 224 254
200 223 254
200 223 254
200 223 254
200 223 254
200 223 254
200 223 254
200 223 254
200 223 254
200 223 254
200 223 254
200 223 254
199 223 254
199 223 254
199 223 254
199 223 254
199 223 254
199 223 254
199 223 254
199 223 254
199 223 254
199 223 254
199 223 254
199 223 254
199 223 254
199 223 254
199 223 254
199 223 254
199 223 254
199 223 254
199 223 254
198 223 254
198 223 254
198 223 254
198 223 254
198 222 254
198 222 254
198 222 254
198 222 254
198 222 254
198 222 254
198 222 254
198 222 254
198 222 254
198 222 254
198 222 254
198 222 254
198 222 254
198 222 254
198 222 254
198 222 254
198 222 254
198 222 254
198 222 254
198 222 254
198 222 254
198 222 254
198 222 254
198 222 254
198 222 254
198 222 254
198 222 254
198 222 254
198 222 254
198 222 254
198 222 254
197 222 254
197 222 254
197 222 254
197 222 254
197 222 254
197 222 254
197 222 254
197 222 254
197 222 254
197 222 254
197 222 254
197 222 254
197 222 254
198 222 254
198 222 254
198 222 254
198 222 254
198 222 254
198 222 254
198 222 254
198 222 254
198 222 254
198 222 254
198 222 254
198 222 254
198 222 254
198 222 254
198 222 254
198 222 254
198 222 254
198 222 254
198 222 254
198 222 254
198 222 254
198 222 254
198 222 254
198 222 254
198 222 254
198 222 254
198 222 254
198 222 254
198 222 254
198 222 254
198 222 254
198 222 254
198 223 254
198 223 254
198 223 254
198 223 254
199 223 254
199 223 254
199 223 254
199 223 254
199 223 254
199 223 254
199 223 254
199 223 254
199 223 254
199 223 254
199 223 254
199 223 254
199 223 254
199 223 254
199 223 254
199 223 254
199 223 254
199 223 254
199 223 254
200 223 254
200 223 254
200 223 254
200 223 254
200 223 254
200 223 254
200 223 254
200 223 254
200 223 254
200 223 254
200 223 254
200 223 254
200 224 254
200 224 254
200 224 254
200 224 254
201 224 254
201 224 254
201 224 254
201 224 254
201 224 254
201 224 254
201 224 254
201 224 254
201 224 254
201 224 254
201 224 254
201 224 254
201 224 254
201 224 254
201 224 254
201 224 254
202 224 254
202 224 254
202 224 254
202 224 254
202 224 254
202 224 254
202 224 254
202 224 254
202 225 254
202 225 254
202 225 254
202 225 254
202 225 254
202 225 254
202 225 254
203 225 254
203 225 254
203 225 254
203 225 254
203 225 254
203 225 254
203 225 254
203 225 254
203 225 254
203 225 254
203 225 254
203 225 254
203 225 254
203 225 254
203 225 254
203 225 254
204 225 254
204 225 254
204 225 254
204 225 254
204 225 254
204 225 254
204 226 254
204 226 254
204 226 254
204 226 254
204 226 254
204 226 254
204 226 254
204 226 254
204 226 254
204 226 254
205 226 254
205 226 254
205 226 254
205 226 254
205 226 254
205 226 254
205 226 254
205 226 254
205 226 254
205 226 254
205 226 254
205 226 254
205 226 254
205 226 254
205 226 254
205 226 254
205 226 254
205 226 254
206 226 254
206 226 254
206 226 254
206 226 254
206 227 254
206 227 254
206 227 254
206 227 254
206 227 254
206 227 254
206 227 254
206 227 254
206 227 254
206 227 254
206 227 254
206 227 254
206 227 254
206 227 254
206 227 254
207 227 254
207 227 254
207 227 254
207 227 254
207 227 254
207 227 254
207 227 254
207 227 254
207 227 254
207 227 254
207 227 254
207 227 254
207 227 254
207 227 254
207 227 254
207 227 254
207 227 254
207 227 254
207 227 254
207 227 254
207 227 254
208 227 254
208 227 254
208 228 254
208 228 254
208 228 254
208 228 254
208 227 254
207 227 254
207 227 254
207 227 254
207 227 254
207 227 254
207 227 254
207 227 254
207 227 254
207 227 254
207 227 254
207 227 254
207 227 254
207 227 254
207 227 254
207 227 254
207 227 254
207 227 254
207 227 254
207 227 254
207 227 254
207 227 254
206 227 254
206 227 254
206 227 254
206 227 254
206 227 254
206 227 254
206 227 254
206 227 254
206 227 254
206 227 254
206 227 254
206 227 254
206 227 254
206 227 254
206 227 254
206 226 254
206 226 254
206 226 254
206 226 254
205 226 254
205 226 254
205 226 254
205 226 254
205 226 254
205 226 254
205 226 254
205 226 254
205 226 254
205 226 254
205 226 254
205 226 254
205 226 254
205 226 254
205 226 254
205 226 254
205 226 254
204 226 254
204 226 254
204 226 254
204 226 254
204 226 254
204 226 254
204 226 254
204 226 254
204 226 254
204 226 254
204 226 254
204 225 254
204 225 254
204 225 254
204 225 254
204 225 254
204 225 254
203 225 254
203 225 254
203 225 254
203 225 254
203 225 254
203 225 254
203 225 254
203 225 254
203 225 254
203 225 254
203 225 254
203 225 254
203 225 254
203 225 254
203 225 254
203 225 254
202 225 254
202 225 254
202 225 254
202 225 254
202 225 254
202 225 254
202 224 254
202 224 254
202 224 254
202 224 254
202 224 254
202 224 254
202 224 254
202 224 254
202 224 254
201 224 254
201 224 254
201 224 254
201 224 254
201 224 254
201 224 254
201 224 254
201 224 254
201 224 254
201 224 254
201 224 254
201 224 254
201 224 254
201 224 254
201 224 254
201 224 254
200 224 254
200 224 254
200 224 254
200 224 254
200 224 254
200 223 254
200 223 254
200 223 254
200 223 254
200 223 254
200 223 254
200 223 254
200 223 254
200 223 254
200 223 254
200 223 254
199 223 254
199 223 254
199 223 254
199 223 254
199 223 254
199 223 254
199 223 254
199 223 254
199 223 254
199 223 254
199 223 254
199 223 254
199 223 254
199 223 254
199 223 254
199 223 254
199 223 254
199 223 254
199 223 254
199 223 254
198 223 254
198 223 254
198 223 254
198 223 254
198 223 254
198 222 254
198 222 254
198 222 254
198 222 254
198 222 254
198 222 254
198 222 254
198 222 254
198 222 254
198 222 254
198 222 254
198 222 254
198 222 254
198 222 254
198 222 254
198 222 254
198 222 254
198 222 254
198 222 254
198 222 254
198 222 254
198 222 254
198 222 254
198 222 254
198 222 254
198 222 254
198 222 254
198 222 254
198 222 254
198 222 254
198 222 254
198 222 254
198 222 254
198 222 254
198 222 254
198 222 254
198 222 254
198 222 254
198 222 254
198 222 254
198 222 254
198 222 254
198 222 254
198 222 254
198 222 254
198 222 254
198 222 254
198 222 254
198 222 254
198 222 254
198 222 254
198 222 254
198 222 254
198 222 254
198 222 254
198 222 254
198 222 254
198 222 254
198 222 254
198 222 254
198 222 254
198 222 254
198 222 254
198 222 254
198 222 254
198 222 254
198 223 254
198 223 254
198 223 254
198 223 254
199 223 254
199 223 254
199 223 254
199 223 254
199 223 254
199 223 254
199 223 254
199 223 254
199 223 254
199 223 254
199 223 254
199 223 254
199 223 254
199 223 254
199 223 254
199 223 254
199 223 254
199 223 254
199 223 254
199 223 254
199 223 254
200 223 254
200 223 254
200 223 254
200 223 254
200 223 254
200 223 254
200 223 254
200 223 254
200 223 254
200 223 254
200 223 254
200 224 254
200 224 254
200 224 254
200 224 254
200 224 254
201 224 254
201 224 254
201 224 254
201 224 254
201 224 254
201 224 254
201 224 254
201 224 254
201 224 254
201 224 254
201 224 254
201 224 254
201 224 254
201 224 254
201 224 254
201 224 254
202 224 254
202 224 254
202 224 254
202 224 254
202 224 254
202 224 254
202 224 254
202 224 254
202 225 254
202 225 254
202 225 254
202 225 254
202 225 254
202 225 254
202 225 254
202 225 254
203 225 254
203 225 254
203 225 254
203 225 254
203 225 254
203 225 254
203 225 254
203 225 254
203 225 254
203 225 254
203 225 254
203 225 254
203 225 254
203 225 254
203 225 254
204 225 254
204 225 254
204 225 254
204 225 254
204 225 254
204 225 254
204 225 254
204 226 254
204 226 254
204 226 254
204 226 254
204 226 254
204 226 254
204 226 254
204 226 254
204 226 254
204 226 254
205 226 254
205 226 254
205 226 254
205 226 254
205 226 254
205 226 254
205 226 254
205 226 254
205 226 254
205 226 254
205 226 254
205 226 254
205 226 254
205 226 254
205 226 254
205 226 254
205 226 254
206 226 254
206 226 254
206 226 254
206 226 254
206 227 254
206 227 254
206 227 254
206 227 254
206 227 254
206 227 254
206 227 254
206 227 254
206 227 254
206 227 254
206 227 254
206 227 254
206 227 254
206 227 254
206 227 254
207 227 254
207 227 254
207 227 254
207 227 254
207 227 254
207 227 254
207 227 254
207 227 254
207 227 254
207 227 254
207 227 254
207 227 254
207 227 254
207 227 254
207 227 254
207 227 254
207 227 254
207 227 254
207 227 254
207 227 254
207 227 254
208 227 254
208 228 254
208 228 254
208 228 254
208 228 254
208 228 254
208 228 254
208 228 254
208 228 254
208 228 254
208 228 254
208 228 254
208 227 254
207 227 254
207 227 254
207 227 254
207 227 254
207 227 254
207 227 254
207 227 254
207 227 254
207 227 254
207 227 254
207 227 254
207 227 254
207 227 254
207 227 254
207 227 254
207 227 254
207 227 254
207 227 254
207 227 254
207 227 254
207 227 254
206 227 254
206 227 254
206 227 254
206 227 254
206 227 254
206 227 254
206 227 254
206 227 254
206 227 254
206 227 254
206 227 254
206 227 254
206 227 254
206 227 254
206 227 254
206 226 254
206 226 254
206 226 254
206 226 254
205 226 254
205 226 254
205 226 254
205 226 254
205 226 254
205 226 254
205 226 254
205 226 254
205 226 254
205 226 254
205 226 254
205 226 254
205 226 254
205 226 254
205 226 254
205 226 254
205 226 254
204 226 254
204 226 254
204 226 254
204 226 254
204 226 254
204 226 254
204 226 254
204 226 254
204 226 254
204 226 254
204 225 254
204 225 254
204 225 254
204 225 254
204 225 254
204 225 254
204 225 254
203 225 254
203 225 254
203 225 254
203 225 254
203 225 254
203 225 254
203 225 254
203 225 254
203 225 254
203 225 254
203 225 254
203 225 254
203 225 254
203 225 254
203 225 254
202 225 254
202 225 254
202 225 254
202 225 254
202 225 254
202 225 254
202 225 254
202 224 254
202 224 254
202 224 254
202 224 254
202 224 254
202 224 254
202 224 254
202 224 254
202 224 254
201 224 254
201 224 254
201 224 254
201 224 254
201 224 254
201 224 254
201 224 254
201 224 254
201 224 254
201 224 254
201 224 254
201 224 254
201 224 254
201 224 254
201 224 254
201 224 254
200 224 254
200 224 254
200 224 254
200 224 254
200 224 254
200 223 254
200 223 254
200 223 254
200 223 254
200 223 254
200 223 254
200 223 254
200 223 254
200 223 254
200 223 254
200 223 254
200 223 254
199 223 254
199 223 254
199 223 254
199 223 254
199 223 254
199 223 254
199 223 254
199 223 254
199 223 254
199 223 254
199 223 254
199 223 254
199 223 254
199 223 254
199 223 254
199 223 254
199 223 254
199 223 254
199 223 254
199 223 254
199 223 254
199 223 254
198 223 254
198 223 254
198 223 254
198 223 254
198 222 254
198 222 254
198 222 254
198 222 254
198 222 254
198 222 254
198 222 254
198 222 254
198 222 254
198 222 254
198 222 254
198 222 254
198 222 254
198 222 254
198 222 254
198 222 254
198 222 254
198 222 254
198 222 254
198 222 254
198 222 254
198 222 254
198 222 254
198 222 254
198 222 254
198 222 254
198 222 254
198 222 254
198 222 254
198 222 254
198 222 254
198 222 254
198 222 254
198 222 254
198 222 254
198 222 254
198 222 254
198 222 254
198 222 254
198 222 254
198 222 254
198 222 254
198 222 254
198 222 254
198 222 254
198 222 254
198 222 254
198 222 254
198 222 254
198 222 254
198 222 254
198 222 254
198 222 254
198 222 254
198 222 254
198 222 254
198 223 254
198 223 254
198 223 254
198 223 254
199 223 254
199 223 254
199 223 254
199 223 254
199 223 254
199 223 254
199 223 254
199 223 254
199 223 254
199 223 254
199 223 254
199 223 254
199 223 254
199 223 254
199 223 254
199 223 254
199 223 254
199 223 254
199 223 254
199 223 254
199 223 254
199 223 254
200 223 254
200 223 254
200 223 254
200 223 254
200 223 254
200 223 254
200 223 254
200 223 254
200 223 254
200 223 254
200 223 254
200 223 254
200 224 254
200 224 254
200 224 254
200 224 254
200 224 254
201 224 254
201 224 254
201 224 254
201 224 254
201 224 254
201 224 254
201 224 254
201 224 254
201 224 254
201 224 254
201 224 254
201 224 254
201 224 254
201 224 254
201 224 254
201 224 254
202 224 254
202 224 254
202 224 254
202 224 254
202 224 254
202 224 254
202 224 254
202 224 254
202 224 254
202 225 254
202 225 254
202 225 254
202 225 254
202 225 254
202 225 254
202 225 254
203 225 254
203 225 254
203 225 254
203 225 254
203 225 254
203 225 254
203 225 254
203 225 254
203 225 254
203 225 254
203 225 254
203 225 254
203 225 254
203 225 254
203 225 254
204 225 254
204 225 254
204 225 254
204 225 254
204 225 254
204 225 254
204 225 254
204 226 254
204 226 254
204 226 254
204 226 254
204 226 254
204 226 254
204 226 254
204 226 254
204 226 254
204 226 254
205 226 254
205 226 254
205 226 254
205 226 254
205 226 254
205 226 254
205 226 254
205 226 254
205 226 254
205 226 254
205 226 254
205 226 254
205 226 254
205 226 254
205 226 254
205 226 254
205 226 254
206 226 254
206 226 254
206 226 254
206 226 254
206 227 254
206 227 254
206 227 254
206 227 254
206 227 254
206 227 254
206 227 254
206 227 254
206 227 254
206 227 254
206 227 254
206 227 254
206 227 254
206 227 254
206 227 254
207 227 254
207 227 254
207 227 254
207 227 254
207 227 254
207 227 254
207 227 254
207 227 254
207 227 254
207 227 254
207 227 254
207 227 254
207 227 254
207 227 254
207 227 254
207 227 254
207 227 254
207 227 254
207 227 254
207 227 254
207 227 254
208 227 254
208 228 254
208 228 254
208 228 254
208 228 254
208 228 254
208 228 254
208 228 254
208 228 254
208 228 254
208 228 254
208 228 254
208 228 254
208 228 254
208 228 254
208 228 254
208 228 254
208 228 254
208 227 254
208 227 254
207 227 254
207 227 254
207 227 254
207 227 254
207 227 254
207 227 254
207 227 254
207 227 254
207 227 254
207 227 254
207 227 254
207 227 254
207 227 254
207 227 254
207 227 254
207 227 254
207 227 254
207 227 254
207 227 254
207 227 254
206 227 254
206 227 254
206 227 254
206 227 254
206 227 254
206 227 254
206 227 254
206 227 254
206 227 254
206 227 254
206 227 254
206 227 254
206 227 254
206 227 254
206 227 254
206 226 254
206 226 254
206 226 254
206 226 254
205 226 254
205 226 254
205 226 254
205 226 254
205 226 254
205 226 254
205 226 254
205 226 254
205 226 254
205 226 254
205 226 254
205 226 254
205 226 254
205 226 254
205 226 254
205 226 254
205 226 254
204 226 254
204 226 254
204 226 254
204 226 254
204 226 254
204 226 254
204 226 254
204 226 254
204 226 254
204 226 254
204 225 254
204 225 254
204 225 254
204 225 254
204 225 254
204 225 254
203 225 254
203 225 254
203 225 254
203 225 254
203 225 254
203 225 254
203 225 254
203 225 254
203 225 254
203 225 254
203 225 254
203 225 254
203 225 254
203 225 254
203 225 254
203 225 254
202 225 254
202 225 254
202 225 254
202 225 254
202 225 254
202 225 254
202 225 254
202 224 254
202 224 254
202 224 254
202 224 254
202 224 254
202 224 254
202 224 254
202 224 254
202 224 254
201 224 254
201 224 254
201 224 254
201 224 254
201 224 254
201 224 254
201 224 254
201 224 254
201 224 254
201 224 254
201 224 254
201 224 254
201 224 254
201 224 254
201 224 254
201 224 254
200 224 254
200 224 254
200 224 254
200 224 254
200 224 254
200 223 254
200 223 254
200 223 254
200 223 254
200 223 254
200 223 254
200 223 254
200 223 254
200 223 254
200 223 254
200 223 254
200 223 254
200 223 254
199 223 254
199 223 254
199 223 254
199 223 254
199 223 254
199 223 254
199 223 254
199 223 254
199 223 254
199 223 254
199 223 254
199 223 254
199 223 254
199 223 254
199 223 254
199 223 254
199 223 254
199 223 254
199 223 254
199 223 254
199 223 254
199 223 254
199 223 254
198 223 254
198 223 254
198 223 254
198 223 254
198 223 254
198 223 254
198 223 254
198 222 254
198 222 254
198 222 254
198 222 254
198 222 254
198 222 254
198 222 254
198 222 254
198 222 254
198 222 254
198 222 254
198 222 254
198 222 254
198 222 254
198 222 254
198 222 254
198 222 254
198 222 254
198 222 254
198 222 254
198 222 254
198 222 254
198 222 254
198 222 254
198 222 254
198 222 254
198 222 254
198 222 254
198 222 254
198 222 254
198 222 254
198 222 254
198 222 254
198 222 254
198 222 254
198 222 254
198 222 254
198 222 254
198 222 254
198 222 254
198 222 254
198 223 254
198 223 254
198 223 254
198 223 254
198 223 254
198 223 254
199 223 254
199 223 254
199 223 254
199 223 254
199 223 254
199 223 254
199 223 254
199 223 254
199 223 254
199 223 254
199 223 254
199 223 254
199 223 254
199 223 254
199 223 254
199 223 254
199 223 254
199 223 254
199 223 254
199 223 254
199 223 254
199 223 254
199 223 254
199 223 254
200 223 254
200 223 254
200 223 254
200 223 254
200 223 254
200 223 254
200 223 254
200 223 254
200 223 254
200 223 254
200 223 254
200 223 254
200 224 254
200 224 254
200 224 254
200 224 254
200 224 254
201 224 254
201 224 254
201 224 254
201 224 254
201 224 254
201 224 254
201 224 254
201 224 254
201 224 254
201 224 254
201 224 254
201 224 254
201 224 254
201 224 254
201 224 254
201 224 254
202 224 254
202 224 254
202 224 254
202 224 254
202 224 254
202 224 254
202 224 254
202 224 254
202 224 254
202 225 254
202 225 254
202 225 254
202 225 254
202 225 254
202 225 254
202 225 254
203 225 254
203 225 254
203 225 254
203 225 254
203 225 254
203 225 254
203 225 254
203 225 254
203 225 254
203 225 254
203 225 254
203 225 254
203 225 254
203 225 254
203 225 254
204 225 254
204 225 254
204 225 254
204 225 254
204 225 254
204 225 254
204 225 254
204 226 254
204 226 254
204 226 254
204 226 254
204 226 254
204 226 254
204 226 254
204 226 254
204 226 254
204 226 254
205 226 254
205 226 254
205 226 254
205 226 254
205 226 254
205 226 254
205 226 254
205 226 254
205 226 254
205 226 254
205 226 254
205 226 254
205 226 254
205 226 254
205 226 254
205 226 254
205 226 254
206 226 254
206 226 254
206 226 254
206 226 254
206 227 254
206 227 254
206 227 254
206 227 254
206 227 254
206 227 254
206 227 254
206 227 254
206 227 254
206 227 254
206 227 254
206 227 254
206 227 254
206 227 254
206 227 254
207 227 254
207 227 254
207 227 254
207 227 254
207 227 254
207 227 254
207 227 254
207 227 254
207 227 254
207 227 254
207 227 254
207 227 254
207 227 254
207 227 254
207 227 254
207 227 254
207 227 254
207 227 254
207 227 254
207 227 254
208 227 254
208 227 254
208 228 254
208 228 254
208 228 254
208 228 254
208 228 254
208 228 254
208 228 254
208 228 254
208 228 254
208 228 254
208 228 254
208 228 254
208 228 254
208 228 254
208 228 254
208 228 254
208 228 254
208 228 254
208 228 254
208 228 254
208 228 254
208 228 254
208 228 254
208 227 254
208 227 254
207 227 254
207 227 254
207 227 254
207 227 254
207 227 254
207 227 254
207 227 254
207 227 254
207 227 254
207 227 254
207 227 254
207 227 254
207 227 254
207 227 254
207 227 254
207 227 254
207 227 254
207 227 254
207 227 254
207 227 254
206 227 254
206 227 254
206 227 254
206 227 254
206 227 254
206 227 254
206 227 254
206 227 254
206 227 254
206 227 254
206 227 254
206 227 254
206 227 254
206 227 254
206 227 254
206 226 254
206 226 254
206 226 254
206 226 254
205 226 254
205 226 254
205 226 254
205 226 254
205 226 254
205 226 254
205 226 254
205 226 254
205 226 254
205 226 254
205 226 254
205 226 254
205 226 254
205 226 254
205 226 254
205 226 254
205 226 254
204 226 254
204 226 254
204 226 254
204 226 254
204 226 254
204 226 254
204 226 254
204 226 254
204 226 254
204 226 254
204 225 254
204 225 254
204 225 254
204 225 254
204 225 254
204 225 254
203 225 254
203 225 254
203 225 254
203 225 254
203 225 254
203 225 254
203 225 254
203 225 254
203 225 254
203 225 254
203 225 254
203 225 254
203 225 254
203 225 254
203 225 254
203 225 254
202 225 254
202 225 254
202 225 254
202 225 254
202 225 254
202 225 254
202 225 254
202 224 254
202 224 254
202 224 254
202 224 254
202 224 254
202 224 254
202 224 254
202 224 254
202 224 254
201 224 254
201 224 254
201 224 254
201 224 254
201 224 254
201 224 254
201 224 254
201 224 254
201 224 254
201 224 254
201 224 254
201 224 254
201 224 254
201 224 254
201 224 254
201 224 254
200 224 254
200 224 254
200 224 254
200 224 254
200 224 254
200 223 254
200 223 254
200 223 254
200 223 254
200 223 254
200 223 254
200 223 254
200 223 254
200 223 254
200 223 254
200 223 254
200 223 254
200 223 254
199 223 254
199 223 254
199 223 254
199 223 254
199 223 254
199 223 254
199 223 254
199 223 254
199 223 254
199 223 254
199 223 254
199 223 254
199 223 254
199 223 254
199 223 254
199 223 254
199 223 254
199 223 254
199 223 254
199 223 254
199 223 254
199 223 254
199 223 254
199 223 254
199 223 254
199 223 254
199 223 254
198 223 254
198 223 254
198 223 254
198 223 254
198 223 254
198 223 254
198 223 254
198 223 254
198 223 254
198 223 254
198 223 254
198 222 254
198 222 254
198 222 254
198 222 254
198 222 254
198 222 254
198 222 254
198 222 254
198 222 254
198 222 254
198 222 254
198 222 254
198 222 254
198 222 254
198 222 254
198 222 254
198 222 254
198 222 254
198 222 254
198 223 254
198 223 254
198 223 254
198 223 254
198 223 254
198 223 254
198 223 254
198 223 254
198 223 254
198 223 254
199 223 254
199 223 254
199 223 254
199 223 254
199 223 254
199 223 254
199 223 254
199 223 254
199 223 254
199 223 254
199 223 254
199 223 254
199 223 254
199 223 254
199 223 254
199 223 254
199 223 254
199 223 254
199 223 254
199 223 254
199 223 254
199 223 254
199 223 254
199 223 254
199 223 254
199 223 254
199 223 254
200 223 254
200 223 254
200 223 254
200 223 254
200 223 254
200 223 254
200 223 254
200 223 254
200 223 254
200 223 254
200 223 254
200 223 254
200 223 254
200 224 254
200 224 254
200 224 254
200 224 254
200 224 254
201 224 254
201 224 254
201 224 254
201 224 254
201 224 254
201 224 254
201 224 254
201 224 254
201 224 254
201 224 254
201 224 254
201 224 254
201 224 254
201 224 254
201 224 254
201 224 254
202 224 254
202 224 254
202 224 254
202 224 254
202 224 254
202 224 254
202 224 254
202 224 254
202 224 254
202 225 254
202 225 254
202 225 254
202 225 254
202 225 254
202 225 254
202 225 254
203 225 254
203 225 254
203 225 254
203 225 254
203 225 254
203 225 254
203 225 254
203 225 254
203 225 254
203 225 254
203 225 254
203 225 254
203 225 254
203 225 254
203 225 254
203 225 254
204 225 254
204 225 254
204 225 254
204 225 254
204 225 254
204 225 254
204 226 254
204 226 254
204 226 254
204 226 254
204 226 254
204 226 254
204 226 254
204 226 254
204 226 254
204 226 254
205 226 254
205 226 254
205 226 254
205 226 254
205 226 254
205 226 254
205 226 254
205 226 254
205 226 254
205 226 254
205 226 254
205 226 254
205 226 254
205 226 254
205 226 254
205 226 254
205 226 254
206 226 254
206 226 254
206 226 254
206 226 254
206 227 254
206 227 254
206 227 254
206 227 254
206 227 254
206 227 254
206 227 254
206 227 254
206 227 254
206 227 254
206 227 254
206 227 254
206 227 254
206 227 254
206 227 254
207 227 254
207 227 254
207 227 254
207 227 254
207 227 254
207 227 254
207 227 254
207 227 254
207 227 254
207 227 254
207 227 254
207 227 254
207 227 254
207 227 254
207 227 254
207 227 254
207 227 254
207 227 254
207 227 254
207 227 254
208 227 254
208 228 254
208 228 254
208 228 254
208 228 254
208 228 254
208 228 254
208 228 254
208 228 254
208 228 254
208 228 254
208 228 254
208 228 254
208 228 254
208 228 254
208 228 254
208 228 254
208 228 254
208 228 254
208 228 254
208 228 254
208 228 254
208 228 254
208 228 254
208 228 254
208 228 254
208 228 254
208 228 254
208 228 254
208 228 254
208 228 254
208 228 254
208 227 254
207 227 254
207 227 254
207 227 254
207 227 254
207 227 254
207 227 254
207 227 254
207 227 254
207 227 254
207 227 254
207 227 254
207 227 254
207 227 254
207 227 254
207 227 254
207 227 254
207 227 254
207 227 254
207 227 254
207 227 254
206 227 254
206 227 254
206 227 254
206 227 254
206 227 254
206 227 254
206 227 254
206 227 254
206 227 254
206 227 254
206 227 254
206 227 254
206 227 254
206 227 254
206 227 254
206 226 254
206 226 254
206 226 254
206 226 254
205 226 254
205 226 254
205 226 254
205 226 254
205 226 254
205 226 254
205 226 254
205 226 254
205 226 254
205 226 254
205 226 254
205 226 254
205 226 254
205 226 254
205 226 254
205 226 254
205 226 254
204 226 254
204 226 254
204 226 254
204 226 254
204 226 254
204 226 254
204 226 254
204 226 254
204 226 254
204 226 254
204 225 254
204 225 254
204 225 254
204 225 254
204 225 254
204 225 254
203 225 254
203 225 254
203 225 254
203 225 254
203 225 254
203 225 254
203 225 254
203 225 254
203 225 254
203 225 254
203 225 254
203 225 254
203 225 254
203 225 254
203 225 254
203 225 254
202 225 254
202 225 254
202 225 254
202 225 254
202 225 254
202 225 254
202 225 254
202 224 254
202 224 254
202 224 254
202 224 254
202 224 254
202 224 254
202 224 254
202 224 254
202 224 254
201 224 254
201 224 254
201 224 254
201 224 254
201 224 254
201 224 254
201 224 254
201 224 254
201 224 254
201 224 254
201 224 254
201 224 254
201 224 254
201 224 254
201 224 254
201 224 254
200 224 254
200 224 254
200 224 254
200 224 254
200 224 254
200 224 254
200 223 254
200 223 254
200 223 254
200 223 254
200 223 254
200 223 254
200 223 254
200 223 254
200 223 254
200 223 254
200 223 254
200 223 254
200 223 254
200 223 254
199 223 254
199 223 254
199 223 254
199 223 254
199 223 254
199 223 254
199 223 254
199 223 254
199 223 254
199 223 254
199 223 254
199 223 254
199 223 254
199 223 254
199 223 254
199 223 254
199 223 254
199 223 254
199 223 254
199 223 254
199 223 254
199 223 254
199 223 254
199 223 254
199 223 254
199 223 254
199 223 254
199 223 254
199 223 254
199 223 254
199 223 254
199 223 254
199 223 254
199 223 254
198 223 254
198 223 254
198 223 254
198 223 254
198 223 254
198 223 254
198 223 254
198 223 254
198 223 254
198 223 254
198 223 254
198 223 254
198 223 254
198 223 254
198 223 254
199 223 254
199 223 254
199 223 254
199 223 254
199 223 254
199 223 254
199 223 254
199 223 254
199 223 254
199 223 254
199 223 254
199 223 254
199 223 254
199 223 254
199 223 254
199 223 254
199 223 254
199 223 254
199 223 254
199 223 254
199 223 254
199 223 254
199 223 254
199 223 254
199 223 254
199 223 254
199 223 254
199 223 254
199 223 254
199 223 254
199 223 254
199 223 254
199 223 254
199 223 254
199 223 254
200 223 254
200 223 254
200 223 254
200 223 254
200 223 254
200 223 254
200 223 254
200 223 254
200 223 254
200 223 254
200 223 254
200 223 254
200 223 254
200 223 254
200 224 254
200 224 254
200 224 254
200 224 254
200 224 254
200 224 254
201 224 254
201 224 254
201 224 254
201 224 254
201 224 254
201 224 254
201 224 254
201 224 254
201 224 254
201 224 254
201 224 254
201 224 254
201 224 254
201 224 254
201 224 254
201 224 254
202 224 254
202 224 254
202 224 254
202 224 254
202 224 254
202 224 254
202 224 254
202 224 254
202 224 254
202 225 254
202 225 254
202 225 254
202 225 254
202 225 254
202 225 254
202 225 254
203 225 254
203 225 254
203 225 254
203 225 254
203 225 254
203 225 254
203 225 254
203 225 254
203 225 254
203 225 254
203 225 254
203 225 254
203 225 254
203 225 254
203 225 254
203 225 254
204 225 254
204 225 254
204 225 254
204 225 254
204 225 254
204 225 254
204 226 254
204 226 254
204 226 254
204 226 254
204 226 254
204 226 254
204 226 254
204 226 254
204 226 254
204 226 254
205 226 254
205 226 254
205 226 254
205 226 254
205 226 254
205 226 254
205 226 254
205 226 254
205 226 254
205 226 254
205 226 254
205 226 254
205 226 254
205 226 254
205 226 254
205 226 254
205 226 254
206 226 254
206 226 254
206 226 254
206 226 254
206 227 254
206 227 254
206 227 254
206 227 254
206 227 254
206 227 254
206 227 254
206 227 254
206 227 254
206 227 254
206 227 254
206 227 254
206 227 254
206 227 254
207 227 254
207 227 254
207 227 254
207 227 254
207 227 254
207 227 254
207 227 254
207 227 254
207 227 254
207 227 254
207 227 254
207 227 254
207 227 254
207 227 254
207 227 254
207 227 254
207 227 254
207 227 254
207 227 254
207 227 254
207 227 254
208 227 254
208 228 254
208 228 254
208 228 254
208 228 254
208 228 254
208 228 254
208 228 254
208 228 254
208 228 254
208 228 254
208 228 254
208 228 254
208 228 254
208 228 254
208 228 254
208 228 254
208 228 254
208 228 254
208 228 254
208 228 254
208 228 254
208 228 254
208 228 254
208 228 254
208 228 254
208 228 254
208 228 254
208 228 254
208 228 254
208 228 254
208 228 254
208 228 254
208 228 254
208 228 254
208 228 254
208 228 254
208 228 254
208 227 254
207 227 254
207 227 254
207 227 254
207 227 254
207 227 254
207 227 254
207 227 254
207 227 254
207 227 254
207 227 254
207 227 254
207 227 254
207 227 254
207 227 254
207 227 254
207 227 254
207 227 254
207 227 254
207 227 254
207 227 254
207 227 254
206 227 254
206 227 254
206 227 254
206 227 254
206 227 254
206 227 254
206 227 254
206 227 254
206 227 254
206 227 254
206 227 254
206 227 254
206 227 254
206 227 254
206 226 254
206 226 254
206 226 254
206 226 254
205 226 254
205 226 254
205 226 254
205 226 254
205 226 254
205 226 254
205 226 254
205 226 254
205 226 254
205 226 254
205 226 254
205 226 254
205 226 254
205 226 254
205 226 254
205 226 254
205 226 254
204 226 254
204 226 254
204 226 254
204 226 254
204 226 254
204 226 254
204 226 254
204 226 254
204 226 254
204 226 254
204 225 254
204 225 254
204 225 254
204 225 254
204 225 254
204 225 254
203 225 254
203 225 254
203 225 254
203 225 254
203 225 254
203 225 254
203 225 254
203 225 254
203 225 254
203 225 254
203 225 254
203 225 254
203 225 254
203 225 254
203 225 254
203 225 254
202 225 254
202 225 254
202 225 254
202 225 254
202 225 254
202 225 254
202 225 254
202 224 254
202 224 254
202 224 254
202 224 254
202 224 254
202 224 254
202 224 254
202 224 254
202 224 254
201 224 254
201 224 254
201 224 254
201 224 254
201 224 254
201 224 254
201 224 254
201 224 254
201 224 254
201 224 254
201 224 254
201 224 254
201 224 254
201 224 254
201 224 254
201 224 254
201 224 254
200 224 254
200 224 254
200 224 254
200 224 254
200 224 254
200 223 254
200 223 254
200 223 254
200 223 254
200 223 254
200 223 254
200 223 254
200 223 254
200 223 254
200 223 254
200 223 254
200 223 254
200 223 254
200 223 254
200 223 254
199 223 254
199 223 254
199 223 254
199 223 254
199 223 254
199 223 254
199 223 254
199 223 254
199 223 254
199 223 254
199 223 254
199 223 254
199 223 254
199 223 254
199 223 254
199 223 254
199 223 254
199 223 254
199 223 254
199 223 254
199 223 254
199 223 254
199 223 254
199 223 254
199 223 254
199 223 254
199 223 254
199 223 254
199 223 254
199 223 254
199 223 254
199 223 254
199 223 254
199 223 254
199 223 254
199 223 254
199 223 254
199 223 254
199 223 254
199 223 254
199 223 254
199 223 254
199 223 254
199 223 254
199 223 254
199 223 254
199 223 254
199 223 254
199 223 254
199 223 254
199 223 254
199 223 254
199 223 254
199 223 254
199 223 254
199 223 254
199 223 254
199 223 254
199 223 254
199 223 254
199 223 254
199 223 254
199 223 254
199 223 254
199 223 254
199 223 254
199 223 254
199 223 254
199 223 254
199 223 254
199 223 254
199 223 254
199 223 254
199 223 254
199 223 254
199 223 254
200 223 254
200 223 254
200 223 254
200 223 254
200 223 254
200 223 254
200 223 254
200 223 254
200 223 254
200 223 254
200 223 254
200 223 254
200 223 254
200 223 254
200 224 254
200 224 254
200 224 254
200 224 254
200 224 254
200 224 254
201 224 254
201 224 254
201 224 254
201 224 254
201 224 254
201 224 254
201 224 254
201 224 254
201 224 254
201 224 254
201 224 254
201 224 254
201 224 254
201 224 254
201 224 254
201 224 254
201 224 254
202 224 254
202 224 254
202 224 254
202 224 254
202 224 254
202 224 254
202 224 254
202 224 254
202 224 254
202 225 254
202 225 254
202 225 254
202 225 254
202 225 254
202 225 254
202 225 254
203 225 254
203 225 254
203 225 254
203 225 254
203 225 254
203 225 254
203 225 254
203 225 254
203 225 254
203 225 254
203 225 254
203 225 254
203 225 254
203 225 254
203 225 254
203 225 254
204 225 254
204 225 254
204 225 254
204 225 254
204 225 254
204 225 254
204 226 254
204 226 254
204 226 254
204 226 254
204 226 254
204 226 254
204 226 254
204 226 254
204 226 254
204 226 254
205 226 254
205 226 254
205 226 254
205 226 254
205 226 254
205 226 254
205 226 254
205 226 254
205 226 254
205 226 254
205 226 254
205 226 254
205 226 254
205 226 254
205 226 254
205 226 254
205 226 254
206 226 254
206 226 254
206 226 254
206 226 254
206 227 254
206 227 254
206 227 254
206 227 254
206 227 254
206 227 254
206 227 254
206 227 254
206 227 254
206 227 254
206 227 254
206 227 254
206 227 254
206 227 254
207 227 254
207 227 254
207 227 254
207 227 254
207 227 254
207 227 254
207 227 254
207 227 254
207 227 254
207 227 254
207 227 254
207 227 254
207 227 254
207 227 254
207 227 254
207 227 254
207 227 254
207 227 254
207 227 254
207 227 254
207 227 254
208 227 254
208 228 254
208 228 254
208 228 254
208 228 254
208 228 254
208 228 254
208 228 254
208 228 254
208 228 254
208 228 254
208 228 254
208 228 254
208 228 254
208 228 254
208 228 254
208 228 254
208 228 254
208 228 254
208 228 254
208 228 254
209 228 254
209 228 254
208 228 254
208 228 254
208 228 254
208 228 254
208 228 254
208 228 254
208 228 254
208 228 254
208 228 254
208 228 254
208 228 254
208 228 254
208 228 254
208 228 254
208 228 254
208 228 254
208 228 254
208 228 254
208 228 254
208 228 254
208 228 254
208 227 254
208 227 254
207 227 254
207 227 254
207 227 254
207 227 254
207 227 254
207 227 254
207 227 254
207 227 254
207 227 254
207 227 254
207 227 254
207 227 254
207 227 254
207 227 254
207 227 254
207 227 254
207 227 254
207 227 254
207 227 254
207 227 254
206 227 254
206 227 254
206 227 254
206 227 254
206 227 254
206 227 254
206 227 254
206 227 254
206 227 254
206 227 254
206 227 254
206 227 254
206 227 254
206 227 254
206 226 254
206 226 254
206 226 254
206 226 254
205 226 254
205 226 254
205 226 254
205 226 254
205 226 254
205 226 254
205 226 254
205 226 254
205 226 254
205 226 254
205 226 254
205 226 254
205 226 254
205 226 254
205 226 254
205 226 254
205 226 254
204 226 254
204 226 254
204 226 254
204 226 254
204 226 254
204 226 254
204 226 254
204 226 254
204 226 254
204 226 254
204 225 254
204 225 254
204 225 254
204 225 254
204 225 254
204 225 254
203 225 254
203 225 254
203 225 254
203 225 254
203 225 254
203 225 254
203 225 254
203 225 254
203 225 254
203 225 254
203 225 254
203 225 254
203 225 254
203 225 254
203 225 254
203 225 254
202 225 254
202 225 254
202 225 254
202 225 254
202 225 254
202 225 254
202 225 254
202 224 254
202 224 254
202 224 254
202 224 254
202 224 254
202 224 254
202 224 254
202 224 254
202 224 254
201 224 254
201 224 254
201 224 254
201 224 254
201 224 254
201 224 254
201 224 254
201 224 254
201 224 254
201 224 254
201 224 254
201 224 254
201 224 254
201 224 254
201 224 254
201 224 254
201 224 254
201 224 254
200 224 254
200 224 254
200 224 254
200 224 254
200 224 254
200 224 254
200 223 254
200 223 254
200 223 254
200 223 254
200 223 254
200 223 254
200 223 254
200 223 254
200 223 254
200 223 254
200 223 254
200 223 254
200 223 254
200 223 254
200 223 254
200 223 254
199 223 254
199 223 254
199 223 254
199 223 254
199 223 254
199 223 254
199 223 254
199 223 254
199 223 254
199 223 254
199 223 254
199 223 254
199 223 254
199 223 254
199 223 254
199 223 254
199 223 254
199 223 254
199 223 254
199 223 254
199 223 254
199 223 254
199 223 254
199 223 254
199 223 254
199 223 254
199 223 254
199 223 254
199 223 254
199 223 254
199 223 254
199 223 254
199 223 254
199 223 254
199 223 254
199 223 254
199 223 254
199 223 254
199 223 254
199 223 254
199 223 254
199 223 254
199 223 254
199 223 254
199 223 254
199 223 254
199 223 254
199 223 254
199 223 254
199 223 254
199 223 254
199 223 254
199 223 254
199 223 254
199 223 254
199 223 254
199 223 254
199 223 254
199 223 254
199 223 254
199 223 254
199 223 254
199 223 254
199 223 254
199 223 254
200 223 254
200 223 254
200 223 254
200 223 254
200 223 254
200 223 254
200 223 254
200 223 254
200 223 254
200 223 254
200 223 254
200 223 254
200 223 254
200 223 254
200 223 254
200 224 254
200 224 254
200 224 254
200 224 254
200 224 254
200 224 254
201 224 254
201 224 254
201 224 254
201 224 254
201 224 254
201 224 254
201 224 254
201 224 254
201 224 254
201 224 254
201 224 254
201 224 254
201 224 254
201 224 254
201 224 254
201 224 254
201 224 254
201 224 254
202 224 254
202 224 254
202 224 254
202 224 254
202 224 254
202 224 254
202 224 254
202 224 254
202 224 254
202 225 254
202 225 254
202 225 254
202 225 254
202 225 254
202 225 254
202 225 254
203 225 254
203 225 254
203 225 254
203 225 254
203 225 254
203 225 254
203 225 254
203 225 254
203 225 254
203 225 254
203 225 254
203 225 254
203 225 254
203 225 254
203 225 254
203 225 254
204 225 254
204 225 254
204 225 254
204 225 254
204 225 254
204 225 254
204 226 254
204 226 254
204 226 254
204 226 254
204 226 254
204 226 254
204 226 254
204 226 254
204 226 254
204 226 254
205 226 254
205 226 254
205 226 254
205 226 254
205 226 254
205 226 254
205 226 254
205 226 254
205 226 254
205 226 254
205 226 254
205 226 254
205 226 254
205 226 254
205 226 254
205 226 254
205 226 254
206 226 254
206 226 254
206 226 254
206 226 254
206 227 254
206 227 254
206 227 254
206 227 254
206 227 254
206 227 254
206 227 254
206 227 254
206 227 254
206 227 254
206 227 254
206 227 254
206 227 254
206 227 254
207 227 254
207 227 254
207 227 254
207 227 254
207 227 254
207 227 254
207 227 254
207 227 254
207 227 254
207 227 254
207 227 254
207 227 254
207 227 254
207 227 254
207 227 254
207 227 254
207 227 254
207 227 254
207 227 254
207 227 254
208 227 254
208 227 254
208 228 254
208 228 254
208 228 254
208 228 254
208 228 254
208 228 254
208 228 254
208 228 254
208 228 254
208 228 254
208 228 254
208 228 254
208 228 254
208 228 254
208 228 254
208 228 254
208 228 254
208 228 254
208 228 254
208 228 254
208 228 254
209 228 254
209 228 254
209 228 254
209 228 254
209 228 254
209 228 254
209 228 254
209 228 254
208 228 254
208 228 254
208 228 254
208 228 254
208 228 254
208 228 254
208 228 254
208 228 254
208 228 254
208 228 254
208 228 254
208 228 254
208 228 254
208 228 254
208 228 254
208 228 254
208 228 254
208 228 254
208 228 254
208 228 254
208 228 254
208 227 254
207 227 254
207 227 254
207 227 254
207 227 254
207 227 254
207 227 254
207 227 254
207 227 254
207 227 254
207 227 254
207 227 254
207 227 254
207 227 254
207 227 254
207 227 254
207 227 254
207 227 254
207 227 254
207 227 254
207 227 254
206 227 254
206 227 254
206 227 254
206 227 254
206 227 254
206 227 254
206 227 254
206 227 254
206 227 254
206 227 254
206 227 254
206 227 254
206 227 254
206 227 254
206 226 254
206 226 254
206 226 254
206 226 254
205 226 254
205 226 254
205 226 254
205 226 254
205 226 254
205 226 254
205 226 254
205 226 254
205 226 254
205 226 254
205 226 254
205 226 254
205 226 254
205 226 254
205 226 254
205 226 254
205 226 254
204 226 254
204 226 254
204 226 254
204 226 254
204 226 254
204 226 254
204 226 254
204 226 254
204 226 254
204 226 254
204 225 254
204 225 254
204 225 254
204 225 254
204 225 254
204 225 254
203 225 254
203 225 254
203 225 254
203 225 254
203 225 254
203 225 254
203 225 254
203 225 254
203 225 254
203 225 254
203 225 254
203 225 254
203 225 254
203 225 254
203 225 254
203 225 254
202 225 254
202 225 254
202 225 254
202 225 254
202 225 254
202 225 254
202 225 254
202 225 254
202 224 254
202 224 254
202 224 254
202 224 254
202 224 254
202 224 254
202 224 254
202 224 254
202 224 254
201 224 254
201 224 254
201 224 254
201 224 254
201 224 254
201 224 254
201 224 254
201 224 254
201 224 254
201 224 254
201 224 254
201 224 254
201 224 254
201 224 254
201 224 254
201 224 254
201 224 254
201 224 254
200 224 254
200 224 254
200 224 254
200 224 254
200 224 254
200 224 254
200 223 254
200 223 254
200 223 254
200 223 254
200 223 254
200 223 254
200 223 254
200 223 254
200 223 254
200 223 254
200 223 254
200 223 254
200 223 254
200 223 254
200 223 254
200 223 254
200 223 254
200 223 254
199 223 254
199 223 254
199 223 254
199 223 254
199 223 254
199 223 254
199 223 254
199 223 254
199 223 254
199 223 254
199 223 254
199 223 254
199 223 254
199 223 254
199 223 254
199 223 254
199 223 254
199 223 254
199 223 254
199 223 254
199 223 254
199 223 254
199 223 254
199 223 254
199 223 254
199 223 254
199 223 254
199 223 254
199 223 254
199 223 254
199 223 254
199 223 254
199 223 254
199 223 254
199 223 254
199 223 254
199 223 254
199 223 254
199 223 254
199 223 254
199 223 254
199 223 254
199 223 254
199 223 254
199 223 254
199 223 254
199 223 254
199 223 254
199 223 254
199 223 254
199 223 254
199 223 254
200 223 254
200 223 254
200 223 254
200 223 254
200 223 254
200 223 254
200 223 254
200 223 254
200 223 254
200 223 254
200 223 254
200 223 254
200 223 254
200 223 254
200 223 254
200 223 254
200 223 254
200 223 254
200 224 254
200 224 254
200 224 254
200 224 254
200 224 254
200 224 254
200 224 254
201 224 254
201 224 254
201 224 254
201 224 254
201 224 254
201 224 254
201 224 254
201 224 254
201 224 254
201 224 254
201 224 254
201 224 254
201 224 254
201 224 254
201 224 254
201 224 254
201 224 254
202 224 254
202 224 254
202 224 254
202 224 254
202 224 254
202 224 254
202 224 254
202 224 254
202 224 254
202 224 254
202 225 254
202 225 254
202 225 254
202 225 254
202 225 254
202 225 254
202 225 254
203 225 254
203 225 254
203 225 254
203 225 254
203 225 254
203 225 254
203 225 254
203 225 254
203 225 254
203 225 254
203 225 254
203 225 254
203 225 254
203 225 254
203 225 254
203 225 254
204 225 254
204 225 254
204 225 254
204 225 254
204 225 254
204 225 254
204 226 254
204 226 254
204 226 254
204 226 254
204 226 254
204 226 254
204 226 254
204 226 254
204 226 254
204 226 254
205 226 254
205 226 254
205 226 254
205 226 254
205 226 254
205 226 254
205 226 254
205 226 254
205 226 254
205 226 254
205 226 254
205 226 254
205 226 254
205 226 254
205 226 254
205 226 254
205 226 254
206 226 254
206 226 254
206 226 254
206 226 254
206 227 254
206 227 254
206 227 254
206 227 254
206 227 254
206 227 254
206 227 254
206 227 254
206 227 254
206 227 254
206 227 254
206 227 254
206 227 254
206 227 254
207 227 254
207 227 254
207 227 254
207 227 254
207 227 254
207 227 254
207 227 254
207 227 254
207 227 254
207 227 254
207 227 254
207 227 254
207 227 254
207 227 254
207 227 254
207 227 254
207 227 254
207 227 254
207 227 254
207 227 254
208 227 254
208 228 254
208 228 254
208 228 254
208 228 254
208 228 254
208 228 254
208 228 254
208 228 254
208 228 254
208 228 254
208 228 254
208 228 254
208 228 254
208 228 254
208 228 254
208 228 254
208 228 254
208 228 254
208 228 254
208 228 254
208 228 254
209 228 254
209 228 254
209 228 254
209 228 254
209 228 254
209 228 254
209 228 254
209 228 254
209 228 254
209 228 254
209 228 254
209 228 254
209 228 254
209 228 254
209 228 254
208 228 254
208 228 254
208 228 254
208 228 254
208 228 254
208 228 254
208 228 254
208 228 254
208 228 254
208 228 254
208 228 254
208 228 254
208 228 254
208 228 254
208 228 254
208 228 254
208 228 254
208 228 254
208 228 254
208 228 254
208 228 254
208 227 254
207 227 254
207 227 254
207 227 254
207 227 254
207 227 254
207 227 254
207 227 254
207 227 254
207 227 254
207 227 254
207 227 254
207 227 254
207 227 254
207 227 254
207 227 254
207 227 254
207 227 254
207 227 254
207 227 254
207 227 254
206 227 254
206 227 254
206 227 254
206 227 254
206 227 254
206 227 254
206 227 254
206 227 254
206 227 254
206 227 254
206 227 254
206 227 254
206 227 254
206 227 254
206 226 254
206 226 254
206 226 254
206 226 254
205 226 254
205 226 254
205 226 254
205 226 254
205 226 254
205 226 254
205 226 254
205 226 254
205 226 254
205 226 254
205 226 254
205 226 254
205 226 254
205 226 254
205 226 254
205 226 254
205 226 254
204 226 254
204 226 254
204 226 254
204 226 254
204 226 254
204 226 254
204 226 254
204 226 254
204 226 254
204 226 254
204 225 254
204 225 254
204 225 254
204 225 254
204 225 254
204 225 254
203 225 254
203 225 254
203 225 254
203 225 254
203 225 254
203 225 254
203 225 254
203 225 254
203 225 254
203 225 254
203 225 254
203 225 254
203 225 254
203 225 254
203 225 254
203 225 254
202 225 254
202 225 254
202 225 254
202 225 254
202 225 254
202 225 254
202 225 254
202 225 254
202 224 254
202 224 254
202 224 254
202 224 254
202 224 254
202 224 254
202 224 254
202 224 254
202 224 254
201 224 254
201 224 254
201 224 254
201 224 254
201 224 254
201 224 254
201 224 254
201 224 254
201 224 254
201 224 254
201 224 254
201 224 254
201 224 254
201 224 254
201 224 254
201 224 254
201 224 254
201 224 254
201 224 254
200 224 254
200 224 254
200 224 254
200 224 254
200 224 254
200 224 254
200 224 254
200 223 254
200 223 254
200 223 254
200 223 254
200 223 254
200 223 254
200 223 254
200 223 254
200 223 254
200 223 254
200 223 254
200 223 254
200 223 254
200 223 254
200 223 254
200 223 254
200 223 254
200 223 254
200 223 254
200 223 254
200 223 254
199 223 254
199 223 254
199 223 254
199 223 254
199 223 254
199 223 254
199 223 254
199 223 254
199 223 254
199 223 254
199 223 254
199 223 254
199 223 254
199 223 254
199 223 254
199 223 254
199 223 254
199 223 254
199 223 254
199 223 254
199 223 254
199 223 254
199 223 254
199 223 254
199 223 254
199 223 254
199 223 254
199 223 254
199 223 254
199 223 254
199 223 254
199 223 254
199 223 254
199 223 254
199 223 254
199 223 254
200 223 254
200 223 254
200 223 254
200 223 254
200 223 254
200 223 254
200 223 254
200 223 254
200 223 254
200 223 254
200 223 254
200 223 254
200 223 254
200 223 254
200 223 254
200 223 254
200 223 254
200 223 254
200 223 254
200 223 254
200 223 254
200 224 254
200 224 254
200 224 254
200 224 254
200 224 254
200 224 254
200 224 254
201 224 254
201 224 254
201 224 254
201 224 254
201 224 254
201 224 254
201 224 254
201 224 254
201 224 254
201 224 254
201 224 254
201 224 254
201 224 254
201 224 254
201 224 254
201 224 254
201 224 254
201 224 254
201 224 254
202 224 254
202 224 254
202 224 254
202 224 254
202 224 254
202 224 254
202 224 254
202 224 254
202 224 254
202 225 254
202 225 254
202 225 254
202 225 254
202 225 254
202 225 254
202 225 254
202 225 254
203 225 254
203 225 254
203 225 254
203 225 254
203 225 254
203 225 254
203 225 254
203 225 254
203 225 254
203 225 254
203 225 254
203 225 254
203 225 254
203 225 254
203 225 254
203 225 254
204 225 254
204 225 254
204 225 254
204 225 254
204 225 254
204 225 254
204 226 254
204 226 254
204 226 254
204 226 254
204 226 254
204 226 254
204 226 254
204 226 254
204 226 254
204 226 254
205 226 254
205 226 254
205 226 254
205 226 254
205 226 254
205 226 254
205 226 254
205 226 254
205 226 254
205 226 254
205 226 254
205 226 254
205 226 254
205 226 254
205 226 254
205 226 254
205 226 254
206 226 254
206 226 254
206 226 254
206 226 254
206 227 254
206 227 254
206 227 254
206 227 254
206 227 254
206 227 254
206 227 254
206 227 254
206 227 254
206 227 254
206 227 254
206 227 254
206 227 254
206 227 254
207 227 254
207 227 254
207 227 254
207 227 254
207 227 254
207 227 254
207 227 254
207 227 254
207 227 254
207 227 254
207 227 254
207 227 254
207 227 254
207 227 254
207 227 254
207 227 254
207 227 254
207 227 254
207 227 254
207 227 254
208 227 254
208 228 254
208 228 254
208 228 254
208 228 254
208 228 254
208 228 254
208 228 254
208 228 254
208 228 254
208 228 254
208 228 254
208 228 254
208 228 254
208 228 254
208 228 254
208 228 254
208 228 254
208 228 254
208 228 254
208 228 254
208 228 254
209 228 254
209 228 254
209 228 254
209 228 254
209 228 254
209 228 254
209 228 254
209 228 254
209 228 254
209 228 254
209 228 254
209 228 254
209 228 254
209 228 254
209 228 254
209 228 254
209 228 254
209 228 254
209 228 254
209 228 254
209 228 254
209 228 254
208 228 254
208 228 254
208 228 254
208 228 254
208 228 254
208 228 254
208 228 254
208 228 254
208 228 254
208 228 254
208 228 254
208 228 254
208 228 254
208 228 254
208 228 254
208 228 254
208 228 254
208 228 254
208 228 254
208 228 254
208 227 254
208 227 254
207 227 254
207 227 254
207 227 254
207 227 254
207 227 254
207 227 254
207 227 254
207 227 254
207 227 254
207 227 254
207 227 254
207 227 254
207 227 254
207 227 254
207 227 254
207 227 254
207 227 254
207 227 254
207 227 254
206 227 254
206 227 254
206 227 254
206 227 254
206 227 254
206 227 254
206 227 254
206 227 254
206 227 254
206 227 254
206 227 254
206 227 254
206 227 254
206 227 254
206 226 254
206 226 254
206 226 254
206 226 254
205 226 254
205 226 254
205 226 254
205 226 254
205 226 254
205 226 254
205 226 254
205 226 254
205 226 254
205 226 254
205 226 254
205 226 254
205 226 254
205 226 254
205 226 254
205 226 254
205 226 254
204 226 254
204 226 254
204 226 254
204 226 254
204 226 254
204 226 254
204 226 254
204 226 254
204 226 254
204 226 254
204 225 254
204 225 254
204 225 254
204 225 254
204 225 254
204 225 254
203 225 254
203 225 254
203 225 254
203 225 254
203 225 254
203 225 254
203 225 254
203 225 254
203 225 254
203 225 254
203 225 254
203 225 254
203 225 254
203 225 254
203 225 254
203 225 254
203 225 254
202 225 254
202 225 254
202 225 254
202 225 254
202 225 254
202 225 254
202 225 254
202 224 254
202 224 254
202 224 254
202 224 254
202 224 254
202 224 254
202 224 254
202 224 254
202 224 254
202 224 254
201 224 254
201 224 254
201 224 254
201 224 254
201 224 254
201 224 254
201 224 254
201 224 254
201 224 254
201 224 254
201 224 254
201 224 254
201 224 254
201 224 254
201 224 254
201 224 254
201 224 254
201 224 254
201 224 254
200 224 254
200 224 254
200 224 254
200 224 254
200 224 254
200 224 254
200 224 254
200 224 254
200 223 254
200 223 254
200 223 254
200 223 254
200 223 254
200 223 254
200 223 254
200 223 254
200 223 254
200 223 254
200 223 254
200 223 254
200 223 254
200 223 254
200 223 254
200 223 254
200 223 254
200 223 254
200 223 254
200 223 254
200 223 254
200 223 254
200 223 254
200 223 254
200 223 254
200 223 254
200 223 254
200 223 254
200 223 254
200 223 254
200 223 254
200 223 254
200 223 254
200 223 254
200 223 254
200 223 254
200 223 254
200 223 254
200 223 254
200 223 254
200 223 254
200 223 254
200 223 254
200 223 254
200 223 254
200 223 254
200 223 254
200 223 254
200 223 254
200 223 254
200 223 254
200 223 254
200 223 254
200 223 254
200 223 254
200 223 254
200 223 254
200 223 254
200 223 254
200 223 254
200 223 254
200 223 254
200 223 254
200 223 254
200 223 254
200 223 254
200 223 254
200 223 254
200 224 254
200 224 254
200 224 254
200 224 254
200 224 254
200 224 254
200 224 254
200 224 254
201 224 254
201 224 254
201 224 254
201 224 254
201 224 254
201 224 254
201 224 254
201 224 254
201 224 254
201 224 254
201 224 254
201 224 254
201 224 254
201 224 254
201 224 254
201 224 254
201 224 254
201 224 254
201 224 254
202 224 254
202 224 254
202 224 254
202 224 254
202 224 254
202 224 254
202 224 254
202 224 254
202 224 254
202 224 254
202 225 254
202 225 254
202 225 254
202 225 254
202 225 254
202 225 254
202 225 254
203 225 254
203 225 254
203 225 254
203 225 254
203 225 254
203 225 254
203 225 254
203 225 254
203 225 254
203 225 254
203 225 254
203 225 254
203 225 254
203 225 254
203 225 254
203 225 254
203 225 254
204 225 254
204 225 254
204 225 254
204 225 254
204 225 254
204 225 254
204 226 254
204 226 254
204 226 254
204 226 254
204 226 254
204 226 254
204 226 254
204 226 254
204 226 254
204 226 254
205 226 254
205 226 254
205 226 254
205 226 254
205 226 254
205 226 254
205 226 254
205 226 254
205 226 254
205 226 254
205 226 254
205 226 254
205 226 254
205 226 254
205 226 254
205 226 254
205 226 254
206 226 254
206 226 254
206 226 254
206 226 254
206 227 254
206 227 254
206 227 254
206 227 254
206 227 254
206 227 254
206 227 254
206 227 254
206 227 254
206 227 254
206 227 254
206 227 254
206 227 254
206 227 254
207 227 254
207 227 254
207 227 254
207 227 254
207 227 254
207 227 254
207 227 254
207 227 254
207 227 254
207 227 254
207 227 254
207 227 254
207 227 254
207 227 254
207 227 254
207 227 254
207 227 254
207 227 254
207 227 254
207 227 254
208 227 254
208 228 254
208 228 254
208 228 254
208 228 254
208 228 254
208 228 254
208 228 254
208 228 254
208 228 254
208 228 254
208 228 254
208 228 254
208 228 254
208 228 254
208 228 254
208 228 254
208 228 254
208 228 254
208 228 254
208 228 254
209 228 254
209 228 254
209 228 254
209 228 254
209 228 254
209 228 254
209 228 254
209 228 254
209 228 254
209 228 254
209 228 254
209 228 254
209 228 254
209 228 254
209 228 254
209 228 254
209 228 254
209 228 254
209 228 254
209 228 254
209 228 254
209 228 254
209 228 254
209 228 254
209 228 254
209 228 254
209 228 254
209 228 254
209 228 254
208 228 254
208 228 254
208 228 254
208 228 254
208 228 254
208 228 254
208 228 254
208 228 254
208 228 254
208 228 254
208 228 254
208 228 254
208 228 254
208 228 254
208 228 254
208 228 254
208 228 254
208 228 254
208 228 254
208 228 254
208 228 254
208 227 254
207 227 254
207 227 254
207 227 254
207 227 254
207 227 254
207 227 254
207 227 254
207 227 254
207 227 254
207 227 254
207 227 254
207 227 254
207 227 254
207 227 254
207 227 254
207 227 254
207 227 254
207 227 254
207 227 254
206 227 254
206 227 254
206 227 254
206 227 254
206 227 254
206 227 254
206 227 254
206 227 254
206 227 254
206 227 254
206 227 254
206 227 254
206 227 254
206 227 254
206 226 254
206 226 254
206 226 254
206 226 254
205 226 254
205 226 254
205 226 254
205 226 254
205 226 254
205 226 254
205 226 254
205 226 254
205 226 254
205 226 254
205 226 254
205 226 254
205 226 254
205 226 254
205 226 254
205 226 254
205 226 254
204 226 254
204 226 254
204 226 254
204 226 254
204 226 254
204 226 254
204 226 254
204 226 254
204 226 254
204 226 254
204 225 254
204 225 254
204 225 254
204 225 254
204 225 254
204 225 254
204 225 254
203 225 254
203 225 254
203 225 254
203 225 254
203 225 254
203 225 254
203 225 254
203 225 254
203 225 254
203 225 254
203 225 254
203 225 254
203 225 254
203 225 254
203 225 254
203 225 254
202 225 254
202 225 254
202 225 254
202 225 254
202 225 254
202 225 254
202 225 254
202 225 254
202 224 254
202 224 254
202 224 254
202 224 254
202 224 254
202 224 254
202 224 254
202 224 254
202 224 254
201 224 254
201 224 254
201 224 254
201 224 254
201 224 254
201 224 254
201 224 254
201 224 254
201 224 254
201 224 254
201 224 254
201 224 254
201 224 254
201 224 254
201 224 254
201 224 254
201 224 254
201 224 254
201 224 254
201 224 254
201 224 254
201 224 254
200 224 254
200 224 254
200 224 254
200 224 254
200 224 254
200 224 254
200 224 254
200 224 254
200 223 254
200 223 254
200 223 254
200 223 254
200 223 254
200 223 254
200 223 254
200 223 254
200 223 254
200 223 254
200 223 254
200 223 254
200 223 254
200 223 254
200 223 254
200 223 254
200 223 254
200 223 254
200 223 254
200 223 254
200 223 254
200 223 254
200 223 254
200 223 254
200 223 254
200 223 254
200 223 254
200 223 254
200 223 254
200 223 254
200 223 254
200 223 254
200 223 254
200 223 254
200 223 254
200 223 254
200 223 254
200 223 254
200 223 254
200 223 254
200 223 254
200 223 254
200 223 254
200 223 254
200 223 254
200 223 254
200 223 254
200 223 254
200 223 254
200 223 254
200 223 254
200 223 254
200 223 254
200 223 254
200 223 254
200 223 254
200 224 254
200 224 254
200 224 254
200 224 254
200 224 254
200 224 254
200 224 254
200 224 254
201 224 254
201 224 254
201 224 254
201 224 254
201 224 254
201 224 254
201 224 254
201 224 254
201 224 254
201 224 254
201 224 254
201 224 254
201 224 254
201 224 254
201 224 254
201 224 254
201 224 254
201 224 254
201 224 254
201 224 254
201 224 254
202 224 254
202 224 254
202 224 254
202 224 254
202 224 254
202 224 254
202 224 254
202 224 254
202 224 254
202 224 254
202 225 254
202 225 254
202 225 254
202 225 254
202 225 254
202 225 254
202 225 254
202 225 254
203 225 254
203 225 254
203 225 254
203 225 254
203 225 254
203 225 254
203 225 254
203 225 254
203 225 254
203 225 254
203 225 254
203 225 254
203 225 254
203 225 254
203 225 254
203 225 254
204 225 254
204 225 254
204 225 254
204 225 254
204 225 254
204 225 254
204 225 254
204 226 254
204 226 254
204 226 254
204 226 254
204 226 254
204 226 254
204 226 254
204 226 254
204 226 254
204 226 254
205 226 254
205 226 254
205 226 254
205 226 254
205 226 254
205 226 254
205 226 254
205 226 254
205 226 254
205 226 254
205 226 254
205 226 254
205 226 254
205 226 254
205 226 254
205 226 254
206 226 254
206 226 254
206 226 254
206 226 254
206 226 254
206 227 254
206 227 254
206 227 254
206 227 254
206 227 254
206 227 254
206 227 254
206 227 254
206 227 254
206 227 254
206 227 254
206 227 254
206 227 254
206 227 254
207 227 254
207 227 254
207 227 254
207 227 254
207 227 254
207 227 254
207 227 254
207 227 254
207 227 254
207 227 254
207 227 254
207 227 254
207 227 254
207 227 254
207 227 254
207 227 254
207 227 254
207 227 254
207 227 254
208 227 254
208 228 254
208 228 254
208 228 254
208 228 254
208 228 254
208 228 254
208 228 254
208 228 254
208 228 254
208 228 254
208 228 254
208 228 254
208 228 254
208 228 254
208 228 254
208 228 254
208 228 254
208 228 254
208 228 254
208 228 254
208 228 254
209 228 254
209 228 254
209 228 254
209 228 254
209 228 254
209 228 254
209 228 254
209 228 254
209 228 254
209 228 254
209 228 254
209 228 254
209 228 254
209 228 254
209 228 254
209 228 254
209 228 254
209 228 254
209 228 254
209 228 254
209 228 254
209 228 254
209 228 254
209 228 254
209 228 254
209 228 254
209 228 254
209 228 254
209 228 254
209 228 254
209 228 254
209 228 254
209 228 254
209 228 254
209 228 254
209 228 254
208 228 254
208 228 254
208 228 254
208 228 254
208 228 254
208 228 254
208 228 254
208 228 254
208 228 254
208 228 254
208 228 254
208 228 254
208 228 254
208 228 254
208 228 254
208 228 254
208 228 254
208 228 254
208 228 254
208 228 254
208 227 254
207 227 254
207 227 254
207 227 254
207 227 254
207 227 254
207 227 254
207 227 254
207 227 254
207 227 254
207 227 254
207 227 254
207 227 254
207 227 254
207 227 254
207 227 254
207 227 254
207 227 254
207 227 254
207 227 254
207 227 254
206 227 254
206 227 254
206 227 254
206 227 254
206 227 254
206 227 254
206 227 254
206 227 254
206 227 254
206 227 254
206 227 254
206 227 254
206 227 254
206 227 254
206 226 254
206 226 254
206 226 254
206 226 254
205 226 254
205 226 254
205 226 254
205 226 254
205 226 254
205 226 254
205 226 254
205 226 254
205 226 254
205 226 254
205 226 254
205 226 254
205 226 254
205 226 254
205 226 254
205 226 254
204 226 254
204 226 254
204 226 254
204 226 254
204 226 254
204 226 254
204 226 254
204 226 254
204 226 254
204 226 254
204 225 254
204 225 254
204 225 254
204 225 254
204 225 254
204 225 254
204 225 254
203 225 254
203 225 254
203 225 254
203 225 254
203 225 254
203 225 254
203 225 254
203 225 254
203 225 254
203 225 254
203 225 254
203 225 254
203 225 254
203 225 254
203 225 254
203 225 254
203 225 254
202 225 254
202 225 254
202 225 254
202 225 254
202 225 254
202 225 254
202 225 254
202 224 254
202 224 254
202 224 254
202 224 254
202 224 254
202 224 254
202 224 254
202 224 254
202 224 254
202 224 254
202 224 254
201 224 254
201 224 254
201 224 254
201 224 254
201 224 254
201 224 254
201 224 254
201 224 254
201 224 254
201 224 254
201 224 254
201 224 254
201 224 254
201 224 254
201 224 254
201 224 254
201 224 254
201 224 254
201 224 254
201 224 254
201 224 254
201 224 254
201 224 254
200 224 254
200 224 254
200 224 254
200 224 254
200 224 254
200 224 254
200 224 254
200 224 254
200 224 254
200 224 254
200 223 254
200 223 254
200 223 254
200 223 254
200 223 254
200 223 254
200 223 254
200 223 254
200 223 254
200 223 254
200 223 254
200 223 254
200 223 254
200 223 254
200 223 254
200 223 254
200 223 254
200 223 254
200 223 254
200 223 254
200 223 254
200 223 254
200 223 254
200 223 254
200 223 254
200 223 254
200 223 254
200 223 254
200 223 254
200 223 254
200 223 254
200 223 254
200 223 254
200 223 254
200 223 254
200 223 254
200 223 254
200 223 254
200 223 254
200 223 254
200 224 254
200 224 254
200 224 254
200 224 254
200 224 254
200 224 254
200 224 254
200 224 254
200 224 254
200 224 254
200 224 254
201 224 254
201 224 254
201 224 254
201 224 254
201 224 254
201 224 254
201 224 254
201 224 254
201 224 254
201 224 254
201 224 254
201 224 254
201 224 254
201 224 254
201 224 254
201 224 254
201 224 254
201 224 254
201 224 254
201 224 254
201 224 254
201 224 254
202 224 254
202 224 254
202 224 254
202 224 254
202 224 254
202 224 254
202 224 254
202 224 254
202 224 254
202 224 254
202 224 254
202 225 254
202 225 254
202 225 254
202 225 254
202 225 254
202 225 254
202 225 254
203 225 254
203 225 254
203 225 254
203 225 254
203 225 254
203 225 254
203 225 254
203 225 254
203 225 254
203 225 254
203 225 254
203 225 254
203 225 254
203 225 254
203 225 254
203 225 254
203 225 254
204 225 254
204 225 254
204 225 254
204 225 254
204 225 254
204 225 254
204 225 254
204 226 254
204 226 254
204 226 254
204 226 254
204 226 254
204 226 254
204 226 254
204 226 254
204 226 254
204 226 254
205 226 254
205 226 254
205 226 254
205 226 254
205 226 254
205 226 254
205 226 254
205 226 254
205 226 254
205 226 254
205 226 254
205 226 254
205 226 254
205 226 254
205 226 254
205 226 254
206 226 254
206 226 254
206 226 254
206 226 254
206 227 254
206 227 254
206 227 254
206 227 254
206 227 254
206 227 254
206 227 254
206 227 254
206 227 254
206 227 254
206 227 254
206 227 254
206 227 254
206 227 254
207 227 254
207 227 254
207 227 254
207 227 254
207 227 254
207 227 254
207 227 254
207 227 254
207 227 254
207 227 254
207 227 254
207 227 254
207 227 254
207 227 254
207 227 254
207 227 254
207 227 254
207 227 254
207 227 254
207 227 254
208 227 254
208 228 254
208 228 254
208 228 254
208 228 254
208 228 254
208 228 254
208 228 254
208 228 254
208 228 254
208 228 254
208 228 254
208 228 254
208 228 254
208 228 254
208 228 254
208 228 254
208 228 254
208 228 254
208 228 254
208 228 254
209 228 254
209 228 254
209 228 254
209 228 254
209 228 254
209 228 254
209 228 254
209 228 254
209 228 254
209 228 254
209 228 254
209 228 254
209 228 254
209 228 254
209 228 254
209 228 254
209 228 254
209 228 254
209 228 254
209 228 254
209 229 254
209 229 254
209 228 254
209 228 254
209 228 254
209 228 254
209 228 254
209 228 254
209 228 254
209 228 254
209 228 254
209 228 254
209 228 254
209 228 254
209 228 254
209 228 254
209 228 254
209 228 254
209 228 254
209 228 254
209 228 254
209 228 254
209 228 254
208 228 254
208 228 254
208 228 254
208 228 254
208 228 254
208 228 254
208 228 254
208 228 254
208 228 254
208 228 254
208 228 254
208 228 254
208 228 254
208 228 254
208 228 254
208 228 254
208 228 254
208 228 254
208 228 254
208 228 254
208 228 254
208 227 254
207 227 254
207 227 254
207 227 254
207 227 254
207 227 254
207 227 254
207 227 254
207 227 254
207 227 254
207 227 254
207 227 254
207 227 254
207 227 254
207 227 254
207 227 254
207 227 254
207 227 254
207 227 254
207 227 254
206 227 254
206 227 254
206 227 254
206 227 254
206 227 254
206 227 254
206 227 254
206 227 254
206 227 254
206 227 254
206 227 254
206 227 254
206 227 254
206 227 254
206 226 254
206 226 254
206 226 254
206 226 254
205 226 254
205 226 254
205 226 254
205 226 254
205 226 254
205 226 254
205 226 254
205 226 254
205 226 254
205 226 254
205 226 254
205 226 254
205 226 254
205 226 254
205 226 254
205 226 254
205 226 254
204 226 254
204 226 254
204 226 254
204 226 254
204 226 254
204 226 254
204 226 254
204 226 254
204 226 254
204 226 254
204 225 254
204 225 254
204 225 254
204 225 254
204 225 254
204 225 254
203 225 254
203 225 254
203 225 254
203 225 254
203 225 254
203 225 254
203 225 254
203 225 254
203 225 254
203 225 254
203 225 254
203 225 254
203 225 254
203 225 254
203 225 254
203 225 254
203 225 254
202 225 254
202 225 254
202 225 254
202 225 254
202 225 254
202 225 254
202 225 254
202 225 254
202 224 254
202 224 254
202 224 254
202 224 254
202 224 254
202 224 254
202 224 254
202 224 254
202 224 254
202 224 254
202 224 254
201 224 254
201 224 254
201 224 254
201 224 254
201 224 254
201 224 254
201 224 254
201 224 254
201 224 254
201 224 254
201 224 254
201 224 254
201 224 254
201 224 254
201 224 254
201 224 254
201 224 254
201 224 254
201 224 254
201 224 254
201 224 254
201 224 254
201 224 254
201 224 254
201 224 254
200 224 254
200 224 254
200 224 254
200 224 254
200 224 254
200 224 254
200 224 254
200 224 254
200 224 254
200 224 254
200 224 254
200 224 254
200 224 254
200 224 254
200 224 254
200 224 254
200 224 254
200 224 254
200 224 254
200 223 254
200 223 254
200 223 254
200 223 254
200 223 254
200 223 254
200 223 254
200 223 254
200 223 254
200 223 254
200 224 254
200 224 254
200 224 254
200 224 254
200 224 254
200 224 254
200 224 254
200 224 254
200 224 254
200 224 254
200 224 254
200 224 254
200 224 254
200 224 254
200 224 254
200 224 254
200 224 254
200 224 254
200 224 254
201 224 254
201 224 254
201 224 254
201 224 254
201 224 254
201 224 254
201 224 254
201 224 254
201 224 254
201 224 254
201 224 254
201 224 254
201 224 254
201 224 254
201 224 254
201 224 254
201 224 254
201 224 254
201 224 254
201 224 254
201 224 254
201 224 254
201 224 254
201 224 254
201 224 254
202 224 254
202 224 254
202 224 254
202 224 254
202 224 254
202 224 254
202 224 254
202 224 254
202 224 254
202 224 254
202 224 254
202 225 254
202 225 254
202 225 254
202 225 254
202 225 254
202 225 254
202 225 254
202 225 254
203 225 254
203 225 254
203 225 254
203 225 254
203 225 254
203 225 254
203 225 254
203 225 254
203 225 254
203 225 254
203 225 254
203 225 254
203 225 254
203 225 254
203 225 254
203 225 254
203 225 254
204 225 254
204 225 254
204 225 254
204 225 254
204 225 254
204 225 254
204 226 254
204 226 254
204 226 254
204 226 254
204 226 254
204 226 254
204 226 254
204 226 254
204 226 254
204 226 254
205 226 254
205 226 254
205 226 254
205 226 254
205 226 254
205 226 254
205 226 254
205 226 254
205 226 254
205 226 254
205 226 254
205 226 254
205 226 254
205 226 254
205 226 254
205 226 254
205 226 254
206 226 254
206 226 254
206 226 254
206 226 254
206 227 254
206 227 254
206 227 254
206 227 254
206 227 254
206 227 254
206 227 254
206 227 254
206 227 254
206 227 254
206 227 254
206 227 254
206 227 254
206 227 254
207 227 254
207 227 254
207 227 254
207 227 254
207 227 254
207 227 254
207 227 254
207 227 254
207 227 254
207 227 254
207 227 254
207 227 254
207 227 254
207 227 254
207 227 254
207 227 254
207 227 254
207 227 254
207 227 254
208 227 254
208 228 254
208 228 254
208 228 254
208 228 254
208 228 254
208 228 254
208 228 254
208 228 254
208 228 254
208 228 254
208 228 254
208 228 254
208 228 254
208 228 254
208 228 254
208 228 254
208 228 254
208 228 254
208 228 254
208 228 254
208 228 254
209 228 254
209 228 254
209 228 254
209 228 254
209 228 254
209 228 254
209 228 254
209 228 254
209 228 254
209 228 254
209 228 254
209 228 254
209 228 254
209 228 254
209 228 254
209 228 254
209 228 254
209 228 254
209 228 254
209 228 254
209 228 254
209 229 254
209 229 254
210 229 254
210 229 254
210 229 254
209 229 254
209 229 254
209 229 254
209 228 254
209 228 254
209 228 254
209 228 254
209 228 254
209 228 254
209 228 254
209 228 254
209 228 254
209 228 254
209 228 254
209 228 254
209 228 254
209 228 254
209 228 254
209 228 254
209 228 254
209 228 254
209 228 254
209 228 254
209 228 254
208 228 254
208 228 254
208 228 254
208 228 254
208 228 254
208 228 254
208 228 254
208 228 254
208 228 254
208 228 254
208 228 254
208 228 254
208 228 254
208 228 254
208 228 254
208 228 254
208 228 254
208 228 254
208 228 254
208 228 254
208 227 254
207 227 254
207 227 254
207 227 254
207 227 254
207 227 254
207 227 254
207 227 254
207 227 254
207 227 254
207 227 254
207 227 254
207 227 254
207 227 254
207 227 254
207 227 254
207 227 254
207 227 254
207 227 254
207 227 254
206 227 254
206 227 254
206 227 254
206 227 254
206 227 254
206 227 254
206 227 254
206 227 254
206 227 254
206 227 254
206 227 254
206 227 254
206 227 254
206 227 254
206 226 254
206 226 254
206 226 254
206 226 254
205 226 254
205 226 254
205 226 254
205 226 254
205 226 254
205 226 254
205 226 254
205 226 254
205 226 254
205 226 254
205 226 254
205 226 254
205 226 254
205 226 254
205 226 254
205 226 254
205 226 254
204 226 254
204 226 254
204 226 254
204 226 254
204 226 254
204 226 254
204 226 254
204 226 254
204 226 254
204 226 254
204 225 254
204 225 254
204 225 254
204 225 254
204 225 254
204 225 254
204 225 254
203 225 254
203 225 254
203 225 254
203 225 254
203 225 254
203 225 254
203 225 254
203 225 254
203 225 254
203 225 254
203 225 254
203 225 254
203 225 254
203 225 254
203 225 254
203 225 254
203 225 254
202 225 254
202 225 254
202 225 254
202 225 254
202 225 254
202 225 254
202 225 254
202 225 254
202 224 254
202 224 254
202 224 254
202 224 254
202 224 254
202 224 254
202 224 254
202 224 254
202 224 254
202 224 254
202 224 254
202 224 254
201 224 254
201 224 254
201 224 254
201 224 254
201 224 254
201 224 254
201 224 254
201 224 254
201 224 254
201 224 254
201 224 254
201 224 254
201 224 254
201 224 254
201 224 254
201 224 254
201 224 254
201 224 254
201 224 254
201 224 254
201 224 254
201 224 254
201 224 254
201 224 254
201 224 254
201 224 254
201 224 254
201 224 254
201 224 254
201 224 254
201 224 254
200 224 254
200 224 254
200 224 254
200 224 254
200 224 254
200 224 254
200 224 254
200 224 254
200 224 254
200 224 254
200 224 254
200 224 254
200 224 254
200 224 254
200 224 254
200 224 254
200 224 254
200 224 254
200 224 254
200 224 254
200 224 254
200 224 254
200 224 254
200 224 254
200 224 254
200 224 254
201 224 254
201 224 254
201 224 254
201 224 254
201 224 254
201 224 254
201 224 254
201 224 254
201 224 254
201 224 254
201 224 254
201 224 254
201 224 254
201 224 254
201 224 254
201 224 254
201 224 254
201 224 254
201 224 254
201 224 254
201 224 254
201 224 254
201 224 254
201 224 254
201 224 254
201 224 254
201 224 254
201 224 254
201 224 254
201 224 254
201 224 254
201 224 254
202 224 254
202 224 254
202 224 254
202 224 254
202 224 254
202 224 254
202 224 254
202 224 254
202 224 254
202 224 254
202 224 254
202 225 254
202 225 254
202 225 254
202 225 254
202 225 254
202 225 254
202 225 254
202 225 254
203 225 254
203 225 254
203 225 254
203 225 254
203 225 254
203 225 254
203 225 254
203 225 254
203 225 254
203 225 254
203 225 254
203 225 254
203 225 254
203 225 254
203 225 254
203 225 254
203 225 254
204 225 254
204 225 254
204 225 254
204 225 254
204 225 254
204 225 254
204 225 254
204 226 254
204 226 254
204 226 254
204 226 254
204 226 254
204 226 254
204 226 254
204 226 254
204 226 254
204 226 254
205 226 254
205 226 254
205 226 254
205 226 254
205 226 254
205 226 254
205 226 254
205 226 254
205 226 254
205 226 254
205 226 254
205 226 254
205 226 254
205 226 254
205 226 254
205 226 254
205 226 254
206 226 254
206 226 254
206 226 254
206 226 254
206 227 254
206 227 254
206 227 254
206 227 254
206 227 254
206 227 254
206 227 254
206 227 254
206 227 254
206 227 254
206 227 254
206 227 254
206 227 254
206 227 254
207 227 254
207 227 254
207 227 254
207 227 254
207 227 254
207 227 254
207 227 254
207 227 254
207 227 254
207 227 254
207 227 254
207 227 254
207 227 254
207 227 254
207 227 254
207 227 254
207 227 254
207 227 254
207 227 254
208 227 254
208 228 254
208 228 254
208 228 254
208 228 254
208 228 254
208 228 254
208 228 254
208 228 254
208 228 254
208 228 254
208 228 254
208 228 254
208 228 254
208 228 254
208 228 254
208 228 254
208 228 254
208 228 254
208 228 254
208 228 254
209 228 254
209 228 254
209 228 254
209 228 254
209 228 254
209 228 254
209 228 254
209 228 254
209 228 254
209 228 254
209 228 254
209 228 254
209 228 254
209 228 254
209 228 254
209 228 254
209 228 254
209 228 254
209 228 254
209 228 254
209 228 254
209 229 254
209 229 254
209 229 254
210 229 254
210 229 254
210 229 254
210 229 254
210 229 254
210 229 254
210 229 254
210 229 254
210 229 254
210 229 254
209 229 254
209 229 254
209 229 254
209 228 254
209 228 254
209 228 254
209 228 254
209 228 254
209 228 254
209 228 254
209 228 254
209 228 254
209 228 254
209 228 254
209 228 254
209 228 254
209 228 254
209 228 254
209 228 254
209 228 254
209 228 254
209 228 254
209 228 254
209 228 254
208 228 254
208 228 254
208 228 254
208 228 254
208 228 254
208 228 254
208 228 254
208 228 254
208 228 254
208 228 254
208 228 254
208 228 254
208 228 254
208 228 254
208 228 254
208 228 254
208 228 254
208 228 254
208 228 254
208 227 254
208 227 254
207 227 254
207 227 254
207 227 254
207 227 254
207 227 254
207 227 254
207 227 254
207 227 254
207 227 254
207 227 254
207 227 254
207 227 254
207 227 254
207 227 254
207 227 254
207 227 254
207 227 254
207 227 254
207 227 254
206 227 254
206 227 254
206 227 254
206 227 254
206 227 254
206 227 254
206 227 254
206 227 254
206 227 254
206 227 254
206 227 254
206 227 254
206 227 254
206 226 254
206 226 254
206 226 254
206 226 254
205 226 254
205 226 254
205 226 254
205 226 254
205 226 254
205 226 254
205 226 254
205 226 254
205 226 254
205 226 254
205 226 254
205 226 254
205 226 254
205 226 254
205 226 254
205 226 254
205 226 254
204 226 254
204 226 254
204 226 254
204 226 254
204 226 254
204 226 254
204 226 254
204 226 254
204 226 254
204 226 254
204 226 254
204 225 254
204 225 254
204 225 254
204 225 254
204 225 254
204 225 254
203 225 254
203 225 254
203 225 254
203 225 254
203 225 254
203 225 254
203 225 254
203 225 254
203 225 254
203 225 254
203 225 254
203 225 254
203 225 254
203 225 254
203 225 254
203 225 254
203 225 254
203 225 254
202 225 254
202 225 254
202 225 254
202 225 254
202 225 254
202 225 254
202 225 254
202 225 254
202 225 254
202 224 254
202 224 254
202 224 254
202 224 254
202 224 254
202 224 254
202 224 254
202 224 254
202 224 254
202 224 254
202 224 254
202 224 254
201 224 254
201 224 254
201 224 254
201 224 254
201 224 254
201 224 254
201 224 254
201 224 254
201 224 254
201 224 254
201 224 254
201 224 254
201 224 254
201 224 254
201 224 254
201 224 254
201 224 254
201 224 254
201 224 254
201 224 254
201 224 254
201 224 254
201 224 254
201 224 254
201 224 254
201 224 254
201 224 254
201 224 254
201 224 254
201 224 254
201 224 254
201 224 254
201 224 254
201 224 254
201 224 254
201 224 254
201 224 254
201 224 254
201 224 254
201 224 254
201 224 254
201 224 254
201 224 254
201 224 254
201 224 254
201 224 254
201 224 254
201 224 254
201 224 254
201 224 254
201 224 254
201 224 254
201 224 254
201 224 254
201 224 254
201 224 254
201 224 254
201 224 254
201 224 254
201 224 254
201 224 254
201 224 254
201 224 254
201 224 254
201 224 254
201 224 254
201 224 254
201 224 254
201 224 254
201 224 254
201 224 254
201 224 254
201 224 254
201 224 254
201 224 254
201 224 254
201 224 254
201 224 254
202 224 254
202 224 254
202 224 254
202 224 254
202 224 254
202 224 254
202 224 254
202 224 254
202 224 254
202 224 254
202 224 254
202 224 254
202 225 254
202 225 254
202 225 254
202 225 254
202 225 254
202 225 254
202 225 254
202 225 254
202 225 254
203 225 254
203 225 254
203 225 254
203 225 254
203 225 254
203 225 254
203 225 254
203 225 254
203 225 254
203 225 254
203 225 254
203 225 254
203 225 254
203 225 254
203 225 254
203 225 254
203 225 254
203 225 254
204 225 254
204 225 254
204 225 254
204 225 254
204 225 254
204 225 254
204 226 254
204 226 254
204 226 254
204 226 254
204 226 254
204 226 254
204 226 254
204 226 254
204 226 254
204 226 254
205 226 254
205 226 254
205 226 254
205 226 254
205 226 254
205 226 254
205 226 254
205 226 254
205 226 254
205 226 254
205 226 254
205 226 254
205 226 254
205 226 254
205 226 254
205 226 254
205 226 254
205 226 254
206 226 254
206 226 254
206 226 254
206 226 254
206 227 254
206 227 254
206 227 254
206 227 254
206 227 254
206 227 254
206 227 254
206 227 254
206 227 254
206 227 254
206 227 254
206 227 254
206 227 254
207 227 254
207 227 254
207 227 254
207 227 254
207 227 254
207 227 254
207 227 254
207 227 254
207 227 254
207 227 254
207 227 254
207 227 254
207 227 254
207 227 254
207 227 254
207 227 254
207 227 254
207 227 254
207 227 254
208 227 254
208 227 254
208 228 254
208 228 254
208 228 254
208 228 254
208 228 254
208 228 254
208 228 254
208 228 254
208 228 254
208 228 254
208 228 254
208 228 254
208 228 254
208 228 254
208 228 254
208 228 254
208 228 254
208 228 254
208 228 254
209 228 254
209 228 254
209 228 254
209 228 254
209 228 254
209 228 254
209 228 254
209 228 254
209 228 254
209 228 254
209 228 254
209 228 254
209 228 254
209 228 254
209 228 254
209 228 254
209 228 254
209 228 254
209 228 254
209 228 254
209 228 254
209 229 254
209 229 254
209 229 254
210 229 254
210 229 254
210 229 254
210 229 254
210 229 254
210 229 254
210 229 254
210 229 254
210 229 254
210 229 254
210 229 254
210 229 254
210 229 254
210 229 254
210 229 254
210 229 254
210 229 254
210 229 254
209 229 254
209 229 254
209 229 254
209 228 254
209 228 254
209 228 254
209 228 254
209 228 254
209 228 254
209 228 254
209 228 254
209 228 254
209 228 254
209 228 254
209 228 254
209 228 254
209 228 254
209 228 254
209 228 254
209 228 254
209 228 254
209 228 254
209 228 254
208 228 254
208 228 254
208 228 254
208 228 254
208 228 254
208 228 254
208 228 254
208 228 254
208 228 254
208 228 254
208 228 254
208 228 254
208 228 254
208 228 254
208 228 254
208 228 254
208 228 254
208 228 254
208 228 254
208 228 254
208 227 254
207 227 254
207 227 254
207 227 254
207 227 254
207 227 254
207 227 254
207 227 254
207 227 254
207 227 254
207 227 254
207 227 254
207 227 254
207 227 254
207 227 254
207 227 254
207 227 254
207 227 254
207 227 254
207 227 254
206 227 254
206 227 254
206 227 254
206 227 254
206 227 254
206 227 254
206 227 254
206 227 254
206 227 254
206 227 254
206 227 254
206 227 254
206 227 254
206 227 254
206 226 254
206 226 254
206 226 254
206 226 254
205 226 254
205 226 254
205 226 254
205 226 254
205 226 254
205 226 254
205 226 254
205 226 254
205 226 254
205 226 254
205 226 254
205 226 254
205 226 254
205 226 254
205 226 254
205 226 254
205 226 254
204 226 254
204 226 254
204 226 254
204 226 254
204 226 254
204 226 254
204 226 254
204 226 254
204 226 254
204 226 254
204 225 254
204 225 254
204 225 254
204 225 254
204 225 254
204 225 254
204 225 254
203 225 254
203 225 254
203 225 254
203 225 254
203 225 254
203 225 254
203 225 254
203 225 254
203 225 254
203 225 254
203 225 254
203 225 254
203 225 254
203 225 254
203 225 254
203 225 254
203 225 254
203 225 254
202 225 254
202 225 254
202 225 254
202 225 254
202 225 254
202 225 254
202 225 254
202 225 254
202 225 254
202 224 254
202 224 254
202 224 254
202 224 254
202 224 254
202 224 254
202 224 254
202 224 254
202 224 254
202 224 254
202 224 254
202 224 254
202 224 254
201 224 254
201 224 254
201 224 254
201 224 254
201 224 254
201 224 254
201 224 254
201 224 254
201 224 254
201 224 254
201 224 254
201 224 254
201 224 254
201 224 254
201 224 254
201 224 254
201 224 254
201 224 254
201 224 254
201 224 254
201 224 254
201 224 254
201 224 254
201 224 254
201 224 254
201 224 254
201 224 254
201 224 254
201 224 254
201 224 254
201 224 254
201 224 254
201 224 254
201 224 254
201 224 254
201 224 254
201 224 254
201 224 254
201 224 254
201 224 254
201 224 254
201 224 254
201 224 254
201 224 254
201 224 254
201 224 254
201 224 254
201 224 254
201 224 254
201 224 254
201 224 254
201 224 254
201 224 254
201 224 254
201 224 254
201 224 254
201 224 254
201 224 254
201 224 254
201 224 254
201 224 254
201 224 254
201 224 254
201 224 254
201 224 254
201 224 254
201 224 254
201 224 254
202 224 254
202 224 254
202 224 254
202 224 254
202 224 254
202 224 254
202 224 254
202 224 254
202 224 254
202 224 254
202 224 254
202 224 254
202 224 254
202 225 254
202 225 254
202 225 254
202 225 254
202 225 254
202 225 254
202 225 254
202 225 254
202 225 254
203 225 254
203 225 254
203 225 254
203 225 254
203 225 254
203 225 254
203 225 254
203 225 254
203 225 254
203 225 254
203 225 254
203 225 254
203 225 254
203 225 254
203 225 254
203 225 254
203 225 254
203 225 254
204 225 254
204 225 254
204 225 254
204 225 254
204 225 254
204 225 254
204 225 254
204 226 254
204 226 254
204 226 254
204 226 254
204 226 254
204 226 254
204 226 254
204 226 254
204 226 254
204 226 254
205 226 254
205 226 254
205 226 254
205 226 254
205 226 254
205 226 254
205 226 254
205 226 254
205 226 254
205 226 254
205 226 254
205 226 254
205 226 254
205 226 254
205 226 254
205 226 254
205 226 254
206 226 254
206 226 254
206 226 254
206 226 254
206 227 254
206 227 254
206 227 254
206 227 254
206 227 254
206 227 254
206 227 254
206 227 254
206 227 254
206 227 254
206 227 254
206 227 254
206 227 254
206 227 254
207 227 254
207 227 254
207 227 254
207 227 254
207 227 254
207 227 254
207 227 254
207 227 254
207 227 254
207 227 254
207 227 254
207 227 254
207 227 254
207 227 254
207 227 254
207 227 254
207 227 254
207 227 254
207 227 254
208 227 254
208 228 254
208 228 254
208 228 254
208 228 254
208 228 254
208 228 254
208 228 254
208 228 254
208 228 254
208 228 254
208 228 254
208 228 254
208 228 254
208 228 254
208 228 254
208 228 254
208 228 254
208 228 254
208 228 254
208 228 254
209 228 254
209 228 254
209 228 254
209 228 254
209 228 254
209 228 254
209 228 254
209 228 254
209 228 254
209 228 254
209 228 254
209 228 254
209 228 254
209 228 254
209 228 254
209 228 254
209 228 254
209 228 254
209 228 254
209 228 254
209 229 254
209 229 254
209 229 254
210 229 254
210 229 254
210 229 254
210 229 254
210 229 254
210 229 254
210 229 254
210 229 254
210 229 254
210 229 254
210 229 254
210 229 254
210 229 254
210 229 254
210 229 254
210 229 254
210 229 254
210 229 254
210 229 254
210 229 254
210 229 254
210 229 254
210 229 254
210 229 254
210 229 254
210 229 254
209 229 254
209 229 254
209 228 254
209 228 254
209 228 254
209 228 254
209 228 254
209 228 254
209 228 254
209 228 254
209 228 254
209 228 254
209 228 254
209 228 254
209 228 254
209 228 254
209 228 254
209 228 254
209 228 254
209 228 254
209 228 254
209 228 254
209 228 254
207 227 251
206 226 247
203 223 233
196 218 210
198 219 214
196 218 205
198 219 211
195 216 200
192 213 183
197 218 205
191 213 187
191 213 180
194 215 189
193 214 187
194 215 195
193 214 183
196 217 200
198 218 211
199 219 213
200 220 220
198 219 216
200 221 225
205 225 244
207 227 251
207 227 254
207 227 254
207 227 254
207 227 254
207 227 254
207 227 254
207 227 254
207 227 254
207 227 254
207 227 254
207 227 254
207 227 254
207 227 254
207 227 254
207 227 254
207 227 254
206 227 254
206 227 254
206 227 254
206 227 254
206 227 254
206 227 254
206 227 254
206 227 254
206 227 254
206 227 254
206 227 254
206 227 254
206 227 254
206 227 254
206 226 254
206 226 254
206 226 254
205 226 254
205 226 254
205 226 254
205 226 254
205 226 254
205 226 254
205 226 254
205 226 254
205 226 254
205 226 254
205 226 254
205 226 254
205 226 254
205 226 254
205 226 254
205 226 254
205 226 254
205 226 254
204 226 254
204 226 254
204 226 254
204 226 254
204 226 254
204 226 254
204 226 254
204 226 254
204 226 254
204 226 254
204 225 254
204 225 254
204 225 254
204 225 254
204 225 254
204 225 254
204 225 254
203 225 254
203 225 254
203 225 254
203 225 254
203 225 254
203 225 254
203 225 254
203 225 254
203 225 254
203 225 254
203 225 254
203 225 254
203 225 254
203 225 254
203 225 254
203 225 254
203 225 254
203 225 254
203 225 254
202 225 254
202 225 254
202 225 254
202 225 254
202 225 254
202 225 254
202 225 254
202 225 254
202 225 254
202 224 254
202 224 254
202 224 254
202 224 254
202 224 254
202 224 254
202 224 254
202 224 254
202 224 254
202 224 254
202 224 254
202 224 254
202 224 254
202 224 254
202 224 254
201 224 254
201 224 254
201 224 254
201 224 254
201 224 254
201 224 254
201 224 254
201 224 254
201 224 254
201 224 254
201 224 254
201 224 254
201 224 254
201 224 254
201 224 254
201 224 254
201 224 254
201 224 254
201 224 254
201 224 254
201 224 254
201 224 254
201 224 254
201 224 254
201 224 254
201 224 254
201 224 254
201 224 254
201 224 254
201 224 254
201 224 254
201 224 254
201 224 254
201 224 254
201 224 254
201 224 254
201 224 254
201 224 254
201 224 254
201 224 254
201 224 254
201 224 254
201 224 254
201 224 254
201 224 254
201 224 254
201 224 254
201 224 254
201 224 254
201 224 254
201 224 254
201 224 254
201 224 254
201 224 254
202 224 254
202 224 254
202 224 254
202 224 254
202 224 254
202 224 254
202 224 254
202 224 254
202 224 254
202 224 254
202 224 254
202 224 254
202 224 254
202 224 254
202 224 254
202 225 254
202 225 254
202 225 254
202 225 254
202 225 254
202 225 254
202 225 254
202 225 254
202 225 254
203 225 254
203 225 254
203 225 254
203 225 254
203 225 254
203 225 254
203 225 254
203 225 254
203 225 254
203 225 254
203 225 254
203 225 254
203 225 254
203 225 254
203 225 254
203 225 254
203 225 254
203 225 254
203 225 254
204 225 254
204 225 254
204 225 254
204 225 254
204 225 254
204 225 254
204 225 254
204 226 254
204 226 254
204 226 254
204 226 254
204 226 254
204 226 254
204 226 254
204 226 254
204 226 254
204 226 254
205 226 254
205 226 254
205 226 254
205 226 254
205 226 254
205 226 254
205 226 254
205 226 254
205 226 254
205 226 254
205 226 254
205 226 254
205 226 254
205 226 254
205 226 254
205 226 254
205 226 254
205 226 254
206 226 254
206 226 254
206 226 254
206 226 254
206 227 254
206 227 254
206 227 254
206 227 254
206 227 254
206 227 254
206 227 254
206 227 254
206 227 254
206 227 254
206 227 254
206 227 254
206 227 254
207 227 254
207 227 254
207 227 254
207 227 254
207 227 254
207 227 254
207 227 254
207 227 254
207 227 254
207 227 254
207 227 254
207 227 254
207 227 254
207 227 254
207 227 254
207 227 254
204 223 251
201 219 249
199 217 247
192 206 243
198 214 247
188 202 237
184 197 233
188 200 239
181 191 233
189 201 241
183 193 235
184 194 236
178 190 226
182 192 235
183 193 235
181 190 233
189 204 237
187 199 237
193 208 243
195 210 244
197 212 245
199 217 245
204 222 251
208 228 254
209 228 254
209 228 254
209 228 254
209 228 254
209 228 254
209 228 254
209 228 254
209 228 254
209 228 254
209 228 254
209 228 254
209 228 254
209 228 254
209 228 254
209 228 254
209 228 254
209 228 254
209 228 254
209 228 254
209 228 254
209 228 254
209 229 254
209 229 254
210 229 254
210 229 254
210 229 254
210 229 254
210 229 254
210 229 254
210 229 254
210 229 254
210 229 254
210 229 254
210 229 254
210 229 254
210 229 254
210 229 254
210 229 254
210 229 254
210 229 254
210 229 254
210 229 254
210 229 254
210 229 254
210 229 254
210 229 254
210 229 254
210 229 254
210 229 254
210 229 254
210 229 254
210 229 254
210 229 254
210 229 254
210 229 254
210 229 254
210 229 254
209 229 254
209 229 254
209 228 254
209 228 254
209 228 254
209 228 254
209 228 254
209 228 254
209 228 254
209 228 254
208 227 251
203 223 228
198 219 213
196 217 205
186 208 146
186 208 148
179 203 116
179 202 111
172 197 57
174 198 44
172 196 0
173 197 0
174 198 0
173 196 0
170 195 0
171 196 0
172 197 0
171 196 0
173 197 0
172 196 0
168 195 0
174 197 0
173 196 0
174 198 0
171 196 0
173 197 0
173 197 0
173 196 0
173 196 0
173 197 0
173 197 0
172 196 0
169 195 0
178 201 88
175 199 80
181 205 130
187 208 148
186 209 159
197 218 211
198 219 216
203 224 240
206 226 247
207 227 254
207 227 254
207 227 254
207 227 254
207 227 254
207 227 254
207 227 254
207 227 254
207 227 254
207 227 254
206 227 254
206 227 254
206 227 254
206 227 254
206 227 254
206 227 254
206 227 254
206 227 254
206 227 254
206 227 254
206 227 254
206 227 254
206 227 254
206 227 254
206 226 254
206 226 254
206 226 254
206 226 254
205 226 254
205 226 254
205 226 254
205 226 254
205 226 254
205 226 254
205 226 254
205 226 254
205 226 254
205 226 254
205 226 254
205 226 254
205 226 254
205 226 254
205 226 254
205 226 254
205 226 254
204 226 254
204 226 254
204 226 254
204 226 254
204 226 254
204 226 254
204 226 254
204 226 254
204 226 254
204 226 254
204 226 254
204 225 254
204 225 254
204 225 254
204 225 254
204 225 254
204 225 254
204 225 254
203 225 254
203 225 254
203 225 254
203 225 254
203 225 254
203 225 254
203 225 254
203 225 254
203 225 254
203 225 254
203 225 254
203 225 254
203 225 254
203 225 254
203 225 254
203 225 254
203 225 254
203 225 254
203 225 254
202 225 254
202 225 254
202 225 254
202 225 254
202 225 254
202 225 254
202 225 254
202 225 254
202 225 254
202 225 254
202 225 254
202 224 254
202 224 254
202 224 254
202 224 254
202 224 254
202 224 254
202 224 254
202 224 254
202 224 254
202 224 254
202 224 254
202 224 254
202 224 254
202 224 254
202 224 254
202 224 254
202 224 254
202 224 254
201 224 254
201 224 254
201 224 254
201 224 254
201 224 254
201 224 254
201 224 254
201 224 254
201 224 254
201 224 254
201 224 254
201 224 254
201 224 254
201 224 254
201 224 254
201 224 254
201 224 254
201 224 254
201 224 254
201 224 254
201 224 254
201 224 254
201 224 254
201 224 254
201 224 254
201 224 254
201 224 254
201 224 254
201 224 254
201 224 254
201 224 254
201 224 254
201 224 254
201 224 254
201 224 254
201 224 254
202 224 254
202 224 254
202 224 254
202 224 254
202 224 254
202 224 254
202 224 254
202 224 254
202 224 254
202 224 254
202 224 254
202 224 254
202 224 254
202 224 254
202 224 254
202 224 254
202 224 254
202 224 254
202 225 254
202 225 254
202 225 254
202 225 254
202 225 254
202 225 254
202 225 254
202 225 254
202 225 254
202 225 254
202 225 254
203 225 254
203 225 254
203 225 254
203 225 254
203 225 254
203 225 254
203 225 254
203 225 254
203 225 254
203 225 254
203 225 254
203 225 254
203 225 254
203 225 254
203 225 254
203 225 254
203 225 254
203 225 254
203 225 254
204 225 254
204 225 254
204 225 254
204 225 254
204 225 254
204 225 254
204 225 254
204 226 254
204 226 254
204 226 254
204 226 254
204 226 254
204 226 254
204 226 254
204 226 254
204 226 254
204 226 254
204 226 254
205 226 254
205 226 254
205 226 254
205 226 254
205 226 254
205 226 254
205 226 254
205 226 254
205 226 254
205 226 254
205 226 254
205 226 254
205 226 254
205 226 254
205 226 254
205 226 254
205 226 254
206 226 254
206 226 254
206 226 254
206 226 254
206 227 254
206 227 254
206 227 254
206 227 254
206 227 254
206 227 254
206 227 254
206 227 254
206 227 254
206 227 254
206 227 254
206 227 254
206 227 254
206 227 254
207 227 254
207 227 254
207 227 254
207 227 254
207 227 254
207 227 254
207 227 254
207 227 254
207 227 254
207 227 254
203 222 251
202 219 253
192 206 244
183 195 235
175 184 229
174 180 232
171 175 229
161 161 222
155 153 220
160 156 230
161 156 230
155 150 222
164 159 235
163 159 235
163 159 235
172 167 247
166 161 237
164 160 236
157 153 226
170 165 244
163 159 235
171 166 245
158 154 228
158 154 228
162 157 232
158 153 226
163 159 235
165 160 236
165 159 235
163 158 232
157 152 223
160 155 228
161 156 229
163 160 228
165 164 228
163 164 219
171 176 225
170 176 222
184 194 235
189 202 237
199 215 245
206 225 252
209 228 254
209 228 254
209 228 254
209 228 254
209 228 254
209 228 254
209 228 254
209 228 254
209 229 254
209 229 254
209 229 254
210 229 254
210 229 254
210 229 254
210 229 254
210 229 254
210 229 254
210 229 254
210 229 254
210 229 254
210 229 254
210 229 254
210 229 254
210 229 254
210 229 254
210 229 254
210 229 254
210 229 254
210 229 254
210 229 254
210 229 254
210 229 254
210 229 254
210 229 254
210 229 254
210 229 254
210 229 254
210 229 254
210 229 254
210 229 254
210 229 254
210 229 254
210 229 254
210 229 254
210 229 254
210 229 254
210 229 254
210 229 254
210 229 254
210 229 254
210 229 254
209 229 254
206 225 237
202 222 223
196 217 202
187 209 159
181 204 116
177 200 84
170 195 0
170 196 0
173 197 0
173 197 0
172 196 0
173 197 0
173 197 0
174 197 0
173 197 0
171 196 0
174 197 0
172 196 0
172 197 0
174 197 0
175 198 0
172 196 0
172 196 0
173 196 0
172 197 0
172 196 0
170 195 0
173 197 0
170 195 0
173 196 0
172 197 0
173 197 0
171 196 0
171 196 0
172 197 0
173 197 0
173 197 0
173 197 0
174 198 0
171 196 0
173 197 0
173 196 0
173 198 0
173 197 0
174 197 0
174 197 0
176 198 0
176 198 0
177 200 72
182 205 122
187 209 152
195 216 195
197 218 214
203 224 239
207 227 254
207 227 254
207 227 254
207 227 254
207 227 254
207 227 254
207 227 254
207 227 254
206 227 254
206 227 254
206 227 254
206 227 254
206 227 254
206 227 254
206 227 254
206 227 254
206 227 254
206 227 254
206 227 254
206 227 254
206 227 254
206 226 254
206 226 254
206 226 254
206 226 254
205 226 254
205 226 254
205 226 254
205 226 254
205 226 254
205 226 254
205 226 254
205 226 254
205 226 254
205 226 254
205 226 254
205 226 254
205 226 254
205 226 254
205 226 254
205 226 254
205 226 254
205 226 254
204 226 254
204 226 254
204 226 254
204 226 254
204 226 254
204 226 254
204 226 254
204 226 254
204 226 254
204 226 254
204 226 254
204 225 254
204 225 254
204 225 254
204 225 254
204 225 254
204 225 254
204 225 254
203 225 254
203 225 254
203 225 254
203 225 254
203 225 254
203 225 254
203 225 254
203 225 254
203 225 254
203 225 254
203 225 254
203 225 254
203 225 254
203 225 254
203 225 254
203 225 254
203 225 254
203 225 254
203 225 254
203 225 254
202 225 254
202 225 254
202 225 254
202 225 254
202 225 254
202 225 254
202 225 254
202 225 254
202 225 254
202 225 254
202 225 254
202 225 254
202 225 254
202 224 254
202 224 254
202 224 254
202 224 254
202 224 254
202 224 254
202 224 254
202 224 254
202 224 254
202 224 254
202 224 254
202 224 254
202 224 254
202 224 254
202 224 254
202 224 254
202 224 254
202 224 254
202 224 254
202 224 254
202 224 254
202 224 254
202 224 254
202 224 254
202 224 254
202 224 254
202 224 254
202 224 254
202 224 254
202 224 254
202 224 254
202 224 254
202 224 254
202 224 254
202 224 254
202 224 254
202 224 254
202 224 254
202 224 254
202 224 254
202 224 254
202 224 254
202 224 254
202 224 254
202 224 254
202 224 254
202 224 254
202 224 254
202 224 254
202 224 254
202 224 254
202 224 254
202 224 254
202 224 254
202 224 254
202 224 254
202 224 254
202 224 254
202 225 254
202 225 254
202 225 254
202 225 254
202 225 254
202 225 254
202 225 254
202 225 254
202 225 254
202 225 254
202 225 254
202 225 254
202 225 254
203 225 254
203 225 254
203 225 254
203 225 254
203 225 254
203 225 254
203 225 254
203 225 254
203 225 254
203 225 254
203 225 254
203 225 254
203 225 254
203 225 254
203 225 254
203 225 254
203 225 254
203 225 254
203 225 254
203 225 254
204 225 254
204 225 254
204 225 254
204 225 254
204 225 254
204 225 254
204 225 254
204 226 254
204 226 254
204 226 254
204 226 254
204 226 254
204 226 254
204 226 254
204 226 254
204 226 254
204 226 254
204 226 254
205 226 254
205 226 254
205 226 254
205 226 254
205 226 254
205 226 254
205 226 254
205 226 254
205 226 254
205 226 254
205 226 254
205 226 254
205 226 254
205 226 254
205 226 254
205 226 254
205 226 254
205 226 254
206 226 254
206 226 254
206 226 254
206 226 254
206 227 254
206 227 254
206 227 254
206 227 254
206 227 254
206 227 254
206 227 254
206 227 254
206 227 254
206 227 254
206 227 254
206 227 254
206 227 254
207 227 254
207 227 254
207 227 254
207 227 254
207 227 254
207 227 254
207 227 254
207 227 254
203 222 251
195 210 247
184 196 237
176 184 233
162 163 223
161 159 226
155 151 223
162 158 233
163 159 236
163 159 236
173 169 251
173 169 252
168 165 245
170 166 247
173 170 253
171 167 249
173 169 252
174 171 254
171 168 251
174 171 254
174 170 253
172 169 252
175 171 254
175 171 254
173 170 253
174 170 253
175 171 254
175 171 254
176 171 254
174 170 252
175 171 253
176 171 254
176 171 254
174 170 252
174 169 251
175 171 253
175 170 251
171 167 247
172 167 247
173 168 248
170 165 243
170 165 244
167 161 237
166 160 236
166 160 236
159 153 225
158 152 223
161 155 226
154 152 211
164 166 219
173 179 225
185 197 232
192 206 240
207 225 253
210 229 254
210 229 254
210 229 254
210 229 254
210 229 254
210 229 254
210 229 254
210 229 254
210 229 254
210 229 254
210 229 254
210 229 254
210 229 254
210 229 254
210 229 254
210 229 254
210 229 254
210 229 254
210 229 254
210 229 254
210 229 254
210 229 254
210 229 254
210 229 254
210 229 254
210 229 254
210 229 254
210 229 254
210 229 254
210 229 254
210 229 254
210 229 254
210 229 254
210 229 254
210 229 254
210 229 254
210 229 254
210 229 254
210 229 254
210 229 254
210 229 254
206 226 240
200 220 214
191 212 174
187 209 155
173 198 67
173 196 0
171 196 0
172 196 0
171 196 0
169 196 0
174 197 0
174 197 0
173 197 0
174 197 0
171 195 0
173 196 0
173 197 0
173 196 0
174 197 0
173 196 0
174 197 0
174 197 0
173 197 0
172 196 0
174 197 0
171 196 0
174 197 0
174 197 0
172 197 0
172 196 0
171 196 0
175 198 0
170 196 0
173 197 0
172 196 0
171 196 0
174 197 0
173 197 0
176 198 0
172 196 0
172 196 0
171 196 0
171 196 0
173 197 0
172 196 0
172 197 0
174 197 0
174 197 0
171 195 0
174 197 0
170 196 0
173 197 0
174 198 0
173 197 0
171 196 0
173 197 0
173 196 0
172 196 0
174 197 0
175 199 72
184 206 139
190 212 178
196 217 208
204 225 244
207 227 254
207 227 254
207 227 254
207 227 254
207 227 254
207 227 254
206 227 254
206 227 254
206 227 254
206 227 254
206 227 254
206 227 254
206 227 254
206 227 254
206 227 254
206 227 254
206 227 254
206 227 254
206 227 254
206 227 254
206 226 254
206 226 254
206 226 254
206 226 254
205 226 254
205 226 254
205 226 254
205 226 254
205 226 254
205 226 254
205 226 254
205 226 254
205 226 254
205 226 254
205 226 254
205 226 254
205 226 254
205 226 254
205 226 254
205 226 254
205 226 254
205 226 254
204 226 254
204 226 254
204 226 254
204 226 254
204 226 254
204 226 254
204 226 254
204 226 254
204 226 254
204 226 254
204 226 254
204 225 254
204 225 254
204 225 254
204 225 254
204 225 254
204 225 254
204 225 254
203 225 254
203 225 254
203 225 254
203 225 254
203 225 254
203 225 254
203 225 254
203 225 254
203 225 254
203 225 254
203 225 254
203 225 254
203 225 254
203 225 254
203 225 254
203 225 254
203 225 254
203 225 254
203 225 254
203 225 254
203 225 254
203 225 254
202 225 254
202 225 254
202 225 254
202 225 254
202 225 254
202 225 254
202 225 254
202 225 254
202 225 254
202 225 254
202 225 254
202 225 254
202 225 254
202 225 254
202 225 254
202 224 254
202 224 254
202 224 254
202 224 254
202 224 254
202 224 254
202 224 254
202 224 254
202 224 254
202 224 254
202 224 254
202 224 254
202 224 254
202 224 254
202 224 254
202 224 254
202 224 254
202 224 254
202 224 254
202 224 254
202 224 254
202 224 254
202 224 254
202 224 254
202 224 254
202 224 254
202 224 254
202 224 254
202 224 254
202 224 254
202 224 254
202 224 254
202 224 254
202 224 254
202 224 254
202 224 254
202 224 254
202 224 254
202 224 254
202 224 254
202 224 254
202 224 254
202 225 254
202 225 254
202 225 254
202 225 254
202 225 254
202 225 254
202 225 254
202 225 254
202 225 254
202 225 254
202 225 254
202 225 254
202 225 254
202 225 254
202 225 254
203 225 254
203 225 254
203 225 254
203 225 254
203 225 254
203 225 254
203 225 254
203 225 254
203 225 254
203 225 254
203 225 254
203 225 254
203 225 254
203 225 254
203 225 254
203 225 254
203 225 254
203 225 254
203 225 254
203 225 254
203 225 254
203 225 254
204 225 254
204 225 254
204 225 254
204 225 254
204 225 254
204 225 254
204 225 254
204 226 254
204 226 254
204 226 254
204 226 254
204 226 254
204 226 254
204 226 254
204 226 254
204 226 254
204 226 254
204 226 254
204 226 254
205 226 254
205 226 254
205 226 254
205 226 254
205 226 254
205 226 254
205 226 254
205 226 254
205 226 254
205 226 254
205 226 254
205 226 254
205 226 254
205 226 254
205 226 254
205 226 254
205 226 254
206 226 254
206 226 254
206 226 254
206 226 254
206 227 254
206 227 254
206 227 254
206 227 254
206 227 254
206 227 254
206 227 254
206 227 254
206 227 254
206 227 254
206 227 254
206 227 254
206 227 254
206 227 254
207 227 254
207 227 254
207 227 254
207 227 254
207 227 254
207 227 254
201 219 249
192 207 243
179 189 233
171 176 230
159 159 223
158 154 228
160 156 232
162 159 236
165 161 240
167 163 243
173 169 252
173 170 253
172 169 252
173 170 254
172 170 254
173 170 254
172 170 254
173 170 254
172 170 254
172 170 254
172 170 254
171 169 254
173 170 254
172 170 254
173 170 254
172 170 254
172 170 254
172 170 254
172 170 254
173 170 254
172 170 254
173 170 254
173 170 254
173 170 254
174 170 254
174 170 254
174 171 254
173 170 254
174 171 254
175 171 254
174 171 254
175 171 254
174 171 254
175 171 254
175 171 254
176 172 254
176 172 254
177 172 254
176 171 253
177 172 254
176 171 253
174 169 249
174 168 248
166 161 237
168 162 239
163 157 230
165 158 232
166 160 235
158 152 222
160 155 220
172 179 223
179 186 229
198 212 245
202 219 245
210 229 254
210 229 254
210 229 254
210 229 254
210 229 254
210 229 254
210 229 254
210 229 254
210 229 254
210 229 254
210 229 254
210 229 254
210 229 254
210 229 254
210 229 254
210 229 254
210 229 254
210 229 254
211 229 254
211 229 254
211 229 254
211 229 254
211 229 254
210 229 254
210 229 254
210 229 254
210 229 254
210 229 254
210 229 254
210 229 254
210 229 254
210 229 254
206 225 237
196 216 194
183 206 137
177 202 105
171 196 0
175 198 0
171 196 0
173 196 0
175 198 0
171 196 0
173 197 0
174 197 0
168 195 0
170 196 0
173 197 0
171 196 0
171 196 0
173 197 0
172 195 0
171 196 0
171 196 0
171 196 0
173 197 0
174 197 0
172 195 0
172 196 0
173 197 0
173 197 0
173 197 0
173 197 0
172 197 0
172 197 0
173 197 0
174 197 0
172 196 0
173 197 0
172 196 0
173 196 0
175 198 0
171 196 0
171 196 0
173 197 0
172 196 0
172 196 0
173 197 0
172 196 0
174 197 0
173 196 0
174 197 0
173 197 0
173 197 0
171 195 0
172 196 0
171 196 0
173 196 0
176 198 0
172 196 0
173 197 0
173 197 0
174 197 0
174 197 0
174 197 0
172 197 0
172 197 0
171 196 0
173 197 0
174 196 0
174 197 0
180 202 95
188 210 163
197 218 210
203 223 236
207 227 254
207 227 254
207 227 254
207 227 254
207 227 254
207 227 254
206 227 254
206 227 254
206 227 254
206 227 254
206 227 254
206 227 254
206 227 254
206 227 254
206 227 254
206 227 254
206 227 254
206 227 254
206 227 254
206 227 254
206 226 254
206 226 254
206 226 254
206 226 254
205 226 254
205 226 254
205 226 254
205 226 254
205 226 254
205 226 254
205 226 254
205 226 254
205 226 254
205 226 254
205 226 254
205 226 254
205 226 254
205 226 254
205 226 254
205 226 254
205 226 254
205 226 254
204 226 254
204 226 254
204 226 254
204 226 254
204 226 254
204 226 254
204 226 254
204 226 254
204 226 254
204 226 254
204 226 254
204 225 254
204 225 254
204 225 254
204 225 254
204 225 254
204 225 254
204 225 254
204 225 254
203 225 254
203 225 254
203 225 254
203 225 254
203 225 254
203 225 254
203 225 254
203 225 254
203 225 254
203 225 254
203 225 254
203 225 254
203 225 254
203 225 254
203 225 254
203 225 254
203 225 254
203 225 254
203 225 254
203 225 254
203 225 254
203 225 254
203 225 254
203 225 254
202 225 254
202 225 254
202 225 254
202 225 254
202 225 254
202 225 254
202 225 254
202 225 254
202 225 254
202 225 254
202 225 254
202 225 254
202 225 254
202 225 254
202 225 254
202 225 254
202 225 254
202 225 254
202 225 254
202 225 254
202 225 254
202 225 254
202 225 254
202 225 254
202 224 254
202 225 254
202 224 254
202 224 254
202 224 254
202 224 254
202 224 254
202 224 254
202 224 254
202 224 254
202 225 254
202 225 254
202 225 254
202 225 254
202 225 254
202 225 254
202 225 254
202 225 254
202 225 254
202 225 254
202 225 254
202 225 254
202 225 254
202 225 254
202 225 254
202 225 254
202 225 254
202 225 254
202 225 254
202 225 254
202 225 254
202 225 254
202 225 254
202 225 254
203 225 254
203 225 254
203 225 254
203 225 254
203 225 254
203 225 254
203 225 254
203 225 254
203 225 254
203 225 254
203 225 254
203 225 254
203 225 254
203 225 254
203 225 254
203 225 254
203 225 254
203 225 254
203 225 254
203 225 254
203 225 254
203 225 254
203 225 254
203 225 254
204 225 254
204 225 254
204 225 254
204 225 254
204 225 254
204 225 254
204 225 254
204 225 254
204 226 254
204 226 254
204 226 254
204 226 254
204 226 254
204 226 254
204 226 254
204 226 254
204 226 254
204 226 254
204 226 254
205 226 254
205 226 254
205 226 254
205 226 254
205 226 254
205 226 254
205 226 254
205 226 254
205 226 254
205 226 254
205 226 254
205 226 254
205 226 254
205 226 254
205 226 254
205 226 254
205 226 254
205 226 254
206 226 254
206 226 254
206 226 254
206 226 254
206 227 254
206 227 254
206 227 254
206 227 254
206 227 254
206 227 254
206 227 254
206 227 254
206 227 254
206 227 254
206 227 254
206 227 254
206 227 254
206 227 254
207 227 254
207 227 254
207 227 254
207 227 254
207 227 254
207 227 254
199 217 248
184 197 235
181 189 237
156 157 214
157 153 228
161 157 233
169 165 245
169 165 247
172 170 253
171 169 252
173 170 254
172 170 254
172 170 254
171 169 254
171 169 254
171 169 254
171 169 254
171 169 254
171 169 254
170 169 254
170 169 254
170 169 254
170 169 254
170 169 254
170 169 254
170 169 254
170 169 254
170 169 254
170 169 254
171 169 254
170 169 254
171 169 254
170 169 254
171 169 254
171 169 254
171 169 254
171 169 254
171 169 254
172 170 254
172 170 254
172 170 254
172 170 254
172 170 254
172 170 254
173 170 254
173 170 254
173 170 254
173 170 254
174 171 254
174 171 254
175 171 254
175 171 254
175 171 254
176 172 254
176 172 254
177 172 254
177 172 254
177 172 254
177 171 253
177 172 253
176 170 251
175 169 249
174 168 247
168 162 239
164 158 232
160 154 226
161 154 226
154 148 216
160 158 217
173 177 226
189 200 239
202 218 248
210 229 254
210 229 254
210 229 254
210 229 254
210 229 254
210 229 254
210 229 254
210 229 254
210 229 254
211 229 254
211 229 254
211 229 254
211 229 254
211 229 254
211 229 254
211 229 254
211 229 254
211 229 254
211 229 254
211 229 254
211 229 254
211 229 254
211 229 254
210 229 254
207 227 247
196 217 195
189 210 161
175 199 84
173 197 0
173 197 0
171 196 0
172 197 0
171 195 0
174 197 0
173 197 0
171 196 0
171 196 0
171 196 0
172 196 0
172 197 0
174 197 0
172 196 0
173 197 0
172 197 0
174 197 0
172 196 0
172 196 0
172 196 0
173 197 0
173 197 0
171 196 0
172 196 0
172 196 0
173 197 0
173 197 0
176 198 0
173 196 0
170 196 0
172 196 0
174 197 0
172 197 0
172 196 0
174 197 0
173 197 0
174 197 0
175 198 0
173 197 0
172 196 0
173 197 0
173 197 0
173 197 0
174 197 0
172 197 0
174 197 0
175 198 0
174 197 0
173 197 0
172 196 0
174 197 0
172 196 0
174 197 0
174 197 0
171 196 0
173 197 0
172 196 0
174 197 0
172 196 0
175 198 0
173 196 0
171 196 0
172 196 0
173 197 0
172 196 0
174 197 0
175 198 0
174 197 0
174 197 0
175 197 0
171 196 0
174 197 0
177 201 88
187 209 152
195 216 204
205 225 245
207 227 254
207 227 254
207 227 254
207 227 254
207 227 254
207 227 254
206 227 254
206 227 254
206 227 254
206 227 254
206 227 254
206 227 254
206 227 254
206 227 254
206 227 254
206 227 254
206 227 254
206 227 254
206 227 254
206 226 254
206 226 254
206 226 254
206 226 254
206 226 254
205 226 254
205 226 254
205 226 254
205 226 254
205 226 254
205 226 254
205 226 254
205 226 254
205 226 254
205 226 254
205 226 254
205 226 254
205 226 254
205 226 254
205 226 254
205 226 254
205 226 254
205 226 254
204 226 254
204 226 254
204 226 254
204 226 254
204 226 254
204 226 254
204 226 254
204 226 254
204 226 254
204 226 254
204 226 254
204 226 254
204 225 254
204 225 254
204 225 254
204 225 254
204 225 254
204 225 254
204 225 254
204 225 254
203 225 254
203 225 254
203 225 254
203 225 254
203 225 254
203 225 254
203 225 254
203 225 254
203 225 254
203 225 254
203 225 254
203 225 254
203 225 254
203 225 254
203 225 254
203 225 254
203 225 254
203 225 254
203 225 254
203 225 254
203 225 254
203 225 254
203 225 254
203 225 254
203 225 254
203 225 254
203 225 254
203 225 254
202 225 254
202 225 254
202 225 254
202 225 254
202 225 254
202 225 254
202 225 254
202 225 254
202 225 254
202 225 254
202 225 254
202 225 254
202 225 254
202 225 254
202 225 254
202 225 254
202 225 254
202 225 254
202 225 254
202 225 254
202 225 254
202 225 254
202 225 254
202 225 254
202 225 254
202 225 254
202 225 254
202 225 254
202 225 254
202 225 254
202 225 254
202 225 254
202 225 254
202 225 254
202 225 254
202 225 254
202 225 254
202 225 254
202 225 254
202 225 254
203 225 254
203 225 254
203 225 254
203 225 254
203 225 254
203 225 254
203 225 254
203 225 254
203 225 254
203 225 254
203 225 254
203 225 254
203 225 254
203 225 254
203 225 254
203 225 254
203 225 254
203 225 254
203 225 254
203 225 254
203 225 254
203 225 254
203 225 254
203 225 254
203 225 254
203 225 254
203 225 254
203 225 254
204 225 254
204 225 254
204 225 254
204 225 254
204 225 254
204 225 254
204 225 254
204 225 254
204 225 254
204 226 254
204 226 254
204 226 254
204 226 254
204 226 254
204 226 254
204 226 254
204 226 254
204 226 254
204 226 254
204 226 254
205 226 254
205 226 254
205 226 254
205 226 254
205 226 254
205 226 254
205 226 254
205 226 254
205 226 254
205 226 254
205 226 254
205 226 254
205 226 254
205 226 254
205 226 254
205 226 254
205 226 254
205 226 254
206 226 254
206 226 254
206 226 254
206 226 254
206 226 254
206 227 254
206 227 254
206 227 254
206 227 254
206 227 254
206 227 254
206 227 254
206 227 254
206 227 254
206 227 254
206 227 254
206 227 254
206 227 254
207 227 254
207 227 254
207 227 254
207 227 254
207 227 254
207 227 254
200 218 249
190 205 241
175 182 233
163 162 229
159 155 230
169 165 245
168 165 245
172 169 252
170 167 251
171 169 253
171 170 254
171 169 254
170 169 254
170 169 254
169 169 254
170 169 254
170 169 254
169 169 254
169 169 254
169 169 254
169 168 254
169 168 254
168 168 254
169 168 254
168 168 254
168 168 254
168 168 254
169 168 254
169 168 254
168 168 254
169 168 254
169 168 254
169 168 254
169 168 254
170 169 254
169 168 254
169 169 254
169 169 254
170 169 254
170 169 254
170 169 254
170 169 254
170 169 254
170 169 254
171 169 254
171 169 254
171 169 254
172 170 254
172 170 254
171 170 254
172 170 254
173 170 254
173 170 254
173 170 254
173 170 254
174 171 254
174 171 254
174 171 254
175 171 254
175 171 254
175 171 254
175 171 254
176 172 254
177 172 254
176 172 254
177 172 254
178 172 254
178 172 254
175 170 251
174 168 248
170 164 241
174 167 245
162 156 229
165 159 232
170 163 239
170 163 237
157 155 213
175 182 223
189 201 235
206 223 251
210 229 254
211 229 254
211 229 254
211 229 254
211 229 254
211 229 254
211 229 254
211 229 254
211 229 254
211 229 254
211 229 254
211 229 254
211 229 254
211 229 254
211 229 254
211 229 254
211 229 254
200 220 214
191 212 172
181 204 119
169 195 0
169 195 0
174 197 0
171 196 0
172 196 0
170 195 0
173 197 0
171 197 0
172 196 0
172 196 0
172 196 0
173 197 0
174 197 0
172 196 0
171 196 0
174 197 0
175 197 0
175 198 0
173 197 0
171 196 0
172 196 0
171 196 0
174 197 0
173 197 0
171 196 0
173 197 0
171 196 0
171 195 0
173 197 0
174 196 0
174 198 0
170 195 0
174 197 0
173 197 0
172 196 0
171 196 0
172 196 0
173 197 0
173 197 0
172 196 0
174 197 0
173 197 0
174 197 0
173 197 0
173 197 0
173 197 0
172 197 0
173 197 0
172 196 0
174 197 0
174 197 0
174 197 0
174 197 0
173 196 0
172 196 0
174 197 0
172 196 0
173 197 0
171 196 0
171 196 0
173 197 0
173 196 0
173 197 0
173 197 0
169 195 0
172 197 0
171 196 0
171 196 0
173 197 0
174 197 0
174 197 0
173 196 0
174 197 0
172 197 0
171 196 0
173 197 0
173 197 0
172 196 0
176 198 0
173 197 25
184 206 132
190 212 180
202 222 230
207 227 254
207 227 254
207 227 254
207 227 254
207 227 254
207 227 254
206 227 254
206 227 254
206 227 254
206 227 254
206 227 254
206 227 254
206 227 254
206 227 254
206 227 254
206 227 254
206 227 254
206 227 254
206 227 254
206 227 254
206 226 254
206 226 254
206 226 254
206 226 254
205 226 254
205 226 254
205 226 254
205 226 254
205 226 254
205 226 254
205 226 254
205 226 254
205 226 254
205 226 254
205 226 254
205 226 254
205 226 254
205 226 254
205 226 254
205 226 254
205 226 254
205 226 254
205 226 254
204 226 254
204 226 254
204 226 254
204 226 254
204 226 254
204 226 254
204 226 254
204 226 254
204 226 254
204 226 254
204 226 254
204 226 254
204 225 254
204 225 254
204 225 254
204 225 254
204 225 254
204 225 254
204 225 254
204 225 254
204 225 254
203 225 254
203 225 254
203 225 254
203 225 254
203 225 254
203 225 254
203 225 254
203 225 254
203 225 254
203 225 254
203 225 254
203 225 254
203 225 254
203 225 254
203 225 254
203 225 254
203 225 254
203 225 254
203 225 254
203 225 254
203 225 254
203 225 254
203 225 254
203 225 254
203 225 254
203 225 254
203 225 254
203 225 254
203 225 254
203 225 254
203 225 254
203 225 254
203 225 254
203 225 254
203 225 254
203 225 254
203 225 254
203 225 254
203 225 254
203 225 254
203 225 254
203 225 254
203 225 254
203 225 254
203 225 254
203 225 254
203 225 254
203 225 254
203 225 254
203 225 254
203 225 254
203 225 254
203 225 254
203 225 254
203 225 254
203 225 254
203 225 254
203 225 254
203 225 254
203 225 254
203 225 254
203 225 254
203 225 254
203 225 254
203 225 254
203 225 254
203 225 254
203 225 254
203 225 254
203 225 254
203 225 254
203 225 254
203 225 254
203 225 254
203 225 254
203 225 254
203 225 254
203 225 254
203 225 254
203 225 254
203 225 254
203 225 254
203 225 254
203 225 254
203 225 254
203 225 254
204 225 254
204 225 254
204 225 254
204 225 254
204 225 254
204 225 254
204 225 254
204 225 254
204 225 254
204 226 254
204 226 254
204 226 254
204 226 254
204 226 254
204 226 254
204 226 254
204 226 254
204 226 254
204 226 254
204 226 254
204 226 254
205 226 254
205 226 254
205 226 254
205 226 254
205 226 254
205 226 254
205 226 254
205 226 254
205 226 254
205 226 254
205 226 254
205 226 254
205 226 254
205 226 254
205 226 254
205 226 254
205 226 254
205 226 254
205 226 254
206 226 254
206 226 254
206 226 254
206 226 254
206 227 254
206 227 254
206 227 254
206 227 254
206 227 254
206 227 254
206 227 254
206 227 254
206 227 254
206 227 254
206 227 254
206 227 254
206 227 254
207 227 254
207 227 254
207 227 254
207 227 254
207 227 254
207 227 254
206 226 254
194 208 245
178 187 232
167 170 226
164 160 236
166 162 241
166 163 243
172 169 253
172 170 254
172 170 254
171 169 254
170 169 254
170 169 254
170 169 254
169 168 254
169 168 254
169 168 254
169 168 254
168 168 254
168 168 254
167 168 254
167 168 254
167 168 254
167 168 254
167 168 254
167 168 254
167 168 254
167 167 254
167 167 254
167 168 254
167 168 254
167 168 254
168 168 254
167 168 254
168 168 254
167 168 254
168 168 254
168 168 254
168 168 254
168 168 254
168 168 254
168 168 254
169 168 254
169 168 254
169 168 254
169 169 254
169 168 254
170 169 254
170 169 254
170 169 254
170 169 254
170 169 254
171 169 254
171 170 254
171 169 254
171 169 254
172 170 254
172 170 254
173 170 254
173 170 254
173 170 254
173 170 254
174 171 254
174 171 254
174 171 254
175 171 254
175 171 254
175 171 254
176 172 254
176 172 254
176 172 254
177 172 254
178 172 254
177 172 254
178 173 254
178 173 254
179 173 254
178 172 253
176 169 248
167 161 236
165 159 232
168 161 236
159 153 223
151 144 210
171 170 229
183 193 229
198 213 243
211 229 254
211 229 254
211 229 254
211 229 254
211 229 254
211 229 254
211 229 254
211 229 254
211 229 254
211 229 254
211 229 254
206 225 233
187 209 159
180 202 95
172 196 0
170 196 0
174 197 0
172 196 0
173 197 0
172 196 0
172 197 0
172 196 0
172 197 0
170 196 0
172 197 0
172 196 0
174 197 0
174 197 0
174 197 0
171 195 0
173 197 0
172 197 0
173 197 0
173 196 0
173 196 0
171 196 0
174 197 0
173 197 0
172 197 0
173 197 0
174 197 0
172 196 0
174 197 0
174 197 0
173 197 0
172 196 0
173 196 0
173 197 0
172 196 0
172 196 0
171 196 0
174 197 0
172 196 0
172 196 0
174 197 0
173 197 0
172 196 0
175 198 0
174 197 0
172 196 0
174 197 0
175 198 0
172 196 0
172 197 0
173 197 0
172 196 0
174 197 0
174 197 0
174 197 0
175 197 0
174 197 0
171 196 0
171 195 0
173 196 0
172 196 0
173 197 0
173 197 0
171 196 0
172 196 0
174 197 0
172 196 0
173 197 0
172 197 0
173 197 0
172 196 0
174 197 0
172 196 0
174 197 0
172 196 0
174 197 0
175 198 0
175 198 0
173 196 0
173 197 0
170 196 0
173 197 0
174 197 0
173 196 0
175 198 0
175 198 0
180 202 95
189 211 167
200 220 220
207 227 254
207 227 254
207 227 254
207 227 254
207 227 254
207 227 254
207 227 254
206 227 254
206 227 254
206 227 254
206 227 254
206 227 254
206 227 254
206 227 254
206 227 254
206 227 254
206 227 254
206 227 254
206 227 254
206 227 254
206 227 254
206 226 254
206 226 254
206 226 254
206 226 254
206 226 254
205 226 254
205 226 254
205 226 254
205 226 254
205 226 254
205 226 254
205 226 254
205 226 254
205 226 254
205 226 254
205 226 254
205 226 254
205 226 254
205 226 254
205 226 254
205 226 254
205 226 254
205 226 254
205 226 254
204 226 254
204 226 254
204 226 254
204 226 254
204 226 254
204 226 254
204 226 254
204 226 254
204 226 254
204 226 254
204 226 254
204 226 254
204 226 254
204 225 254
204 225 254
204 225 254
204 225 254
204 225 254
204 225 254
204 225 254
204 225 254
204 225 254
203 225 254
203 225 254
203 225 254
203 225 254
203 225 254
203 225 254
203 225 254
203 225 254
203 225 254
203 225 254
203 225 254
203 225 254
203 225 254
203 225 254
203 225 254
203 225 254
203 225 254
203 225 254
203 225 254
203 225 254
203 225 254
203 225 254
203 225 254
203 225 254
203 225 254
203 225 254
203 225 254
203 225 254
203 225 254
203 225 254
203 225 254
203 225 254
203 225 254
203 225 254
203 225 254
203 225 254
203 225 254
203 225 254
203 225 254
203 225 254
203 225 254
203 225 254
203 225 254
203 225 254
203 225 254
203 225 254
203 225 254
203 225 254
203 225 254
203 225 254
203 225 254
203 225 254
203 225 254
203 225 254
203 225 254
203 225 254
203 225 254
203 225 254
203 225 254
203 225 254
203 225 254
203 225 254
203 225 254
203 225 254
203 225 254
203 225 254
203 225 254
203 225 254
203 225 254
203 225 254
203 225 254
203 225 254
203 225 254
203 225 254
204 225 254
204 225 254
204 225 254
204 225 254
204 225 254
204 225 254
204 225 254
204 225 254
204 225 254
204 225 254
204 226 254
204 226 254
204 226 254
204 226 254
204 226 254
204 226 254
204 226 254
204 226 254
204 226 254
204 226 254
204 226 254
204 226 254
205 226 254
205 226 254
205 226 254
205 226 254
205 226 254
205 226 254
205 226 254
205 226 254
205 226 254
205 226 254
205 226 254
205 226 254
205 226 254
205 226 254
205 226 254
205 226 254
205 226 254
205 226 254
205 226 254
205 226 254
206 226 254
206 226 254
206 226 254
206 226 254
206 227 254
206 227 254
206 227 254
206 227 254
206 227 254
206 227 254
206 227 254
206 227 254
206 227 254
206 227 254
206 227 254
206 227 254
206 227 254
207 227 254
207 227 254
207 227 254
207 227 254
207 227 254
207 227 254
207 227 254
207 227 254
196 214 245
174 180 232
165 165 229
165 162 240
161 158 236
173 170 253
173 170 254
172 170 254
171 169 254
170 169 254
170 169 254
169 169 254
169 168 254
168 168 254
168 168 254
168 168 254
167 168 254
167 168 254
167 168 254
167 168 254
167 167 254
166 167 254
166 167 254
166 167 254
166 167 254
166 167 254
165 167 254
166 167 254
166 167 254
166 167 254
166 167 254
166 167 254
166 167 254
167 167 254
166 167 254
166 167 254
166 167 254
167 167 254
167 167 254
167 167 254
167 167 254
167 168 254
167 168 254
168 168 254
168 168 254
168 168 254
168 168 254
168 168 254
169 168 254
169 168 254
169 168 254
169 168 254
170 169 254
169 169 254
170 169 254
170 169 254
170 169 254
170 169 254
171 169 254
171 169 254
171 170 254
172 170 254
171 170 254
173 170 254
173 170 254
173 170 254
173 170 254
174 171 254
174 171 254
174 171 254
175 171 254
175 171 254
175 171 254
176 172 254
176 172 254
177 172 254
177 172 254
177 172 254
178 172 254
178 173 254
178 173 254
178 172 252
178 172 253
178 172 252
176 169 248
171 165 241
163 157 229
159 153 223
148 141 205
164 162 222
180 188 229
197 211 241
211 229 254
211 229 254
211 229 254
211 229 254
211 230 254
205 224 232
196 216 194
175 201 91
169 195 0
173 197 0
171 196 0
172 196 0
170 195 0
172 195 0
174 197 0
170 196 0
169 195 0
172 196 0
172 197 0
175 198 0
173 197 0
172 196 0
175 198 0
172 196 0
172 196 0
172 196 0
174 197 0
173 197 0
170 195 0
170 195 0
175 198 0
172 196 0
171 196 0
171 196 0
174 197 0
174 197 0
172 196 0
173 196 0
172 196 0
173 197 0
173 197 0
172 196 0
174 197 0
174 197 0
173 197 0
173 197 0
173 196 0
172 196 0
173 197 0
172 196 0
172 196 0
172 196 0
173 197 0
172 195 0
173 196 0
173 197 0
171 196 0
173 197 0
173 197 0
170 195 0
174 197 0
172 196 0
173 197 0
174 197 0
173 197 0
171 196 0
175 198 0
172 196 0
173 196 0
173 196 0
171 196 0
173 197 0
172 195 0
173 197 0
172 196 0
171 195 0
172 196 0
175 197 0
173 197 0
173 197 0
170 196 0
174 197 0
173 196 0
174 196 0
171 197 0
169 195 0
173 197 0
173 197 0
174 197 0
170 196 0
173 197 0
173 197 0
173 196 0
173 197 0
174 197 0
171 195 0
172 196 0
174 197 0
171 196 0
172 196 0
178 201 98
193 214 185
201 222 232
207 227 254
207 227 254
207 227 254
207 227 254
207 227 254
207 227 254
207 227 254
207 227 254
206 227 254
206 227 254
206 227 254
206 227 254
206 227 254
206 227 254
206 227 254
206 227 254
206 227 254
206 227 254
206 227 254
206 227 254
206 227 254
206 227 254
206 227 254
206 226 254
206 226 254
206 226 254
206 226 254
205 226 254
205 226 254
205 226 254
205 226 254
205 226 254
205 226 254
205 226 254
205 226 254
205 226 254
205 226 254
205 226 254
205 226 254
205 226 254
205 226 254
205 226 254
205 226 254
205 226 254
205 226 254
205 226 254
205 226 254
204 226 254
204 226 254
204 226 254
204 226 254
204 226 254
204 226 254
204 226 254
204 226 254
204 226 254
204 226 254
204 226 254
204 226 254
204 226 254
204 225 254
204 225 254
204 225 254
204 225 254
204 225 254
204 225 254
204 225 254
204 225 254
204 225 254
204 225 254
204 225 254
203 225 254
203 225 254
203 225 254
203 225 254
203 225 254
203 225 254
203 225 254
203 225 254
203 225 254
203 225 254
203 225 254
203 225 254
203 225 254
203 225 254
203 225 254
203 225 254
203 225 254
203 225 254
203 225 254
203 225 254
203 225 254
203 225 254
203 225 254
203 225 254
203 225 254
203 225 254
203 225 254
203 225 254
203 225 254
203 225 254
203 225 254
203 225 254
203 225 254
203 225 254
203 225 254
203 225 254
203 225 254
203 225 254
203 225 254
203 225 254
203 225 254
203 225 254
203 225 254
203 225 254
203 225 254
203 225 254
203 225 254
203 225 254
203 225 254
203 225 254
203 225 254
203 225 254
203 225 254
203 225 254
203 225 254
203 225 254
203 225 254
203 225 254
203 225 254
204 225 254
204 225 254
204 225 254
204 225 254
204 225 254
204 225 254
204 225 254
204 225 254
204 225 254
204 225 254
204 225 254
204 225 254
204 226 254
204 226 254
204 226 254
204 226 254
204 226 254
204 226 254
204 226 254
204 226 254
204 226 254
204 226 254
204 226 254
204 226 254
204 226 254
204 226 254
205 226 254
205 226 254
205 226 254
205 226 254
205 226 254
205 226 254
205 226 254
205 226 254
205 226 254
205 226 254
205 226 254
205 226 254
205 226 254
205 226 254
205 226 254
205 226 254
205 226 254
205 226 254
205 226 254
206 226 254
206 226 254
206 226 254
206 226 254
206 226 254
206 227 254
206 227 254
206 227 254
206 227 254
206 227 254
206 227 254
206 227 254
206 227 254
206 227 254
206 227 254
206 227 254
206 227 254
206 227 254
206 227 254
207 227 254
207 227 254
207 227 254
207 227 254
207 227 254
207 227 254
207 227 254
207 227 254
201 217 251
173 184 223
159 159 222
158 154 229
160 157 233
172 169 252
172 170 254
171 169 254
170 169 254
169 169 254
169 168 254
168 168 254
168 168 254
168 168 254
167 168 254
167 167 254
167 167 254
166 167 254
166 167 254
166 167 254
165 167 254
166 167 254
165 167 254
165 167 254
166 167 254
165 167 254
165 167 254
165 167 254
165 167 254
166 167 254
165 167 254
165 167 254
165 167 254
165 167 254
165 167 254
165 167 254
165 167 254
165 167 254
166 167 254
166 167 254
166 167 254
166 167 254
166 167 254
166 167 254
166 167 254
166 167 254
167 168 254
167 168 254
167 167 254
168 168 254
168 168 254
168 168 254
168 168 254
168 168 254
169 168 254
169 168 254
169 168 254
169 169 254
170 169 254
170 169 254
170 169 254
170 169 254
171 169 254
170 169 254
171 169 254
171 169 254
172 170 254
171 169 254
172 170 254
172 170 254
173 170 254
174 170 254
173 170 254
174 171 254
175 171 254
174 171 254
175 171 254
175 171 254
175 171 254
176 172 254
177 172 254
177 172 254
177 172 254
178 172 254
178 173 254
178 172 254
179 173 254
180 174 254
178 172 252
180 173 253
176 169 247
174 167 244
165 158 230
171 164 239
161 154 223
161 159 216
181 187 232
203 218 248
211 230 254
174 198 80
171 196 0
170 196 0
170 196 0
174 197 0
172 196 0
172 196 0
174 197 0
173 197 0
175 198 0
172 196 0
173 197 0
172 196 0
171 196 0
171 196 0
172 196 0
171 196 0
172 196 0
172 196 0
171 195 0
174 197 0
173 197 0
171 196 0
173 197 0
175 198 0
174 197 0
174 197 0
171 196 0
174 197 0
172 196 0
171 195 0
172 197 0
172 196 0
173 196 0
172 196 0
173 197 0
174 197 0
173 197 0
172 196 0
173 197 0
173 197 0
172 196 0
172 196 0
171 196 0
173 197 0
173 197 0
172 196 0
171 196 0
174 197 0
171 196 0
172 196 0
173 197 0
173 197 0
173 197 0
174 197 0
173 196 0
173 197 0
176 198 0
173 197 0
173 197 0
172 196 0
172 196 0
173 197 0
171 195 0
171 196 0
173 197 0
173 197 0
175 197 0
173 197 0
172 196 0
171 195 0
174 197 0
173 196 0
172 196 0
173 197 0
172 197 0
172 195 0
173 197 0
173 196 0
173 196 0
171 196 0
173 197 0
174 197 0
174 197 0
171 196 0
170 195 0
173 197 0
173 196 0
175 198 0
173 197 0
172 196 0
172 196 0
174 197 0
174 197 0
172 196 0
175 197 0
175 197 0
174 196 0
175 198 0
182 204 122
193 214 189
206 226 249
207 227 254
207 227 254
207 227 254
207 227 254
207 227 254
207 227 254
207 227 254
207 227 254
207 227 254
206 227 254
206 227 254
206 227 254
206 227 254
206 227 254
206 227 254
206 227 254
206 227 254
206 227 254
206 227 254
206 227 254
206 227 254
206 227 254
206 227 254
206 227 254
206 226 254
206 226 254
206 226 254
206 226 254
205 226 254
205 226 254
205 226 254
205 226 254
205 226 254
205 226 254
205 226 254
205 226 254
205 226 254
205 226 254
205 226 254
205 226 254
205 226 254
205 226 254
205 226 254
205 226 254
205 226 254
205 226 254
205 226 254
205 226 254
205 226 254
204 226 254
204 226 254
204 226 254
204 226 254
204 226 254
204 226 254
204 226 254
204 226 254
204 226 254
204 226 254
204 226 254
204 226 254
204 226 254
204 226 254
204 226 254
204 225 254
204 225 254
204 225 254
204 225 254
204 225 254
204 225 254
204 225 254
204 225 254
204 225 254
204 225 254
204 225 254
204 225 254
204 225 254
204 225 254
203 225 254
203 225 254
203 225 254
203 225 254
203 225 254
203 225 254
203 225 254
203 225 254
203 225 254
203 225 254
203 225 254
203 225 254
203 225 254
203 225 254
203 225 254
203 225 254
203 225 254
203 225 254
203 225 254
203 225 254
203 225 254
203 225 254
203 225 254
203 225 254
203 225 254
203 225 254
203 225 254
203 225 254
203 225 254
203 225 254
203 225 254
203 225 254
203 225 254
203 225 254
203 225 254
203 225 254
203 225 254
203 225 254
203 225 254
203 225 254
204 225 254
204 225 254
204 225 254
204 225 254
204 225 254
204 225 254
204 225 254
204 225 254
204 225 254
204 225 254
204 225 254
204 225 254
204 225 254
204 225 254
204 226 254
204 226 254
204 226 254
204 226 254
204 226 254
204 226 254
204 226 254
204 226 254
204 226 254
204 226 254
204 226 254
204 226 254
204 226 254
204 226 254
204 226 254
205 226 254
205 226 254
205 226 254
205 226 254
205 226 254
205 226 254
205 226 254
205 226 254
205 226 254
205 226 254
205 226 254
205 226 254
205 226 254
205 226 254
205 226 254
205 226 254
205 226 254
205 226 254
205 226 254
205 226 254
205 226 254
206 226 254
206 226 254
206 226 254
206 226 254
206 227 254
206 227 254
206 227 254
206 227 254
206 227 254
206 227 254
206 227 254
206 227 254
206 227 254
206 227 254
206 227 254
206 227 254
206 227 254
206 227 254
206 227 254
207 227 254
207 227 254
207 227 254
207 227 254
207 227 254
207 227 254
207 227 254
207 227 254
207 227 254
205 224 252
193 207 245
165 166 228
173 168 249
171 167 249
173 170 253
172 170 254
171 169 254
170 169 254
169 169 254
168 168 254
168 168 254
168 168 254
167 168 254
167 167 254
166 167 254
166 167 254
166 167 254
166 167 254
165 167 254
165 167 254
165 167 254
165 167 254
164 166 254
164 166 254
164 166 254
165 166 254
164 166 254
164 166 254
164 166 254
164 166 254
164 166 254
164 166 254
165 166 254
164 166 254
165 167 254
165 166 254
165 166 254
165 167 254
165 167 254
165 167 254
165 167 254
165 167 254
165 167 254
166 167 254
166 167 254
166 167 254
166 167 254
166 167 254
166 167 254
167 167 254
166 167 254
167 168 254
167 168 254
167 168 254
168 168 254
168 168 254
168 168 254
168 168 254
168 168 254
169 168 254
169 168 254
169 169 254
170 169 254
170 169 254
170 169 254
170 169 254
171 169 254
171 169 254
171 169 254
172 170 254
172 170 254
172 170 254
173 170 254
173 170 254
172 170 254
173 170 254
174 171 254
174 171 254
174 171 254
175 171 254
175 171 254
175 171 254
176 172 254
177 172 254
176 172 254
177 172 254
177 172 254
178 172 254
178 173 254
178 173 254
179 173 254
180 173 254
180 173 254
179 172 252
178 171 251
177 170 248
169 162 236
169 162 236
163 156 228
152 145 210
167 169 217
170 196 0
168 195 0
171 196 0
173 197 0
172 196 0
170 195 0
173 197 0
173 196 0
173 197 0
172 197 0
171 196 0
173 197 0
171 196 0
173 197 0
175 198 0
173 197 0
173 197 0
173 196 0
172 196 0
171 196 0
172 196 0
172 196 0
173 196 0
175 197 0
175 198 0
171 196 0
172 196 0
173 197 0
171 195 0
174 197 0
172 196 0
173 197 0
174 197 0
172 196 0
169 195 0
174 197 0
175 198 0
172 196 0
173 196 0
174 197 0
173 197 0
172 196 0
172 196 0
171 196 0
173 197 0
170 196 0
172 196 0
171 195 0
173 197 0
173 197 0
173 197 0
174 197 0
172 196 0
173 197 0
174 197 0
174 197 0
174 197 0
173 197 0
173 197 0
174 197 0
174 197 0
171 196 0
174 197 0
173 197 0
174 197 0
172 196 0
174 197 0
172 196 0
173 197 0
175 197 0
172 196 0
174 197 0
174 197 0
174 197 0
175 198 0
173 197 0
173 197 0
174 197 0
175 198 0
173 197 0
173 196 0
173 196 0
173 197 0
172 197 0
172 197 0
172 196 0
174 197 0
176 198 0
173 197 0
173 196 0
173 197 0
173 197 0
174 197 0
174 197 0
174 197 0
173 197 0
176 198 0
172 196 0
173 197 0
173 197 0
173 197 0
176 199 72
186 207 148
201 222 232
207 227 254
207 227 254
207 227 254
207 227 254
207 227 254
207 227 254
207 227 254
207 227 254
207 227 254
207 227 254
207 227 254
207 227 254
206 227 254
206 227 254
206 227 254
206 227 254
206 227 254
206 227 254
206 227 254
206 227 254
206 227 254
206 227 254
206 227 254
206 227 254
206 227 254
206 227 254
206 226 254
206 226 254
206 226 254
206 226 254
206 226 254
205 226 254
205 226 254
205 226 254
205 226 254
205 226 254
205 226 254
205 226 254
205 226 254
205 226 254
205 226 254
205 226 254
205 226 254
205 226 254
205 226 254
205 226 254
205 226 254
205 226 254
205 226 254
205 226 254
205 226 254
205 226 254
204 226 254
204 226 254
204 226 254
204 226 254
204 226 254
204 226 254
204 226 254
204 226 254
204 226 254
204 226 254
204 226 254
204 226 254
204 226 254
204 226 254
204 226 254
204 226 254
204 226 254
204 226 254
204 225 254
204 225 254
204 225 254
204 225 254
204 225 254
204 225 254
204 225 254
204 225 254
204 225 254
204 225 254
204 225 254
204 225 254
204 225 254
204 225 254
204 225 254
204 225 254
204 225 254
204 225 254
204 225 254
204 225 254
204 225 254
204 225 254
204 225 254
204 225 254
204 225 254
204 225 254
204 225 254
204 225 254
204 225 254
204 225 254
204 225 254
204 225 254
204 225 254
204 225 254
204 225 254
204 225 254
204 225 254
204 225 254
204 225 254
204 225 254
204 225 254
204 225 254
204 225 254
204 225 254
204 225 254
204 225 254
204 225 254
204 225 254
204 225 254
204 225 254
204 225 254
204 225 254
204 225 254
204 226 254
204 226 254
204 226 254
204 226 254
204 226 254
204 226 254
204 226 254
204 226 254
204 226 254
204 226 254
204 226 254
204 226 254
204 226 254
204 226 254
204 226 254
204 226 254
205 226 254
205 226 254
205 226 254
205 226 254
205 226 254
205 226 254
205 226 254
205 226 254
205 226 254
205 226 254
205 226 254
205 226 254
205 226 254
205 226 254
205 226 254
205 226 254
205 226 254
205 226 254
205 226 254
205 226 254
205 226 254
205 226 254
206 226 254
206 226 254
206 226 254
206 226 254
206 226 254
206 227 254
206 227 254
206 227 254
206 227 254
206 227 254
206 227 254
206 227 254
206 227 254
206 227 254
206 227 254
206 227 254
206 227 254
206 227 254
206 227 254
207 227 254
207 227 254
207 227 254
207 227 254
207 227 254
207 227 254
207 227 254
207 227 254
207 227 254
207 227 254
207 227 254
207 227 254
199 217 247
176 183 233
161 159 228
165 161 239
169 167 249
172 169 253
171 169 254
170 169 254
169 169 254
169 168 254
168 168 254
168 168 254
167 168 254
166 167 254
166 167 254
166 167 254
165 167 254
165 167 254
165 167 254
164 166 254
164 166 254
164 166 254
164 166 254
164 166 254
164 166 254
164 166 254
164 166 254
164 166 254
164 166 254
164 166 254
164 166 254
164 166 254
163 166 254
164 166 254
164 166 254
163 166 254
164 166 254
164 166 254
164 166 254
164 166 254
164 166 254
164 166 254
164 166 254
165 166 254
165 167 254
165 167 254
165 167 254
166 167 254
166 167 254
165 167 254
166 167 254
167 167 254
166 167 254
166 167 254
167 167 254
167 167 254
167 168 254
168 168 254
168 168 254
168 168 254
168 168 254
168 168 254
169 168 254
169 168 254
169 168 254
169 168 254
169 169 254
169 169 254
170 169 254
170 169 254
171 169 254
171 169 254
170 169 254
171 169 254
171 169 254
172 170 254
172 170 254
172 170 254
173 170 254
173 170 254
173 170 254
174 171 254
174 171 254
175 171 254
175 171 254
175 171 254
175 171 254
176 171 254
176 172 254
176 172 254
177 172 254
177 172 254
178 172 254
178 173 254
179 173 254
179 173 254
180 173 254
180 173 254
180 174 254
178 171 251
179 171 249
175 168 245
173 166 241
169 161 235
170 196 0
171 196 0
174 197 0
174 197 0
174 197 0
170 195 0
173 196 0
175 198 0
172 196 0
169 195 0
172 197 0
172 196 0
171 196 0
172 197 0
174 197 0
173 196 0
171 196 0
173 197 0
174 197 0
174 197 0
172 196 0
173 197 0
172 197 0
171 196 0
175 198 0
175 198 0
173 197 0
170 195 0
173 197 0
170 195 0
175 198 0
173 197 0
173 197 0
172 196 0
174 197 0
172 196 0
172 196 0
174 197 0
172 196 0
174 197 0
170 195 0
174 197 0
173 197 0
173 197 0
173 197 0
172 196 0
173 197 0
173 196 0
173 197 0
175 198 0
172 196 0
174 197 0
172 196 0
174 197 0
173 197 0
170 196 0
173 197 0
173 196 0
174 197 0
174 197 0
172 196 0
174 197 0
172 196 0
174 197 0
173 197 0
174 197 0
172 196 0
172 196 0
171 196 0
174 197 0
174 197 0
171 196 0
173 196 0
173 197 0
174 197 0
174 197 0
173 197 0
172 196 0
172 196 0
173 197 0
175 197 0
175 198 0
173 197 0
173 196 0
174 197 0
170 196 0
173 196 0
174 197 0
173 196 0
174 197 0
175 198 0
172 196 0
174 198 0
174 197 0
173 196 0
174 197 0
173 197 0
173 197 0
174 197 0
172 197 0
173 196 0
173 196 0
174 197 0
174 197 0
183 206 134
200 221 223
206 226 249
207 227 254
207 227 254
207 227 254
207 227 254
207 227 254
207 227 254
207 227 254
207 227 254
207 227 254
207 227 254
207 227 254
207 227 254
207 227 254
206 227 254
206 227 254
206 227 254
206 227 254
206 227 254
206 227 254
206 227 254
206 227 254
206 227 254
206 227 254
206 227 254
206 227 254
206 227 254
206 227 254
206 227 254
206 226 254
206 226 254
206 226 254
206 226 254
206 226 254
205 226 254
205 226 254
205 226 254
205 226 254
205 226 254
205 226 254
205 226 254
205 226 254
205 226 254
205 226 254
205 226 254
205 226 254
205 226 254
205 226 254
205 226 254
205 226 254
205 226 254
205 226 254
205 226 254
205 226 254
205 226 254
205 226 254
205 226 254
204 226 254
204 226 254
204 226 254
204 226 254
204 226 254
204 226 254
204 226 254
204 226 254
204 226 254
204 226 254
204 226 254
204 226 254
204 226 254
204 226 254
204 226 254
204 226 254
204 226 254
204 226 254
204 226 254
204 226 254
204 226 254
204 226 254
204 226 254
204 226 254
204 225 254
204 225 254
204 225 254
204 225 254
204 225 254
204 225 254
204 225 254
204 225 254
204 225 254
204 225 254
204 225 254
204 225 254
204 225 254
204 225 254
204 225 254
204 225 254
204 225 254
204 225 254
204 225 254
204 225 254
204 225 254
204 225 254
204 225 254
204 225 254
204 225 254
204 225 254
204 225 254
204 226 254
204 226 254
204 226 254
204 226 254
204 226 254
204 226 254
204 226 254
204 226 254
204 226 254
204 226 254
204 226 254
204 226 254
204 226 254
204 226 254
204 226 254
204 226 254
204 226 254
204 226 254
204 226 254
204 226 254
204 226 254
204 226 254
204 226 254
205 226 254
205 226 254
205 226 254
205 226 254
205 226 254
205 226 254
205 226 254
205 226 254
205 226 254
205 226 254
205 226 254
205 226 254
205 226 254
205 226 254
205 226 254
205 226 254
205 226 254
205 226 254
205 226 254
205 226 254
205 226 254
205 226 254
205 226 254
206 226 254
206 226 254
206 226 254
206 226 254
206 226 254
206 227 254
206 227 254
206 227 254
206 227 254
206 227 254
206 227 254
206 227 254
206 227 254
206 227 254
206 227 254
206 227 254
206 227 254
206 227 254
206 227 254
206 227 254
207 227 254
207 227 254
207 227 254
207 227 254
207 227 254
207 227 254
207 227 254
207 227 254
207 227 254
207 227 254
207 227 254
207 227 254
207 227 254
207 227 254
193 205 248
170 174 229
163 159 236
171 167 249
172 170 254
172 170 254
171 169 254
170 169 254
169 168 254
168 168 254
167 168 254
166 167 254
166 167 254
166 167 254
166 167 254
165 167 254
165 166 254
165 167 254
164 166 254
164 166 254
164 166 254
164 166 254
163 166 254
163 166 254
163 166 254
163 166 254
163 166 254
163 166 254
163 166 254
163 166 254
163 166 254
163 166 254
163 166 254
163 166 254
163 166 254
163 166 254
163 166 254
163 166 254
164 166 254
164 166 254
164 166 254
164 166 254
164 166 254
164 166 254
164 166 254
164 166 254
164 166 254
165 167 254
165 167 254
165 167 254
165 167 254
165 167 254
165 167 254
165 167 254
166 167 254
167 167 254
167 167 254
166 167 254
167 168 254
167 168 254
167 168 254
168 168 254
168 168 254
168 168 254
168 168 254
169 168 254
169 168 254
169 169 254
169 169 254
170 169 254
169 169 254
170 169 254
171 169 254
171 169 254
171 169 254
171 170 254
171 170 254
171 169 254
172 170 254
172 170 254
172 170 254
173 170 254
173 170 254
174 171 254
174 171 254
175 171 254
174 171 254
175 171 254
175 171 254
175 171 254
176 172 254
176 172 254
177 172 254
177 172 254
177 172 254
178 172 254
178 173 254
179 173 254
179 173 254
179 173 254
180 174 254
179 173 254
181 174 254
180 173 253
180 173 252
175 167 244
172 196 0
173 197 0
169 195 0
170 196 0
172 196 0
173 196 0
174 197 0
172 196 0
172 196 0
168 195 0
175 198 0
173 196 0
172 196 0
172 196 0
174 197 0
172 196 0
173 197 0
173 196 0
172 195 0
174 197 0
172 196 0
172 197 0
170 195 0
171 196 0
174 198 0
174 197 0
173 197 0
174 197 0
172 196 0
174 197 0
172 197 0
172 196 0
172 196 0
174 197 0
173 197 0
175 198 0
173 196 0
174 197 0
171 196 0
173 197 0
173 197 0
173 196 0
173 197 0
169 196 0
174 197 0
176 198 0
173 197 0
172 196 0
175 198 0
173 197 0
172 196 0
173 197 0
173 196 0
173 197 0
174 197 0
171 195 0
174 197 0
174 197 0
173 197 0
172 196 0
173 197 0
173 197 0
172 196 0
172 196 0
173 196 0
172 196 0
173 197 0
172 196 0
172 196 0
171 196 0
173 197 0
172 196 0
172 196 0
173 197 0
173 197 0
174 197 0
172 196 0
174 197 0
172 196 0
173 196 0
171 196 0
172 196 0
173 197 0
172 196 0
174 197 0
173 196 0
174 197 0
174 197 0
173 197 0
172 197 0
173 196 0
173 196 0
173 196 0
172 196 0
175 197 0
173 197 0
173 196 0
171 196 0
171 196 0
174 197 0
173 197 0
175 198 0
174 197 0
172 197 0
171 196 0
174 197 0
179 201 84
197 218 208
206 226 249
207 227 254
207 227 254
207 227 254
207 227 254
207 227 254
207 227 254
207 227 254
207 227 254
207 227 254
207 227 254
207 227 254
207 227 254
207 227 254
207 227 254
207 227 254
206 227 254
206 227 254
206 227 254
206 227 254
206 227 254
206 227 254
206 227 254
206 227 254
206 227 254
206 227 254
206 227 254
206 227 254
206 227 254
206 227 254
206 227 254
206 227 254
206 226 254
206 226 254
206 226 254
206 226 254
206 226 254
205 226 254
205 226 254
205 226 254
205 226 254
205 226 254
205 226 254
205 226 254
205 226 254
205 226 254
205 226 254
205 226 254
205 226 254
205 226 254
205 226 254
205 226 254
205 226 254
205 226 254
205 226 254
205 226 254
205 226 254
205 226 254
205 226 254
205 226 254
205 226 254
205 226 254
204 226 254
204 226 254
204 226 254
204 226 254
204 226 254
204 226 254
204 226 254
204 226 254
204 226 254
204 226 254
204 226 254
204 226 254
204 226 254
204 226 254
204 226 254
204 226 254
204 226 254
204 226 254
204 226 254
204 226 254
204 226 254
204 226 254
204 226 254
204 226 254
204 226 254
204 226 254
204 226 254
204 226 254
204 226 254
204 226 254
204 226 254
204 226 254
204 226 254
204 226 254
204 226 254
204 226 254
204 226 254
204 226 254
204 226 254
204 226 254
204 226 254
204 226 254
204 226 254
204 226 254
204 226 254
204 226 254
204 226 254
204 226 254
204 226 254
204 226 254
204 226 254
204 226 254
204 226 254
204 226 254
204 226 254
204 226 254
204 226 254
204 226 254
204 226 254
204 226 254
205 226 254
205 226 254
205 226 254
205 226 254
205 226 254
205 226 254
205 226 254
205 226 254
205 226 254
205 226 254
205 226 254
205 226 254
205 226 254
205 226 254
205 226 254
205 226 254
205 226 254
205 226 254
205 226 254
205 226 254
205 226 254
205 226 254
205 226 254
205 226 254
205 226 254
206 226 254
206 226 254
206 226 254
206 226 254
206 226 254
206 227 254
206 227 254
206 227 254
206 227 254
206 227 254
206 227 254
206 227 254
206 227 254
206 227 254
206 227 254
206 227 254
206 227 254
206 227 254
206 227 254
206 227 254
206 227 254
207 227 254
207 227 254
207 227 254
207 227 254
207 227 254
207 227 254
207 227 254
207 227 254
207 227 254
207 227 254
207 227 254
207 227 254
207 227 254
207 227 254
207 227 254
206 226 253
189 200 243
166 165 232
164 160 237
171 168 251
173 170 254
171 170 254
171 169 254
169 168 254
169 168 254
168 168 254
167 167 254
166 167 254
166 167 254
166 167 254
165 167 254
165 166 254
164 166 254
164 166 254
164 166 254
164 166 254
163 166 254
163 166 254
163 166 254
163 166 254
163 166 254
163 166 254
163 166 254
163 166 254
163 166 254
163 166 254
163 166 254
163 166 254
163 166 254
162 166 254
163 166 254
162 166 254
163 166 254
163 166 254
163 166 254
163 166 254
163 166 254
163 166 254
163 166 254
163 166 254
164 166 254
164 166 254
164 166 254
164 166 254
164 166 254
164 166 254
165 166 254
164 166 254
165 167 254
165 167 254
165 167 254
166 167 254
166 167 254
166 167 254
166 167 254
166 167 254
167 167 254
167 167 254
167 167 254
168 168 254
167 168 254
167 168 254
168 168 254
168 168 254
169 168 254
169 168 254
169 168 254
169 168 254
170 169 254
170 169 254
170 169 254
170 169 254
171 169 254
171 170 254
171 169 254
171 169 254
172 170 254
172 170 254
172 170 254
172 170 254
173 170 254
173 170 254
173 170 254
173 170 254
174 170 254
175 171 254
175 171 254
175 171 254
175 171 254
176 172 254
176 172 254
177 172 254
176 172 254
177 172 254
178 172 254
178 173 254
178 173 254
178 173 254
179 173 254
179 173 254
180 174 254
181 174 254
181 174 254
182 174 254
173 197 0
170 195 0
171 196 0
172 196 0
170 195 0
170 196 0
172 196 0
172 196 0
173 197 0
172 196 0
171 196 0
169 196 0
173 197 0
173 197 0
173 197 0
172 196 0
172 196 0
172 196 0
174 197 0
171 196 0
172 196 0
170 196 0
176 198 0
172 196 0
173 196 0
173 196 0
173 197 0
174 197 0
171 196 0
172 196 0
172 196 0
173 196 0
173 196 0
174 197 0
173 196 0
173 196 0
173 197 0
172 196 0
171 196 0
174 197 0
173 197 0
172 196 0
172 197 0
173 197 0
172 196 0
172 196 0
173 197 0
173 197 0
173 196 0
171 196 0
171 196 0
173 197 0
174 197 0
175 198 0
173 196 0
172 196 0
173 197 0
173 195 0
173 197 0
171 195 0
174 197 0
173 197 0
175 197 0
173 196 0
174 197 0
174 197 0
172 196 0
173 197 0
176 198 0
171 196 0
174 197 0
172 196 0
173 197 0
171 196 0
174 197 0
174 197 0
174 197 0
175 198 0
173 197 0
173 196 0
172 196 0
175 198 0
173 197 0
176 198 0
173 197 0
173 197 0
174 197 0
173 197 0
175 198 0
173 196 0
175 197 0
174 197 0
174 197 0
175 198 0
173 197 0
174 197 0
173 197 0
171 196 0
172 196 0
172 196 0
173 197 0
172 196 0
174 197 0
173 197 0
174 197 0
172 196 0
175 198 0
172 196 0
175 199 67
194 215 189
204 225 244
207 227 254
207 227 254
207 227 254
207 227 254
207 227 254
207 227 254
207 227 254
207 227 254
207 227 254
207 227 254
207 227 254
207 227 254
207 227 254
207 227 254
207 227 254
207 227 254
207 227 254
207 227 254
206 227 254
206 227 254
206 227 254
206 227 254
206 227 254
206 227 254
206 227 254
206 227 254
206 227 254
206 227 254
206 227 254
206 227 254
206 227 254
206 227 254
206 227 254
206 227 254
206 226 254
206 226 254
206 226 254
206 226 254
206 226 254
206 226 254
205 226 254
205 226 254
205 226 254
205 226 254
205 226 254
205 226 254
205 226 254
205 226 254
205 226 254
205 226 254
205 226 254
205 226 254
205 226 254
205 226 254
205 226 254
205 226 254
205 226 254
205 226 254
205 226 254
205 226 254
205 226 254
205 226 254
205 226 254
205 226 254
205 226 254
205 226 254
205 226 254
205 226 254
205 226 254
205 226 254
204 226 254
204 226 254
204 226 254
204 226 254
204 226 254
204 226 254
204 226 254
204 226 254
204 226 254
204 226 254
204 226 254
204 226 254
204 226 254
204 226 254
204 226 254
204 226 254
204 226 254
200 224 251
199 224 251
198 224 250
201 225 251
204 226 254
204 226 254
204 226 254
204 226 254
204 226 254
204 226 254
204 226 254
204 226 254
204 226 254
204 226 254
204 226 254
204 226 254
204 226 254
204 226 254
204 226 254
204 226 254
205 226 254
205 226 254
205 226 254
205 226 254
205 226 254
205 226 254
205 226 254
205 226 254
205 226 254
205 226 254
205 226 254
205 226 254
205 226 254
205 226 254
205 226 254
205 226 254
205 226 254
205 226 254
205 226 254
205 226 254
205 226 254
205 226 254
205 226 254
205 226 254
205 226 254
205 226 254
205 226 254
205 226 254
205 226 254
205 226 254
205 226 254
205 226 254
206 226 254
206 226 254
206 226 254
206 226 254
206 226 254
206 227 254
206 227 254
206 227 254
206 227 254
206 227 254
206 227 254
206 227 254
206 227 254
206 227 254
206 227 254
206 227 254
206 227 254
206 227 254
206 227 254
206 227 254
206 227 254
207 227 254
207 227 254
207 227 254
207 227 254
207 227 254
207 227 254
207 227 254
207 227 254
207 227 254
207 227 254
207 227 254
207 227 254
207 227 254
207 227 254
207 227 254
207 227 254
207 227 254
207 227 254
205 224 252
175 182 230
159 158 225
168 164 244
174 170 254
172 170 254
171 169 254
170 169 254
169 168 254
168 168 254
167 168 254
167 168 254
166 167 254
165 167 254
165 167 254
165 167 254
164 166 254
164 166 254
164 166 254
163 166 254
163 166 254
163 166 254
163 166 254
163 166 254
163 166 254
163 166 254
162 165 254
162 165 254
162 165 254
162 165 254
162 165 254
162 165 254
162 165 254
162 165 254
162 165 254
162 165 254
162 165 254
162 166 254
162 165 254
163 166 254
162 165 254
163 166 254
163 166 254
163 166 254
163 166 254
163 166 254
163 166 254
164 166 254
164 166 254
164 166 254
164 166 254
164 166 254
164 166 254
164 166 254
165 167 254
165 167 254
165 167 254
165 167 254
166 167 254
166 167 254
166 167 254
166 167 254
166 167 254
166 167 254
167 167 254
167 168 254
167 167 254
168 168 254
168 168 254
168 168 254
168 168 254
169 168 254
169 168 254
169 168 254
169 169 254
170 169 254
169 169 254
170 169 254
170 169 254
170 169 254
170 169 254
171 169 254
171 169 254
172 170 254
172 170 254
172 170 254
173 170 254
173 170 254
173 170 254
173 170 254
174 171 254
174 171 254
174 171 254
175 171 254
174 171 254
176 171 254
175 171 254
176 171 254
176 172 254
176 172 254
177 172 254
177 172 254
177 172 254
178 172 254
178 172 254
179 173 254
180 173 254
179 173 254
179 173 254
180 173 254
181 174 254
170 196 0
172 195 0
173 197 0
171 196 0
172 196 0
173 196 0
170 195 0
172 197 0
172 196 0
172 196 0
171 196 0
174 197 0
172 196 0
171 196 0
172 197 0
172 196 0
173 197 0
172 197 0
173 197 0
171 196 0
175 198 0
172 196 0
174 197 0
171 197 0
174 197 0
172 196 0
171 196 0
172 196 0
173 197 0
175 198 0
174 197 0
172 197 0
173 197 0
173 197 0
171 196 0
172 196 0
172 196 0
172 197 0
174 197 0
172 196 0
174 197 0
172 196 0
173 197 0
174 197 0
171 195 0
174 197 0
173 196 0
173 196 0
173 197 0
174 197 0
174 197 0
174 197 0
174 197 0
172 196 0
173 196 0
173 197 0
171 196 0
173 197 0
173 197 0
174 197 0
172 197 0
172 196 0
172 196 0
174 197 0
172 197 0
174 197 0
173 197 0
174 197 0
174 197 0
172 197 0
172 196 0
171 196 0
170 195 0
172 196 0
171 195 0
174 197 0
176 198 0
174 197 0
172 196 0
172 196 0
173 197 0
172 196 0
173 197 0
173 197 0
171 196 0
173 197 0
173 197 0
174 197 0
173 197 0
174 197 0
174 197 0
173 197 0
173 197 0
172 196 0
174 197 0
174 197 0
172 196 0
174 197 0
173 196 0
172 196 0
173 196 0
172 196 0
172 197 0
172 196 0
172 196 0
174 197 0
172 196 0
173 197 0
174 197 0
175 198 0
178 201 80
190 212 174
205 225 244
208 227 254
207 227 254
207 227 254
207 227 254
207 227 254
207 227 254
207 227 254
207 227 254
207 227 254
207 227 254
207 227 254
207 227 254
207 227 254
207 227 254
207 227 254
207 227 254
207 227 254
207 227 254
207 227 254
207 227 254
207 227 254
206 227 254
206 227 254
206 227 254
206 227 254
206 227 254
206 227 254
206 227 254
206 227 254
206 227 254
206 227 254
206 227 254
206 227 254
206 227 254
206 227 254
206 227 254
206 227 254
206 227 254
206 226 254
206 226 254
206 226 254
206 226 254
206 226 254
205 226 254
205 226 254
205 226 254
205 226 254
205 226 254
205 226 254
205 226 254
205 226 254
205 226 254
205 226 254
205 226 254
205 226 254
205 226 254
205 226 254
205 226 254
205 226 254
205 226 254
205 226 254
205 226 254
205 226 254
205 226 254
205 226 254
205 226 254
205 226 254
205 226 254
205 226 254
205 226 254
205 226 254
205 226 254
205 226 254
205 226 254
205 226 254
205 226 254
204 226 254
182 219 238
182 220 239
142 211 213
122 207 204
110 205 198
87 201 188
73 199 180
61 197 176
62 198 178
62 198 177
62 198 179
62 197 178
61 197 179
78 199 183
95 201 186
103 202 194
121 207 203
147 211 217
167 216 229
187 221 243
204 226 254
205 226 254
205 226 254
205 226 254
205 226 254
205 226 254
205 226 254
205 226 254
205 226 254
205 226 254
205 226 254
205 226 254
205 226 254
205 226 254
205 226 254
205 226 254
205 226 254
205 226 254
205 226 254
205 226 254
205 226 254
205 226 254
205 226 254
205 226 254
205 226 254
205 226 254
205 226 254
205 226 254
205 226 254
205 226 254
205 226 254
205 226 254
205 226 254
206 226 254
206 226 254
206 226 254
206 226 254
206 226 254
206 226 254
206 227 254
206 227 254
206 227 254
206 227 254
206 227 254
206 227 254
206 227 254
206 227 254
206 227 254
206 227 254
206 227 254
206 227 254
206 227 254
206 227 254
206 227 254
206 227 254
206 227 254
207 227 254
207 227 254
207 227 254
207 227 254
207 227 254
207 227 254
207 227 254
207 227 254
207 227 254
207 227 254
207 227 254
207 227 254
207 227 254
207 227 254
207 227 254
207 227 254
207 227 254
207 227 254
207 227 254
207 227 254
208 227 254
205 225 252
182 193 233
167 165 233
171 167 248
173 170 253
172 170 254
171 169 254
170 169 254
169 169 254
168 168 254
167 168 254
167 167 254
166 167 254
165 167 254
165 166 254
164 166 254
164 166 254
164 166 254
163 166 254
163 166 254
163 166 254
163 166 254
163 166 254
162 165 254
162 165 254
162 165 254
162 165 254
162 165 254
162 165 254
162 165 254
162 165 254
162 165 254
162 165 254
162 165 254
162 165 254
162 165 254
162 165 254
162 165 254
162 165 254
162 165 254
162 165 254
162 165 254
162 166 254
163 166 254
163 166 254
163 166 254
163 166 254
163 166 254
163 166 254
164 166 254
163 166 254
164 166 254
164 166 254
164 166 254
164 166 254
164 166 254
164 166 254
165 166 254
165 167 254
165 167 254
165 167 254
165 167 254
166 167 254
166 167 254
166 167 254
167 167 254
167 167 254
167 168 254
167 168 254
167 168 254
168 168 254
168 168 254
168 168 254
169 168 254
168 168 254
169 168 254
169 169 254
169 169 254
170 169 254
170 169 254
170 169 254
171 169 254
171 169 254
171 169 254
171 169 254
172 170 254
171 169 254
172 170 254
173 170 254
172 170 254
173 170 254
173 170 254
174 171 254
174 171 254
174 171 254
174 171 254
174 171 254
174 171 254
175 171 254
176 171 254
176 172 254
176 172 254
176 172 254
177 172 254
177 172 254
178 172 254
178 172 254
178 173 254
179 173 254
179 173 254
179 173 254
179 173 254
181 174 254
173 197 0
172 196 0
172 196 0
171 195 0
174 197 0
173 196 0
173 197 0
175 197 0
172 196 0
173 197 0
172 196 0
172 197 0
172 196 0
173 196 0
172 196 0
173 196 0
172 196 0
171 196 0
173 197 0
170 195 0
172 196 0
173 196 0
174 197 0
173 197 0
173 197 0
173 197 0
173 197 0
173 197 0
175 198 0
173 196 0
172 196 0
172 196 0
173 196 0
173 197 0
172 196 0
175 197 0
173 197 0
173 197 0
172 196 0
174 197 0
172 196 0
173 197 0
176 198 0
174 197 0
172 196 0
171 196 0
173 197 0
172 196 0
171 196 0
175 198 0
175 197 0
172 196 0
173 197 0
173 197 0
173 197 0
173 197 0
174 197 0
174 197 0
173 197 0
174 197 0
173 197 0
173 197 0
172 197 0
173 197 0
173 197 0
175 198 0
172 196 0
172 196 0
176 198 0
175 198 0
173 197 0
173 197 0
173 196 0
173 197 0
174 197 0
173 197 0
173 196 0
172 196 0
174 197 0
175 198 0
174 197 0
172 196 0
172 196 0
170 196 0
172 196 0
173 197 0
172 195 0
175 197 0
173 196 0
175 198 0
174 197 0
173 197 0
172 196 0
174 197 0
174 197 0
173 197 0
174 197 0
173 197 0
174 197 0
174 197 0
173 197 0
173 196 0
174 197 0
170 195 0
173 196 0
174 197 0
174 197 0
173 197 0
173 196 0
173 197 0
173 197 0
174 197 0
177 200 88
194 215 194
207 227 253
208 228 254
208 228 254
208 227 254
208 227 254
207 227 254
207 227 254
207 227 254
207 227 254
207 227 254
207 227 254
207 227 254
207 227 254
207 227 254
207 227 254
207 227 254
207 227 254
207 227 254
207 227 254
207 227 254
207 227 254
207 227 254
207 227 254
207 227 254
207 227 254
206 227 254
206 227 254
206 227 254
206 227 254
206 227 254
206 227 254
206 227 254
206 227 254
206 227 254
206 227 254
206 227 254
206 227 254
206 227 254
206 227 254
206 227 254
206 227 254
206 227 254
206 227 254
206 226 254
206 226 254
206 226 254
206 226 254
206 226 254
206 226 254
206 226 254
205 226 254
205 226 254
205 226 254
205 226 254
205 226 254
205 226 254
205 226 254
205 226 254
205 226 254
205 226 254
205 226 254
205 226 254
205 226 254
205 226 254
205 226 254
205 226 254
205 226 254
205 226 254
205 226 254
205 226 254
205 226 254
204 226 254
176 218 235
139 209 211
119 207 201
74 200 180
61 196 173
62 197 173
61 197 172
62 198 176
61 197 175
62 198 176
62 197 172
62 198 178
62 198 175
62 197 173
62 199 177
61 196 171
62 197 175
61 197 174
61 196 175
62 197 175
62 198 175
62 199 176
62 198 177
62 197 178
72 197 177
112 205 197
142 210 214
182 219 238
201 225 252
205 226 254
205 226 254
205 226 254
205 226 254
205 226 254
205 226 254
205 226 254
205 226 254
205 226 254
205 226 254
205 226 254
205 226 254
205 226 254
205 226 254
205 226 254
205 226 254
205 226 254
205 226 254
205 226 254
205 226 254
205 226 254
206 226 254
206 226 254
206 226 254
206 226 254
206 226 254
206 226 254
206 226 254
206 227 254
206 227 254
206 227 254
206 227 254
206 227 254
206 227 254
206 227 254
206 227 254
206 227 254
206 227 254
206 227 254
206 227 254
206 227 254
206 227 254
206 227 254
206 227 254
206 227 254
206 227 254
207 227 254
207 227 254
207 227 254
207 227 254
207 227 254
207 227 254
207 227 254
207 227 254
207 227 254
207 227 254
207 227 254
207 227 254
207 227 254
207 227 254
207 227 254
207 227 254
207 227 254
207 227 254
207 227 254
207 227 254
208 227 254
208 227 254
208 228 254
208 228 254
207 227 254
184 195 236
160 157 226
170 165 245
173 170 253
172 170 254
171 169 254
170 169 254
169 168 254
168 168 254
167 168 254
167 167 254
166 167 254
165 167 254
165 167 254
164 166 254
164 166 254
164 166 254
164 166 254
163 166 254
163 166 254
163 166 254
163 166 254
162 165 254
162 165 254
162 165 254
162 165 254
162 165 254
162 165 254
162 165 254
162 165 254
162 165 254
162 165 254
162 165 254
162 165 254
162 165 254
162 165 254
162 165 254
162 165 254
162 165 254
162 165 254
162 165 254
162 165 254
162 165 254
162 165 254
162 165 254
162 165 254
163 166 254
163 166 254
163 166 254
163 166 254
164 166 254
164 166 254
164 166 254
164 166 254
164 166 254
165 166 254
164 166 254
165 167 254
165 167 254
165 167 254
165 167 254
165 167 254
166 167 254
166 167 254
166 167 254
166 167 254
166 167 254
167 167 254
167 167 254
167 168 254
168 168 254
168 168 254
168 168 254
168 168 254
168 168 254
169 168 254
169 168 254
169 169 254
169 169 254
169 169 254
170 169 254
170 169 254
171 169 254
170 169 254
171 169 254
171 169 254
171 169 254
171 170 254
172 170 254
172 170 254
172 170 254
173 170 254
173 170 254
173 170 254
173 170 254
173 170 254
174 170 254
174 171 254
175 171 254
174 171 254
175 171 254
175 171 254
176 172 254
177 172 254
176 172 254
177 172 254
178 172 254
178 173 254
178 172 254
178 172 254
178 173 254
179 173 254
180 173 254
180 174 254
174 197 0
174 197 0
174 197 0
174 197 0
173 197 0
172 196 0
173 197 0
174 197 0
172 196 0
172 196 0
170 195 0
173 197 0
174 197 0
172 196 0
172 196 0
173 197 0
173 197 0
173 196 0
172 196 0
172 196 0
172 195 0
173 196 0
173 197 0
172 196 0
173 197 0
174 197 0
173 197 0
173 197 0
173 196 0
174 197 0
172 196 0
174 197 0
173 197 0
173 197 0
172 196 0
174 197 0
172 196 0
173 196 0
172 196 0
174 197 0
173 197 0
173 197 0
172 196 0
173 196 0
173 197 0
173 197 0
172 196 0
174 197 0
174 197 0
172 195 0
174 197 0
174 197 0
175 197 0
172 196 0
175 197 0
173 197 0
172 196 0
171 196 0
174 197 0
174 197 0
174 197 0
173 197 0
175 198 0
172 196 0
172 196 0
175 198 0
173 196 0
173 197 0
173 197 0
173 196 0
174 197 0
172 196 0
173 196 0
173 197 0
175 198 0
175 198 0
174 197 0
174 197 0
174 197 0
172 196 0
174 197 0
175 198 0
173 196 0
171 196 0
172 196 0
173 197 0
173 197 0
172 196 0
173 197 0
172 197 0
173 197 0
176 198 0
175 198 0
173 197 0
172 196 0
174 197 0
172 196 0
174 197 0
174 197 0
172 196 0
172 196 0
173 197 0
172 196 0
175 198 0
175 197 0
171 196 0
174 197 0
174 197 0
174 197 0
174 197 0
174 197 0
173 197 0
174 197 0
174 197 0
180 202 95
197 217 207
208 228 254
208 228 254
208 228 254
208 228 254
208 228 254
208 228 254
208 227 254
207 227 254
207 227 254
207 227 254
207 227 254
207 227 254
207 227 254
207 227 254
207 227 254
207 227 254
207 227 254
207 227 254
207 227 254
207 227 254
207 227 254
207 227 254
207 227 254
207 227 254
207 227 254
207 227 254
207 227 254
207 227 254
207 227 254
206 227 254
206 227 254
206 227 254
206 227 254
206 227 254
206 227 254
206 227 254
206 227 254
206 227 254
206 227 254
206 227 254
206 227 254
206 227 254
206 227 254
206 227 254
206 227 254
206 227 254
206 227 254
206 227 254
206 227 254
206 226 254
206 226 254
206 226 254
206 226 254
206 226 254
206 226 254
206 226 254
205 226 254
205 226 254
205 226 254
205 226 254
205 226 254
205 226 254
205 226 254
205 226 254
205 226 254
205 226 254
201 225 252
170 216 230
124 207 204
76 199 182
62 198 175
62 198 176
62 198 173
62 198 177
62 197 173
61 197 172
62 196 168
62 199 177
62 198 174
61 196 172
62 197 172
62 198 173
62 197 172
62 197 172
62 198 172
62 198 172
62 198 175
63 199 175
62 197 172
61 197 172
62 197 172
61 196 174
62 198 176
62 198 174
62 196 170
62 198 174
61 197 175
62 198 174
73 199 180
132 207 208
173 217 233
200 225 251
205 226 254
205 226 254
205 226 254
205 226 254
205 226 254
205 226 254
205 226 254
205 226 254
205 226 254
205 226 254
206 226 254
206 226 254
206 226 254
206 226 254
206 226 254
206 226 254
206 226 254
206 227 254
206 227 254
206 227 254
206 227 254
206 227 254
206 227 254
206 227 254
206 227 254
206 227 254
206 227 254
206 227 254
206 227 254
206 227 254
206 227 254
206 227 254
206 227 254
206 227 254
206 227 254
206 227 254
206 227 254
207 227 254
207 227 254
207 227 254
207 227 254
207 227 254
207 227 254
207 227 254
207 227 254
207 227 254
207 227 254
207 227 254
207 227 254
207 227 254
207 227 254
207 227 254
207 227 254
207 227 254
207 227 254
207 227 254
207 227 254
207 227 254
207 227 254
208 227 254
208 228 254
208 228 254
208 228 254
208 228 254
208 228 254
208 228 254
190 205 237
165 167 225
166 162 240
172 169 252
173 170 254
170 169 254
170 169 254
169 168 254
168 168 254
167 167 254
167 167 254
166 167 254
165 167 254
165 167 254
164 166 254
164 166 254
163 166 254
163 166 254
163 166 254
163 166 254
162 165 254
162 165 254
162 165 254
162 165 254
162 165 254
162 165 254
162 165 254
162 165 254
161 165 254
162 165 254
161 165 254
161 165 254
161 165 254
161 165 254
162 165 254
161 165 254
162 165 254
162 165 254
162 165 254
162 165 254
162 165 254
162 165 254
162 165 254
162 165 254
162 165 254
163 166 254
162 165 254
163 166 254
163 166 254
163 166 254
163 166 254
163 166 254
163 166 254
164 166 254
164 166 254
164 166 254
164 166 254
164 166 254
165 166 254
165 167 254
165 167 254
165 167 254
165 167 254
165 167 254
166 167 254
166 167 254
166 167 254
166 167 254
166 167 254
167 168 254
167 167 254
167 168 254
167 168 254
168 168 254
168 168 254
168 168 254
169 168 254
169 168 254
169 168 254
169 168 254
169 169 254
170 169 254
170 169 254
170 169 254
171 169 254
170 169 254
171 169 254
171 169 254
171 170 254
172 170 254
172 170 254
172 170 254
172 170 254
172 170 254
173 170 254
173 170 254
174 171 254
174 171 254
174 171 254
174 171 254
175 171 254
175 171 254
175 171 254
176 171 254
176 172 254
176 171 254
176 172 254
177 172 254
177 172 254
177 172 254
178 172 254
178 173 254
178 173 254
179 173 254
179 173 254
180 173 254
172 196 0
172 196 0
172 197 0
172 197 0
171 196 0
173 197 0
173 197 0
173 196 0
172 197 0
172 196 0
171 196 0
173 196 0
171 196 0
171 196 0
174 197 0
173 197 0
173 196 0
173 196 0
171 196 0
172 196 0
174 197 0
174 197 0
173 196 0
174 197 0
173 196 0
172 195 0
174 197 0
174 197 0
173 197 0
173 196 0
173 197 0
175 197 0
174 197 0
172 196 0
174 197 0
173 197 0
173 196 0
174 197 0
173 197 0
175 198 0
173 196 0
174 197 0
174 197 0
172 196 0
173 197 0
171 196 0
172 196 0
173 196 0
174 197 0
172 196 0
174 197 0
173 197 0
174 197 0
174 197 0
172 196 0
173 196 0
172 196 0
174 197 0
175 198 0
175 198 0
174 197 0
173 197 0
174 197 0
173 197 0
172 196 0
174 197 0
173 197 0
172 196 0
174 197 0
172 196 0
173 197 0
172 196 0
172 196 0
175 198 0
174 197 0
173 196 0
174 197 0
171 196 0
174 197 0
172 196 0
173 197 0
174 197 0
173 197 0
173 197 0
173 196 0
173 197 0
172 196 0
173 197 0
174 197 0
172 196 0
172 196 0
174 197 0
174 197 0
172 197 0
173 197 0
176 198 0
174 197 0
172 195 0
173 197 0
172 197 0
173 197 0
173 197 0
173 197 0
174 197 0
173 197 0
172 196 0
173 197 0
173 197 0
173 197 0
171 195 0
174 197 0
171 196 0
174 197 0
174 197 0
172 196 0
173 197 0
187 209 152
204 224 239
208 228 254
208 228 254
208 228 254
208 228 254
208 228 254
208 228 254
208 228 254
208 228 254
208 228 254
208 227 254
207 227 254
207 227 254
207 227 254
207 227 254
207 227 254
207 227 254
207 227 254
207 227 254
207 227 254
207 227 254
207 227 254
207 227 254
207 227 254
207 227 254
207 227 254
207 227 254
207 227 254
207 227 254
207 227 254
207 227 254
207 227 254
207 227 254
207 227 254
206 227 254
206 227 254
206 227 254
206 227 254
206 227 254
206 227 254
206 227 254
206 227 254
206 227 254
206 227 254
206 227 254
206 227 254
206 227 254
206 227 254
206 227 254
206 227 254
206 227 254
206 227 254
206 227 254
206 227 254
206 227 254
206 227 254
206 227 254
206 226 254
206 226 254
206 226 254
206 226 254
206 226 254
206 226 254
179 219 235
125 207 204
75 198 180
62 198 172
61 196 173
61 195 165
61 196 169
62 198 175
61 196 172
62 197 172
61 195 168
62 197 171
62 198 171
62 198 173
62 197 170
62 197 172
62 196 167
62 197 174
63 199 177
63 199 172
61 196 171
61 196 172
61 196 171
62 197 170
61 195 170
61 196 172
62 197 170
61 196 173
62 196 172
62 197 172
61 196 175
62 198 175
61 196 171
62 197 177
63 199 175
62 197 175
61 197 178
68 197 176
135 208 211
183 220 237
206 226 254
206 226 254
206 226 254
206 226 254
206 226 254
206 226 254
206 227 254
206 227 254
206 227 254
206 227 254
206 227 254
206 227 254
206 227 254
206 227 254
206 227 254
206 227 254
206 227 254
206 227 254
206 227 254
206 227 254
206 227 254
206 227 254
206 227 254
206 227 254
206 227 254
206 227 254
206 227 254
206 227 254
206 227 254
207 227 254
207 227 254
207 227 254
207 227 254
207 227 254
207 227 254
207 227 254
207 227 254
207 227 254
207 227 254
207 227 254
207 227 254
207 227 254
207 227 254
207 227 254
207 227 254
207 227 254
207 227 254
207 227 254
207 227 254
207 227 254
207 227 254
207 227 254
208 227 254
208 228 254
208 228 254
208 228 254
208 228 254
208 228 254
208 228 254
208 228 254
208 228 254
208 228 254
199 216 247
177 181 237
169 164 243
174 170 253
173 170 254
172 170 254
171 169 254
169 169 254
168 168 254
168 168 254
166 167 254
166 167 254
166 167 254
165 167 254
165 166 254
164 166 254
164 166 254
163 166 254
163 166 254
163 166 254
162 165 254
162 165 254
162 165 254
162 165 254
162 165 254
162 165 254
162 165 254
161 165 254
161 165 254
161 165 254
161 165 254
161 165 254
161 165 254
161 165 254
161 165 254
161 165 254
161 165 254
161 165 254
161 165 254
162 165 254
162 165 254
162 165 254
162 165 254
162 165 254
162 165 254
162 165 254
162 165 254
163 166 254
163 166 254
163 166 254
163 166 254
163 166 254
163 166 254
164 166 254
164 166 254
164 166 254
164 166 254
164 166 254
164 166 254
164 166 254
165 167 254
165 167 254
165 167 254
165 167 254
166 167 254
166 167 254
166 167 254
166 167 254
166 167 254
166 167 254
167 167 254
167 168 254
167 168 254
167 168 254
167 168 254
168 168 254
168 168 254
168 168 254
169 168 254
169 168 254
169 168 254
169 169 254
169 169 254
170 169 254
170 169 254
170 169 254
170 169 254
171 169 254
171 169 254
171 169 254
171 170 254
172 170 254
172 170 254
172 170 254
172 170 254
173 170 254
173 170 254
173 170 254
174 170 254
174 171 254
174 171 254
175 171 254
175 171 254
175 171 254
175 171 254
176 172 254
176 171 254
176 172 254
177 172 254
177 172 254
177 172 254
177 172 254
178 172 254
178 172 254
178 173 254
178 173 254
179 173 254
180 173 254
172 197 0
172 196 0
174 197 0
172 196 0
174 197 0
173 196 0
174 197 0
175 198 0
173 197 0
173 197 0
172 196 0
171 196 0
172 196 0
174 197 0
171 196 0
175 198 0
174 197 0
172 196 0
174 197 0
173 197 0
173 197 0
174 197 0
174 197 0
174 197 0
173 197 0
174 197 0
173 196 0
173 197 0
174 197 0
175 198 0
172 196 0
172 196 0
173 197 0
173 197 0
173 197 0
174 197 0
174 197 0
174 197 0
174 197 0
173 197 0
173 196 0
174 197 0
173 196 0
175 197 0
174 197 0
171 195 0
172 196 0
170 196 0
174 197 0
173 196 0
173 197 0
172 196 0
173 197 0
174 197 0
173 197 0
172 197 0
174 197 0
173 197 0
174 197 0
173 196 0
173 197 0
174 197 0
175 198 0
173 196 0
173 197 0
174 197 0
174 197 0
173 196 0
173 197 0
172 196 0
173 197 0
174 197 0
173 197 0
174 197 0
173 197 0
172 196 0
173 197 0
174 197 0
173 197 0
173 197 0
173 197 0
171 196 0
174 197 0
171 196 0
174 197 0
173 197 0
174 197 0
173 197 0
173 196 0
174 197 0
175 198 0
173 196 0
174 197 0
174 197 0
175 198 0
173 197 0
172 196 0
174 197 0
173 197 0
173 197 0
173 197 0
173 197 0
172 196 0
174 197 0
175 198 0
173 197 0
172 196 0
174 197 0
173 197 0
171 195 0
173 196 0
173 197 0
174 197 0
174 197 0
171 196 0
173 196 0
175 198 0
174 197 25
194 215 187
208 228 254
208 228 254
208 228 254
208 228 254
208 228 254
208 228 254
208 228 254
208 228 254
208 228 254
208 228 254
208 228 254
208 228 254
208 228 254
208 227 254
208 227 254
207 227 254
207 227 254
207 227 254
207 227 254
207 227 254
207 227 254
207 227 254
207 227 254
207 227 254
207 227 254
207 227 254
207 227 254
207 227 254
207 227 254
207 227 254
207 227 254
207 227 254
207 227 254
207 227 254
207 227 254
207 227 254
207 227 254
207 227 254
207 227 254
206 227 254
206 227 254
206 227 254
206 227 254
206 227 254
206 227 254
206 227 254
206 227 254
206 227 254
206 227 254
206 227 254
206 227 254
206 227 254
206 227 254
206 227 254
206 227 254
206 227 254
206 227 254
206 227 254
203 226 253
172 218 230
111 204 195
62 197 172
62 197 171
61 196 168
62 197 173
62 198 174
61 197 173
62 197 169
62 196 167
62 197 169
62 198 172
62 198 173
62 198 173
61 196 170
62 198 172
62 197 175
62 198 177
62 197 172
62 198 171
62 199 176
61 195 173
62 197 172
61 196 166
62 198 175
62 196 170
62 197 169
62 197 172
62 198 172
61 196 169
63 198 172
62 197 171
61 196 172
62 198 175
63 198 172
62 197 174
61 196 173
61 196 170
62 196 172
62 197 176
61 196 172
62 196 178
103 200 189
168 216 229
205 226 254
206 227 254
206 227 254
206 227 254
206 227 254
206 227 254
206 227 254
206 227 254
206 227 254
206 227 254
206 227 254
206 227 254
206 227 254
206 227 254
206 227 254
206 227 254
206 227 254
206 227 254
206 227 254
206 227 254
207 227 254
207 227 254
207 227 254
207 227 254
207 227 254
207 227 254
207 227 254
207 227 254
207 227 254
207 227 254
207 227 254
207 227 254
207 227 254
207 227 254
207 227 254
207 227 254
207 227 254
207 227 254
207 227 254
207 227 254
207 227 254
207 227 254
207 227 254
207 227 254
208 227 254
208 227 254
208 228 254
208 228 254
208 228 254
208 228 254
208 228 254
208 228 254
208 228 254
208 228 254
208 228 254
208 228 254
208 228 254
208 228 254
205 224 251
178 185 232
162 158 230
173 169 251
172 169 253
172 170 254
170 169 254
170 169 254
169 168 254
167 168 254
166 167 254
166 167 254
166 167 254
165 167 254
164 166 254
164 166 254
164 166 254
163 166 254
163 166 254
163 166 254
162 165 254
162 166 254
162 165 254
162 165 254
162 165 254
162 165 254
162 165 254
161 165 254
161 165 254
161 165 254
161 165 254
161 165 254
161 165 254
161 165 254
161 165 254
161 165 254
161 165 254
162 165 254
161 165 254
162 165 254
162 165 254
162 165 254
162 165 254
162 165 254
162 165 254
162 165 254
162 165 254
163 166 254
162 166 254
163 166 254
163 166 254
163 166 254
163 166 254
163 166 254
163 166 254
164 166 254
164 166 254
164 166 254
164 166 254
164 166 254
165 166 254
164 166 254
165 167 254
165 167 254
165 167 254
166 167 254
166 167 254
166 167 254
166 167 254
166 167 254
166 167 254
167 167 254
167 167 254
167 168 254
167 168 254
168 168 254
168 168 254
168 168 254
168 168 254
169 168 254
169 168 254
169 168 254
169 168 254
170 169 254
169 169 254
170 169 254
170 169 254
170 169 254
171 169 254
171 169 254
171 169 254
171 169 254
172 170 254
172 170 254
172 170 254
172 170 254
173 170 254
173 170 254
173 170 254
173 170 254
174 171 254
173 170 254
174 171 254
174 171 254
175 171 254
175 171 254
175 171 254
175 171 254
176 172 254
176 172 254
176 172 254
177 172 254
176 172 254
177 172 254
177 172 254
178 173 254
178 173 254
178 173 254
179 173 254
179 173 254
171 195 0
175 197 0
171 197 0
173 197 0
171 196 0
173 197 0
174 197 0
172 196 0
175 198 0
170 196 0
173 197 0
172 196 0
174 197 0
173 197 0
173 197 0
173 197 0
173 197 0
174 197 0
172 196 0
173 197 0
174 197 0
173 197 0
174 197 0
174 197 0
172 196 0
173 197 0
172 196 0
174 197 0
173 197 0
172 196 0
172 196 0
172 195 0
174 197 0
173 196 0
174 197 0
173 197 0
174 197 0
172 197 0
174 197 0
174 197 0
172 197 0
175 198 0
172 196 0
173 197 0
173 197 0
173 196 0
174 197 0
173 197 0
173 196 0
175 198 0
175 198 0
174 197 0
175 198 0
174 197 0
172 196 0
173 197 0
174 197 0
174 197 0
174 197 0
174 197 0
172 196 0
172 197 0
175 198 0
174 197 0
173 197 0
173 197 0
173 197 0
174 198 0
173 196 0
173 197 0
173 197 0
173 197 0
171 195 0
174 197 0
174 197 0
174 197 0
174 197 0
173 197 0
173 197 0
175 198 0
174 197 0
174 197 0
174 197 0
174 197 0
174 197 0
171 195 0
175 198 0
173 197 0
172 196 0
173 197 0
173 197 0
173 197 0
173 197 0
172 196 0
173 196 0
174 197 0
174 197 0
173 197 0
171 196 0
174 197 0
174 197 0
173 197 0
172 196 0
172 196 0
175 198 0
174 197 0
175 198 0
173 196 0
174 197 0
174 197 0
172 196 0
173 197 0
172 196 0
174 197 0
173 196 0
174 197 0
174 197 0
175 198 0
173 197 0
178 201 105
203 223 232
208 228 254
208 228 254
208 228 254
208 228 254
208 228 254
208 228 254
208 228 254
208 228 254
208 228 254
208 228 254
208 228 254
208 228 254
208 228 254
208 228 254
208 228 254
208 228 254
208 228 254
208 227 254
207 227 254
207 227 254
207 227 254
207 227 254
207 227 254
207 227 254
207 227 254
207 227 254
207 227 254
207 227 254
207 227 254
207 227 254
207 227 254
207 227 254
207 227 254
207 227 254
207 227 254
207 227 254
207 227 254
207 227 254
207 227 254
207 227 254
207 227 254
207 227 254
207 227 254
207 227 254
207 227 254
206 227 254
206 227 254
206 227 254
206 227 254
206 227 254
206 227 254
206 227 254
206 227 254
206 227 254
202 226 252
163 216 225
105 202 189
61 197 173
62 197 167
61 195 165
61 196 169
62 197 167
61 195 166
61 196 169
61 197 173
61 195 167
62 197 169
62 197 173
62 197 169
62 197 168
62 197 172
62 198 170
61 195 166
62 197 170
62 197 172
62 198 173
62 197 172
62 197 172
62 197 169
62 197 170
62 196 171
62 198 172
61 196 171
62 198 175
63 198 172
62 197 169
62 197 172
62 198 173
62 198 172
62 196 172
62 196 173
61 196 167
61 195 169
61 195 172
61 196 170
62 197 173
61 196 175
62 198 173
61 196 174
62 195 169
61 196 175
93 198 182
177 219 235
205 227 254
206 227 254
206 227 254
206 227 254
206 227 254
206 227 254
206 227 254
206 227 254
206 227 254
206 227 254
206 227 254
207 227 254
207 227 254
207 227 254
207 227 254
207 227 254
207 227 254
207 227 254
207 227 254
207 227 254
207 227 254
207 227 254
207 227 254
207 227 254
207 227 254
207 227 254
207 227 254
207 227 254
207 227 254
207 227 254
207 227 254
207 227 254
207 227 254
207 227 254
207 227 254
207 227 254
207 227 254
208 227 254
208 228 254
208 228 254
208 228 254
208 228 254
208 228 254
208 228 254
208 228 254
208 228 254
208 228 254
208 228 254
208 228 254
208 228 254
208 228 254
208 228 254
208 228 254
208 228 254
208 228 254
194 209 241
161 161 222
172 168 248
175 171 254
173 170 254
171 170 254
171 169 254
170 169 254
168 168 254
167 168 254
167 167 254
165 167 254
165 167 254
165 166 254
164 166 254
164 166 254
164 166 254
163 166 254
163 166 254
163 166 254
162 165 254
162 165 254
162 165 254
162 165 254
162 165 254
162 165 254
162 165 254
161 165 254
161 165 254
161 165 254
161 165 254
161 165 254
161 165 254
161 165 254
161 165 254
161 165 254
161 165 254
161 165 254
162 165 254
162 165 254
162 165 254
162 165 254
162 165 254
162 165 254
162 165 254
162 165 254
163 166 254
163 166 254
163 166 254
163 166 254
163 166 254
163 166 254
163 166 254
163 166 254
164 166 254
164 166 254
164 166 254
164 166 254
164 166 254
164 166 254
165 166 254
165 167 254
165 166 254
165 167 254
165 167 254
166 167 254
166 167 254
166 167 254
166 167 254
166 167 254
167 167 254
166 167 254
167 167 254
167 168 254
168 168 254
168 168 254
168 168 254
168 168 254
168 168 254
168 168 254
169 168 254
169 168 254
170 169 254
169 169 254
169 169 254
170 169 254
170 169 254
170 169 254
170 169 254
171 169 254
171 169 254
171 170 254
172 170 254
172 170 254
172 170 254
172 170 254
172 170 254
172 170 254
173 170 254
173 170 254
173 170 254
173 170 254
174 171 254
174 171 254
175 171 254
175 171 254
175 171 254
175 171 254
175 171 254
176 172 254
176 171 254
176 172 254
176 172 254
177 172 254
177 172 254
177 172 254
178 172 254
178 173 254
179 173 254
179 173 254
179 173 254
171 196 0
172 196 0
172 196 0
171 196 0
174 197 0
172 196 0
174 197 0
173 196 0
172 196 0
172 196 0
171 195 0
174 197 0
172 196 0
173 197 0
172 197 0
175 198 0
174 197 0
172 196 0
174 198 0
174 197 0
174 197 0
172 197 0
174 197 0
173 197 0
174 198 0
174 197 0
172 196 0
173 196 0
173 196 0
172 196 0
174 197 0
174 197 0
174 197 0
174 197 0
174 197 0
174 197 0
173 197 0
174 197 0
173 197 0
175 198 0
173 197 0
176 198 0
174 197 0
173 197 0
174 197 0
174 197 0
174 197 0
175 198 0
172 196 0
173 196 0
173 196 0
173 197 0
175 198 0
173 196 0
172 195 0
173 196 0
172 196 0
175 197 0
174 197 0
174 197 0
174 197 0
175 197 0
172 196 0
172 196 0
173 197 0
174 197 0
173 197 0
174 197 0
174 197 0
172 196 0
174 197 0
173 197 0
174 197 0
173 197 0
173 197 0
175 198 0
174 197 0
173 197 0
174 197 0
174 197 0
173 197 0
172 196 0
175 197 0
173 196 0
173 197 0
174 197 0
172 196 0
172 196 0
174 197 0
174 197 0
173 197 0
174 197 0
173 197 0
174 197 0
173 197 0
174 197 0
173 197 0
174 197 0
173 196 0
173 197 0
174 197 0
172 197 0
173 196 0
171 195 0
174 197 0
175 198 0
173 197 0
172 196 0
173 196 0
171 195 0
173 197 0
172 197 0
174 197 0
172 196 0
173 196 0
173 197 0
173 197 0
174 197 0
175 197 0
176 198 0
175 198 44
191 212 180
209 228 254
208 228 254
208 228 254
208 228 254
208 228 254
208 228 254
208 228 254
208 228 254
208 228 254
208 228 254
208 228 254
208 228 254
208 228 254
208 228 254
208 228 254
208 228 254
208 228 254
208 228 254
208 228 254
208 228 254
208 228 254
208 228 254
208 227 254
208 227 254
207 227 254
207 227 254
207 227 254
207 227 254
207 227 254
207 227 254
207 227 254
207 227 254
207 227 254
207 227 254
207 227 254
207 227 254
207 227 254
207 227 254
207 227 254
207 227 254
207 227 254
207 227 254
207 227 254
207 227 254
207 227 254
207 227 254
207 227 254
207 227 254
207 227 254
207 227 254
207 227 254
206 227 254
170 216 228
101 200 185
62 197 170
61 196 172
62 197 171
61 196 167
61 196 167
61 196 168
61 195 163
61 196 168
61 196 166
61 196 169
62 197 169
61 194 161
61 196 170
63 199 174
62 197 168
61 196 168
62 196 166
62 197 170
61 196 169
63 198 172
62 198 168
62 197 170
62 197 167
61 195 165
62 198 175
62 198 172
62 197 171
62 197 168
61 195 167
62 197 169
61 197 172
63 199 175
63 198 172
62 197 172
61 195 169
62 197 169
61 194 165
62 197 172
62 197 171
62 197 176
61 195 166
61 195 168
61 195 170
62 196 172
62 196 174
62 195 166
61 195 174
61 195 175
106 203 192
173 217 231
207 227 254
207 227 254
207 227 254
207 227 254
207 227 254
207 227 254
207 227 254
207 227 254
207 227 254
207 227 254
207 227 254
207 227 254
207 227 254
207 227 254
207 227 254
207 227 254
207 227 254
207 227 254
207 227 254
207 227 254
207 227 254
207 227 254
207 227 254
207 227 254
207 227 254
207 227 254
207 227 254
207 227 254
208 227 254
208 227 254
208 228 254
208 228 254
208 228 254
208 228 254
208 228 254
208 228 254
208 228 254
208 228 254
208 228 254
208 228 254
208 228 254
208 228 254
208 228 254
208 228 254
208 228 254
208 228 254
208 228 254
208 228 254
208 228 254
208 228 254
208 228 254
208 228 254
181 189 235
165 161 235
174 170 253
173 170 254
172 170 254
171 169 254
170 169 254
169 168 254
168 168 254
167 168 254
166 167 254
166 167 254
165 167 254
165 166 254
164 166 254
164 166 254
163 166 254
163 166 254
163 166 254
163 166 254
162 165 254
162 165 254
162 165 254
162 165 254
162 165 254
162 165 254
162 165 254
162 165 254
162 165 254
161 165 254
162 165 254
161 165 254
161 165 254
161 165 254
161 165 254
161 165 254
162 165 254
162 165 254
162 165 254
162 165 254
162 165 254
162 165 254
162 165 254
162 165 254
162 165 254
162 165 254
163 166 254
163 166 254
163 166 254
163 166 254
163 166 254
163 166 254
163 166 254
164 166 254
164 166 254
164 166 254
164 166 254
164 166 254
165 166 254
165 166 254
165 166 254
165 167 254
165 167 254
166 167 254
165 167 254
166 167 254
166 167 254
166 167 254
166 167 254
166 167 254
167 167 254
167 167 254
167 167 254
168 168 254
168 168 254
168 168 254
168 168 254
168 168 254
168 168 254
168 168 254
169 169 254
169 169 254
169 168 254
169 168 254
169 168 254
170 169 254
170 169 254
171 169 254
170 169 254
171 169 254
171 169 254
171 169 254
171 169 254
172 170 254
172 170 254
172 170 254
172 170 254
173 170 254
173 170 254
173 170 254
173 170 254
173 170 254
174 171 254
174 171 254
174 171 254
175 171 254
174 171 254
176 171 254
176 171 254
175 171 254
176 172 254
177 172 254
176 172 254
177 172 254
177 172 254
177 172 254
178 172 254
178 173 254
178 173 254
178 173 254
178 173 254
179 173 254
173 197 0
173 197 0
174 197 0
171 196 0
174 197 0
173 197 0
173 197 0
174 197 0
173 197 0
173 196 0
173 197 0
172 196 0
174 197 0
173 197 0
174 197 0
174 197 0
174 197 0
175 198 0
173 197 0
172 196 0
172 196 0
174 197 0
174 197 0
173 197 0
173 197 0
174 197 0
176 198 0
173 196 0
173 197 0
173 197 0
174 197 0
172 196 0
173 197 0
174 197 0
172 196 0
172 196 0
175 198 0
173 197 0
174 197 0
174 197 0
175 198 0
174 197 0
174 197 0
172 196 0
174 197 0
174 197 0
175 198 0
174 197 0
174 198 0
174 197 0
176 198 0
173 197 0
174 197 0
175 198 0
173 197 0
172 197 0
175 198 0
173 197 0
173 197 0
173 196 0
173 196 0
172 196 0
173 196 0
173 197 0
175 198 0
172 196 0
174 197 0
172 197 0
171 196 0
172 196 0
172 196 0
175 198 0
173 197 0
173 197 0
175 198 0
172 196 0
173 197 0
174 197 0
174 197 0
171 195 0
174 197 0
174 197 0
171 195 0
171 196 0
172 196 0
172 196 0
173 197 0
173 197 0
173 197 0
173 197 0
176 198 0
175 197 0
173 197 0
173 196 0
175 198 0
175 198 0
173 197 0
171 195 0
173 197 0
173 197 0
173 197 0
173 196 0
173 196 0
174 197 0
173 197 0
173 197 0
173 196 0
172 196 0
175 197 0
172 196 0
173 197 0
173 197 0
173 197 0
172 196 0
172 196 0
173 197 0
173 197 0
174 197 0
172 196 0
173 197 0
175 198 0
175 198 0
183 205 122
204 224 236
209 228 254
209 228 254
209 228 254
209 228 254
208 228 254
208 228 254
208 228 254
208 228 254
208 228 254
208 228 254
208 228 254
208 228 254
208 228 254
208 228 254
208 228 254
208 228 254
208 228 254
208 228 254
208 228 254
208 228 254
208 228 254
208 228 254
208 228 254
208 228 254
208 228 254
208 228 254
208 227 254
208 227 254
207 227 254
207 227 254
207 227 254
207 227 254
207 227 254
207 227 254
207 227 254
207 227 254
207 227 254
207 227 254
207 227 254
207 227 254
207 227 254
207 227 254
207 227 254
207 227 254
207 227 254
207 227 254
207 227 254
207 227 254
194 223 245
123 205 197
61 196 169
61 196 168
62 197 166
61 196 171
60 194 163
61 194 162
61 196 167
63 198 172
61 194 159
63 199 172
62 197 170
61 196 164
62 197 165
62 197 168
61 196 166
62 197 172
61 196 171
62 198 172
62 196 161
62 197 170
62 197 171
63 199 171
62 197 169
62 196 164
61 196 168
62 196 170
61 196 166
62 198 172
62 197 169
62 198 171
63 199 174
62 197 171
62 197 171
62 197 172
62 196 166
61 196 165
62 197 173
62 197 170
62 197 169
61 196 163
62 196 172
62 197 171
62 198 173
61 195 167
61 195 167
61 195 172
62 196 170
62 196 172
62 196 175
61 195 172
62 196 173
61 195 174
111 203 196
193 223 245
207 227 254
207 227 254
207 227 254
207 227 254
207 227 254
207 227 254
207 227 254
207 227 254
207 227 254
207 227 254
207 227 254
207 227 254
207 227 254
207 227 254
207 227 254
207 227 254
207 227 254
207 227 254
207 227 254
207 227 254
208 227 254
208 227 254
208 228 254
208 228 254
208 228 254
208 228 254
208 228 254
208 228 254
208 228 254
208 228 254
208 228 254
208 228 254
208 228 254
208 228 254
208 228 254
208 228 254
208 228 254
208 228 254
208 228 254
208 228 254
208 228 254
208 228 254
208 228 254
208 228 254
209 228 254
209 228 254
209 228 254
209 228 254
203 220 249
172 175 230
174 169 251
175 171 253
173 170 254
172 170 254
171 169 254
169 169 254
169 168 254
168 168 254
167 167 254
166 167 254
166 167 254
165 167 254
165 166 254
164 166 254
164 166 254
163 166 254
163 166 254
163 166 254
163 166 254
162 165 254
162 165 254
162 165 254
162 165 254
162 165 254
162 165 254
162 165 254
162 165 254
162 165 254
162 165 254
161 165 254
162 165 254
162 165 254
162 165 254
162 165 254
162 165 254
162 165 254
162 165 254
162 165 254
162 165 254
162 165 254
162 165 254
162 165 254
162 165 254
162 165 254
163 166 254
162 166 254
163 166 254
163 166 254
163 166 254
163 166 254
163 166 254
163 166 254
164 166 254
164 166 254
164 166 254
164 166 254
164 166 254
164 166 254
165 167 254
165 166 254
165 167 254
165 167 254
165 167 254
165 167 254
166 167 254
166 167 254
166 167 254
167 167 254
166 167 254
167 167 254
167 168 254
167 167 254
168 168 254
168 168 254
167 168 254
168 168 254
169 168 254
168 168 254
169 168 254
169 168 254
169 168 254
169 168 254
169 169 254
170 169 254
170 169 254
170 169 254
170 169 254
170 169 254
171 169 254
171 169 254
172 170 254
172 170 254
172 170 254
172 170 254
172 170 254
173 170 254
172 170 254
173 170 254
173 170 254
173 170 254
173 170 254
174 171 254
174 171 254
174 171 254
175 171 254
175 171 254
175 171 254
175 171 254
175 171 254
176 172 254
176 172 254
176 172 254
176 172 254
176 172 254
177 172 254
177 172 254
178 172 254
178 173 254
177 172 254
178 173 254
179 173 254
179 173 254
176 198 0
174 197 0
175 197 0
173 197 0
174 197 0
173 197 0
173 197 0
173 197 0
173 197 0
172 196 0
172 196 0
173 197 0
173 197 0
173 196 0
170 195 0
173 197 0
174 197 0
174 197 0
170 195 0
174 197 0
172 196 0
172 196 0
173 196 0
174 197 0
171 196 0
173 197 0
171 196 0
175 198 0
174 197 0
172 196 0
174 197 0
173 197 0
172 196 0
175 197 0
174 197 0
172 196 0
174 197 0
171 195 0
172 196 0
174 197 0
174 197 0
174 197 0
170 196 0
174 197 0
173 197 0
173 196 0
173 197 0
173 197 0
173 197 0
173 196 0
173 197 0
173 197 0
173 197 0
173 197 0
173 196 0
174 197 0
173 197 0
173 197 0
171 196 0
173 197 0
170 195 0
173 197 0
172 196 0
173 196 0
173 197 0
173 197 0
176 198 0
173 197 0
173 197 0
173 197 0
172 196 0
175 197 0
173 197 0
174 197 0
174 197 0
173 197 0
173 196 0
171 195 0
175 198 0
173 196 0
174 197 0
175 197 0
173 197 0
173 196 0
174 197 0
172 196 0
173 197 0
172 196 0
175 197 0
174 197 0
174 197 0
173 196 0
174 197 0
173 197 0
174 197 0
171 196 0
172 196 0
175 197 0
173 196 0
172 196 0
174 197 0
173 197 0
172 196 0
174 197 0
173 197 0
174 197 0
174 197 0
173 197 0
173 197 0
174 197 0
173 197 0
173 197 0
173 197 0
173 197 0
172 196 0
175 198 0
173 197 0
174 197 0
173 197 0
173 197 0
173 197 0
173 197 0
175 198 0
171 196 25
196 216 195
209 228 254
209 228 254
209 228 254
209 228 254
209 228 254
209 228 254
209 228 254
209 228 254
209 228 254
208 228 254
208 228 254
208 228 254
208 228 254
208 228 254
208 228 254
208 228 254
208 228 254
208 228 254
208 228 254
208 228 254
208 228 254
208 228 254
208 228 254
208 228 254
208 228 254
208 228 254
208 228 254
208 228 254
208 228 254
208 228 254
208 228 254
208 228 254
208 228 254
208 227 254
208 227 254
207 227 254
207 227 254
207 227 254
207 227 254
207 227 254
207 227 254
207 227 254
207 227 254
207 227 254
207 227 254
207 227 254
157 213 219
75 197 171
62 197 166
62 196 165
62 197 172
61 195 167
61 194 158
61 196 169
61 194 159
61 195 165
62 197 165
63 199 172
62 197 169
61 196 167
62 197 168
61 196 170
61 196 165
62 198 172
60 194 162
62 196 163
63 198 168
62 196 167
62 198 173
61 195 166
61 194 160
63 198 170
62 197 168
62 197 166
62 197 171
62 198 171
62 196 165
61 195 160
62 197 169
62 196 166
62 197 168
62 197 169
63 199 173
62 196 166
62 196 169
63 198 171
62 197 170
62 196 169
62 196 170
61 196 171
61 194 169
61 195 166
62 196 169
61 196 173
61 194 162
62 197 169
61 194 163
62 195 173
62 195 172
61 194 170
62 195 174
61 196 172
65 195 172
147 209 215
205 227 253
207 227 254
207 227 254
207 227 254
207 227 254
207 227 254
207 227 254
207 227 254
207 227 254
207 227 254
207 227 254
208 227 254
208 227 254
208 228 254
208 228 254
208 228 254
208 228 254
208 228 254
208 228 254
208 228 254
208 228 254
208 228 254
208 228 254
208 228 254
208 228 254
208 228 254
208 228 254
208 228 254
208 228 254
208 228 254
208 228 254
208 228 254
208 228 254
208 228 254
208 228 254
208 228 254
208 228 254
209 228 254
209 228 254
209 228 254
209 228 254
209 228 254
209 228 254
209 228 254
209 228 254
209 228 254
188 200 237
166 163 232
174 169 251
174 171 254
172 170 254
172 170 254
170 169 254
169 168 254
169 168 254
168 168 254
167 168 254
166 167 254
165 167 254
165 167 254
165 166 254
164 166 254
164 166 254
163 166 254
163 166 254
163 166 254
163 166 254
163 166 254
163 166 254
162 165 254
162 165 254
162 165 254
162 165 254
162 165 254
162 165 254
162 165 254
162 165 254
162 165 254
162 165 254
162 165 254
162 165 254
162 165 254
162 165 254
162 165 254
162 165 254
162 165 254
162 165 254
162 165 254
162 165 254
162 165 254
163 166 254
163 166 254
163 166 254
163 166 254
163 166 254
163 166 254
163 166 254
164 166 254
163 166 254
164 166 254
164 166 254
164 166 254
164 166 254
164 166 254
165 166 254
165 167 254
165 167 254
165 167 254
165 167 254
165 167 254
165 167 254
166 167 254
166 167 254
166 167 254
166 167 254
166 167 254
167 167 254
167 167 254
167 168 254
168 168 254
167 168 254
168 168 254
168 168 254
168 168 254
168 168 254
168 168 254
169 168 254
169 168 254
169 168 254
169 168 254
169 168 254
170 169 254
170 169 254
170 169 254
170 169 254
171 169 254
171 169 254
171 169 254
171 169 254
172 170 254
172 170 254
172 170 254
172 170 254
173 170 254
172 170 254
173 170 254
173 170 254
173 170 254
173 170 254
174 171 254
174 171 254
175 171 254
174 171 254
175 171 254
175 171 254
175 171 254
176 171 254
176 171 254
176 171 254
176 172 254
176 172 254
177 172 254
177 172 254
177 172 254
177 172 254
178 172 254
177 172 254
179 173 254
179 173 254
179 173 254
179 173 254
171 196 0
172 196 0
173 196 0
173 197 0
175 197 0
174 197 0
173 197 0
172 196 0
171 196 0
174 197 0
174 197 0
174 197 0
171 196 0
174 197 0
173 197 0
173 197 0
174 197 0
173 197 0
173 197 0
175 198 0
173 197 0
172 196 0
173 197 0
172 195 0
173 197 0
173 197 0
174 197 0
172 196 0
173 197 0
175 198 0
173 197 0
174 197 0
174 197 0
173 196 0
174 197 0
175 198 0
174 197 0
175 197 0
173 197 0
173 197 0
173 197 0
173 197 0
172 196 0
173 197 0
176 198 0
174 197 0
174 197 0
171 196 0
172 197 0
175 198 0
173 197 0
174 197 0
172 196 0
172 196 0
173 196 0
174 197 0
174 197 0
173 197 0
174 197 0
172 196 0
174 197 0
174 197 0
173 196 0
173 197 0
173 197 0
175 198 0
172 196 0
174 197 0
174 197 0
174 197 0
172 196 0
172 196 0
173 196 0
174 197 0
174 197 0
175 197 0
173 197 0
172 196 0
175 198 0
171 195 0
173 197 0
174 197 0
173 197 0
174 197 0
175 198 0
174 197 0
171 195 0
173 197 0
173 197 0
173 196 0
175 197 0
174 197 0
175 198 0
172 196 0
173 196 0
173 197 0
173 197 0
172 196 0
172 196 0
173 197 0
173 197 0
174 197 0
174 197 0
173 197 0
174 197 0
173 196 0
173 197 0
176 198 0
171 196 0
175 198 0
174 197 0
173 197 0
174 197 0
174 197 0
174 197 0
172 196 0
173 197 0
173 197 0
174 197 0
174 197 0
172 195 0
171 196 0
174 197 0
173 196 0
172 196 0
188 209 157
206 226 244
209 228 254
209 228 254
209 228 254
209 228 254
209 228 254
209 228 254
209 228 254
209 228 254
209 228 254
209 228 254
209 228 254
209 228 254
209 228 254
208 228 254
208 228 254
208 228 254
208 228 254
208 228 254
208 228 254
208 228 254
208 228 254
208 228 254
208 228 254
208 228 254
208 228 254
208 228 254
208 228 254
208 228 254
208 228 254
208 228 254
208 228 254
208 228 254
208 228 254
208 228 254
208 228 254
208 228 254
208 228 254
208 228 254
208 228 254
208 228 254
208 227 254
208 227 254
187 221 239
118 204 192
61 194 158
61 195 163
61 196 169
61 195 157
61 195 163
62 196 167
62 198 172
61 196 169
62 196 166
61 195 165
61 196 166
62 196 162
62 197 170
62 196 165
62 197 167
62 198 172
62 198 170
62 197 165
62 196 164
61 195 169
61 195 162
62 196 164
62 196 167
62 196 165
62 196 161
62 196 166
62 197 167
62 198 170
61 195 162
62 197 166
63 198 166
61 196 165
61 196 168
61 194 157
62 196 167
63 198 169
62 198 170
62 196 164
61 195 164
62 197 163
62 196 165
62 197 170
62 197 169
62 195 169
61 195 166
62 195 170
62 196 168
62 197 172
62 197 169
62 196 168
61 194 169
62 195 170
61 196 168
62 196 171
61 194 169
61 196 173
62 194 174
61 195 172
112 201 196
198 224 247
208 227 254
208 227 254
208 228 254
208 228 254
208 228 254
208 228 254
208 228 254
208 228 254
208 228 254
208 228 254
208 228 254
208 228 254
208 228 254
208 228 254
208 228 254
208 228 254
208 228 254
208 228 254
208 228 254
208 228 254
208 228 254
208 228 254
208 228 254
208 228 254
208 228 254
208 228 254
208 228 254
208 228 254
208 228 254
209 228 254
209 228 254
209 228 254
209 228 254
209 228 254
209 228 254
209 228 254
209 228 254
209 228 254
209 228 254
209 228 254
209 228 254
209 228 254
208 227 253
179 184 236
162 157 232
175 171 253
174 171 254
172 170 254
171 169 254
170 169 254
169 168 254
168 168 254
168 168 254
167 167 254
166 167 254
166 167 254
165 167 254
165 166 254
165 167 254
164 166 254
164 166 254
163 166 254
163 166 254
163 166 254
163 166 254
163 166 254
163 166 254
162 165 254
162 165 254
162 165 254
162 165 254
162 165 254
162 165 254
162 165 254
162 165 254
162 165 254
162 165 254
162 165 254
162 165 254
162 165 254
162 165 254
162 165 254
162 165 254
162 165 254
162 165 254
162 166 254
163 166 254
163 166 254
163 166 254
163 166 254
163 166 254
163 166 254
163 166 254
163 166 254
163 166 254
164 166 254
164 166 254
164 166 254
164 166 254
164 166 254
165 167 254
165 166 254
165 167 254
165 167 254
165 167 254
165 167 254
166 167 254
166 167 254
166 167 254
166 167 254
166 167 254
166 167 254
167 167 254
167 168 254
167 168 254
167 168 254
167 167 254
168 168 254
167 168 254
168 168 254
168 168 254
168 168 254
168 168 254
169 168 254
169 169 254
169 168 254
169 169 254
169 168 254
170 169 254
170 169 254
171 169 254
171 169 254
170 169 254
172 170 254
172 170 254
172 170 254
171 170 254
172 170 254
172 170 254
172 170 254
172 170 254
172 170 254
173 170 254
173 170 254
174 171 254
174 171 254
173 170 254
174 171 254
174 171 254
174 171 254
174 171 254
175 171 254
175 171 254
175 171 254
176 172 254
175 171 254
177 172 254
176 171 254
177 172 254
176 172 254
177 172 254
178 172 254
178 172 254
178 173 254
178 173 254
178 173 254
179 173 254
179 173 254
180 173 254
172 196 0
171 196 0
174 197 0
173 197 0
172 196 0
173 197 0
173 197 0
175 198 0
171 196 0
173 197 0
173 196 0
172 196 0
173 197 0
173 197 0
172 196 0
174 197 0
174 197 0
173 197 0
175 198 0
173 197 0
174 197 0
173 197 0
174 197 0
172 196 0
174 197 0
173 197 0
174 197 0
172 196 0
174 197 0
173 197 0
174 197 0
174 197 0
173 197 0
173 197 0
171 195 0
173 197 0
174 197 0
176 198 0
175 197 0
174 197 0
175 198 0
174 197 0
175 198 0
174 197 0
173 197 0
171 196 0
175 198 0
173 197 0
174 197 0
173 197 0
173 196 0
171 196 0
174 197 0
174 197 0
173 197 0
172 196 0
174 197 0
172 196 0
173 197 0
172 196 0
172 196 0
173 197 0
174 197 0
175 198 0
173 197 0
174 197 0
174 197 0
174 197 0
174 197 0
174 197 0
173 197 0
172 196 0
174 197 0
172 196 0
174 197 0
173 196 0
174 197 0
173 196 0
171 196 0
173 197 0
174 197 0
173 197 0
174 197 0
174 197 0
172 196 0
174 197 0
174 197 0
172 196 0
176 198 0
175 198 0
174 197 0
170 195 0
173 197 0
173 197 0
172 196 0
171 195 0
172 196 0
175 198 0
173 197 0
174 197 0
172 195 0
172 197 0
173 196 0
172 196 0
173 197 0
173 197 0
174 197 0
173 197 0
173 197 0
173 197 0
172 196 0
173 197 0
173 196 0
174 197 0
173 197 0
172 196 0
174 197 0
173 196 0
174 197 0
175 198 0
173 197 0
172 196 0
173 196 0
174 197 0
173 197 0
176 198 0
178 201 98
206 225 239
209 228 254
209 228 254
209 228 254
209 228 254
209 228 254
209 228 254
209 228 254
209 228 254
209 228 254
209 228 254
209 228 254
209 228 254
209 228 254
209 228 254
209 228 254
209 228 254
209 228 254
209 228 254
209 228 254
208 228 254
208 228 254
208 228 254
208 228 254
208 228 254
208 228 254
208 228 254
208 228 254
208 228 254
208 228 254
208 228 254
208 228 254
208 228 254
208 228 254
208 228 254
208 228 254
208 228 254
208 228 254
208 228 254
208 228 254
208 228 254
177 218 230
83 199 178
62 196 167
61 196 170
61 195 166
62 198 169
61 196 165
61 196 168
61 195 162
62 197 168
62 198 172
62 196 166
62 197 168
61 195 160
61 196 163
62 196 168
62 196 166
61 196 168
61 196 169
62 197 170
61 195 166
62 196 163
62 196 164
61 196 165
62 197 170
63 198 168
62 196 166
62 197 167
62 197 162
62 197 168
61 196 171
62 197 166
63 198 168
62 197 166
62 196 160
62 197 167
62 196 165
61 194 164
61 195 164
62 196 164
61 195 167
62 198 172
61 195 165
62 196 167
62 197 169
62 196 162
62 196 168
62 197 172
61 195 163
61 195 166
61 196 166
61 193 157
61 196 169
61 195 166
61 195 171
61 194 173
62 196 171
61 194 172
61 195 173
62 195 170
61 193 171
61 194 172
78 194 176
177 218 233
208 228 254
208 228 254
208 228 254
208 228 254
208 228 254
208 228 254
208 228 254
208 228 254
208 228 254
208 228 254
208 228 254
208 228 254
208 228 254
208 228 254
208 228 254
208 228 254
208 228 254
208 228 254
208 228 254
208 228 254
208 228 254
209 228 254
209 228 254
209 228 254
209 228 254
209 228 254
209 228 254
209 228 254
209 228 254
209 228 254
209 228 254
209 228 254
209 228 254
209 228 254
209 228 254
209 228 254
209 228 254
209 228 254
209 228 254
209 228 254
200 217 245
172 172 233
176 171 252
176 171 254
174 171 254
173 170 254
171 169 254
170 169 254
170 169 254
168 168 254
168 168 254
167 168 254
166 167 254
166 167 254
165 167 254
165 167 254
165 167 254
164 166 254
164 166 254
164 166 254
164 166 254
163 166 254
163 166 254
163 166 254
163 166 254
163 166 254
163 166 254
162 165 254
162 165 254
162 166 254
162 165 254
162 165 254
162 165 254
162 165 254
162 165 254
162 165 254
162 165 254
163 166 254
162 165 254
163 166 254
162 165 254
163 166 254
163 166 254
163 166 254
163 166 254
163 166 254
163 166 254
163 166 254
163 166 254
164 166 254
164 166 254
164 166 254
164 166 254
164 166 254
164 166 254
164 166 254
164 166 254
165 166 254
165 167 254
165 167 254
165 167 254
166 167 254
166 167 254
166 167 254
166 167 254
166 167 254
165 167 254
166 167 254
167 167 254
166 167 254
167 168 254
167 168 254
168 168 254
167 168 254
168 168 254
168 168 254
168 168 254
168 168 254
168 168 254
169 168 254
169 168 254
169 168 254
169 168 254
170 169 254
170 169 254
170 169 254
170 169 254
170 169 254
170 169 254
171 169 254
171 169 254
171 169 254
171 169 254
171 169 254
172 170 254
172 170 254
171 169 254
172 170 254
173 170 254
173 170 254
173 170 254
173 170 254
174 171 254
173 170 254
174 171 254
174 171 254
174 171 254
174 171 254
174 171 254
175 171 254
175 171 254
176 171 254
176 171 254
176 171 254
177 172 254
176 172 254
177 172 254
177 172 254
177 172 254
177 172 254
178 172 254
177 172 254
179 173 254
178 173 254
179 173 254
179 173 254
178 173 254
179 173 254
172 196 0
173 197 0
174 198 0
174 197 0
174 197 0
173 196 0
173 197 0
173 197 0
173 197 0
172 196 0
175 198 0
174 197 0
173 196 0
174 197 0
172 196 0
172 196 0
173 196 0
173 197 0
173 197 0
174 197 0
173 197 0
175 198 0
172 197 0
173 197 0
175 198 0
174 197 0
174 197 0
174 197 0
174 197 0
173 197 0
174 197 0
173 197 0
174 197 0
172 196 0
173 197 0
172 196 0
173 197 0
173 197 0
174 197 0
174 197 0
172 196 0
172 196 0
175 197 0
173 197 0
173 196 0
173 197 0
171 196 0
173 197 0
172 196 0
175 198 0
172 196 0
174 197 0
173 197 0
175 198 0
173 197 0
174 197 0
172 197 0
174 197 0
172 196 0
173 196 0
173 197 0
173 197 0
174 197 0
173 197 0
171 196 0
174 197 0
174 197 0
173 196 0
173 196 0
175 198 0
173 197 0
174 197 0
172 196 0
173 196 0
173 196 0
175 198 0
173 197 0
174 197 0
173 197 0
174 197 0
173 197 0
175 198 0
174 197 0
175 198 0
173 197 0
174 197 0
174 197 0
174 197 0
174 197 0
174 197 0
173 197 0
173 196 0
173 197 0
174 197 0
173 196 0
175 198 0
173 197 0
172 196 0
174 197 0
173 197 0
176 198 0
174 197 0
172 197 0
171 196 0
174 197 0
174 197 0
174 197 0
174 197 0
175 198 0
173 197 0
174 197 0
172 196 0
174 197 0
172 196 0
172 197 0
173 197 0
172 196 0
175 198 0
172 196 0
173 197 0
172 196 0
174 197 0
172 195 0
172 196 0
173 197 0
174 197 0
176 198 0
178 201 76
201 221 217
209 229 254
209 229 254
209 228 254
209 228 254
209 228 254
209 228 254
209 228 254
209 228 254
209 228 254
209 228 254
209 228 254
209 228 254
209 228 254
209 228 254
209 228 254
209 228 254
209 228 254
209 228 254
209 228 254
209 228 254
209 228 254
209 228 254
209 228 254
209 228 254
209 228 254
209 228 254
208 228 254
208 228 254
208 228 254
208 228 254
208 228 254
208 228 254
208 228 254
208 228 254
208 228 254
208 228 254
208 228 254
207 227 254
145 211 211
61 195 162
61 196 169
61 195 166
61 195 166
61 195 164
62 196 165
61 196 166
61 194 160
62 198 174
61 196 164
62 198 169
61 195 159
62 196 162
63 198 169
61 194 161
61 195 168
62 197 168
62 195 159
63 199 168
62 197 167
61 196 162
62 197 169
62 197 170
62 196 161
62 198 168
61 194 158
63 198 169
61 195 162
61 195 163
62 196 169
62 197 169
61 195 159
62 197 166
62 196 165
62 197 166
61 196 164
61 196 166
61 195 164
62 195 163
63 199 171
63 198 169
62 197 168
62 197 170
61 195 161
62 197 171
62 196 167
62 196 164
62 197 171
62 197 171
62 196 172
62 197 169
62 196 170
61 193 163
61 195 165
61 193 163
62 196 171
61 194 169
62 195 168
61 194 172
62 196 169
61 194 170
61 193 171
60 192 168
61 195 176
155 214 220
207 227 254
208 228 254
208 228 254
208 228 254
208 228 254
208 228 254
208 228 254
208 228 254
208 228 254
208 228 254
208 228 254
208 228 254
209 228 254
209 228 254
209 228 254
209 228 254
209 228 254
209 228 254
209 228 254
209 228 254
209 228 254
209 228 254
209 228 254
209 228 254
209 228 254
209 228 254
209 228 254
209 228 254
209 228 254
209 228 254
209 228 254
209 228 254
209 228 254
209 228 254
209 228 254
209 228 254
209 229 254
209 229 254
193 207 240
163 160 228
174 169 249
176 172 254
173 170 254
172 170 254
171 169 254
170 169 254
169 169 254
168 168 254
168 168 254
167 168 254
166 167 254
166 167 254
166 167 254
165 167 254
165 167 254
165 167 254
164 166 254
164 166 254
164 166 254
164 166 254
164 166 254
163 166 254
163 166 254
163 166 254
163 166 254
163 166 254
163 166 254
163 166 254
162 166 254
163 166 254
163 166 254
163 166 254
163 166 254
163 166 254
163 166 254
163 166 254
163 166 254
163 166 254
163 166 254
163 166 254
163 166 254
163 166 254
163 166 254
163 166 254
163 166 254
164 166 254
164 166 254
164 166 254
164 166 254
164 166 254
164 166 254
164 166 254
164 166 254
164 166 254
165 167 254
165 167 254
165 167 254
165 167 254
165 167 254
166 167 254
166 167 254
166 167 254
166 167 254
166 167 254
166 167 254
167 167 254
167 167 254
167 168 254
167 168 254
167 168 254
167 168 254
168 168 254
168 168 254
168 168 254
168 168 254
168 168 254
169 168 254
168 168 254
170 169 254
170 169 254
170 169 254
170 169 254
170 169 254
170 169 254
170 169 254
170 169 254
170 169 254
171 169 254
171 169 254
171 170 254
171 170 254
171 170 254
172 170 254
173 170 254
172 170 254
173 170 254
172 170 254
172 170 254
174 171 254
173 170 254
174 171 254
174 171 254
174 171 254
174 171 254
175 171 254
175 171 254
175 171 254
175 171 254
175 171 254
176 172 254
176 172 254
176 172 254
177 172 254
176 172 254
177 172 254
177 172 254
177 172 254
178 173 254
178 172 254
177 172 254
178 173 254
178 173 254
178 173 254
178 173 254
179 173 254
179 173 254
180 173 254
173 197 0
175 198 0
172 196 0
174 197 0
173 197 0
172 196 0
174 197 0
173 197 0
173 197 0
172 196 0
174 197 0
173 196 0
172 196 0
175 198 0
173 196 0
174 197 0
174 197 0
174 197 0
174 197 0
173 197 0
173 197 0
174 197 0
175 198 0
173 197 0
173 197 0
174 197 0
174 197 0
173 197 0
174 197 0
172 196 0
174 197 0
175 197 0
173 196 0
173 197 0
173 197 0
174 197 0
173 197 0
174 197 0
174 197 0
175 198 0
172 197 0
174 197 0
175 198 0
174 197 0
173 197 0
174 197 0
174 197 0
173 197 0
171 195 0
175 198 0
173 197 0
174 197 0
174 197 0
172 196 0
172 196 0
174 197 0
174 197 0
175 198 0
173 197 0
174 197 0
174 197 0
173 196 0
173 197 0
171 196 0
172 196 0
175 198 0
175 198 0
174 197 0
174 197 0
174 197 0
174 197 0
172 196 0
174 197 0
174 197 0
173 197 0
174 198 0
174 197 0
175 198 0
172 196 0
173 197 0
172 196 0
173 196 0
173 196 0
172 196 0
173 197 0
173 196 0
173 197 0
171 195 0
173 197 0
172 196 0
172 196 0
174 197 0
172 197 0
172 196 0
173 197 0
173 197 0
172 196 0
174 197 0
174 197 0
175 198 0
175 198 0
174 197 0
174 196 0
173 197 0
174 197 0
174 197 0
173 197 0
173 197 0
173 197 0
173 197 0
175 197 0
173 197 0
172 196 0
174 197 0
174 197 0
175 198 0
173 197 0
174 197 0
174 197 0
173 197 0
172 197 0
173 196 0
171 196 0
172 197 0
173 197 0
175 197 0
174 197 0
173 196 0
174 198 36
197 218 205
210 229 254
210 229 254
210 229 254
210 229 254
210 229 254
209 229 254
209 229 254
209 229 254
209 228 254
209 228 254
209 228 254
209 228 254
209 228 254
209 228 254
209 228 254
209 228 254
209 228 254
209 228 254
209 228 254
209 228 254
209 228 254
209 228 254
209 228 254
209 228 254
209 228 254
209 228 254
209 228 254
209 228 254
209 228 254
209 228 254
209 228 254
209 228 254
209 228 254
209 228 254
208 228 254
203 226 251
128 207 200
62 197 169
61 195 165
62 196 165
61 196 165
62 197 171
62 196 166
62 196 164
61 195 161
62 196 162
61 196 167
61 194 163
61 195 160
62 197 170
61 195 164
61 195 159
61 196 165
61 196 163
62 196 166
61 196 165
61 195 163
62 197 165
63 198 167
62 197 169
62 197 172
61 194 158
63 198 166
61 197 171
62 196 160
61 195 155
62 197 168
62 196 166
61 195 161
61 196 166
61 195 164
62 197 164
62 196 165
62 197 168
62 196 167
61 195 170
62 197 169
61 194 160
62 196 170
62 195 161
62 198 173
61 195 163
61 195 161
62 195 161
62 196 166
62 195 164
61 194 163
62 196 166
61 194 163
62 195 166
61 194 160
62 195 169
61 192 161
62 195 162
62 196 172
61 193 163
63 199 175
61 194 162
61 195 172
62 194 169
61 192 170
61 193 167
61 192 172
125 202 198
207 228 254
208 228 254
208 228 254
209 228 254
209 228 254
209 228 254
209 228 254
209 228 254
209 228 254
209 228 254
209 228 254
209 228 254
209 228 254
209 228 254
209 228 254
209 228 254
209 228 254
209 228 254
209 228 254
209 228 254
209 228 254
209 228 254
209 228 254
209 228 254
209 228 254
209 228 254
209 228 254
209 228 254
209 229 254
209 229 254
209 229 254
210 229 254
210 229 254
210 229 254
210 229 254
210 229 254
190 200 240
169 165 239
175 170 252
175 171 254
174 171 254
173 170 254
172 170 254
171 169 254
169 169 254
168 168 254
167 168 254
167 167 254
167 168 254
166 167 254
166 167 254
165 167 254
166 167 254
165 167 254
165 166 254
164 166 254
164 166 254
164 166 254
164 166 254
164 166 254
163 166 254
163 166 254
163 166 254
163 166 254
163 166 254
163 166 254
163 166 254
163 166 254
163 166 254
163 166 254
163 166 254
163 166 254
163 166 254
163 166 254
163 166 254
163 166 254
163 166 254
163 166 254
163 166 254
164 166 254
164 166 254
164 166 254
164 166 254
164 166 254
164 166 254
164 166 254
165 167 254
165 166 254
165 166 254
165 167 254
165 167 254
165 167 254
165 167 254
165 167 254
165 167 254
166 167 254
166 167 254
166 167 254
166 167 254
166 167 254
166 167 254
167 167 254
167 167 254
167 168 254
167 168 254
167 168 254
167 168 254
168 168 254
168 168 254
168 168 254
169 168 254
168 168 254
168 168 254
169 169 254
168 168 254
169 169 254
169 168 254
169 169 254
169 169 254
170 169 254
170 169 254
170 169 254
170 169 254
171 169 254
171 169 254
170 169 254
171 169 254
172 170 254
171 169 254
172 170 254
172 170 254
172 170 254
172 170 254
173 170 254
173 170 254
173 170 254
173 170 254
174 171 254
174 171 254
173 170 254
174 171 254
174 171 254
174 171 254
175 171 254
175 171 254
175 171 254
176 171 254
176 172 254
176 171 254
177 172 254
176 172 254
176 172 254
176 172 254
177 172 254
178 172 254
178 172 254
177 172 254
178 172 254
178 173 254
179 173 254
178 173 254
179 173 254
179 173 254
180 173 254
179 173 254
179 173 254
174 197 0
172 196 0
174 197 0
171 196 0
173 197 0
173 197 0
175 198 0
174 197 0
174 197 0
173 197 0
174 197 0
173 197 0
175 197 0
171 195 0
173 197 0
173 197 0
174 197 0
173 196 0
173 197 0
174 197 0
173 196 0
173 196 0
172 195 0
175 198 0
174 197 0
174 197 0
174 197 0
173 197 0
176 198 0
173 197 0
171 196 0
173 197 0
174 197 0
173 197 0
172 196 0
173 197 0
175 197 0
173 196 0
175 198 0
172 196 0
175 197 0
175 198 0
172 196 0
175 198 0
174 197 0
174 197 0
172 196 0
173 197 0
173 197 0
174 197 0
171 196 0
172 196 0
173 197 0
174 197 0
173 197 0
173 196 0
173 196 0
173 197 0
174 197 0
175 198 0
174 197 0
173 197 0
173 197 0
174 197 0
172 196 0
174 197 0
173 197 0
174 197 0
172 196 0
174 197 0
174 197 0
174 197 0
174 197 0
174 197 0
173 197 0
173 197 0
175 198 0
173 196 0
172 196 0
173 197 0
174 197 0
175 198 0
174 197 0
174 197 0
174 197 0
174 197 0
174 197 0
172 197 0
174 197 0
173 197 0
173 196 0
173 196 0
173 197 0
173 196 0
172 196 0
174 197 0
173 197 0
174 197 0
174 197 0
174 197 0
173 197 0
174 197 0
174 197 0
173 196 0
175 198 0
174 197 0
171 196 0
173 197 0
173 196 0
172 196 0
173 197 0
173 197 0
173 197 0
172 196 0
172 196 0
176 198 0
173 197 0
173 197 0
172 196 0
175 198 0
172 196 0
172 196 0
173 196 0
174 197 0
174 197 0
175 198 0
175 197 0
174 197 0
175 198 0
174 197 0
193 214 180
210 229 254
210 229 254
210 229 254
210 229 254
210 229 254
210 229 254
210 229 254
210 229 254
210 229 254
210 229 254
210 229 254
209 229 254
209 229 254
209 229 254
209 228 254
209 228 254
209 228 254
209 228 254
209 228 254
209 228 254
209 228 254
209 228 254
209 228 254
209 228 254
209 228 254
209 228 254
209 228 254
209 228 254
209 228 254
209 228 254
209 228 254
209 228 254
209 228 254
207 227 253
104 202 185
60 194 162
61 195 166
62 196 166
61 194 157
62 196 165
62 196 163
61 196 163
61 196 167
61 195 163
61 196 166
61 195 158
61 196 167
62 198 170
62 197 165
62 196 162
62 196 159
62 197 167
62 197 166
61 195 159
62 197 162
61 195 161
61 195 161
61 196 163
60 194 158
61 195 164
61 195 164
61 195 160
61 194 160
61 195 160
62 197 167
62 197 166
62 195 158
61 195 160
61 196 166
63 198 172
61 194 163
62 195 156
62 197 171
62 196 162
61 195 160
61 195 162
63 198 166
62 197 170
61 196 166
62 195 161
62 198 170
62 196 163
62 195 165
62 197 168
62 195 157
61 194 160
61 193 159
61 193 159
61 194 161
62 195 168
62 196 168
62 195 166
60 192 151
61 194 166
62 197 172
62 196 166
61 194 170
60 191 164
61 193 170
61 193 171
61 193 172
59 189 165
62 196 176
113 202 194
202 226 250
209 228 254
209 228 254
209 228 254
209 228 254
209 228 254
209 228 254
209 228 254
209 228 254
209 228 254
209 228 254
209 228 254
209 228 254
209 228 254
209 228 254
209 228 254
209 228 254
209 228 254
209 228 254
209 228 254
209 229 254
209 229 254
209 229 254
210 229 254
210 229 254
210 229 254
210 229 254
210 229 254
210 229 254
210 229 254
210 229 254
210 229 254
210 229 254
210 229 254
180 188 230
171 165 243
177 172 253
176 171 254
174 171 254
172 170 254
171 169 254
171 169 254
170 169 254
169 168 254
168 168 254
168 168 254
167 167 254
167 167 254
166 167 254
166 167 254
166 167 254
165 167 254
165 167 254
165 167 254
165 166 254
164 166 254
164 166 254
164 166 254
164 166 254
164 166 254
164 166 254
164 166 254
164 166 254
163 166 254
164 166 254
163 166 254
163 166 254
163 166 254
163 166 254
164 166 254
163 166 254
164 166 254
163 166 254
164 166 254
164 166 254
164 166 254
164 166 254
164 166 254
164 166 254
164 166 254
164 166 254
164 166 254
165 166 254
164 166 254
165 167 254
164 166 254
165 167 254
165 167 254
165 167 254
166 167 254
166 167 254
166 167 254
166 167 254
166 167 254
166 167 254
166 167 254
167 167 254
167 167 254
167 168 254
167 167 254
167 168 254
167 168 254
167 168 254
167 168 254
168 168 254
168 168 254
168 168 254
168 168 254
169 168 254
169 168 254
169 168 254
169 168 254
169 168 254
170 169 254
170 169 254
170 169 254
170 169 254
170 169 254
170 169 254
171 169 254
170 169 254
171 169 254
171 169 254
171 169 254
172 170 254
172 170 254
172 170 254
172 170 254
172 170 254
172 170 254
173 170 254
173 170 254
173 170 254
174 171 254
174 171 254
174 171 254
174 171 254
174 171 254
174 171 254
175 171 254
175 171 254
175 171 254
175 171 254
176 172 254
176 172 254
176 171 254
176 171 254
176 172 254
177 172 254
177 172 254
176 172 254
177 172 254
178 172 254
177 172 254
177 172 254
178 173 254
178 172 254
178 173 254
179 173 254
179 173 254
179 173 254
179 173 254
180 173 254
179 173 254
180 173 254
173 197 0
174 197 0
172 196 0
173 197 0
172 195 0
173 197 0
173 196 0
173 197 0
173 197 0
170 195 0
173 197 0
174 197 0
174 197 0
175 198 0
174 197 0
174 197 0
174 197 0
174 197 0
174 197 0
172 196 0
175 198 0
172 196 0
174 197 0
173 197 0
175 197 0
173 197 0
175 197 0
173 197 0
174 197 0
174 197 0
172 196 0
172 196 0
173 197 0
173 197 0
174 197 0
174 197 0
173 196 0
175 198 0
173 196 0
173 196 0
173 197 0
174 197 0
174 197 0
172 195 0
172 196 0
172 196 0
173 196 0
175 197 0
175 198 0
175 198 0
174 197 0
174 197 0
172 196 0
173 197 0
174 197 0
173 196 0
173 197 0
174 197 0
173 196 0
174 197 0
174 197 0
173 197 0
175 198 0
173 197 0
172 196 0
173 197 0
172 195 0
173 197 0
175 198 0
174 197 0
173 197 0
176 198 0
173 197 0
173 197 0
172 196 0
173 197 0
174 197 0
174 197 0
172 196 0
175 198 0
173 197 0
171 195 0
173 196 0
171 196 0
174 197 0
173 197 0
172 196 0
172 196 0
172 196 0
173 196 0
173 197 0
173 197 0
174 197 0
174 197 0
173 197 0
174 197 0
174 197 0
173 197 0
173 196 0
172 196 0
172 196 0
172 196 0
173 197 0
173 197 0
173 197 0
171 195 0
173 197 0
173 197 0
172 196 0
174 197 0
174 197 0
172 196 0
174 197 0
174 197 0
171 196 0
174 197 0
173 197 0
173 197 0
171 195 0
174 197 0
174 197 0
173 197 0
173 197 0
174 197 0
173 197 0
171 194 0
172 197 0
171 196 0
174 197 0
175 197 0
174 198 0
188 209 163
210 229 253
210 229 254
210 229 254
210 229 254
210 229 254
210 229 254
210 229 254
210 229 254
210 229 254
210 229 254
210 229 254
210 229 254
210 229 254
210 229 254
210 229 254
210 229 254
210 229 254
209 229 254
209 229 254
209 229 254
209 229 254
209 228 254
209 228 254
209 228 254
209 228 254
209 228 254
209 228 254
209 228 254
209 228 254
209 228 254
209 228 254
202 226 249
108 202 189
61 196 168
61 195 162
62 196 165
61 194 161
61 195 161
61 195 164
62 197 163
62 196 162
61 194 162
62 196 163
61 194 160
62 196 162
62 197 166
62 197 165
61 195 158
61 195 160
62 197 168
61 195 160
60 193 155
62 196 166
61 195 160
62 197 164
62 196 163
61 195 159
62 196 161
61 195 160
61 195 158
61 194 158
61 195 159
61 195 159
61 194 160
61 196 169
61 196 165
61 195 157
62 197 165
61 195 162
62 197 165
62 197 162
62 197 167
62 196 166
62 197 167
61 195 160
61 195 165
62 196 165
62 195 161
62 196 165
61 193 156
61 194 160
61 194 159
62 197 166
61 195 162
61 193 151
62 194 159
62 195 170
61 195 172
62 196 166
61 193 163
61 194 160
61 195 170
62 195 168
61 195 172
61 193 165
62 195 170
61 195 169
61 192 171
62 195 167
61 191 165
61 193 167
60 192 168
61 194 172
100 195 185
206 228 253
209 228 254
209 228 254
209 228 254
209 228 254
209 228 254
209 228 254
209 228 254
209 228 254
209 228 254
209 228 254
209 229 254
209 229 254
209 229 254
209 229 254
210 229 254
210 229 254
210 229 254
210 229 254
210 229 254
210 229 254
210 229 254
210 229 254
210 229 254
210 229 254
210 229 254
210 229 254
210 229 254
210 229 254
210 229 254
210 229 254
210 229 254
177 184 226
165 159 233
178 172 254
176 172 254
175 171 254
173 170 254
172 170 254
172 170 254
170 169 254
169 168 254
169 168 254
168 168 254
168 168 254
167 168 254
167 167 254
166 167 254
166 167 254
166 167 254
165 167 254
165 167 254
165 167 254
165 166 254
165 167 254
164 166 254
164 166 254
164 166 254
164 166 254
164 166 254
164 166 254
164 166 254
164 166 254
164 166 254
164 166 254
164 166 254
164 166 254
164 166 254
164 166 254
164 166 254
164 166 254
164 166 254
164 166 254
164 166 254
164 166 254
164 166 254
164 166 254
165 166 254
164 166 254
165 167 254
165 167 254
165 167 254
165 167 254
165 167 254
165 167 254
166 167 254
166 167 254
166 167 254
166 167 254
166 167 254
166 167 254
166 167 254
166 167 254
167 167 254
167 168 254
167 168 254
167 168 254
167 168 254
167 168 254
168 168 254
168 168 254
168 168 254
168 168 254
169 168 254
168 168 254
169 168 254
169 168 254
170 169 254
170 169 254
170 169 254
170 169 254
170 169 254
170 169 254
170 169 254
170 169 254
171 169 254
170 169 254
171 169 254
171 169 254
171 169 254
171 169 254
171 170 254
172 170 254
172 170 254
172 170 254
173 170 254
172 170 254
173 170 254
173 170 254
173 170 254
174 170 254
174 171 254
174 170 254
174 171 254
175 171 254
174 171 254
174 171 254
175 171 254
175 171 254
175 171 254
176 172 254
176 171 254
176 172 254
176 171 254
176 172 254
177 172 254
177 172 254
177 172 254
177 172 254
178 173 254
177 172 254
177 172 254
178 172 254
179 173 254
179 173 254
179 173 254
179 173 254
178 173 254
179 173 254
179 173 254
179 173 254
180 173 254
180 173 254
180 173 254
172 196 0
175 198 0
173 197 0
173 197 0
174 197 0
172 196 0
174 197 0
174 197 0
173 197 0
173 197 0
173 196 0
174 197 0
173 197 0
173 197 0
172 196 0
173 197 0
173 197 0
173 197 0
173 197 0
172 196 0
174 197 0
175 198 0
172 196 0
173 197 0
174 197 0
174 197 0
175 197 0
173 196 0
174 197 0
173 197 0
173 197 0
174 197 0
174 197 0
173 196 0
172 196 0
172 195 0
174 197 0
172 196 0
174 197 0
175 198 0
172 196 0
176 198 0
174 196 0
174 197 0
172 196 0
172 196 0
175 198 0
174 197 0
174 197 0
173 196 0
175 198 0
173 196 0
173 197 0
174 197 0
173 197 0
172 196 0
174 197 0
174 197 0
174 197 0
172 195 0
171 195 0
173 197 0
171 196 0
175 197 0
174 197 0
173 196 0
174 197 0
175 198 0
173 197 0
173 197 0
172 196 0
173 197 0
173 197 0
174 197 0
172 196 0
173 197 0
173 197 0
174 197 0
172 196 0
173 197 0
174 197 0
172 196 0
175 198 0
174 197 0
174 197 0
174 197 0
172 196 0
173 197 0
173 197 0
174 197 0
172 196 0
174 197 0
173 196 0
174 197 0
172 196 0
174 197 0
173 197 0
172 196 0
174 197 0
173 197 0
171 196 0
174 197 0
175 198 0
173 197 0
173 197 0
171 195 0
174 197 0
172 195 0
172 196 0
172 196 0
175 198 0
173 197 0
173 197 0
172 197 0
172 196 0
173 196 0
174 197 0
172 196 0
172 196 0
172 196 0
174 197 0
175 198 0
175 198 0
174 197 0
172 196 0
173 197 0
173 197 0
172 196 0
176 198 0
173 196 0
172 196 0
173 196 0
194 214 183
210 229 254
210 229 254
210 229 254
210 229 254
210 229 254
210 229 254
210 229 254
210 229 254
210 229 254
210 229 254
210 229 254
210 229 254
210 229 254
210 229 254
210 229 254
210 229 254
210 229 254
210 229 254
210 229 254
210 229 254
210 229 254
210 229 254
210 229 254
210 229 254
210 229 254
209 229 254
209 229 254
209 229 254
209 229 254
203 226 249
104 200 175
61 194 157
61 194 159
61 195 162
60 193 154
61 196 165
61 194 162
61 195 159
61 195 161
61 195 157
61 194 159
62 196 162
61 195 161
63 197 163
62 196 159
62 197 165
61 195 161
61 195 159
63 197 164
61 194 157
61 195 159
61 195 159
62 197 165
61 194 157
61 194 157
61 195 159
61 195 158
62 198 171
62 196 165
61 196 168
61 195 163
61 195 160
62 197 164
61 195 159
62 196 161
61 195 161
62 197 167
61 195 161
62 196 166
62 197 167
61 196 163
62 196 162
62 197 164
61 195 160
62 197 170
61 195 161
62 196 161
62 197 164
62 197 169
62 195 164
61 194 160
62 197 167
60 193 161
61 196 166
60 191 151
63 198 170
61 195 167
60 193 159
61 194 158
61 194 162
63 197 166
62 195 168
61 195 162
61 192 160
61 193 162
61 193 163
61 193 165
60 190 166
61 194 162
61 194 169
60 192 164
60 190 169
61 192 171
114 202 195
200 226 247
209 229 254
209 229 254
209 229 254
210 229 254
210 229 254
210 229 254
210 229 254
210 229 254
210 229 254
210 229 254
210 229 254
210 229 254
210 229 254
210 229 254
210 229 254
210 229 254
210 229 254
210 229 254
210 229 254
210 229 254
210 229 254
210 229 254
210 229 254
210 229 254
210 229 254
210 229 254
210 229 254
210 229 254
210 229 254
181 184 239
172 166 243
178 173 254
176 172 254
175 171 254
173 170 254
172 170 254
171 170 254
171 169 254
170 169 254
169 168 254
168 168 254
168 168 254
168 168 254
167 167 254
167 167 254
166 167 254
167 167 254
166 167 254
165 167 254
165 167 254
165 167 254
165 167 254
165 167 254
165 167 254
165 167 254
165 167 254
164 166 254
164 166 254
164 166 254
165 166 254
164 166 254
164 166 254
164 166 254
165 167 254
164 166 254
164 166 254
165 167 254
165 167 254
165 166 254
165 167 254
165 167 254
165 167 254
165 167 254
165 167 254
165 167 254
165 167 254
165 167 254
165 167 254
166 167 254
165 167 254
165 167 254
166 167 254
166 167 254
166 167 254
166 167 254
167 167 254
167 167 254
167 167 254
167 167 254
167 167 254
167 168 254
167 168 254
168 168 254
168 168 254
168 168 254
168 168 254
168 168 254
168 168 254
168 168 254
169 168 254
169 168 254
169 168 254
169 169 254
169 168 254
169 169 254
170 169 254
170 169 254
170 169 254
171 169 254
170 169 254
170 169 254
171 169 254
170 169 254
171 169 254
171 169 254
171 170 254
172 170 254
172 170 254
172 170 254
172 170 254
172 170 254
173 170 254
173 170 254
173 170 254
173 170 254
173 170 254
174 171 254
173 170 254
174 170 254
174 171 254
175 171 254
175 171 254
175 171 254
174 171 254
175 171 254
175 171 254
175 171 254
175 171 254
176 172 254
176 171 254
176 172 254
176 172 254
177 172 254
177 172 254
177 172 254
177 172 254
178 172 254
177 172 254
177 172 254
177 172 254
178 172 254
178 173 254
178 173 254
179 173 254
179 173 254
179 173 254
179 173 254
180 173 254
180 174 254
180 173 254
180 173 254
181 174 254
172 196 0
173 196 0
172 196 0
173 197 0
174 197 0
171 196 0
174 197 0
175 198 0
172 196 0
173 197 0
172 196 0
173 197 0
175 197 0
172 196 0
173 196 0
174 197 0
174 197 0
174 197 0
173 196 0
174 197 0
173 197 0
172 196 0
173 197 0
174 197 0
173 196 0
172 195 0
171 195 0
173 196 0
173 197 0
173 197 0
174 197 0
173 197 0
174 197 0
175 198 0
174 197 0
174 197 0
173 197 0
174 197 0
173 197 0
174 197 0
174 197 0
173 197 0
173 197 0
174 197 0
172 196 0
173 196 0
174 197 0
172 197 0
173 197 0
174 197 0
172 196 0
172 196 0
173 197 0
173 197 0
174 197 0
175 198 0
173 197 0
173 197 0
174 197 0
174 197 0
174 197 0
173 197 0
174 197 0
173 197 0
175 198 0
173 197 0
174 197 0
174 197 0
171 196 0
174 197 0
175 198 0
172 196 0
173 197 0
175 197 0
174 197 0
175 198 0
174 197 0
173 197 0
173 197 0
174 197 0
174 197 0
173 197 0
173 197 0
172 197 0
174 197 0
174 197 0
173 197 0
172 196 0
174 197 0
172 196 0
173 197 0
173 197 0
173 197 0
173 197 0
173 197 0
173 197 0
173 197 0
175 198 0
175 198 0
173 197 0
175 198 0
173 197 0
175 198 0
173 197 0
172 196 0
172 196 0
173 197 0
173 197 0
173 196 0
174 197 0
174 197 0
174 197 0
173 196 0
172 196 0
172 196 0
173 197 0
173 197 0
173 196 0
174 197 0
172 196 0
173 197 0
174 197 0
175 198 0
173 197 0
172 196 0
173 197 0
173 197 0
170 196 0
172 196 0
172 197 0
174 197 0
174 197 0
173 196 0
188 209 155
211 229 254
211 229 254
210 229 254
210 229 254
210 229 254
210 229 254
210 229 254
210 229 254
210 229 254
210 229 254
210 229 254
210 229 254
210 229 254
210 229 254
210 229 254
210 229 254
210 229 254
210 229 254
210 229 254
210 229 254
210 229 254
210 229 254
210 229 254
210 229 254
210 229 254
210 229 254
210 229 254
204 227 249
104 199 173
61 195 157
61 195 159
61 194 154
61 194 157
61 195 162
62 196 165
60 192 151
62 196 164
61 195 159
61 194 159
62 196 158
62 197 160
63 198 167
61 196 165
62 196 160
61 194 159
62 197 166
61 195 160
61 194 159
61 195 161
61 194 156
62 196 159
62 197 167
61 194 156
62 196 164
61 195 157
60 193 158
62 196 166
60 193 154
62 197 166
62 196 162
63 199 170
63 198 165
61 194 152
62 197 163
62 196 161
61 194 152
62 197 165
61 195 160
61 195 155
62 196 161
62 196 164
62 195 157
62 196 163
61 195 158
61 195 160
61 195 161
61 194 157
62 196 166
62 197 172
61 195 159
61 194 165
60 193 149
62 195 162
61 195 164
62 196 163
61 194 165
60 192 152
61 193 161
61 195 161
61 192 159
62 196 171
62 193 152
61 191 163
62 195 168
61 194 160
61 193 170
62 196 168
61 192 172
62 193 165
62 193 168
60 188 163
61 191 167
61 191 172
106 195 191
206 228 252
210 229 254
210 229 254
210 229 254
210 229 254
210 229 254
210 229 254
210 229 254
210 229 254
210 229 254
210 229 254
210 229 254
210 229 254
210 229 254
210 229 254
210 229 254
210 229 254
210 229 254
210 229 254
210 229 254
210 229 254
210 229 254
210 229 254
210 229 254
210 229 254
210 229 254
211 229 254
211 229 254
182 188 233
171 165 241
179 173 254
176 172 254
175 171 254
173 170 254
173 170 254
172 170 254
171 169 254
170 169 254
170 169 254
169 168 254
168 168 254
168 168 254
167 168 254
167 168 254
167 167 254
167 167 254
166 167 254
166 167 254
166 167 254
166 167 254
166 167 254
165 167 254
165 167 254
165 167 254
165 167 254
165 167 254
165 167 254
165 167 254
165 167 254
165 167 254
165 167 254
165 167 254
165 167 254
165 167 254
165 167 254
165 167 254
165 167 254
165 166 254
165 167 254
165 167 254
165 167 254
165 167 254
166 167 254
165 167 254
166 167 254
166 167 254
166 167 254
166 167 254
166 167 254
166 167 254
167 167 254
167 167 254
167 167 254
167 167 254
167 168 254
167 167 254
167 168 254
167 168 254
168 168 254
168 168 254
168 168 254
168 168 254
168 168 254
168 168 254
168 168 254
168 168 254
169 168 254
169 168 254
169 168 254
169 168 254
169 168 254
169 169 254
170 169 254
170 169 254
170 169 254
170 169 254
171 169 254
171 169 254
171 169 254
171 169 254
171 169 254
171 169 254
171 169 254
172 170 254
172 170 254
172 170 254
172 170 254
173 170 254
173 170 254
173 170 254
173 170 254
173 170 254
173 170 254
173 170 254
174 171 254
173 170 254
174 171 254
174 171 254
174 171 254
174 171 254
174 171 254
175 171 254
175 171 254
175 171 254
176 171 254
175 171 254
176 172 254
176 172 254
176 172 254
177 172 254
177 172 254
177 172 254
176 172 254
177 172 254
177 172 254
178 172 254
178 172 254
178 172 254
178 173 254
178 173 254
178 173 254
178 173 254
179 173 254
179 173 254
179 173 254
179 173 254
179 173 254
180 174 254
181 174 254
180 174 254
180 173 254
180 174 254
174 197 0
174 197 0
174 197 0
175 197 0
172 196 0
174 197 0
173 196 0
175 198 0
174 197 0
174 197 0
173 197 0
173 197 0
172 196 0
174 197 0
173 197 0
172 197 0
175 198 0
173 197 0
173 197 0
173 197 0
172 196 0
174 197 0
172 196 0
174 197 0
172 197 0
174 197 0
174 197 0
174 197 0
175 197 0
174 197 0
174 197 0
175 198 0
174 197 0
175 198 0
175 198 0
173 197 0
174 197 0
171 196 0
175 197 0
173 196 0
172 196 0
174 197 0
174 197 0
173 197 0
172 196 0
173 197 0
174 197 0
174 197 0
176 198 0
174 197 0
174 197 0
173 196 0
175 198 0
171 195 0
174 197 0
173 196 0
174 197 0
173 197 0
174 197 0
172 196 0
174 197 0
173 196 0
175 197 0
175 198 0
174 197 0
174 197 0
175 197 0
173 197 0
173 197 0
174 197 0
174 197 0
173 196 0
173 196 0
176 198 0
173 197 0
173 196 0
173 196 0
173 197 0
173 196 0
172 196 0
173 197 0
174 197 0
174 197 0
174 197 0
172 196 0
173 196 0
173 197 0
172 196 0
175 198 0
174 197 0
173 197 0
174 197 0
172 197 0
173 197 0
173 197 0
174 197 0
174 197 0
173 197 0
174 197 0
174 197 0
173 196 0
172 196 0
174 197 0
172 196 0
174 197 0
174 197 0
173 197 0
174 197 0
171 196 0
174 197 0
173 197 0
171 196 0
174 197 0
172 196 0
173 196 0
174 197 0
175 198 0
175 198 0
174 197 0
173 197 0
175 197 0
174 197 0
172 196 0
174 197 0
173 197 0
174 197 0
173 196 0
173 197 0
174 197 0
172 196 0
173 197 0
173 197 0
175 198 0
174 196 0
189 211 163
211 229 254
211 229 254
211 229 254
211 229 254
211 229 254
211 229 254
211 229 254
211 229 254
211 229 254
210 229 254
210 229 254
210 229 254
210 229 254
210 229 254
210 229 254
210 229 254
210 229 254
210 229 254
210 229 254
210 229 254
210 229 254
210 229 254
210 229 254
210 229 254
210 229 254
208 228 253
110 202 184
61 194 159
61 195 160
60 193 155
61 195 160
61 194 155
61 194 160
61 194 152
61 195 158
61 194 155
61 194 151
62 197 163
62 196 163
61 194 151
61 195 160
62 196 163
62 197 168
61 195 162
61 195 158
62 196 161
62 197 164
61 195 160
61 194 155
62 196 160
61 196 163
61 195 162
62 196 161
61 195 161
61 195 164
61 194 158
61 196 165
61 194 161
61 195 162
62 197 163
62 196 161
61 196 162
61 195 159
62 196 158
61 195 157
61 195 159
61 195 157
62 196 163
61 194 159
62 195 159
62 195 157
62 196 161
62 197 167
62 195 162
61 195 160
62 195 165
61 192 148
62 195 159
61 194 156
62 197 164
62 196 164
61 195 160
61 195 161
61 193 155
62 195 165
61 194 166
60 192 156
62 194 163
61 194 164
62 195 168
62 195 169
60 191 159
62 194 162
61 193 164
61 193 158
61 193 163
60 190 157
61 194 163
61 193 164
61 191 165
61 192 171
61 194 168
61 194 173
100 196 185
210 229 254
210 229 254
210 229 254
210 229 254
210 229 254
210 229 254
210 229 254
210 229 254
210 229 254
210 229 254
210 229 254
210 229 254
210 229 254
210 229 254
210 229 254
210 229 254
210 229 254
211 229 254
211 229 254
211 229 254
211 229 254
211 229 254
211 229 254
211 229 254
211 229 254
211 229 254
190 198 243
174 168 245
178 172 253
177 172 254
176 171 254
174 171 254
173 170 254
172 170 254
172 170 254
171 169 254
170 169 254
170 169 254
168 168 254
169 168 254
168 168 254
168 168 254
167 168 254
167 168 254
167 167 254
167 167 254
167 167 254
166 167 254
166 167 254
166 167 254
166 167 254
165 167 254
166 167 254
166 167 254
166 167 254
165 167 254
166 167 254
166 167 254
166 167 254
166 167 254
166 167 254
165 167 254
166 167 254
166 167 254
166 167 254
165 167 254
166 167 254
166 167 254
166 167 254
166 167 254
166 167 254
166 167 254
167 167 254
167 167 254
167 167 254
167 167 254
167 167 254
167 167 254
167 168 254
167 168 254
167 167 254
168 168 254
168 168 254
168 168 254
168 168 254
168 168 254
168 168 254
168 168 254
169 168 254
168 168 254
168 168 254
169 168 254
169 169 254
169 168 254
169 168 254
169 169 254
170 169 254
170 169 254
170 169 254
170 169 254
170 169 254
170 169 254
171 169 254
171 169 254
171 169 254
171 169 254
171 169 254
171 169 254
171 169 254
171 170 254
172 170 254
172 170 254
172 170 254
172 170 254
173 170 254
173 170 254
172 170 254
173 170 254
173 170 254
174 171 254
173 170 254
173 170 254
173 170 254
174 171 254
174 171 254
175 171 254
175 171 254
175 171 254
175 171 254
175 171 254
175 171 254
175 171 254
176 171 254
176 172 254
175 171 254
175 171 254
177 172 254
177 172 254
177 172 254
177 172 254
176 172 254
177 172 254
178 172 254
178 173 254
178 173 254
178 173 254
179 173 254
179 173 254
178 173 254
179 173 254
179 173 254
179 173 254
179 173 254
180 173 254
180 174 254
180 174 254
179 173 254
181 174 254
181 174 254
181 174 254
182 174 254
174 197 0
175 198 0
174 197 0
173 197 0
174 197 0
173 197 0
174 197 0
171 196 0
174 197 0
174 197 0
174 197 0
175 198 0
175 198 0
174 197 0
175 198 0
174 197 0
173 197 0
173 196 0
174 197 0
172 196 0
174 197 0
172 196 0
175 198 0
174 197 0
173 197 0
172 196 0
174 197 0
172 196 0
174 197 0
173 197 0
173 197 0
173 196 0
173 197 0
175 198 0
172 196 0
174 197 0
174 197 0
175 197 0
172 196 0
174 197 0
173 197 0
175 198 0
172 196 0
172 196 0
174 197 0
172 196 0
174 197 0
174 197 0
173 197 0
173 197 0
173 196 0
174 197 0
173 197 0
172 196 0
174 197 0
172 196 0
173 197 0
175 198 0
173 196 0
172 196 0
173 197 0
173 197 0
174 197 0
175 198 0
173 197 0
174 197 0
173 197 0
173 197 0
174 197 0
174 197 0
173 197 0
174 197 0
173 197 0
172 196 0
172 196 0
171 195 0
172 196 0
176 198 0
173 197 0
174 197 0
172 196 0
173 197 0
174 197 0
174 197 0
173 197 0
174 197 0
172 196 0
172 196 0
173 197 0
175 198 0
173 196 0
173 196 0
174 197 0
173 197 0
174 197 0
173 197 0
173 197 0
174 197 0
171 195 0
172 196 0
173 196 0
174 197 0
173 197 0
173 196 0
173 197 0
174 197 0
174 197 0
174 197 0
175 197 0
173 197 0
174 197 0
171 196 0
173 197 0
173 197 0
173 197 0
172 196 0
173 196 0
173 197 0
173 197 0
175 198 0
173 197 0
173 196 0
176 198 0
174 197 0
175 197 0
174 197 0
174 197 0
175 197 0
174 197 0
171 196 0
174 197 0
174 197 0
173 196 0
173 197 0
172 196 0
194 215 185
211 229 254
211 229 254
211 229 254
211 229 254
211 229 254
211 229 254
211 229 254
211 229 254
211 229 254
211 229 254
211 229 254
211 229 254
211 229 254
211 229 254
211 229 254
211 229 254
211 229 254
210 229 254
210 229 254
210 229 254
210 229 254
210 229 254
210 229 254
210 229 254
137 208 200
60 193 157
60 192 149
61 194 156
61 194 156
61 194 155
61 194 156
62 195 156
61 195 157
61 194 154
61 193 148
62 196 161
61 195 159
62 197 167
62 197 164
61 194 159
61 193 152
61 195 157
61 194 152
61 194 150
61 194 154
60 193 158
62 196 163
62 197 165
61 193 148
62 196 161
62 196 155
62 196 160
61 195 157
62 196 163
61 194 157
62 196 162
61 195 159
61 193 149
62 197 165
62 196 160
61 194 152
61 195 160
62 195 155
62 195 157
61 195 158
61 194 160
62 196 167
62 197 161
61 194 154
61 195 158
61 193 151
62 197 163
62 196 160
61 193 155
62 196 163
61 193 154
61 193 160
61 195 164
62 197 167
61 193 152
62 197 163
62 194 160
61 194 156
62 196 163
61 194 165
61 194 166
60 191 159
61 194 162
61 193 162
61 194 159
61 193 160
61 192 155
62 195 168
61 194 165
61 191 159
60 190 156
61 193 167
61 191 162
61 193 175
61 193 166
59 188 165
60 189 164
61 192 171
145 209 211
210 229 254
210 229 254
210 229 254
210 229 254
210 229 254
210 229 254
210 229 254
211 229 254
211 229 254
211 229 254
211 229 254
211 229 254
211 229 254
211 229 254
211 229 254
211 229 254
211 229 254
211 229 254
211 229 254
211 229 254
211 229 254
211 229 254
211 229 254
211 229 254
188 197 239
169 162 237
179 173 254
178 172 254
176 172 254
175 171 254
173 170 254
173 170 254
172 170 254
171 169 254
171 169 254
170 169 254
170 169 254
169 168 254
169 169 254
169 168 254
168 168 254
168 168 254
168 168 254
167 168 254
167 168 254
167 167 254
167 168 254
166 167 254
166 167 254
167 167 254
167 167 254
166 167 254
166 167 254
166 167 254
167 167 254
167 167 254
166 167 254
166 167 254
166 167 254
166 167 254
167 167 254
167 167 254
166 167 254
166 167 254
166 167 254
166 167 254
166 167 254
166 167 254
167 167 254
167 168 254
167 167 254
167 168 254
167 168 254
167 168 254
167 168 254
167 168 254
168 168 254
167 168 254
168 168 254
168 168 254
168 168 254
168 168 254
168 168 254
168 168 254
169 168 254
169 168 254
169 168 254
169 169 254
169 169 254
169 169 254
170 169 254
170 169 254
170 169 254
170 169 254
170 169 254
170 169 254
170 169 254
171 169 254
171 169 254
171 169 254
171 169 254
171 169 254
172 170 254
171 169 254
171 170 254
172 170 254
172 170 254
172 170 254
172 170 254
173 170 254
173 170 254
173 170 254
173 170 254
173 170 254
173 170 254
173 170 254
174 171 254
174 171 254
174 171 254
174 171 254
175 171 254
175 171 254
175 171 254
174 171 254
175 171 254
175 171 254
176 171 254
175 171 254
176 171 254
176 172 254
176 171 254
176 171 254
176 172 254
177 172 254
177 172 254
177 172 254
177 172 254
178 172 254
178 172 254
178 173 254
178 173 254
178 172 254
178 172 254
178 173 254
178 173 254
179 173 254
179 173 254
179 173 254
179 173 254
179 173 254
180 173 254
179 173 254
180 174 254
180 174 254
180 174 254
180 174 254
181 174 254
181 174 254
182 174 254
181 174 254
172 196 0
173 197 0
172 196 0
175 198 0
174 197 0
174 197 0
174 197 0
174 197 0
174 197 0
173 197 0
173 197 0
174 197 0
173 196 0
173 196 0
173 197 0
172 196 0
171 196 0
174 197 0
174 197 0
173 196 0
174 197 0
174 197 0
173 197 0
175 198 0
174 197 0
175 198 0
174 197 0
173 196 0
174 197 0
172 196 0
172 196 0
173 196 0
174 197 0
174 197 0
173 197 0
174 197 0
172 196 0
174 197 0
174 197 0
174 197 0
173 197 0
174 197 0
175 198 0
174 197 0
173 197 0
175 198 0
173 197 0
174 197 0
174 197 0
174 197 0
174 197 0
174 197 0
173 197 0
174 197 0
174 197 0
174 197 0
174 197 0
175 198 0
174 197 0
174 197 0
174 197 0
173 196 0
173 196 0
173 197 0
172 196 0
173 196 0
172 196 0
173 197 0
174 197 0
175 198 0
174 197 0
172 196 0
174 197 0
172 196 0
174 197 0
175 198 0
173 197 0
172 196 0
173 197 0
175 198 0
173 196 0
173 197 0
173 197 0
174 197 0
174 197 0
173 196 0
174 197 0
174 197 0
174 197 0
174 197 0
174 197 0
175 197 0
173 197 0
175 198 0
173 197 0
172 196 0
173 196 0
172 197 0
174 197 0
174 197 0
175 197 0
173 196 0
172 196 0
174 197 0
175 198 0
174 197 0
172 195 0
174 197 0
171 196 0
175 198 0
175 197 0
173 197 0
175 198 0
172 196 0
173 197 0
173 197 0
172 195 0
173 197 0
175 197 0
173 197 0
172 196 0
174 197 0
172 196 0
174 197 0
173 197 0
173 197 0
175 198 0
173 197 0
171 196 0
172 196 0
174 197 0
172 195 0
172 196 0
174 197 0
176 197 0
174 198 36
199 219 207
211 230 254
211 230 254
211 229 254
211 229 254
211 229 254
211 229 254
211 229 254
211 229 254
211 229 254
211 229 254
211 229 254
211 229 254
211 229 254
211 229 254
211 229 254
211 229 254
211 229 254
211 229 254
211 229 254
211 229 254
211 229 254
211 229 254
160 212 212
59 190 141
60 192 148
59 192 150
61 194 148
62 195 156
59 192 152
60 193 151
61 194 152
62 195 160
61 195 158
61 195 158
61 195 161
61 194 157
61 195 159
61 194 152
61 195 159
63 198 166
61 195 163
62 196 161
62 195 160
61 195 160
62 195 156
62 195 155
62 195 158
61 194 156
60 193 155
61 195 157
61 194 154
62 195 160
62 196 159
62 196 161
62 196 163
62 196 164
61 194 158
62 196 158
62 196 159
62 197 163
62 195 154
61 195 160
61 194 156
62 196 158
62 196 164
62 196 162
61 194 157
60 193 158
62 196 162
62 195 161
61 194 156
62 196 165
60 192 149
62 195 157
61 192 147
61 195 159
62 195 158
62 195 160
62 196 159
61 194 160
61 194 160
62 194 160
61 192 155
62 196 159
62 196 160
61 193 162
61 193 159
61 194 157
61 193 166
61 192 161
61 192 160
61 194 163
62 195 164
60 191 156
61 194 165
62 195 166
61 192 165
62 195 166
61 191 166
60 188 165
60 189 158
61 191 172
60 186 164
168 216 227
211 229 254
211 229 254
211 229 254
211 229 254
211 229 254
211 229 254
211 229 254
211 229 254
211 229 254
211 229 254
211 229 254
211 229 254
211 229 254
211 229 254
211 229 254
211 229 254
211 229 254
211 229 254
211 229 254
211 230 254
211 230 254
211 230 254
193 203 243
170 162 236
180 173 254
178 173 254
177 172 254
176 172 254
174 171 254
173 170 254
173 170 254
172 170 254
172 170 254
171 169 254
170 169 254
170 169 254
169 169 254
169 168 254
169 169 254
169 168 254
168 168 254
168 168 254
167 168 254
167 168 254
168 168 254
167 168 254
167 168 254
167 168 254
167 168 254
167 168 254
167 168 254
167 168 254
167 167 254
167 167 254
167 167 254
167 168 254
167 167 254
167 167 254
167 167 254
167 168 254
167 167 254
167 167 254
167 168 254
167 167 254
167 168 254
167 167 254
167 168 254
168 168 254
167 168 254
168 168 254
168 168 254
168 168 254
168 168 254
167 168 254
168 168 254
168 168 254
168 168 254
169 168 254
169 168 254
169 168 254
169 169 254
169 168 254
169 169 254
169 169 254
169 169 254
170 169 254
170 169 254
170 169 254
170 169 254
170 169 254
170 169 254
171 169 254
170 169 254
171 169 254
171 169 254
171 169 254
171 169 254
171 169 254
171 169 254
172 170 254
172 170 254
172 170 254
172 170 254
172 170 254
173 170 254
173 170 254
173 170 254
172 170 254
173 170 254
173 170 254
173 170 254
173 170 254
174 170 254
174 171 254
175 171 254
174 171 254
175 171 254
175 171 254
175 171 254
176 171 254
175 171 254
175 171 254
176 171 254
176 171 254
175 171 254
176 171 254
176 172 254
176 172 254
177 172 254
176 172 254
177 172 254
177 172 254
177 172 254
177 172 254
178 173 254
178 173 254
179 173 254
178 172 254
178 172 254
178 173 254
178 173 254
178 173 254
178 173 254
179 173 254
179 173 254
179 173 254
179 173 254
180 173 254
180 173 254
181 174 254
180 174 254
180 174 254
181 174 254
181 174 254
181 174 254
182 174 254
182 174 254
181 174 254
182 174 254
174 197 0
173 196 0
174 197 0
173 197 0
174 197 0
175 198 0
173 197 0
173 197 0
172 196 0
172 196 0
172 196 0
174 197 0
172 196 0
173 196 0
174 197 0
172 195 0
173 197 0
173 197 0
174 197 0
173 197 0
172 196 0
174 197 0
174 197 0
174 197 0
175 198 0
172 196 0
174 197 0
174 197 0
174 197 0
174 197 0
176 198 0
173 197 0
173 197 0
174 197 0
173 197 0
175 198 0
173 197 0
175 198 0
176 198 0
174 197 0
174 197 0
175 198 0
174 197 0
173 197 0
174 197 0
173 196 0
174 197 0
174 197 0
172 196 0
173 197 0
174 197 0
174 197 0
173 197 0
173 197 0
173 197 0
174 197 0
173 197 0
173 196 0
175 198 0
175 197 0
173 197 0
173 197 0
173 197 0
174 197 0
175 198 0
173 197 0
173 197 0
174 197 0
172 197 0
173 196 0
171 196 0
172 196 0
173 196 0
175 198 0
174 197 0
174 197 0
172 196 0
172 196 0
175 197 0
174 197 0
173 197 0
174 197 0
174 197 0
174 197 0
174 197 0
174 197 0
172 196 0
173 196 0
174 197 0
172 196 0
174 197 0
175 198 0
175 198 0
174 197 0
175 198 0
172 195 0
174 197 0
173 197 0
172 196 0
174 197 0
174 197 0
173 197 0
174 197 0
175 198 0
173 197 0
176 198 0
173 197 0
175 198 0
174 197 0
173 197 0
174 197 0
174 197 0
173 197 0
174 197 0
175 197 0
173 197 0
173 196 0
171 196 0
173 197 0
172 196 0
173 197 0
172 196 0
174 197 0
172 197 0
174 197 0
172 196 0
173 196 0
173 197 0
174 197 0
174 197 0
173 197 0
172 196 0
171 196 0
173 196 0
176 198 0
174 197 0
175 198 44
204 223 226
212 230 254
211 230 254
211 230 254
211 230 254
211 230 254
211 230 254
211 230 254
211 230 254
211 230 254
211 230 254
211 230 254
211 229 254
211 229 254
211 229 254
211 229 254
211 229 254
211 229 254
211 229 254
211 229 254
211 229 254
189 222 236
72 193 154
61 193 150
61 194 156
61 194 152
60 194 156
61 195 156
61 194 157
61 193 149
61 194 158
61 196 162
62 196 160
61 193 148
61 193 151
61 194 152
61 193 155
62 196 163
62 196 162
61 195 158
63 198 170
62 196 160
61 194 149
61 195 154
62 196 160
61 195 158
61 195 159
62 196 159
62 196 160
62 197 165
61 195 155
61 195 156
62 195 155
61 195 157
62 197 157
62 197 161
62 196 161
60 192 155
62 196 160
61 194 159
60 192 147
61 194 156
62 195 159
61 194 161
62 195 157
62 195 157
62 196 162
61 195 161
62 195 157
62 196 161
61 195 159
61 193 152
61 194 161
61 195 158
61 193 150
61 194 158
62 195 157
61 195 157
62 196 169
61 193 152
61 193 159
61 195 163
61 194 161
60 192 151
61 192 155
62 194 159
62 197 166
60 190 155
60 191 160
61 194 166
61 193 159
61 192 158
60 191 161
60 193 160
61 194 161
60 190 161
61 194 169
60 191 160
60 192 165
61 190 163
61 189 165
61 191 170
60 189 163
66 188 174
194 221 242
211 229 254
211 229 254
211 229 254
211 229 254
211 229 254
211 229 254
211 229 254
211 229 254
211 229 254
211 229 254
211 230 254
211 230 254
211 230 254
211 230 254
211 230 254
211 230 254
211 230 254
211 230 254
211 230 254
212 230 254
200 214 247
170 162 235
179 173 253
179 173 254
177 172 254
176 172 254
175 171 254
174 170 254
173 170 254
173 170 254
172 170 254
172 170 254
171 169 254
171 169 254
170 169 254
170 169 254
169 169 254
169 168 254
169 168 254
169 168 254
168 168 254
168 168 254
168 168 254
168 168 254
168 168 254
168 168 254
168 168 254
168 168 254
167 168 254
167 168 254
168 168 254
168 168 254
168 168 254
168 168 254
168 168 254
168 168 254
168 168 254
167 168 254
167 168 254
167 168 254
168 168 254
168 168 254
168 168 254
168 168 254
168 168 254
168 168 254
168 168 254
168 168 254
169 168 254
168 168 254
169 168 254
169 168 254
169 168 254
169 168 254
169 169 254
169 168 254
170 169 254
170 169 254
169 169 254
170 169 254
170 169 254
170 169 254
170 169 254
170 169 254
170 169 254
171 169 254
170 169 254
171 169 254
171 169 254
171 169 254
171 169 254
171 169 254
171 169 254
171 169 254
172 170 254
171 170 254
172 170 254
172 170 254
173 170 254
172 170 254
173 170 254
173 170 254
174 171 254
173 170 254
173 170 254
174 171 254
173 170 254
174 171 254
174 171 254
174 171 254
174 171 254
174 171 254
175 171 254
174 171 254
175 171 254
175 171 254
175 171 254
176 171 254
176 172 254
176 172 254
176 172 254
176 172 254
176 171 254
176 172 254
177 172 254
177 172 254
176 172 254
176 172 254
178 172 254
177 172 254
178 173 254
177 172 254
178 172 254
178 172 254
179 173 254
178 173 254
179 173 254
179 173 254
179 173 254
179 173 254
179 173 254
179 173 254
179 173 254
179 173 254
180 173 254
180 174 254
180 173 254
181 174 254
181 174 254
181 174 254
181 174 254
181 174 254
181 174 254
181 174 254
181 174 254
181 174 254
182 174 254
182 174 254
174 197 0
174 197 0
172 196 0
173 197 0
172 196 0
174 197 0
174 197 0
174 197 0
174 197 0
173 196 0
174 197 0
173 197 0
174 197 0
176 198 0
173 197 0
172 197 0
174 197 0
174 197 0
172 197 0
174 197 0
174 197 0
174 197 0
173 197 0
175 198 0
175 198 0
173 196 0
173 197 0
174 197 0
173 197 0
175 197 0
171 195 0
174 197 0
174 198 0
173 196 0
174 197 0
173 197 0
174 197 0
173 197 0
173 197 0
172 196 0
173 197 0
174 197 0
173 196 0
173 197 0
173 196 0
175 198 0
173 197 0
172 196 0
174 197 0
173 197 0
173 197 0
173 197 0
174 197 0
172 196 0
172 196 0
175 198 0
174 197 0
173 197 0
175 198 0
173 197 0
174 197 0
173 196 0
173 197 0
174 197 0
173 197 0
174 197 0
174 197 0
172 196 0
174 197 0
174 197 0
173 197 0
174 197 0
174 197 0
173 197 0
174 197 0
173 196 0
173 196 0
174 197 0
174 197 0
174 197 0
174 197 0
173 197 0
173 197 0
173 196 0
175 198 0
174 197 0
173 197 0
174 197 0
174 197 0
175 198 0
173 197 0
175 198 0
173 197 0
175 198 0
172 196 0
174 197 0
174 197 0
174 197 0
173 197 0
174 197 0
173 197 0
173 196 0
172 196 0
174 197 0
173 196 0
173 197 0
171 195 0
174 197 0
173 197 0
171 196 0
173 197 0
172 196 0
174 197 0
174 197 0
173 197 0
175 197 0
172 196 0
174 197 0
173 197 0
174 197 0
173 197 0
173 197 0
176 198 0
173 197 0
175 198 0
172 196 0
173 197 0
175 197 0
173 197 0
173 197 0
174 197 0
173 196 0
172 196 0
171 195 0
173 196 0
172 197 0
174 197 0
173 198 57
209 227 241
212 230 254
212 230 254
212 230 254
212 230 254
212 230 254
212 230 254
212 230 254
212 230 254
212 230 254
211 230 254
211 230 254
211 230 254
211 230 254
211 230 254
211 230 254
211 230 254
211 230 254
211 230 254
209 229 253
97 200 174
60 192 155
61 195 158
60 193 149
61 194 148
60 192 150
59 190 141
61 195 160
60 193 154
61 194 149
62 196 161
61 193 154
61 194 150
61 195 161
60 192 145
62 194 152
62 196 162
61 194 157
62 197 162
61 194 148
62 196 159
62 195 156
61 194 155
61 194 158
61 195 160
62 197 162
62 196 160
61 194 150
62 196 158
61 194 157
62 198 168
62 197 165
61 194 156
61 195 152
61 194 150
62 195 157
62 194 156
62 196 160
62 197 162
61 195 157
62 195 160
61 195 161
61 195 159
61 193 150
62 196 162
62 196 159
61 194 159
61 195 160
61 194 155
59 191 150
61 195 158
62 196 156
61 195 161
60 192 151
62 195 159
62 195 157
60 191 149
62 195 160
63 197 163
61 195 163
62 196 161
61 193 155
61 191 155
61 193 159
62 195 159
61 195 160
60 191 155
62 194 163
62 195 160
61 193 162
60 190 156
62 195 162
61 189 162
62 193 167
62 195 167
61 191 165
62 193 168
60 191 162
61 190 167
60 189 162
61 190 173
60 189 165
61 191 170
92 192 183
207 228 252
211 230 254
211 230 254
211 230 254
211 230 254
211 230 254
211 230 254
211 230 254
211 230 254
211 230 254
212 230 254
212 230 254
212 230 254
212 230 254
212 230 254
212 230 254
212 230 254
212 230 254
212 230 254
201 217 244
173 170 235
181 173 253
180 173 254
178 173 254
177 172 254
176 171 254
175 171 254
174 170 254
173 170 254
173 170 254
172 170 254
172 170 254
172 170 254
171 169 254
170 169 254
170 169 254
170 169 254
170 169 254
169 169 254
169 169 254
169 168 254
169 168 254
169 168 254
169 168 254
168 168 254
168 168 254
168 168 254
168 168 254
169 168 254
168 168 254
168 168 254
168 168 254
168 168 254
168 168 254
168 168 254
168 168 254
169 168 254
168 168 254
169 168 254
168 168 254
169 168 254
169 168 254
168 168 254
169 168 254
168 168 254
169 168 254
169 168 254
169 169 254
169 169 254
169 168 254
169 169 254
169 169 254
169 168 254
169 169 254
170 169 254
170 169 254
170 169 254
170 169 254
170 169 254
170 169 254
171 169 254
171 169 254
170 169 254
171 169 254
171 170 254
171 169 254
171 169 254
172 170 254
171 169 254
172 170 254
172 170 254
172 170 254
172 170 254
172 170 254
172 170 254
173 170 254
173 170 254
172 170 254
173 170 254
173 170 254
173 170 254
173 170 254
173 170 254
174 171 254
173 170 254
174 171 254
174 171 254
174 171 254
175 171 254
175 171 254
175 171 254
175 171 254
175 171 254
176 171 254
176 171 254
176 172 254
176 172 254
176 171 254
176 172 254
177 172 254
177 172 254
177 172 254
177 172 254
177 172 254
177 172 254
177 172 254
177 172 254
178 173 254
177 172 254
177 172 254
178 172 254
178 173 254
178 173 254
178 173 254
179 173 254
179 173 254
179 173 254
179 173 254
179 173 254
180 173 254
179 173 254
180 173 254
180 173 254
180 174 254
181 174 254
180 174 254
181 174 254
181 174 254
180 174 254
181 174 254
181 174 254
181 174 254
181 174 254
181 174 254
182 174 254
182 174 254
182 175 254
182 175 254
174 197 0
175 198 0
172 196 0
172 196 0
171 195 0
173 197 0
172 195 0
174 197 0
175 198 0
174 197 0
173 197 0
174 197 0
175 198 0
175 198 0
173 196 0
174 197 0
176 198 0
174 197 0
174 197 0
173 196 0
172 196 0
171 195 0
173 197 0
175 198 0
173 196 0
174 196 0
174 197 0
175 198 0
174 197 0
173 197 0
175 198 0
174 197 0
174 197 0
174 197 0
171 196 0
175 198 0
173 196 0
175 198 0
174 197 0
173 196 0
173 196 0
174 197 0
176 198 0
174 197 0
174 197 0
174 197 0
173 197 0
173 197 0
174 197 0
172 196 0
174 197 0
173 197 0
174 197 0
172 196 0
174 197 0
172 196 0
173 197 0
174 197 0
174 197 0
172 196 0
173 197 0
173 197 0
173 197 0
174 197 0
173 197 0
173 197 0
174 197 0
173 196 0
173 197 0
172 196 0
173 197 0
173 197 0
174 197 0
174 197 0
173 197 0
175 198 0
175 198 0
174 197 0
175 198 0
173 197 0
172 196 0
175 197 0
173 197 0
173 197 0
173 197 0
174 197 0
174 197 0
175 198 0
174 197 0
174 197 0
173 197 0
174 197 0
173 197 0
174 197 0
172 196 0
172 196 0
174 197 0
174 197 0
176 198 0
172 196 0
171 196 0
174 197 0
174 197 0
173 197 0
174 197 0
174 197 0
174 197 0
173 197 0
174 197 0
173 196 0
173 196 0
173 197 0
173 197 0
173 197 0
176 198 0
174 197 0
171 196 0
175 198 0
172 196 0
172 196 0
174 197 0
175 198 0
173 196 0
172 196 0
174 197 0
173 196 0
175 198 0
173 197 0
173 196 0
174 197 0
172 196 0
174 197 0
174 197 0
172 196 0
173 196 0
172 196 0
172 196 0
173 196 0
182 205 119
212 230 253
212 230 254
212 230 254
212 230 254
212 230 254
212 230 254
212 230 254
212 230 254
212 230 254
212 230 254
212 230 254
212 230 254
212 230 254
212 230 254
212 230 254
212 230 254
212 230 254
212 230 254
137 206 195
60 191 139
60 191 147
61 193 149
61 193 154
61 194 156
61 193 151
61 195 159
61 194 158
61 195 158
62 195 157
62 196 161
61 193 156
62 195 156
62 196 157
61 194 154
62 197 161
61 195 157
62 195 155
61 194 148
62 196 163
61 195 155
61 194 159
62 196 162
61 194 155
61 194 151
61 195 157
61 194 155
61 193 154
62 197 160
63 198 164
61 194 156
61 196 160
61 194 154
61 195 158
61 194 150
62 196 160
61 195 154
62 196 158
61 195 156
62 195 157
62 196 160
62 198 170
61 195 152
61 194 152
62 195 158
62 196 157
61 192 148
61 193 156
62 195 158
61 193 152
61 195 158
60 193 151
62 195 163
62 196 165
60 192 154
61 195 164
61 195 160
61 194 158
61 194 157
62 196 159
62 196 158
60 192 148
61 193 150
61 193 155
61 194 160
62 193 157
61 191 151
61 192 159
62 193 160
60 192 158
60 190 148
61 191 152
61 191 160
60 190 159
60 190 159
61 191 168
60 190 158
61 192 162
62 193 170
61 192 168
60 189 164
59 186 167
59 184 167
60 188 170
126 201 200
212 230 254
212 230 254
212 230 254
212 230 254
212 230 254
212 230 254
212 230 254
212 230 254
212 230 254
212 230 254
212 230 254
212 230 254
212 230 254
212 230 254
212 230 254
212 230 254
212 230 254
212 229 254
171 172 223
179 171 249
180 174 254
178 173 254
177 172 254
177 172 254
176 172 254
174 171 254
173 170 254
173 170 254
173 170 254
172 170 254
172 170 254
172 170 254
171 169 254
170 169 254
171 169 254
170 169 254
170 169 254
170 169 254
170 169 254
169 169 254
169 169 254
169 169 254
169 169 254
170 169 254
168 168 254
169 169 254
169 168 254
169 168 254
169 169 254
169 168 254
169 168 254
169 168 254
169 168 254
169 169 254
169 168 254
169 168 254
169 169 254
169 168 254
169 169 254
169 168 254
170 169 254
169 168 254
169 169 254
170 169 254
169 169 254
169 169 254
170 169 254
169 169 254
170 169 254
171 169 254
170 169 254
170 169 254
171 169 254
171 169 254
170 169 254
171 169 254
170 169 254
170 169 254
171 169 254
171 169 254
171 169 254
172 170 254
172 170 254
172 170 254
172 170 254
172 170 254
172 170 254
172 170 254
172 170 254
172 170 254
173 170 254
173 170 254
173 170 254
173 170 254
173 170 254
173 170 254
174 170 254
174 171 254
174 171 254
174 171 254
175 171 254
175 171 254
175 171 254
175 171 254
175 171 254
175 171 254
175 171 254
175 171 254
176 171 254
176 171 254
176 172 254
176 171 254
176 172 254
176 172 254
176 172 254
176 171 254
177 172 254
177 172 254
177 172 254
177 172 254
177 172 254
177 172 254
177 172 254
178 173 254
178 172 254
178 173 254
178 173 254
178 173 254
178 173 254
179 173 254
179 173 254
179 173 254
180 173 254
180 173 254
180 173 254
179 173 254
180 173 254
181 174 254
180 173 254
180 173 254
180 173 254
180 174 254
181 174 254
181 174 254
181 174 254
181 174 254
181 174 254
182 174 254
182 174 254
181 174 254
181 174 254
182 174 254
182 175 254
182 175 254
182 175 254
182 175 254
183 175 254
174 197 0
174 197 0
175 198 0
175 198 0
173 197 0
174 197 0
173 197 0
174 197 0
174 197 0
173 197 0
172 196 0
173 196 0
175 197 0
174 197 0
174 197 0
174 197 0
172 196 0
172 196 0
173 197 0
173 197 0
174 197 0
174 197 0
175 198 0
174 197 0
174 197 0
174 197 0
174 197 0
173 197 0
173 197 0
173 197 0
173 196 0
172 196 0
173 197 0
175 198 0
174 197 0
173 196 0
174 197 0
174 197 0
173 196 0
174 197 0
173 197 0
173 197 0
173 196 0
174 197 0
173 196 0
173 197 0
174 197 0
174 197 0
174 197 0
173 197 0
172 196 0
173 197 0
173 196 0
174 197 0
174 197 0
174 197 0
174 197 0
173 197 0
174 197 0
175 197 0
173 197 0
174 197 0
175 198 0
174 197 0
173 196 0
176 198 0
172 196 0
175 198 0
175 198 0
175 198 0
173 197 0
173 196 0
173 197 0
174 197 0
174 197 0
174 197 0
173 197 0
173 197 0
173 197 0
175 198 0
174 197 0
172 196 0
173 197 0
174 197 0
175 198 0
175 198 0
175 198 0
173 197 0
174 197 0
174 197 0
174 197 0
173 197 0
174 197 0
174 197 0
173 197 0
173 197 0
174 197 0
175 198 0
174 197 0
172 196 0
171 195 0
174 197 0
172 196 0
174 197 0
172 196 0
173 196 0
173 197 0
172 196 0
174 197 0
175 198 0
173 196 0
173 196 0
174 197 0
173 197 0
176 198 0
173 197 0
176 198 0
174 197 0
173 197 0
174 197 0
173 197 0
172 196 0
172 196 0
174 197 0
174 197 0
174 197 0
174 197 0
173 197 0
174 197 0
175 198 0
172 196 0
172 196 0
173 197 0
175 198 0
171 196 0
174 198 0
174 197 0
174 197 0
171 196 0
192 214 180
212 230 254
212 230 254
212 230 254
212 230 254
212 230 254
212 230 254
212 230 254
212 230 254
212 230 254
212 230 254
212 230 254
212 230 254
212 230 254
212 230 254
212 230 254
212 230 254
184 219 228
60 191 146
59 190 143
61 194 155
59 190 141
60 192 152
62 195 152
60 193 154
62 195 159
61 193 147
61 195 154
62 195 151
60 193 151
62 194 155
61 194 156
61 194 152
61 193 152
61 194 152
61 193 152
61 195 157
61 193 149
61 194 149
62 196 163
60 192 148
61 194 154
61 195 157
62 196 162
62 196 162
61 196 162
61 195 159
61 195 158
61 194 154
62 196 157
61 195 156
62 196 160
61 194 157
62 196 159
61 194 158
62 195 160
62 196 156
61 193 149
61 194 152
62 196 160
62 195 154
62 196 162
62 196 161
61 194 154
62 195 154
62 195 162
62 196 161
61 193 154
61 194 155
61 195 161
61 194 158
61 193 154
61 194 155
62 195 160
61 194 159
61 193 159
61 194 159
61 193 156
61 194 159
61 194 160
61 192 156
62 194 163
62 195 158
61 194 157
60 191 154
61 193 154
62 194 163
62 195 167
60 191 154
60 190 157
62 196 165
60 188 154
62 195 165
61 190 155
60 190 161
60 188 156
62 193 168
59 186 159
60 190 166
60 189 163
61 190 168
61 191 170
61 190 167
59 185 167
187 219 236
212 230 254
212 230 254
212 230 254
212 230 254
212 230 254
212 230 254
212 230 254
212 230 254
212 230 254
212 230 254
212 230 254
212 230 254
212 230 254
212 230 254
212 230 254
212 230 254
187 192 239
180 172 251
181 174 254
179 173 254
178 172 254
177 172 254
176 172 254
175 171 254
175 171 254
174 171 254
174 171 254
173 170 254
173 170 254
172 170 254
172 170 254
171 170 254
172 170 254
171 169 254
171 169 254
171 169 254
171 169 254
170 169 254
170 169 254
170 169 254
170 169 254
171 169 254
170 169 254
170 169 254
170 169 254
170 169 254
170 169 254
170 169 254
169 169 254
169 169 254
170 169 254
170 169 254
169 169 254
169 169 254
170 169 254
170 169 254
170 169 254
170 169 254
170 169 254
171 169 254
170 169 254
170 169 254
170 169 254
171 169 254
171 169 254
171 169 254
171 169 254
171 169 254
171 169 254
170 169 254
171 169 254
171 169 254
171 169 254
172 170 254
171 169 254
172 170 254
172 170 254
172 170 254
172 170 254
173 170 254
172 170 254
173 170 254
173 170 254
173 170 254
173 170 254
173 170 254
173 170 254
173 170 254
173 170 254
174 171 254
173 170 254
174 171 254
174 171 254
174 171 254
174 171 254
175 171 254
175 171 254
175 171 254
175 171 254
175 171 254
175 171 254
175 171 254
175 171 254
175 171 254
175 171 254
175 171 254
176 171 254
176 172 254
176 172 254
177 172 254
177 172 254
177 172 254
177 172 254
177 172 254
177 172 254
177 172 254
177 172 254
178 172 254
177 172 254
178 173 254
178 172 254
178 173 254
178 173 254
179 173 254
178 173 254
179 173 254
179 173 254
179 173 254
179 173 254
179 173 254
180 173 254
180 173 254
180 173 254
180 173 254
179 173 254
180 174 254
179 173 254
181 174 254
180 173 254
181 174 254
180 174 254
181 174 254
181 174 254
181 174 254
182 174 254
182 174 254
182 175 254
182 174 254
182 175 254
183 175 254
183 175 254
182 174 254
183 175 254
183 175 254
183 175 254
184 175 254
173 196 0
174 197 0
173 197 0
175 197 0
174 197 0
174 197 0
173 196 0
175 198 0
174 197 0
173 197 0
175 198 0
174 197 0
173 197 0
175 197 0
174 197 0
174 197 0
175 198 0
173 197 0
173 196 0
174 197 0
173 197 0
174 197 0
174 197 0
174 197 0
173 197 0
173 196 0
173 197 0
173 197 0
175 197 0
173 197 0
174 197 0
173 196 0
173 197 0
174 197 0
173 197 0
174 197 0
174 197 0
175 198 0
173 197 0
173 197 0
175 198 0
174 197 0
173 197 0
174 197 0
175 197 0
175 198 0
175 198 0
174 197 0
174 197 0
172 196 0
174 197 0
174 197 0
175 198 0
174 197 0
175 198 0
174 197 0
172 196 0
173 197 0
174 197 0
175 197 0
174 197 0
175 197 0
175 198 0
174 197 0
172 196 0
173 197 0
174 197 0
173 197 0
174 197 0
174 197 0
174 197 0
173 197 0
174 197 0
173 197 0
175 198 0
173 197 0
174 197 0
174 197 0
174 197 0
175 198 0
173 197 0
174 197 0
174 197 0
174 197 0
174 197 0
174 197 0
173 196 0
174 197 0
174 197 0
171 195 0
173 197 0
174 197 0
172 196 0
175 197 0
174 197 0
175 198 0
173 197 0
176 198 0
175 198 0
174 197 0
175 198 0
173 197 0
174 197 0
173 197 0
174 197 0
173 197 0
175 198 0
173 197 0
174 197 0
174 197 0
173 197 0
172 196 0
175 197 0
174 197 0
174 197 0
173 197 0
174 197 0
174 197 0
174 197 0
174 197 0
175 198 0
174 197 0
174 197 0
173 197 0
174 197 0
174 197 0
174 197 0
173 197 0
173 197 0
172 196 0
173 197 0
173 197 0
174 197 0
172 196 0
174 197 0
173 197 0
174 197 0
172 196 0
174 198 0
172 196 0
206 225 232
213 230 254
213 230 254
212 230 254
212 230 254
212 230 254
212 230 254
212 230 254
212 230 254
212 230 254
212 230 254
212 230 254
212 230 254
212 230 254
212 230 254
208 229 252
88 196 164
59 190 141
59 190 144
61 194 152
60 192 146
61 193 141
60 191 143
60 191 139
60 193 154
61 194 151
61 193 150
61 194 154
61 194 155
61 193 147
60 192 145
60 192 143
61 194 155
61 193 150
61 195 155
62 195 157
62 195 158
61 194 151
62 195 155
62 196 160
62 195 155
61 194 151
62 196 161
62 195 154
61 195 154
61 195 152
61 195 155
62 196 152
61 194 149
62 197 162
62 196 161
61 194 154
62 195 160
61 194 158
62 196 161
62 195 158
61 193 143
60 193 152
61 195 159
62 195 151
62 196 156
62 195 155
60 192 144
61 193 149
61 194 156
61 193 148
61 194 152
61 192 148
62 196 160
62 195 159
62 196 162
62 196 159
61 193 147
61 194 152
61 193 154
60 191 149
62 194 159
62 195 161
61 194 158
61 193 154
61 192 161
60 191 152
62 196 161
60 190 148
61 194 152
61 194 158
60 190 154
61 191 157
60 189 146
61 192 151
60 190 157
60 190 155
61 191 159
61 192 158
62 195 167
60 188 160
61 192 164
61 190 164
59 187 160
60 189 161
60 188 160
60 187 164
58 180 161
84 187 176
203 227 249
212 230 254
212 230 254
212 230 254
212 230 254
212 230 254
212 230 254
212 230 254
212 230 254
212 230 254
212 230 254
212 230 254
212 230 254
213 230 254
213 230 254
200 213 244
173 165 237
182 174 253
180 174 254
179 173 254
179 173 254
178 172 254
176 172 254
176 171 254
175 171 254
175 171 254
174 171 254
173 170 254
174 171 254
173 170 254
172 170 254
172 170 254
172 170 254
172 170 254
171 170 254
171 169 254
171 169 254
171 169 254
171 169 254
171 169 254
171 169 254
171 169 254
170 169 254
170 169 254
170 169 254
171 169 254
171 169 254
170 169 254
171 169 254
171 169 254
170 169 254
170 169 254
170 169 254
171 169 254
170 169 254
171 169 254
171 169 254
171 169 254
171 169 254
171 169 254
171 169 254
170 169 254
171 169 254
171 169 254
171 169 254
172 170 254
172 170 254
172 170 254
172 170 254
171 170 254
172 170 254
172 170 254
172 170 254
172 170 254
173 170 254
172 170 254
173 170 254
173 170 254
173 170 254
173 170 254
173 170 254
174 170 254
173 170 254
173 170 254
174 170 254
173 170 254
174 171 254
174 171 254
174 171 254
174 171 254
174 171 254
175 171 254
175 171 254
175 171 254
175 171 254
175 171 254
175 171 254
175 171 254
175 171 254
176 172 254
175 171 254
176 172 254
176 171 254
176 172 254
176 172 254
176 172 254
177 172 254
177 172 254
177 172 254
177 172 254
177 172 254
177 172 254
177 172 254
177 172 254
178 172 254
179 173 254
179 173 254
178 172 254
178 173 254
178 172 254
179 173 254
179 173 254
179 173 254
179 173 254
180 173 254
179 173 254
179 173 254
179 173 254
180 173 254
180 173 254
180 173 254
180 173 254
180 173 254
181 174 254
180 174 254
181 174 254
181 174 254
181 174 254
181 174 254
181 174 254
181 174 254
181 174 254
181 174 254
182 174 254
182 174 254
182 175 254
183 175 254
183 175 254
182 174 254
182 175 254
182 174 254
182 175 254
183 175 254
183 175 254
183 175 254
183 175 254
174 197 0
174 197 0
174 197 0
172 196 0
173 196 0
174 197 0
173 197 0
174 197 0
173 197 0
174 197 0
174 197 0
174 197 0
174 197 0
173 197 0
173 197 0
174 197 0
175 198 0
173 197 0
173 197 0
175 198 0
173 196 0
174 197 0
174 197 0
174 197 0
172 196 0
175 198 0
173 197 0
175 198 0
174 197 0
174 197 0
173 196 0
174 197 0
174 197 0
172 196 0
174 197 0
173 197 0
174 197 0
174 197 0
173 196 0
173 197 0
173 197 0
174 197 0
173 197 0
173 197 0
172 196 0
174 197 0
173 196 0
174 197 0
173 196 0
172 196 0
173 197 0
173 197 0
174 197 0
175 198 0
173 197 0
173 197 0
171 195 0
174 197 0
174 197 0
174 197 0
174 197 0
173 197 0
174 197 0
175 198 0
174 197 0
173 196 0
173 197 0
173 197 0
174 197 0
172 196 0
175 198 0
173 197 0
173 197 0
173 197 0
172 196 0
173 197 0
175 197 0
174 197 0
174 197 0
173 197 0
174 197 0
175 198 0
174 197 0
172 196 0
174 197 0
174 197 0
173 196 0
174 197 0
173 196 0
173 196 0
174 197 0
172 196 0
173 197 0
174 197 0
174 197 0
174 197 0
173 197 0
174 197 0
173 197 0
175 198 0
172 196 0
172 196 0
174 197 0
174 197 0
174 197 0
174 197 0
174 197 0
174 197 0
173 197 0
174 197 0
174 197 0
174 197 0
175 197 0
175 197 0
172 196 0
173 196 0
172 196 0
172 196 0
174 197 0
174 197 0
172 196 0
173 197 0
175 198 0
174 197 0
173 196 0
174 197 0
173 196 0
174 197 0
174 197 0
175 197 0
173 197 0
173 197 0
173 197 0
174 197 0
174 197 0
173 197 0
173 197 0
173 196 0
173 197 0
171 195 0
177 201 88
211 229 249
213 230 254
213 230 254
213 230 254
213 230 254
213 230 254
213 230 254
213 230 254
213 230 254
213 230 254
213 230 254
213 230 254
213 230 254
212 230 254
153 211 205
59 191 141
60 193 150
60 191 144
61 193 148
61 193 145
61 193 155
61 194 154
60 193 150
59 191 145
60 193 151
62 195 154
61 193 147
61 194 157
61 194 152
62 195 155
62 195 156
59 191 145
62 196 159
60 193 152
62 196 159
62 196 162
62 196 159
62 195 161
60 192 147
61 194 152
61 194 152
62 195 155
61 195 157
61 194 151
62 197 161
62 197 163
61 194 155
62 195 154
62 196 155
61 193 149
62 196 163
61 194 154
61 194 152
61 194 149
61 195 157
61 194 148
61 194 155
60 191 141
61 194 152
62 194 152
61 195 156
62 195 159
62 196 159
62 195 159
62 196 161
60 192 147
62 196 158
61 195 159
61 194 155
60 192 145
61 194 156
61 193 152
61 194 157
61 195 156
60 192 149
62 195 160
61 192 155
61 194 155
61 194 157
62 196 163
61 192 154
60 190 152
61 193 159
61 191 157
61 192 156
61 193 158
61 194 156
60 191 150
61 191 156
61 192 157
61 193 154
60 191 158
61 191 159
61 192 159
61 192 156
60 189 159
60 189 157
60 188 160
61 190 166
60 188 155
61 190 172
59 183 162
59 186 163
144 201 204
212 230 254
213 230 254
213 230 254
213 230 254
213 230 254
213 230 254
213 230 254
213 230 254
213 230 254
213 230 254
213 230 254
213 230 254
213 230 254
209 225 252
171 167 230
182 174 253
181 174 254
180 174 254
179 173 254
177 172 254
177 172 254
176 172 254
176 172 254
175 171 254
175 171 254
174 171 254
174 171 254
173 170 254
173 170 254
172 170 254
173 170 254
172 170 254
172 170 254
173 170 254
172 170 254
172 170 254
172 170 254
172 170 254
172 170 254
171 170 254
172 170 254
172 170 254
171 169 254
171 169 254
171 169 254
172 170 254
172 170 254
172 170 254
172 170 254
171 169 254
171 169 254
171 169 254
171 169 254
172 170 254
172 170 254
171 169 254
172 170 254
172 170 254
172 170 254
172 170 254
172 170 254
172 170 254
172 170 254
172 170 254
172 170 254
173 170 254
172 170 254
172 170 254
172 170 254
172 170 254
172 170 254
173 170 254
173 170 254
173 170 254
173 170 254
174 171 254
174 171 254
173 170 254
173 170 254
174 171 254
175 171 254
174 171 254
174 170 254
174 171 254
174 171 254
174 171 254
174 171 254
175 171 254
175 171 254
175 171 254
175 171 254
175 171 254
175 171 254
176 172 254
175 171 254
176 172 254
177 172 254
176 172 254
177 172 254
176 172 254
177 172 254
178 172 254
177 172 254
177 172 254
177 172 254
177 172 254
177 172 254
177 172 254
177 172 254
178 172 254
179 173 254
178 173 254
178 173 254
178 173 254
179 173 254
178 173 254
178 173 254
179 173 254
179 173 254
179 173 254
179 173 254
180 173 254
179 173 254
179 173 254
180 173 254
180 173 254
180 174 254
180 174 254
180 174 254
181 174 254
181 174 254
181 174 254
181 174 254
181 174 254
181 174 254
181 174 254
181 174 254
182 174 254
182 175 254
182 174 254
182 174 254
182 174 254
182 175 254
183 175 254
182 174 254
183 175 254
183 175 254
183 175 254
184 175 254
183 175 254
184 175 254
183 175 254
184 175 254
184 175 254
183 175 254
174 197 0
174 197 0
174 197 0
175 197 0
172 196 0
174 197 0
174 197 0
174 197 0
174 197 0
175 197 0
173 197 0
173 197 0
175 198 0
174 197 0
174 197 0
174 197 0
174 197 0
174 197 0
170 195 0
175 198 0
176 198 0
174 197 0
174 197 0
172 196 0
174 197 0
175 197 0
173 197 0
174 197 0
175 197 0
172 196 0
175 198 0
173 196 0
175 198 0
175 198 0
174 197 0
173 197 0
175 198 0
174 197 0
174 197 0
173 197 0
173 197 0
174 197 0
173 196 0
173 197 0
174 197 0
175 198 0
172 196 0
173 197 0
173 197 0
173 196 0
174 197 0
173 197 0
174 197 0
175 198 0
173 197 0
174 197 0
174 197 0
175 198 0
174 197 0
174 197 0
175 198 0
174 197 0
173 197 0
174 197 0
173 197 0
174 197 0
175 198 0
173 196 0
173 197 0
173 196 0
174 197 0
173 197 0
174 197 0
174 197 0
174 197 0
171 196 0
174 197 0
174 197 0
173 197 0
176 198 0
174 197 0
172 196 0
172 196 0
175 197 0
174 197 0
175 198 0
173 197 0
173 196 0
173 197 0
174 197 0
172 196 0
173 197 0
174 197 0
173 197 0
172 196 0
174 197 0
174 197 0
173 196 0
175 198 0
175 197 0
173 197 0
173 196 0
175 197 0
172 196 0
174 197 0
174 197 0
174 197 0
173 197 0
172 196 0
173 197 0
174 197 0
172 196 0
173 197 0
174 197 0
174 197 0
174 197 0
173 196 0
173 197 0
174 197 0
174 197 0
174 197 0
173 197 0
176 198 0
173 197 0
174 197 0
173 196 0
174 197 0
173 197 0
173 196 0
176 198 0
174 197 0
174 197 0
172 196 0
175 197 0
174 197 0
172 196 0
172 196 0
173 196 0
172 196 0
173 197 0
172 196 0
190 211 159
213 231 254
213 231 254
213 231 254
213 230 254
213 230 254
213 230 254
213 230 254
213 230 254
213 230 254
213 230 254
213 230 254
213 230 254
195 224 237
65 189 136
60 190 138
59 190 136
60 193 148
59 191 141
60 192 149
61 194 146
61 193 146
61 194 157
61 194 155
61 194 151
60 193 148
61 192 143
61 193 144
61 195 154
60 191 141
61 192 147
61 195 155
61 195 155
62 196 156
61 192 149
61 193 152
61 194 148
61 193 147
61 195 159
62 196 164
61 194 151
61 192 145
61 193 146
60 193 149
60 193 149
62 195 156
62 196 159
62 195 160
61 195 156
61 195 155
61 193 147
61 194 155
61 195 158
61 194 155
62 195 158
62 197 163
61 193 150
61 195 157
62 196 155
61 193 154
61 193 150
62 195 155
61 194 154
62 195 157
60 191 148
61 194 157
61 194 157
60 193 151
62 194 154
62 196 159
61 193 149
61 194 150
60 190 147
62 194 157
62 196 163
61 194 156
61 192 151
61 193 155
62 194 156
61 194 154
62 194 157
61 193 159
60 191 148
62 195 158
60 188 151
61 193 160
60 190 149
61 192 151
61 191 154
61 193 164
62 194 160
61 192 156
60 189 155
61 190 159
60 191 154
61 191 163
60 188 155
60 190 162
60 188 165
59 185 160
60 187 156
60 189 159
59 182 163
67 182 167
200 224 245
213 230 254
213 230 254
213 230 254
213 230 254
213 230 254
213 230 254
213 230 254
213 230 254
213 230 254
213 231 254
213 231 254
213 231 254
188 193 237
179 171 248
182 175 254
181 174 254
180 173 254
179 173 254
179 173 254
177 172 254
176 172 254
176 172 254
173 171 251
174 171 254
175 171 254
171 170 252
172 170 253
170 170 252
173 170 254
174 171 254
173 170 254
173 170 254
173 170 254
173 170 254
173 170 254
173 170 254
173 170 254
173 170 254
172 170 254
172 170 254
172 170 254
172 170 254
173 170 254
172 170 254
172 170 254
172 170 254
173 170 254
172 170 254
172 170 254
173 170 254
172 170 254
172 170 254
173 170 254
172 170 254
172 170 254
173 170 254
173 170 254
173 170 254
173 170 254
173 170 254
172 170 254
174 171 254
173 170 254
173 170 254
173 170 254
173 170 254
173 170 254
173 170 254
173 170 254
174 171 254
174 171 254
174 171 254
174 171 254
174 171 254
174 171 254
174 171 254
175 171 254
175 171 254
175 171 254
175 171 254
175 171 254
176 171 254
175 171 254
175 171 254
175 171 254
176 171 254
175 171 254
176 171 254
176 171 254
176 172 254
176 172 254
176 172 254
177 172 254
177 172 254
178 172 254
177 172 254
177 172 254
177 172 254
177 172 254
178 173 254
177 172 254
177 172 254
178 172 254
178 172 254
178 173 254
178 172 254
178 173 254
178 173 254
178 173 254
178 173 254
179 173 254
179 173 254
179 173 254
179 173 254
180 173 254
180 173 254
179 173 254
180 173 254
179 173 254
180 173 254
181 174 254
181 174 254
181 174 254
181 174 254
181 174 254
181 174 254
181 174 254
181 174 254
181 174 254
181 174 254
181 174 254
181 174 254
181 174 254
181 174 254
182 174 254
182 175 254
181 174 254
182 175 254
183 175 254
183 175 254
184 175 254
182 175 254
183 175 254
184 175 254
183 175 254
184 175 254
183 175 254
184 175 254
184 176 254
185 176 254
184 175 254
184 175 254
185 176 254
184 175 254
174 197 0
174 197 0
175 197 0
173 196 0
173 197 0
172 196 0
173 196 0
175 198 0
173 196 0
174 197 0
173 197 0
174 197 0
172 196 0
173 197 0
173 197 0
175 197 0
173 197 0
174 197 0
173 197 0
173 196 0
173 197 0
172 196 0
175 197 0
174 197 0
173 196 0
174 197 0
173 197 0
173 197 0
174 197 0
173 197 0
175 198 0
176 198 0
173 197 0
172 196 0
172 196 0
173 197 0
174 197 0
174 197 0
175 198 0
176 198 0
174 197 0
175 198 0
173 197 0
173 197 0
174 197 0
173 197 0
173 196 0
175 198 0
174 197 0
171 195 0
173 197 0
173 197 0
174 197 0
174 197 0
174 197 0
174 197 0
172 196 0
175 198 0
175 197 0
173 197 0
172 196 0
174 197 0
174 197 0
173 197 0
172 196 0
173 197 0
174 197 0
175 198 0
173 197 0
175 198 0
175 198 0
175 198 0
174 197 0
173 197 0
173 197 0
174 197 0
175 198 0
173 197 0
174 197 0
174 198 0
173 197 0
174 197 0
175 198 0
175 197 0
175 198 0
172 196 0
175 198 0
174 197 0
172 196 0
173 196 0
174 197 0
174 197 0
174 197 0
173 197 0
175 198 0
173 196 0
174 197 0
174 197 0
174 197 0
173 197 0
174 197 0
172 196 0
174 197 0
173 197 0
173 197 0
174 197 0
173 197 0
174 197 0
175 198 0
173 197 0
174 197 0
174 197 0
174 197 0
174 197 0
174 197 0
174 197 0
173 197 0
174 197 0
173 197 0
173 197 0
174 197 0
173 197 0
173 197 0
172 196 0
173 197 0
173 197 0
173 197 0
173 197 0
173 197 0
174 197 0
174 197 0
172 196 0
173 197 0
173 196 0
173 197 0
173 197 0
171 196 0
173 197 0
174 197 0
170 195 0
172 196 0
173 197 25
205 224 226
213 231 254
213 231 254
213 231 254
213 231 254
213 231 254
213 231 254
213 231 254
213 231 254
213 231 254
213 231 254
213 231 254
141 207 190
59 191 144
60 192 148
60 191 139
60 192 146
60 192 146
60 191 146
61 193 147
61 194 150
60 192 144
60 191 139
61 193 148
61 193 148
61 193 148
60 193 149
61 195 155
60 191 143
61 194 150
61 194 151
61 194 150
60 192 149
61 194 154
61 194 155
61 194 152
62 197 161
62 195 158
60 192 145
62 196 156
61 194 151
62 196 157
61 192 145
62 195 155
61 193 154
62 196 160
62 195 150
61 193 149
62 195 155
61 195 155
61 193 148
60 192 148
62 194 151
61 193 147
61 195 155
61 192 147
59 190 141
61 194 154
61 194 154
61 194 150
62 196 164
61 194 155
61 194 155
62 196 157
61 193 145
61 194 156
61 195 157
62 194 154
61 193 147
61 194 155
61 193 152
61 193 148
61 195 160
62 196 159
62 195 162
61 193 149
61 192 151
61 193 152
61 191 157
61 194 151
61 192 158
62 196 161
62 195 154
61 192 148
61 192 159
61 190 157
61 192 158
61 191 148
62 192 152
60 189 148
61 191 160
59 187 149
61 192 159
61 192 155
61 191 156
60 191 164
60 189 157
59 188 154
59 185 151
60 188 165
60 185 168
59 185 158
57 179 163
139 203 207
213 231 254
213 231 254
213 231 254
213 231 254
213 231 254
213 231 254
213 231 254
213 231 254
213 231 254
213 231 254
213 231 254
202 214 245
175 167 240
184 175 254
182 174 254
181 174 254
180 173 254
179 173 254
178 173 254
177 172 254
174 171 252
167 170 247
171 170 250
167 169 247
165 168 247
166 169 248
164 168 246
163 168 245
168 169 250
170 170 251
170 170 251
173 171 254
174 171 254
174 171 254
173 170 254
174 171 254
173 170 254
173 170 254
173 170 254
173 170 254
173 170 254
173 170 254
173 170 254
173 170 254
173 170 254
173 170 254
173 170 254
173 170 254
173 170 254
173 170 254
173 170 254
173 170 254
173 170 254
173 170 254
173 170 254
173 170 254
174 171 254
174 171 254
173 170 254
173 170 254
174 171 254
174 171 254
174 171 254
174 171 254
174 171 254
174 171 254
174 171 254
174 171 254
174 171 254
175 171 254
174 171 254
175 171 254
175 171 254
175 171 254
175 171 254
175 171 254
175 171 254
175 171 254
175 171 254
175 171 254
176 172 254
176 171 254
176 172 254
176 172 254
176 172 254
176 172 254
176 172 254
176 172 254
176 172 254
177 172 254
177 172 254
177 172 254
177 172 254
178 172 254
177 172 254
178 172 254
178 172 254
178 172 254
179 173 254
178 172 254
178 172 254
178 173 254
179 173 254
178 173 254
179 173 254
178 173 254
179 173 254
179 173 254
179 173 254
179 173 254
179 173 254
180 173 254
179 173 254
179 173 254
181 174 254
180 174 254
180 174 254
180 174 254
180 174 254
180 173 254
181 174 254
181 174 254
181 174 254
181 174 254
181 174 254
181 174 254
182 174 254
181 174 254
182 174 254
182 175 254
182 174 254
183 175 254
182 175 254
182 174 254
182 174 254
183 175 254
183 175 254
183 175 254
183 175 254
183 175 254
183 175 254
184 175 254
184 175 254
184 175 254
183 175 254
184 175 254
184 175 254
184 175 254
184 176 254
185 176 254
184 176 254
185 176 254
185 176 254
185 176 254
174 197 0
174 197 0
172 196 0
172 196 0
173 197 0
174 197 0
172 196 0
173 197 0
175 198 0
173 196 0
174 197 0
174 197 0
173 196 0
174 197 0
174 197 0
174 197 0
173 197 0
175 198 0
175 197 0
175 198 0
174 197 0
174 197 0
173 197 0
174 197 0
174 196 0
172 196 0
174 197 0
174 197 0
174 197 0
173 197 0
173 196 0
174 197 0
173 197 0
173 196 0
174 197 0
173 197 0
174 197 0
174 197 0
172 196 0
173 197 0
173 197 0
173 197 0
175 198 0
174 197 0
174 197 0
173 197 0
174 197 0
173 196 0
174 197 0
173 196 0
174 197 0
172 196 0
174 197 0
173 197 0
174 197 0
173 197 0
173 197 0
173 197 0
174 197 0
174 197 0
173 196 0
174 197 0
173 196 0
174 197 0
175 198 0
173 197 0
175 198 0
175 198 0
173 197 0
172 196 0
172 196 0
172 196 0
174 197 0
173 197 0
173 196 0
174 197 0
174 197 0
174 197 0
172 196 0
173 197 0
173 196 0
174 197 0
174 197 0
173 197 0
175 198 0
173 197 0
174 197 0
173 197 0
173 196 0
172 196 0
174 197 0
174 197 0
174 197 0
173 196 0
173 196 0
173 197 0
175 198 0
175 198 0
172 196 0
170 193 0
174 197 0
173 197 0
174 197 0
172 196 0
172 196 0
176 198 0
174 197 0
174 197 0
173 197 0
174 197 0
174 197 0
174 197 0
173 197 0
171 196 0
174 197 0
173 197 0
175 198 0
176 198 0
172 197 0
174 197 0
173 197 0
173 197 0
173 197 0
172 196 0
175 198 0
174 197 0
173 197 0
175 198 0
173 196 0
174 197 0
173 197 0
173 197 0
174 197 0
173 197 0
173 197 0
173 197 0
175 198 0
173 197 0
173 197 0
173 196 0
171 196 0
172 196 0
183 205 127
213 230 252
214 231 254
214 231 254
214 231 254
214 231 254
214 231 254
213 231 254
213 231 254
213 231 254
213 231 254
192 223 236
59 190 138
59 188 133
60 192 148
61 194 151
60 192 141
60 192 143
60 191 143
60 191 144
60 192 144
61 193 150
61 193 146
61 193 149
60 192 144
61 194 151
61 193 146
62 196 161
61 193 149
59 191 148
61 194 149
61 194 148
61 194 151
61 194 156
62 196 158
61 193 151
62 196 159
61 193 150
60 191 140
61 194 148
61 194 145
62 196 157
60 191 138
62 195 154
61 194 147
63 197 157
60 191 140
61 194 148
61 193 148
61 193 146
61 195 155
61 194 150
60 192 150
62 195 156
61 194 150
61 195 154
61 194 150
61 192 147
61 192 145
62 195 152
61 192 149
61 193 156
61 193 151
61 194 156
61 193 151
61 195 155
62 195 155
61 193 150
61 193 154
61 192 156
60 191 147
61 193 150
62 195 161
62 195 159
60 191 150
61 192 151
61 193 150
60 192 147
62 194 159
61 192 152
61 193 156
60 190 147
61 193 164
61 191 157
61 193 155
62 194 160
60 190 148
60 191 154
60 188 143
60 189 146
59 188 145
61 191 154
61 191 159
60 190 155
60 188 158
60 188 158
61 189 151
59 187 158
59 185 153
60 187 160
59 186 160
59 186 162
57 176 151
61 180 163
197 222 243
213 231 254
213 231 254
213 231 254
213 231 254
213 231 254
214 231 254
214 231 254
214 231 254
214 231 254
212 229 253
175 169 232
183 174 252
183 175 254
182 174 254
180 174 254
180 173 254
179 173 254
171 170 249
170 170 249
163 167 242
157 166 240
150 164 233
157 167 241
151 164 234
160 167 243
156 166 239
158 166 241
163 168 245
165 168 248
166 169 247
167 169 249
170 170 251
175 171 254
174 171 254
174 171 254
174 171 254
174 171 254
174 171 254
174 171 254
174 171 254
174 171 254
174 171 254
174 171 254
174 171 254
174 171 254
174 171 254
174 171 254
174 171 254
174 171 254
174 171 254
174 171 254
174 171 254
174 171 254
174 171 254
174 171 254
175 171 254
175 171 254
175 171 254
174 171 254
175 171 254
175 171 254
175 171 254
175 171 254
175 171 254
175 171 254
175 171 254
175 171 254
175 171 254
175 171 254
176 172 254
176 172 254
176 171 254
176 172 254
175 171 254
176 172 254
176 172 254
177 172 254
176 172 254
177 172 254
176 172 254
177 172 254
176 172 254
177 172 254
177 172 254
177 172 254
177 172 254
178 172 254
178 172 254
177 172 254
178 172 254
178 172 254
178 172 254
178 172 254
178 173 254
178 172 254
179 173 254
178 173 254
179 173 254
178 173 254
179 173 254
180 173 254
179 173 254
179 173 254
179 173 254
180 173 254
180 173 254
180 173 254
180 173 254
180 174 254
181 174 254
180 174 254
180 173 254
180 173 254
181 174 254
181 174 254
181 174 254
181 174 254
180 174 254
181 174 254
182 174 254
181 174 254
182 174 254
181 174 254
182 174 254
181 174 254
182 174 254
182 175 254
182 175 254
182 175 254
183 175 254
183 175 254
183 175 254
183 175 254
183 175 254
183 175 254
184 175 254
184 175 254
183 175 254
184 175 254
184 175 254
184 175 254
184 175 254
184 176 254
184 175 254
184 175 254
184 175 254
184 175 254
185 176 254
185 176 254
185 176 254
185 176 254
185 176 254
185 176 254
173 197 0
175 197 0
174 197 0
174 197 0
173 196 0
171 195 0
173 197 0
173 197 0
174 197 0
174 197 0
175 198 0
173 197 0
173 197 0
173 197 0
174 197 0
175 198 0
172 196 0
174 197 0
173 197 0
171 195 0
174 197 0
174 197 0
174 197 0
173 197 0
173 197 0
175 198 0
175 198 0
171 195 0
174 197 0
174 197 0
175 198 0
174 197 0
175 197 0
174 197 0
174 197 0
173 196 0
175 198 0
173 196 0
174 197 0
174 197 0
174 197 0
176 198 0
174 197 0
172 196 0
173 197 0
175 198 0
174 197 0
175 197 0
172 196 0
173 197 0
174 197 0
175 197 0
172 196 0
173 197 0
174 197 0
174 197 0
176 198 0
174 197 0
173 197 0
174 197 0
174 197 0
176 198 0
175 197 0
175 198 0
173 196 0
174 197 0
174 197 0
175 198 0
173 197 0
174 197 0
173 197 0
174 197 0
174 197 0
174 197 0
175 198 0
173 197 0
175 198 0
174 197 0
173 197 0
174 197 0
174 197 0
175 198 0
175 197 0
173 197 0
173 197 0
172 196 0
173 197 0
174 197 0
172 196 0
174 197 0
172 196 0
175 198 0
175 198 0
174 197 0
174 197 0
174 197 0
173 197 0
173 196 0
175 198 0
174 197 0
173 196 0
172 196 0
174 197 0
174 197 0
173 197 0
175 198 0
173 197 0
176 198 0
175 198 0
173 197 0
175 198 0
173 197 0
173 197 0
174 197 0
175 198 0
174 197 0
173 197 0
174 197 0
174 197 0
172 196 0
175 198 0
174 197 0
173 197 0
175 198 0
174 197 0
173 197 0
173 196 0
174 197 0
173 197 0
173 197 0
176 198 0
173 197 0
174 197 0
173 197 0
175 197 0
175 198 0
174 197 0
174 197 0
174 197 0
174 197 0
169 195 0
172 196 0
173 197 0
200 219 207
214 231 254
214 231 254
214 231 254
214 231 254
214 231 254
214 231 254
214 231 254
214 231 254
214 231 254
139 204 182
59 189 133
59 188 123
60 191 145
60 193 148
60 192 144
60 193 149
61 193 146
60 192 146
60 192 146
60 192 149
60 192 147
61 193 148
61 193 147
61 195 155
61 194 154
61 193 146
60 192 145
61 193 150
61 193 147
62 197 162
60 192 146
61 194 156
61 193 145
61 193 146
61 195 155
60 192 145
61 195 156
60 191 140
60 191 143
62 195 155
61 194 152
61 195 156
60 193 144
62 194 151
61 193 148
61 195 156
62 195 152
61 194 152
62 196 157
61 194 151
60 193 150
62 195 158
61 194 150
61 194 152
62 195 154
61 193 150
61 195 151
61 193 149
61 193 152
62 196 157
62 195 156
61 192 144
62 196 157
61 193 148
61 192 148
62 196 160
62 195 154
61 193 154
61 194 149
60 191 146
61 193 152
61 195 157
61 194 155
61 193 151
60 192 141
61 193 152
61 192 151
61 192 154
61 191 150
60 190 151
61 193 152
61 191 150
61 192 152
60 189 154
61 192 157
60 190 150
62 193 157
62 193 159
60 191 149
60 189 152
59 186 152
60 188 150
59 185 144
60 188 155
59 187 152
59 187 155
61 189 163
61 189 165
60 188 160
60 186 167
59 183 161
58 180 160
145 201 207
214 231 254
214 231 254
214 231 254
214 231 254
214 231 254
214 231 254
214 231 254
214 231 254
214 231 254
194 204 239
177 167 241
185 176 254
183 175 254
182 174 254
179 173 254
176 172 251
168 169 247
162 168 242
152 166 235
150 165 233
146 163 229
152 165 237
143 163 228
144 163 231
142 163 229
146 164 232
153 166 238
153 166 237
157 167 239
162 167 243
164 169 245
169 170 250
170 170 251
174 171 254
175 171 254
175 171 254
176 171 254
176 171 254
175 171 254
175 171 254
175 171 254
175 171 254
175 171 254
175 171 254
175 171 254
174 171 254
175 171 254
176 172 254
175 171 254
175 171 254
175 171 254
175 171 254
175 171 254
176 171 254
175 171 254
176 171 254
176 171 254
175 171 254
176 172 254
176 171 254
176 171 254
176 171 254
176 172 254
176 171 254
176 172 254
176 172 254
176 171 254
176 172 254
177 172 254
176 172 254
177 172 254
177 172 254
177 172 254
176 172 254
177 172 254
177 172 254
177 172 254
177 172 254
177 172 254
177 172 254
178 173 254
177 172 254
177 172 254
178 172 254
178 173 254
178 173 254
178 172 254
178 172 254
178 173 254
179 173 254
179 173 254
178 173 254
179 173 254
179 173 254
179 173 254
179 173 254
179 173 254
179 173 254
180 173 254
180 173 254
180 173 254
180 174 254
179 173 254
180 174 254
180 173 254
181 174 254
180 173 254
181 174 254
181 174 254
181 174 254
181 174 254
181 174 254
181 174 254
181 174 254
181 174 254
181 174 254
181 174 254
181 174 254
182 174 254
182 174 254
183 175 254
182 174 254
182 174 254
182 174 254
183 175 254
182 175 254
182 175 254
183 175 254
183 175 254
183 175 254
183 175 254
184 175 254
183 175 254
184 175 254
183 175 254
184 175 254
184 175 254
184 176 254
184 175 254
185 176 254
184 175 254
184 175 254
185 176 254
185 176 254
184 176 254
185 176 254
184 176 254
186 176 254
185 176 254
186 176 254
185 176 254
186 176 254
186 176 254
173 197 0
173 197 0
175 198 0
174 197 0
175 198 0
173 196 0
174 197 0
174 197 0
173 196 0
175 198 0
172 195 0
173 197 0
173 197 0
173 197 0
175 197 0
174 196 0
175 198 0
174 197 0
173 197 0
174 197 0
175 198 0
173 197 0
173 197 0
174 197 0
176 198 0
173 197 0
173 197 0
173 196 0
173 197 0
173 197 0
173 196 0
174 197 0
172 196 0
173 196 0
176 198 0
174 197 0
175 198 36
183 204 98
182 203 95
190 209 134
191 210 141
193 212 146
191 210 141
193 212 157
198 216 172
194 213 159
204 220 190
207 223 200
202 219 183
205 221 194
209 224 207
210 225 213
216 230 230
212 227 217
217 231 232
215 229 225
217 231 233
215 229 228
219 232 237
218 232 237
219 232 237
218 231 232
220 234 243
220 233 240
218 232 236
219 233 239
219 232 236
217 231 233
220 233 239
216 230 228
214 228 223
215 229 226
214 229 225
212 227 216
208 223 202
207 223 204
203 219 183
202 218 178
199 216 174
196 214 163
194 212 152
194 213 161
186 206 116
185 206 114
178 200 67
175 198 36
173 196 0
175 197 0
173 197 0
175 197 0
174 197 0
174 197 0
175 198 0
175 197 0
174 197 0
173 197 0
174 197 0
174 197 0
174 197 0
174 197 0
175 198 0
174 197 0
174 197 0
172 196 0
173 196 0
173 197 0
173 196 0
173 197 0
175 198 0
174 197 0
172 196 0
175 198 0
173 196 0
173 197 0
173 197 0
173 197 0
173 197 0
174 197 0
174 197 0
174 197 0
174 197 0
174 197 0
173 197 0
175 198 0
172 196 0
174 197 0
173 197 0
171 195 0
173 197 0
172 196 0
174 197 0
176 198 0
174 197 0
173 197 0
173 197 0
172 195 0
174 197 0
174 197 0
174 197 0
175 197 0
173 197 0
172 196 0
173 197 0
179 202 102
214 231 253
214 231 254
214 231 254
214 231 254
214 231 254
214 231 254
214 231 254
214 231 254
204 227 243
62 189 131
60 190 137
59 189 136
60 191 138
59 190 137
60 191 140
61 194 147
60 191 140
60 192 144
61 193 148
61 194 149
60 191 144
60 192 144
61 194 149
61 193 147
61 194 154
60 191 140
61 194 148
61 194 154
61 194 150
62 194 151
61 194 150
60 192 146
61 193 152
61 193 145
61 194 149
60 191 140
59 191 143
60 192 145
61 194 151
61 194 149
61 192 145
61 195 154
61 195 151
60 193 150
61 192 146
61 193 145
62 195 149
61 193 147
61 194 155
60 192 146
62 196 160
62 195 157
61 193 151
62 195 150
60 190 140
61 194 151
61 194 156
60 192 149
61 193 150
62 195 154
61 193 145
61 195 160
61 192 146
61 193 151
61 193 145
61 192 148
62 195 157
61 194 149
61 193 149
61 194 154
61 194 155
61 194 155
61 191 148
61 193 155
61 193 154
61 194 151
61 193 151
61 193 150
60 190 143
61 192 144
60 188 146
61 192 156
60 190 140
62 194 161
62 194 156
61 191 151
60 189 141
61 192 157
61 191 159
61 191 158
59 187 144
61 191 157
60 187 155
60 189 152
60 188 158
59 183 151
60 189 158
59 183 151
59 186 159
59 185 158
59 184 162
58 182 163
56 177 160
200 225 245
214 231 254
214 231 254
214 231 254
214 231 254
214 231 254
214 231 254
214 231 254
213 230 253
172 166 228
184 174 252
184 176 254
183 175 254
180 174 253
171 172 247
163 168 241
161 167 240
149 164 231
148 163 232
134 159 222
137 162 224
136 159 224
123 157 215
118 159 212
126 158 217
134 161 223
152 164 235
146 163 230
148 164 229
157 167 239
154 166 237
164 168 245
172 171 251
172 171 251
175 171 254
176 171 254
176 172 254
175 171 254
175 171 254
175 171 254
176 171 254
176 171 254
176 171 254
176 172 254
176 172 254
175 171 254
176 172 254
176 172 254
176 172 254
176 172 254
177 172 254
176 172 254
176 172 254
176 172 254
175 171 254
176 172 254
177 172 254
176 172 254
176 172 254
176 172 254
176 172 254
176 172 254
177 172 254
177 172 254
177 172 254
177 172 254
177 172 254
177 172 254
177 172 254
177 172 254
177 172 254
177 172 254
177 172 254
178 173 254
178 173 254
177 172 254
178 173 254
178 173 254
178 173 254
178 172 254
179 173 254
178 173 254
179 173 254
179 173 254
179 173 254
179 173 254
179 173 254
180 173 254
179 173 254
180 173 254
180 173 254
179 173 254
180 174 254
180 173 254
180 174 254
180 174 254
180 173 254
180 174 254
181 174 254
180 174 254
181 174 254
181 174 254
181 174 254
181 174 254
181 174 254
181 174 254
182 174 254
181 174 254
182 174 254
181 174 254
181 174 254
182 174 254
182 175 254
182 175 254
182 174 254
183 175 254
182 174 254
183 175 254
183 175 254
183 175 254
183 175 254
183 175 254
183 175 254
183 175 254
183 175 254
183 175 254
182 175 254
183 175 254
184 175 254
185 176 254
183 175 254
184 175 254
185 176 254
184 175 254
184 175 254
184 175 254
184 176 254
184 176 254
185 176 254
184 176 254
185 176 254
185 176 254
186 176 254
185 176 254
186 176 254
185 176 254
185 176 254
186 176 254
186 176 254
186 176 254
186 176 254
186 177 254
186 176 254
173 197 0
174 197 0
173 197 0
175 198 0
174 197 0
173 197 0
173 197 0
172 196 0
174 197 0
174 197 0
174 197 0
175 198 0
173 197 0
173 197 0
174 197 0
173 197 0
175 198 0
174 197 0
175 198 0
174 197 0
174 197 0
173 197 0
181 202 76
186 206 116
186 206 116
186 206 116
196 214 161
194 213 155
206 222 195
205 221 194
212 227 219
214 228 222
218 231 235
218 232 236
221 234 244
224 236 252
225 237 254
225 237 254
225 237 254
225 237 254
225 237 254
225 237 254
224 237 254
225 237 254
224 237 254
224 237 254
224 237 254
224 237 254
224 237 254
224 237 254
224 237 254
224 237 254
224 237 254
224 237 254
224 237 254
224 237 254
224 237 254
224 237 254
224 237 254
224 237 254
224 237 254
224 237 254
224 237 254
224 237 254
224 237 254
224 237 254
224 237 254
224 237 254
224 237 254
224 237 254
224 237 254
224 237 254
225 237 254
225 237 254
225 237 254
225 237 254
225 237 254
225 237 254
225 237 254
225 237 254
225 237 254
225 237 254
225 237 254
225 237 254
225 237 254
225 237 254
219 233 240
220 233 239
214 228 223
212 227 219
205 221 195
202 219 183
199 217 174
189 209 137
184 205 108
174 197 36
173 197 0
174 197 0
174 197 0
174 197 0
173 197 0
174 197 0
174 197 0
173 197 0
173 196 0
173 197 0
174 197 0
174 197 0
173 197 0
174 197 0
175 197 0
175 197 0
175 198 0
174 197 0
173 197 0
175 198 0
172 196 0
173 197 0
173 196 0
174 197 0
172 196 0
174 197 0
175 198 0
174 197 0
174 197 0
173 197 0
173 197 0
173 197 0
174 197 0
172 196 0
173 197 0
172 196 0
174 197 0
173 197 0
171 196 0
175 198 0
174 197 0
174 197 0
175 198 0
174 197 0
174 197 0
174 197 0
175 197 0
172 196 0
200 219 204
214 231 254
214 231 254
214 231 254
214 231 254
214 231 254
214 231 254
214 231 254
161 212 206
59 189 136
58 186 114
60 192 143
61 193 148
60 192 146
60 191 138
59 190 138
60 191 144
60 192 143
60 191 140
61 194 150
61 194 150
61 193 146
61 193 148
62 195 156
61 193 147
60 193 148
61 194 155
61 192 145
60 193 148
60 192 141
61 194 152
61 194 149
60 192 146
61 193 150
60 190 134
61 194 150
60 191 139
61 194 146
62 195 155
61 194 148
60 192 145
60 192 143
61 193 149
60 191 138
60 191 145
60 193 146
60 192 146
61 195 157
60 192 148
61 193 140
62 195 156
61 193 149
60 192 141
60 190 133
61 194 148
61 194 150
61 193 149
61 195 151
62 196 156
61 195 150
60 191 139
61 193 152
60 191 145
60 192 146
61 194 150
61 194 157
61 193 150
61 193 152
61 192 151
61 193 148
61 194 149
61 194 151
62 194 149
62 194 147
62 194 157
60 190 149
61 191 146
61 192 155
60 191 146
61 192 154
60 190 148
61 192 147
61 191 147
61 191 151
61 191 147
61 192 154
61 192 159
60 190 155
61 192 158
60 189 148
60 189 147
61 190 155
59 186 157
59 185 149
60 187 152
60 186 159
60 187 153
60 187 157
58 184 158
58 183 155
58 182 153
57 178 152
56 175 158
150 206 212
214 231 254
214 231 254
214 231 254
214 231 254
214 231 254
214 231 254
214 231 254
188 197 230
178 168 241
185 176 254
184 175 254
181 174 253
168 169 243
156 165 235
150 163 231
142 160 226
129 157 215
120 153 211
132 159 221
120 154 207
109 153 202
125 157 212
119 157 209
121 156 212
124 157 212
130 161 219
149 165 232
147 165 230
140 162 225
147 165 228
155 167 237
167 169 247
167 170 248
174 171 252
173 171 251
176 172 254
177 172 254
177 172 254
177 172 254
177 172 254
177 172 254
176 172 254
177 172 254
177 172 254
176 172 254
177 172 254
177 172 254
176 172 254
177 172 254
177 172 254
177 172 254
177 172 254
177 172 254
178 173 254
177 172 254
177 172 254
177 172 254
177 172 254
178 172 254
177 172 254
177 172 254
178 172 254
178 172 254
178 173 254
178 173 254
178 173 254
178 172 254
179 173 254
178 173 254
179 173 254
178 172 254
179 173 254
179 173 254
178 173 254
179 173 254
178 173 254
179 173 254
179 173 254
180 173 254
179 173 254
179 173 254
180 173 254
180 173 254
179 173 254
180 173 254
179 173 254
180 173 254
181 174 254
180 174 254
180 174 254
181 174 254
181 174 254
181 174 254
180 174 254
181 174 254
181 174 254
181 174 254
181 174 254
181 174 254
181 174 254
182 174 254
181 174 254
181 174 254
182 174 254
182 174 254
182 174 254
182 174 254
182 174 254
182 175 254
183 175 254
182 175 254
183 175 254
182 175 254
182 174 254
183 175 254
183 175 254
183 175 254
183 175 254
183 175 254
183 175 254
183 175 254
183 175 254
184 175 254
184 176 254
184 175 254
185 176 254
184 175 254
184 175 254
184 175 254
184 176 254
184 176 254
185 176 254
185 176 254
184 176 254
185 176 254
185 176 254
186 176 254
186 176 254
185 176 254
186 176 254
185 176 254
185 176 254
186 176 254
185 176 254
186 176 254
186 176 254
186 176 254
187 177 254
186 177 254
187 177 254
187 177 254
187 177 254
174 197 0
172 196 0
174 197 0
173 197 0
175 198 0
174 197 0
174 197 0
172 196 0
175 197 0
174 197 0
175 199 57
179 201 84
185 206 119
191 211 146
200 217 180
207 223 202
208 223 204
211 226 216
214 228 223
218 232 239
221 234 244
224 237 254
224 237 254
224 237 254
224 237 254
224 237 254
224 237 254
224 237 254
224 237 254
224 237 254
224 237 254
224 237 254
224 237 254
224 237 254
224 237 254
224 237 254
224 237 254
224 237 254
224 237 254
224 237 254
224 237 254
224 237 254
224 237 254
224 237 254
224 237 254
224 237 254
224 237 254
224 237 254
224 237 254
224 237 254
224 237 254
224 237 254
224 237 254
224 237 254
224 237 254
224 237 254
224 237 254
224 237 254
224 237 254
224 237 254
224 237 254
224 237 254
224 237 254
224 237 254
224 237 254
224 237 254
224 237 254
224 237 254
224 237 254
224 237 254
224 237 254
224 237 254
224 237 254
224 237 254
224 237 254
224 237 254
224 237 254
224 237 254
224 237 254
224 237 254
224 237 254
224 237 254
224 237 254
224 237 254
224 237 254
224 237 254
224 237 254
224 237 254
225 237 254
225 237 254
225 237 254
225 237 254
225 237 254
225 237 254
225 237 254
225 237 254
220 233 241
214 228 222
208 223 205
194 212 152
190 210 139
189 209 134
180 202 84
174 197 0
174 197 0
173 196 0
174 197 0
173 197 0
175 197 0
173 197 0
174 197 0
173 197 0
172 196 0
171 195 0
173 196 0
175 198 0
173 197 0
171 195 0
173 197 0
174 197 0
174 197 0
173 197 0
173 197 0
174 197 0
174 197 0
172 196 0
171 195 0
173 197 0
175 198 0
173 197 0
171 196 0
173 196 0
175 197 0
173 196 0
174 197 0
173 197 0
172 197 0
174 197 0
172 196 0
173 197 0
173 197 0
172 196 0
173 197 0
170 196 0
179 202 91
214 231 252
215 231 254
215 231 254
215 231 254
215 231 254
215 231 254
214 231 254
90 193 147
59 190 140
59 189 127
59 189 131
59 189 134
60 191 137
61 195 151
61 193 144
60 191 147
60 191 144
61 194 150
60 191 141
61 192 139
62 196 157
60 193 146
62 194 144
60 192 141
60 192 140
60 191 145
61 194 151
61 193 149
61 193 144
61 193 145
62 194 144
61 194 148
61 193 145
62 196 155
61 194 151
61 194 149
61 194 152
62 196 156
61 192 139
61 194 150
60 192 146
61 193 146
60 191 140
61 193 149
60 192 143
62 195 154
61 193 150
61 192 144
61 193 146
60 190 141
62 195 152
62 194 147
61 192 146
60 192 147
61 193 152
61 193 144
62 195 156
60 192 145
60 192 149
62 195 159
61 193 146
62 195 151
62 194 151
61 193 147
61 194 149
61 193 150
61 193 150
61 192 150
61 193 150
61 193 154
62 195 157
61 193 151
61 193 149
60 190 145
61 192 149
61 192 152
61 193 159
60 189 147
62 196 160
60 189 138
60 189 151
61 191 148
61 191 143
61 193 154
60 188 148
60 188 149
61 192 156
61 192 162
60 189 156
60 189 155
60 188 154
60 189 160
60 188 150
61 190 145
60 188 154
59 187 149
60 186 156
58 182 146
60 186 157
59 184 155
58 180 159
57 178 153
85 184 177
212 230 252
215 231 254
215 231 254
215 231 254
215 231 254
215 231 254
213 230 253
178 172 235
186 176 254
185 176 254
184 176 254
171 171 244
156 167 234
135 158 219
132 156 217
122 153 211
119 152 206
92 149 193
110 153 204
104 154 201
96 150 193
106 150 199
116 156 208
109 154 204
116 154 204
118 156 209
135 161 220
121 157 211
136 162 221
148 165 232
148 166 233
153 167 235
163 169 243
167 169 246
170 170 247
176 172 254
177 172 254
178 172 254
178 173 254
177 172 254
178 172 254
178 172 254
178 172 254
178 172 254
178 173 254
178 173 254
178 173 254
178 172 254
178 172 254
176 172 254
179 173 254
178 172 254
178 172 254
178 172 254
178 172 254
178 173 254
178 173 254
178 173 254
178 172 254
179 173 254
178 173 254
179 173 254
179 173 254
179 173 254
179 173 254
179 173 254
179 173 254
179 173 254
179 173 254
179 173 254
179 173 254
180 173 254
180 173 254
179 173 254
180 173 254
180 174 254
179 173 254
180 173 254
180 174 254
181 174 254
180 174 254
181 174 254
181 174 254
181 174 254
180 174 254
181 174 254
181 174 254
180 174 254
181 174 254
181 174 254
181 174 254
181 174 254
182 174 254
182 174 254
181 174 254
181 174 254
182 174 254
182 174 254
182 175 254
183 175 254
182 174 254
183 175 254
182 175 254
183 175 254
183 175 254
183 175 254
183 175 254
183 175 254
183 175 254
183 175 254
183 175 254
184 175 254
183 175 254
184 175 254
183 175 254
184 175 254
184 175 254
184 175 254
184 175 254
184 176 254
184 175 254
184 176 254
184 176 254
184 175 254
185 176 254
184 175 254
185 176 254
186 176 254
185 176 254
185 176 254
185 176 254
185 176 254
185 176 254
185 176 254
186 176 254
186 176 254
186 176 254
186 176 254
185 176 254
186 176 254
186 176 254
186 176 254
187 177 254
187 177 254
187 177 254
187 177 254
187 177 254
186 176 254
186 176 254
187 177 254
187 177 254
187 177 254
178 200 62
181 203 95
191 211 141
196 215 165
201 219 183
206 222 199
206 222 197
214 228 222
219 233 240
223 236 251
224 237 254
224 237 254
224 237 254
224 237 254
224 237 254
224 237 254
224 237 254
224 237 254
224 237 254
224 237 254
224 237 254
224 237 254
224 237 254
224 237 254
224 237 254
224 237 254
224 237 254
224 237 254
224 237 254
224 237 254
224 237 254
224 237 254
224 237 254
224 237 254
224 237 254
224 237 254
224 237 254
224 237 254
224 237 254
224 237 254
224 237 254
224 237 254
224 237 254
224 237 254
224 237 254
224 237 254
224 237 254
224 237 254
224 237 254
224 237 254
224 237 254
224 237 254
224 237 254
224 237 254
224 237 254
224 237 254
224 237 254
224 237 254
224 237 254
224 237 254
224 237 254
224 237 254
224 237 254
224 237 254
224 237 254
224 237 254
224 237 254
224 237 254
224 237 254
224 237 254
224 237 254
224 237 254
224 237 254
224 237 254
224 237 254
224 237 254
224 237 254
224 237 254
224 237 254
224 237 254
224 237 254
224 237 254
224 237 254
224 237 254
224 237 254
224 237 254
224 237 254
224 237 254
224 237 254
224 237 254
224 237 254
224 237 254
224 237 254
224 237 254
224 237 254
224 237 254
224 237 254
224 237 254
225 237 254
225 237 254
225 237 254
225 237 254
225 237 254
219 233 240
210 225 211
206 222 199
204 221 192
189 208 124
179 201 67
173 197 0
174 197 0
174 197 0
173 196 0
173 196 0
175 198 0
174 196 0
174 197 0
174 197 0
173 196 0
173 196 0
174 197 0
174 197 0
173 197 0
175 197 0
174 197 0
174 197 0
172 196 0
174 197 0
174 197 0
173 197 0
175 197 0
175 198 0
173 197 0
172 196 0
174 197 0
173 196 0
173 197 0
173 197 0
172 196 0
174 197 0
174 197 0
173 197 0
173 197 0
174 197 0
169 196 0
203 222 211
215 232 254
215 232 254
215 232 254
215 232 254
215 232 254
191 222 231
59 188 127
60 191 137
59 190 137
60 192 144
60 192 143
60 191 134
60 190 138
60 192 140
61 193 148
60 192 141
60 191 139
61 194 148
60 190 136
61 192 139
61 193 148
61 194 151
60 192 143
61 193 143
61 194 155
62 196 154
60 191 141
61 193 146
61 193 147
61 193 147
60 192 144
60 192 146
61 193 150
60 192 146
62 194 151
61 192 144
62 195 155
60 191 145
61 194 152
61 193 147
61 194 152
61 192 139
63 197 163
61 193 143
61 194 150
61 192 148
61 193 147
61 192 144
60 191 140
62 194 149
62 195 152
61 193 151
62 195 154
61 195 155
62 196 152
61 193 146
61 192 144
61 195 155
61 194 151
62 196 159
61 192 147
61 192 148
61 193 145
60 192 141
61 194 151
61 192 147
59 189 139
61 193 150
61 194 154
60 190 140
60 190 146
61 192 151
62 195 161
62 195 158
60 191 155
61 193 150
60 189 145
61 192 151
62 193 156
61 191 157
61 190 152
61 192 156
60 190 147
62 195 158
60 189 149
60 188 146
60 189 145
61 190 149
61 189 149
60 189 145
60 189 152
60 189 154
60 188 157
60 188 150
60 187 158
60 188 157
58 183 149
58 181 143
59 182 153
58 181 154
58 181 155
57 179 164
188 218 236
215 232 254
215 232 254
215 232 254
215 232 254
215 232 254
207 218 251
179 169 243
187 177 254
184 176 253
171 170 244
151 163 231
131 154 214
122 154 207
100 145 196
109 150 200
82 146 188
82 146 189
74 144 183
74 146 182
77 148 181
97 151 195
95 148 194
89 150 190
98 152 198
107 155 204
115 156 200
132 161 219
126 159 214
131 160 220
139 163 223
151 165 231
158 167 235
169 170 247
170 170 248
176 172 253
179 173 254
179 173 254
179 173 254
178 173 254
179 173 254
178 173 254
178 173 254
178 173 254
178 173 254
178 173 254
179 173 254
179 173 254
179 173 254
179 173 254
179 173 254
179 173 254
179 173 254
179 173 254
179 173 254
179 173 254
179 173 254
179 173 254
180 173 254
180 173 254
179 173 254
179 173 254
180 174 254
180 173 254
180 173 254
180 173 254
181 174 254
180 174 254
180 173 254
180 174 254
180 173 254
181 174 254
181 174 254
180 173 254
181 174 254
181 174 254
181 174 254
181 174 254
182 174 254
180 174 254
181 174 254
181 174 254
181 174 254
181 174 254
181 174 254
181 174 254
182 174 254
182 174 254
182 174 254
182 174 254
182 174 254
181 174 254
183 175 254
182 174 254
182 174 254
182 174 254
182 174 254
183 175 254
183 175 254
184 175 254
183 175 254
183 175 254
183 175 254
183 175 254
184 175 254
183 175 254
184 175 254
184 175 254
183 175 254
184 175 254
184 175 254
184 175 254
184 175 254
184 175 254
184 176 254
184 175 254
184 175 254
184 176 254
185 176 254
184 175 254
185 176 254
185 176 254
186 176 254
185 176 254
185 176 254
185 176 254
185 176 254
185 176 254
186 176 254
186 176 254
185 176 254
186 176 254
186 176 254
186 176 254
186 176 254
186 176 254
186 176 254
187 177 254
186 176 254
187 177 254
187 177 254
187 177 254
187 177 254
187 177 254
187 177 254
187 177 254
187 177 254
187 177 254
187 177 254
187 177 254
188 177 254
187 177 254
224 237 254
224 237 254
224 237 254
224 237 254
224 237 254
224 237 254
224 237 254
224 237 254
224 237 254
224 237 254
224 237 254
224 237 254
224 237 254
224 237 254
224 237 254
224 237 254
224 237 254
224 237 254
224 237 254
224 237 254
224 237 254
224 237 254
224 237 254
224 237 254
224 237 254
224 237 254
224 237 254
224 237 254
224 237 254
224 237 254
224 237 254
224 237 254
224 237 254
224 237 254
224 237 254
224 237 254
224 237 254
224 237 254
224 237 254
224 237 254
224 237 254
224 237 254
224 237 254
224 237 254
224 237 254
224 237 254
224 237 254
224 237 254
224 237 254
224 237 254
224 237 254
224 237 254
224 237 254
224 237 254
224 237 254
224 237 254
224 237 254
224 237 254
224 237 254
224 237 254
224 237 254
224 237 254
224 237 254
224 237 254
224 237 254
224 237 254
224 237 254
224 237 254
224 237 254
224 237 254
224 237 254
224 237 254
224 237 254
224 237 254
224 237 254
224 237 254
224 237 254
224 237 254
224 237 254
224 237 254
224 237 254
224 237 254
224 237 254
224 237 254
224 237 254
224 237 254
224 237 254
224 237 254
224 237 254
224 237 254
224 237 254
224 237 254
224 237 254
224 237 254
224 237 254
224 237 254
224 237 254
224 237 254
224 237 254
224 237 254
224 237 254
224 237 254
224 237 254
224 237 254
224 237 254
225 237 254
225 237 254
225 237 254
224 237 253
219 232 237
212 227 216
201 218 182
189 209 137
177 199 57
174 197 0
173 197 0
173 197 0
174 197 0
174 197 0
174 197 0
173 196 0
173 197 0
174 197 0
172 196 0
172 196 0
174 197 0
173 197 0
175 198 0
174 197 0
173 197 0
174 197 0
175 198 0
175 198 0
173 197 0
173 197 0
175 198 0
173 196 0
173 197 0
175 198 0
174 197 0
174 197 0
174 197 0
172 196 0
173 197 0
172 197 0
182 204 114
215 232 254
215 232 254
215 232 254
215 232 254
215 232 254
145 207 190
58 187 124
59 189 133
59 188 127
59 189 131
59 189 133
61 192 140
61 192 139
60 190 131
60 191 143
60 193 147
60 192 139
61 193 138
60 191 139
61 195 158
61 193 143
61 193 145
61 193 145
61 193 144
61 193 145
60 192 141
60 192 143
60 190 136
60 192 146
60 192 144
61 193 149
61 193 145
61 192 140
60 192 146
61 194 152
62 194 144
62 196 157
61 194 149
61 195 151
62 195 152
61 194 150
62 196 156
61 193 147
62 195 154
60 192 145
61 194 150
61 194 149
59 190 139
60 192 144
59 190 138
61 192 145
61 193 145
61 193 145
61 195 151
61 193 149
59 189 136
60 192 141
62 195 152
61 193 146
62 195 160
63 197 159
60 192 151
61 193 144
62 194 150
61 191 146
62 194 149
61 191 143
61 192 148
61 192 148
62 194 157
61 193 147
60 193 154
61 194 149
61 193 152
61 192 154
60 191 148
61 192 149
61 192 150
60 190 145
60 191 154
61 191 144
61 192 152
60 189 141
60 191 147
59 187 145
59 189 149
60 189 148
61 192 156
59 186 145
59 187 143
59 187 148
59 185 149
59 184 150
59 188 150
60 187 148
59 184 149
60 185 154
57 182 147
59 185 152
58 182 154
57 177 148
56 175 153
140 193 202
215 232 254
215 232 254
215 232 254
215 232 254
215 232 254
180 178 232
186 175 252
187 177 254
174 172 245
156 163 231
139 160 220
120 150 207
89 144 185
87 140 182
83 142 183
60 137 173
61 139 174
56 139 173
60 143 177
62 145 177
66 145 172
66 145 173
80 147 184
89 151 185
100 151 193
102 154 195
106 155 199
125 158 212
125 158 213
138 163 221
137 162 217
153 166 232
163 169 241
161 169 239
174 172 249
178 173 253
179 173 254
179 173 254
180 173 254
180 173 254
180 173 254
179 173 254
180 173 254
180 173 254
180 173 254
180 173 254
179 173 254
180 173 254
180 173 254
180 173 254
180 174 254
180 173 254
180 173 254
180 173 254
180 174 254
180 173 254
180 173 254
180 174 254
181 174 254
181 174 254
180 174 254
180 173 254
180 174 254
181 174 254
180 174 254
181 174 254
182 174 254
181 174 254
181 174 254
180 174 254
181 174 254
181 174 254
182 174 254
182 174 254
181 174 254
182 174 254
182 174 254
181 174 254
182 175 254
182 174 254
182 174 254
182 174 254
181 174 254
182 175 254
182 174 254
182 174 254
183 175 254
183 175 254
182 175 254
183 175 254
183 175 254
183 175 254
183 175 254
183 175 254
183 175 254
184 175 254
183 175 254
183 175 254
183 175 254
183 175 254
184 175 254
183 175 254
184 176 254
185 176 254
184 175 254
185 176 254
185 176 254
185 176 254
184 175 254
184 176 254
185 176 254
185 176 254
185 176 254
185 176 254
185 176 254
185 176 254
186 176 254
185 176 254
186 176 254
186 176 254
185 176 254
185 176 254
185 176 254
185 176 254
186 176 254
185 176 254
186 176 254
186 176 254
186 176 254
186 176 254
187 177 254
187 177 254
186 176 254
186 177 254
186 176 254
187 177 254
187 177 254
187 177 254
187 177 254
187 177 254
187 177 254
187 177 254
187 177 254
187 177 254
187 177 254
187 177 254
188 177 254
187 177 254
188 177 254
188 177 254
188 177 254
224 237 254
224 237 254
224 237 254
224 237 254
224 237 254
224 237 254
224 237 254
224 237 254
224 237 254
224 237 254
224 237 254
224 237 254
224 237 254
224 237 254
224 237 254
224 237 254
224 237 254
224 237 254
224 237 254
224 237 254
224 237 254
224 237 254
224 237 254
224 237 254
224 237 254
224 237 254
224 237 254
224 237 254
224 236 254
224 237 254
224 236 254
224 236 254
224 236 254
224 236 254
224 236 254
224 236 254
224 236 254
224 236 254
224 236 254
224 236 254
224 236 254
224 236 254
224 236 254
224 236 254
224 236 254
224 236 254
224 236 254
224 236 254
224 236 254
224 236 254
224 236 254
224 236 254
224 236 254
224 236 254
224 236 254
224 236 254
224 236 254
224 236 254
224 236 254
224 236 254
224 236 254
224 236 254
224 236 254
224 236 254
224 236 254
224 236 254
224 236 254
224 236 254
224 236 254
224 236 254
224 236 254
224 236 254
224 236 254
224 236 254
224 236 254
224 236 254
224 236 254
224 236 254
224 236 254
224 236 254
224 236 254
224 236 254
224 236 254
224 237 254
224 237 254
224 237 254
224 237 254
224 237 254
224 237 254
224 237 254
224 237 254
224 237 254
224 237 254
224 237 254
224 237 254
224 237 254
224 237 254
224 237 254
224 237 254
224 237 254
224 237 254
224 237 254
224 237 254
224 237 254
224 237 254
224 237 254
224 237 254
224 237 254
224 237 254
224 237 254
224 237 254
225 237 254
225 237 254
225 237 254
220 233 240
209 224 207
199 217 172
189 208 132
174 197 25
173 197 0
173 197 0
175 197 0
175 198 0
172 196 0
173 197 0
175 198 0
172 196 0
173 197 0
173 196 0
174 197 0
174 197 0
174 197 0
173 196 0
172 196 0
173 197 0
174 197 0
174 197 0
175 198 0
173 196 0
176 198 0
174 197 0
175 198 0
174 197 0
173 197 0
172 197 0
173 197 0
209 226 235
216 232 254
216 232 254
216 232 254
210 230 250
71 187 120
59 187 123
59 189 132
60 190 134
61 192 145
61 193 146
60 190 137
60 191 139
60 192 144
61 194 149
60 192 145
61 193 147
61 193 145
60 192 144
61 194 151
61 193 143
61 192 144
61 194 148
60 191 144
61 194 146
61 193 141
61 193 146
61 195 154
61 193 144
61 193 151
60 192 138
62 196 160
61 192 143
61 192 147
61 194 151
59 190 141
60 192 146
61 194 147
60 192 141
61 193 150
60 191 134
60 192 145
60 191 144
60 191 143
61 193 148
61 194 156
63 196 152
61 194 150
61 193 145
61 193 145
60 192 144
60 192 144
60 191 136
60 192 144
60 190 140
60 191 143
61 193 144
61 192 146
61 195 157
60 190 137
61 194 150
61 193 150
60 191 140
61 193 148
59 188 134
60 190 141
60 191 148
62 194 150
62 193 145
61 194 151
60 188 137
62 195 154
60 191 149
62 194 155
60 192 143
60 191 147
61 192 148
60 191 144
62 195 152
61 193 151
60 190 144
60 190 146
60 189 146
61 192 155
60 190 154
59 188 139
59 185 145
60 187 150
61 192 154
59 188 144
61 191 152
60 187 153
58 182 144
60 189 157
57 182 151
59 186 149
59 185 156
59 184 158
58 180 154
57 179 152
56 176 148
55 173 155
70 177 158
209 228 250
216 232 254
216 232 254
216 232 254
208 220 251
181 170 244
187 176 253
182 174 251
160 164 234
137 154 217
118 151 206
96 142 189
78 137 178
57 134 170
50 130 163
49 133 162
49 134 169
51 139 170
51 137 170
50 137 165
52 140 165
51 141 167
57 142 168
75 145 177
73 147 180
95 149 184
107 154 196
118 157 207
122 158 209
129 162 214
138 164 220
136 162 219
159 168 234
152 166 228
165 170 242
172 171 248
179 173 254
180 174 254
181 174 254
180 174 254
180 174 254
180 174 254
181 174 254
180 174 254
181 174 254
180 174 254
181 174 254
181 174 254
182 174 254
181 174 254
181 174 254
180 174 254
181 174 254
181 174 254
181 174 254
181 174 254
181 174 254
181 174 254
181 174 254
181 174 254
182 174 254
181 174 254
181 174 254
182 175 254
181 174 254
182 174 254
182 175 254
182 174 254
182 174 254
182 174 254
182 175 254
182 175 254
182 175 254
183 175 254
183 175 254
182 175 254
183 175 254
183 175 254
182 175 254
183 175 254
183 175 254
183 175 254
183 175 254
182 175 254
183 175 254
183 175 254
184 175 254
184 175 254
184 175 254
184 175 254
184 175 254
184 175 254
183 175 254
184 176 254
184 175 254
185 176 254
184 175 254
184 175 254
185 176 254
185 176 254
185 176 254
184 176 254
184 176 254
185 176 254
185 176 254
185 176 254
186 176 254
185 176 254
185 176 254
185 176 254
185 176 254
186 176 254
186 176 254
186 176 254
186 176 254
186 176 254
186 176 254
186 176 254
186 176 254
187 177 254
186 176 254
186 176 254
186 176 254
187 177 254
186 176 254
187 177 254
187 177 254
186 176 254
187 177 254
187 177 254
187 177 254
187 177 254
187 177 254
187 177 254
187 177 254
187 177 254
187 177 254
188 177 254
188 177 254
188 177 254
187 177 254
188 177 254
188 177 254
188 177 254
187 177 254
188 177 254
189 178 254
189 178 254
188 177 254
188 177 254
189 178 254
224 237 254
224 237 254
224 237 254
224 237 254
224 237 254
224 237 254
224 237 254
224 237 254
224 237 254
224 236 254
224 236 254
224 236 254
224 236 254
224 236 254
224 236 254
224 236 254
224 236 254
224 236 254
224 236 254
224 236 254
224 236 254
224 236 254
224 236 254
224 236 254
224 236 254
223 236 254
223 236 254
223 236 254
223 236 254
223 236 254
223 236 254
223 236 254
223 236 254
223 236 254
223 236 254
223 236 254
223 236 254
223 236 254
223 236 254
223 236 254
223 236 254
223 236 254
223 236 254
223 236 254
223 236 254
223 236 254
223 236 254
223 236 254
223 236 254
223 236 254
223 236 254
223 236 254
223 236 254
223 236 254
223 236 254
223 236 254
223 236 254
223 236 254
223 236 254
223 236 254
223 236 254
223 236 254
223 236 254
223 236 254
223 236 254
223 236 254
223 236 254
223 236 254
223 236 254
223 236 254
223 236 254
223 236 254
223 236 254
223 236 254
223 236 254
223 236 254
223 236 254
223 236 254
223 236 254
223 236 254
223 236 254
223 236 254
223 236 254
223 236 254
223 236 254
223 236 254
224 236 254
224 236 254
224 236 254
224 236 254
224 236 254
224 236 254
224 236 254
224 236 254
224 236 254
224 236 254
224 237 254
224 237 254
224 237 254
224 237 254
224 237 254
224 237 254
224 237 254
224 237 254
224 237 254
224 237 254
224 237 254
224 237 254
224 237 254
224 237 254
224 237 254
224 237 254
224 237 254
224 237 254
224 237 254
224 237 254
225 237 254
225 237 254
223 236 251
211 226 213
196 214 161
187 207 122
176 198 25
173 197 0
174 197 0
173 197 0
173 197 0
172 196 0
173 197 0
173 196 0
174 197 0
174 197 0
174 197 0
172 196 0
175 198 0
175 198 0
174 197 0
174 197 0
174 197 0
173 197 0
174 197 0
174 197 0
174 197 0
175 198 0
172 196 0
174 197 0
195 215 180
216 232 254
216 232 254
216 232 254
177 216 212
58 185 116
59 188 120
59 188 126
60 192 138
59 190 132
61 193 145
61 194 149
61 192 139
60 191 140
61 191 136
61 194 149
61 193 146
60 192 146
61 193 144
61 194 150
62 194 145
60 191 138
59 188 122
61 193 146
62 196 157
60 192 144
60 191 136
60 191 141
61 193 144
62 196 159
60 192 139
60 190 141
61 193 141
61 193 144
61 194 148
60 191 134
62 194 147
60 191 140
61 193 145
61 194 146
59 189 132
60 192 144
61 193 147
61 194 147
60 193 147
60 191 138
60 192 145
61 193 147
59 191 144
60 193 148
60 190 133
61 193 146
60 192 151
62 195 156
61 192 146
61 193 146
60 190 139
60 192 146
61 193 148
61 194 154
61 192 150
61 193 148
61 193 152
61 192 144
62 194 152
61 192 140
61 193 146
60 190 138
60 190 143
60 191 146
61 192 146
60 191 139
61 192 146
60 190 141
59 189 140
60 191 143
60 190 147
60 191 144
59 189 147
59 189 151
60 192 149
60 190 144
60 188 146
59 185 139
60 191 147
60 190 145
61 191 145
61 191 149
59 188 145
59 187 150
61 189 151
60 188 149
57 182 138
59 185 145
59 185 139
59 184 149
59 183 151
59 185 145
58 181 147
56 179 144
55 175 146
56 176 151
54 170 155
177 213 226
216 232 254
216 232 254
216 232 254
193 198 240
184 173 248
187 177 254
169 168 240
137 153 213
111 146 201
95 140 188
58 132 168
49 128 168
45 128 162
50 135 169
48 131 165
49 134 164
49 135 158
50 135 165
51 139 165
50 137 163
51 138 162
53 144 160
56 143 171
65 144 165
83 151 184
102 151 192
108 154 193
120 156 204
125 158 207
140 161 219
144 163 223
152 167 230
160 168 237
165 170 240
171 171 247
179 173 252
181 174 254
181 174 254
181 174 254
182 174 254
181 174 254
182 174 254
182 174 254
182 174 254
181 174 254
181 174 254
182 174 254
182 174 254
182 174 254
181 174 254
182 174 254
182 174 254
182 174 254
182 174 254
182 175 254
182 174 254
182 174 254
182 174 254
182 174 254
182 174 254
183 175 254
183 175 254
183 175 254
182 175 254
182 175 254
183 175 254
183 175 254
183 175 254
183 175 254
183 175 254
183 175 254
183 175 254
184 175 254
183 175 254
183 175 254
183 175 254
184 175 254
184 175 254
184 175 254
184 175 254
183 175 254
183 175 254
184 175 254
183 175 254
185 176 254
184 175 254
184 175 254
184 175 254
185 176 254
184 176 254
185 176 254
184 176 254
185 176 254
184 176 254
184 175 254
185 176 254
186 176 254
185 176 254
187 177 254
185 176 254
185 176 254
186 176 254
186 176 254
186 176 254
186 176 254
186 176 254
186 176 254
186 176 254
186 176 254
186 176 254
186 176 254
186 176 254
186 176 254
186 176 254
186 176 254
186 176 254
187 177 254
187 177 254
187 177 254
186 176 254
187 177 254
187 177 254
188 177 254
188 177 254
187 177 254
187 177 254
188 177 254
188 177 254
187 177 254
188 177 254
188 177 254
188 177 254
188 177 254
188 177 254
189 178 254
189 178 254
189 178 254
188 177 254
188 177 254
188 177 254
188 177 254
189 178 254
189 178 254
189 178 254
189 178 254
189 178 254
189 178 254
189 178 254
188 177 254
189 178 254
224 236 254
224 236 254
224 236 254
224 236 254
224 236 254
224 236 254
224 236 254
223 236 254
223 236 254
223 236 254
223 236 254
223 236 254
223 236 254
223 236 254
223 236 254
223 236 254
223 236 254
223 236 254
223 236 254
223 236 254
223 236 254
223 236 254
223 236 254
223 236 254
223 236 254
223 236 254
223 236 254
223 236 254
223 236 254
223 236 254
223 236 254
223 236 254
223 236 254
223 236 254
223 236 254
223 236 254
223 236 254
223 236 254
223 236 254
223 236 254
223 236 254
223 236 254
223 236 254
223 236 254
223 236 254
223 236 254
223 236 254
223 236 254
223 236 254
223 236 254
223 236 254
223 236 254
223 236 254
223 236 254
223 236 254
223 236 254
223 236 254
223 236 254
223 236 254
223 236 254
223 236 254
223 236 254
223 236 254
223 236 254
223 236 254
223 236 254
223 236 254
223 236 254
223 236 254
223 236 254
223 236 254
223 236 254
223 236 254
223 236 254
223 236 254
223 236 254
223 236 254
223 236 254
223 236 254
223 236 254
223 236 254
223 236 254
223 236 254
223 236 254
223 236 254
223 236 254
223 236 254
223 236 254
223 236 254
223 236 254
223 236 254
223 236 254
223 236 254
223 236 254
223 236 254
223 236 254
223 236 254
223 236 254
224 236 254
224 236 254
224 236 254
224 236 254
224 236 254
224 236 254
224 236 254
224 237 254
224 237 254
224 237 254
224 237 254
224 237 254
224 237 254
224 237 254
224 237 254
224 237 254
224 237 254
224 237 254
224 237 254
224 237 254
224 237 254
224 237 254
224 237 254
225 237 254
223 236 251
214 229 225
202 219 185
186 207 122
173 196 25
172 196 0
173 197 0
173 196 0
173 197 0
173 196 0
174 197 0
174 197 0
172 196 0
173 197 0
174 197 0
174 197 0
174 197 0
174 197 0
173 197 0
172 196 0
173 196 0
172 196 0
174 197 0
173 197 0
180 202 95
216 232 254
216 232 254
216 232 254
141 205 182
58 186 116
58 186 114
59 188 124
60 191 136
59 189 132
60 191 133
60 191 143
61 193 143
60 190 131
60 193 147
60 192 143
62 195 148
61 192 139
61 193 147
61 194 148
62 195 151
61 194 151
61 194 148
60 190 133
61 194 152
61 193 144
61 194 146
61 194 150
60 191 140
61 192 143
61 193 146
60 190 138
62 194 146
61 193 147
60 192 146
61 194 148
61 194 151
62 195 151
60 192 143
60 193 147
61 193 149
60 192 148
61 193 143
61 194 148
60 192 144
60 191 133
61 192 141
61 193 149
60 191 143
61 193 146
61 193 150
62 195 154
60 192 146
61 193 146
61 194 148
62 196 155
60 191 144
61 193 145
61 192 146
60 192 146
59 190 137
60 191 145
61 193 148
60 191 147
60 190 144
61 191 144
59 189 138
61 190 143
61 194 147
60 191 139
60 190 134
61 192 145
61 191 143
60 190 140
60 191 145
61 191 144
60 189 141
59 188 140
58 187 133
60 190 144
60 191 144
61 192 152
60 188 132
60 189 140
60 189 147
60 189 155
60 189 146
60 188 141
60 188 151
60 187 151
59 186 147
60 187 148
58 183 140
59 187 145
59 185 141
59 187 152
58 181 149
58 181 155
58 181 152
57 179 154
58 183 154
58 179 154
54 170 157
143 200 204
216 232 254
216 232 254
216 232 254
179 173 235
188 177 253
175 172 244
151 160 225
123 148 204
100 141 189
55 130 167
48 125 159
49 133 168
49 132 168
48 134 163
46 129 156
50 135 165
50 134 163
51 137 163
50 139 165
51 137 162
51 139 162
51 139 166
52 141 157
53 145 162
61 147 172
76 147 175
87 149 179
110 155 192
121 157 207
116 157 204
137 162 215
141 164 220
159 169 235
159 168 233
165 170 240
177 173 250
181 174 253
183 175 254
182 174 254
182 174 254
183 175 254
183 175 254
183 175 254
183 175 254
183 175 254
183 175 254
182 175 254
182 174 254
182 174 254
183 175 254
183 175 254
183 175 254
183 175 254
183 175 254
183 175 254
183 175 254
183 175 254
183 175 254
183 175 254
183 175 254
184 175 254
183 175 254
183 175 254
183 175 254
183 175 254
184 175 254
183 175 254
183 175 254
184 175 254
184 175 254
184 175 254
184 175 254
184 175 254
184 175 254
184 176 254
185 176 254
184 176 254
184 176 254
185 176 254
185 176 254
185 176 254
185 176 254
185 176 254
185 176 254
185 176 254
184 176 254
186 176 254
185 176 254
185 176 254
186 176 254
186 176 254
186 176 254
186 176 254
186 176 254
186 176 254
185 176 254
186 176 254
186 176 254
186 176 254
186 176 254
187 177 254
185 176 254
186 176 254
186 177 254
186 176 254
187 177 254
187 177 254
187 177 254
186 176 254
187 177 254
187 177 254
187 177 254
187 177 254
187 177 254
187 177 254
188 177 254
187 177 254
188 177 254
187 177 254
188 177 254
188 177 254
187 177 254
188 177 254
188 177 254
188 177 254
188 177 254
188 177 254
188 177 254
188 177 254
188 177 254
187 177 254
188 177 254
189 178 254
188 177 254
189 178 254
189 177 254
189 178 254
189 178 254
189 178 254
189 178 254
189 178 254
189 178 254
189 178 254
189 178 254
190 178 254
189 178 254
190 178 254
189 178 254
189 178 254
190 178 254
223 236 254
223 236 254
223 236 254
223 236 254
223 236 254
223 236 254
223 236 254
223 236 254
223 236 254
223 236 254
223 236 254
223 236 254
223 236 254
223 236 254
223 236 254
223 236 254
223 236 254
223 236 254
223 236 254
223 236 254
223 236 254
223 236 254
223 236 254
223 236 254
223 236 254
223 236 254
223 236 254
223 236 254
223 236 254
223 236 254
223 236 254
223 236 254
223 236 254
223 236 254
223 236 254
223 236 254
223 236 254
223 236 254
223 236 254
223 236 254
223 236 254
223 236 254
223 236 254
223 236 254
223 236 254
223 236 254
223 236 254
223 236 254
223 236 254
223 236 254
223 236 254
223 236 254
223 236 254
223 236 254
223 236 254
223 236 254
223 236 254
223 236 254
223 236 254
223 236 254
223 236 254
223 236 254
223 236 254
223 236 254
223 236 254
223 236 254
223 236 254
223 236 254
223 236 254
223 236 254
223 236 254
223 236 254
223 236 254
223 236 254
223 236 254
223 236 254
223 236 254
223 236 254
223 236 254
223 236 254
223 236 254
223 236 254
223 236 254
223 236 254
223 236 254
223 236 254
223 236 254
223 236 254
223 236 254
223 236 254
223 236 254
223 236 254
223 236 254
223 236 254
223 236 254
223 236 254
223 236 254
223 236 254
223 236 254
223 236 254
223 236 254
223 236 254
223 236 254
223 236 254
223 236 254
223 236 254
223 236 254
224 236 254
224 236 254
224 236 254
224 236 254
224 236 254
224 237 254
224 237 254
224 237 254
224 237 254
224 237 254
224 237 254
224 237 254
224 237 254
224 237 254
224 237 254
224 237 254
224 237 254
224 237 254
225 237 254
219 232 239
207 223 202
194 213 159
180 201 72
173 197 0
173 197 0
174 197 0
173 197 0
173 197 0
172 197 0
172 196 0
174 197 0
174 197 0
173 197 0
175 197 0
173 197 0
173 196 0
174 197 0
174 197 0
172 196 0
174 197 0
209 226 228
216 232 254
216 232 254
94 196 148
59 189 123
59 189 127
60 191 139
59 190 134
60 191 140
60 192 141
59 189 130
60 192 139
61 192 139
60 191 136
60 192 144
61 193 148
60 192 144
61 193 143
61 192 137
61 194 146
61 194 151
60 192 139
62 195 151
60 191 134
62 195 151
62 195 151
61 193 146
60 192 144
61 193 144
61 194 152
60 191 139
61 193 144
61 193 145
59 190 137
61 194 152
60 191 136
60 192 147
60 192 144
61 193 144
61 193 141
61 193 145
61 193 144
61 193 147
61 193 146
59 189 134
61 193 144
60 192 141
60 190 140
61 192 143
61 192 144
60 192 145
61 193 147
60 192 149
60 191 138
60 190 141
62 195 158
61 193 143
60 191 141
60 191 139
61 191 139
61 192 141
60 191 147
60 191 143
61 191 140
60 191 144
61 193 152
60 190 137
61 192 147
61 192 149
61 192 145
59 188 136
60 189 145
60 191 143
60 190 143
61 192 151
62 195 159
60 190 148
60 192 149
60 190 147
59 186 132
60 188 144
61 190 154
58 183 139
59 187 143
61 193 157
59 187 141
59 187 143
60 187 149
59 185 141
57 181 134
59 185 145
60 186 150
58 182 149
57 178 136
60 186 156
58 184 144
57 179 147
58 182 149
58 180 148
57 177 145
57 179 149
57 177 161
79 171 157
216 232 254
216 232 254
206 217 247
181 169 240
188 177 253
160 164 230
115 142 194
88 134 179
65 129 167
44 123 158
44 124 158
47 129 162
44 126 153
48 131 164
48 129 159
49 133 164
49 132 157
49 133 158
51 139 162
51 138 161
50 139 155
53 144 168
52 142 155
52 142 164
55 147 166
65 145 164
87 149 174
95 154 187
117 157 197
117 157 199
128 160 207
133 161 212
144 164 220
164 169 237
168 171 242
174 173 247
181 175 252
183 175 254
184 175 254
183 175 254
184 175 254
183 175 254
183 175 254
183 175 254
184 175 254
184 175 254
184 175 254
184 175 254
184 175 254
184 175 254
183 175 254
184 175 254
184 175 254
184 176 254
184 175 254
184 175 254
184 175 254
184 175 254
184 175 254
184 176 254
184 175 254
184 176 254
185 176 254
184 175 254
184 176 254
185 176 254
185 176 254
185 176 254
185 176 254
185 176 254
185 176 254
186 176 254
185 176 254
185 176 254
185 176 254
185 176 254
185 176 254
186 176 254
187 177 254
186 176 254
185 176 254
185 176 254
185 176 254
187 177 254
186 176 254
186 176 254
187 177 254
186 176 254
186 176 254
186 176 254
186 176 254
186 177 254
186 176 254
186 176 254
186 176 254
187 177 254
187 177 254
187 177 254
186 176 254
187 177 254
187 177 254
187 177 254
186 177 254
187 177 254
187 177 254
187 177 254
187 177 254
187 177 254
188 177 254
187 177 254
187 177 254
188 177 254
187 177 254
188 177 254
188 177 254
188 177 254
188 177 254
188 177 254
188 177 254
188 177 254
188 177 254
188 177 254
189 178 254
189 178 254
189 178 254
189 178 254
189 178 254
189 178 254
188 177 254
188 177 254
189 178 254
189 178 254
189 178 254
189 178 254
190 178 254
189 178 254
190 178 254
189 178 254
190 178 254
190 178 254
190 178 254
189 178 254
190 178 254
190 178 254
190 178 254
190 178 254
190 178 254
189 178 254
190 178 254
190 178 254
223 236 254
223 236 254
223 236 254
223 236 254
223 236 254
223 236 254
223 236 254
223 236 254
223 236 254
223 236 254
223 236 254
223 236 254
223 236 254
223 236 254
223 236 254
223 236 254
223 236 254
223 236 254
223 236 254
223 236 254
223 236 254
223 236 254
223 236 254
223 236 254
223 236 254
223 236 254
223 236 254
223 236 254
223 236 254
223 236 254
223 236 254
223 236 254
223 236 254
223 236 254
223 236 254
223 236 254
223 236 254
223 236 254
223 236 254
223 236 254
223 236 254
223 236 254
223 236 254
223 236 254
223 236 254
223 236 254
223 236 254
223 236 254
223 236 254
223 236 254
223 236 254
223 236 254
223 236 254
223 236 254
223 236 254
223 236 254
223 236 254
223 236 254
223 236 254
223 236 254
223 236 254
223 236 254
223 236 254
223 236 254
223 236 254
223 236 254
223 236 254
223 236 254
223 236 254
223 236 254
223 236 254
223 236 254
223 236 254
223 236 254
223 236 254
223 236 254
223 236 254
223 236 254
223 236 254
223 236 254
223 236 254
223 236 254
223 236 254
223 236 254
223 236 254
223 236 254
223 236 254
223 236 254
223 236 254
223 236 254
223 236 254
223 236 254
223 236 254
223 236 254
223 236 254
223 236 254
223 236 254
223 236 254
223 236 254
223 236 254
223 236 254
223 236 254
223 236 254
223 236 254
223 236 254
223 236 254
223 236 254
223 236 254
223 236 254
223 236 254
223 236 254
223 236 254
223 236 254
223 236 254
224 236 254
224 236 254
224 236 254
224 236 254
224 237 254
224 237 254
224 237 254
224 237 254
224 237 254
224 237 254
224 237 254
224 237 254
224 237 254
224 237 254
224 237 254
223 236 251
211 226 216
199 216 172
185 206 111
174 197 0
171 195 0
174 197 0
172 196 0
176 198 0
174 197 0
172 196 0
174 196 0
174 197 0
173 197 0
172 196 0
173 197 0
173 197 0
172 196 0
198 217 187
217 233 254
203 227 239
59 187 116
59 189 126
60 191 136
59 189 133
60 190 133
61 192 136
62 194 148
61 192 139
60 191 132
60 192 138
59 190 131
62 195 150
60 192 140
61 195 155
62 194 152
60 190 136
61 192 138
61 193 144
60 191 141
61 194 148
61 192 143
62 195 157
61 194 155
61 193 146
60 192 137
61 194 151
60 190 134
59 190 133
59 189 133
61 194 148
61 193 143
59 189 137
60 192 147
60 191 134
61 192 140
60 191 138
61 192 144
61 192 143
60 191 137
61 193 146
60 192 141
61 194 146
62 194 147
62 195 151
61 194 147
60 192 141
60 191 137
60 193 146
62 195 151
61 192 144
61 195 154
59 189 130
60 192 147
60 192 141
60 191 138
60 191 133
60 189 132
60 192 148
61 192 143
60 191 143
61 193 149
61 192 145
61 193 146
60 190 143
62 195 155
60 191 146
60 191 146
60 191 141
60 190 139
60 190 139
60 191 147
61 194 151
61 192 148
59 186 138
60 190 141
60 187 140
61 192 145
60 189 139
59 187 143
59 188 145
59 185 144
59 187 140
60 187 138
61 191 154
60 190 153
59 186 138
58 184 144
61 190 152
58 184 139
58 183 136
61 190 158
59 183 148
59 183 147
57 176 144
61 188 155
57 178 149
55 173 140
57 178 152
56 173 152
54 166 148
203 225 243
217 233 254
187 193 229
187 175 249
179 173 245
142 155 214
111 142 195
57 126 162
44 123 156
43 121 154
45 126 162
46 124 160
44 123 150
46 127 156
47 129 164
48 129 159
48 133 156
49 135 159
50 137 160
49 133 154
50 133 152
50 137 153
50 137 153
52 141 158
52 142 161
55 144 160
63 146 161
92 152 181
94 148 178
121 160 204
127 160 211
142 164 218
145 165 223
149 165 223
168 170 239
171 172 239
177 173 247
184 175 254
185 176 254
184 175 254
185 176 254
185 176 254
185 176 254
185 176 254
185 176 254
184 175 254
185 176 254
185 176 254
185 176 254
184 175 254
185 176 254
185 176 254
185 176 254
185 176 254
185 176 254
185 176 254
186 176 254
185 176 254
186 176 254
185 176 254
185 176 254
185 176 254
185 176 254
185 176 254
186 176 254
185 176 254
185 176 254
185 176 254
186 176 254
186 176 254
187 177 254
186 176 254
186 176 254
186 177 254
186 177 254
186 176 254
186 176 254
187 177 254
186 176 254
186 176 254
186 176 254
186 176 254
187 177 254
187 177 254
187 177 254
187 177 254
187 177 254
187 177 254
187 177 254
187 177 254
187 177 254
187 177 254
188 177 254
187 177 254
188 177 254
188 177 254
187 177 254
187 177 254
187 177 254
187 177 254
187 177 254
188 177 254
188 177 254
187 177 254
188 177 254
188 177 254
188 177 254
188 177 254
189 178 254
189 178 254
188 177 254
189 178 254
188 177 254
188 177 254
189 178 254
189 178 254
190 178 254
188 177 254
189 178 254
189 178 254
189 178 254
189 178 254
189 177 254
189 178 254
189 178 254
189 178 254
189 178 254
189 178 254
189 178 254
189 178 254
189 178 254
190 178 254
190 178 254
190 178 254
190 178 254
190 178 254
190 178 254
190 178 254
190 178 254
190 178 254
190 178 254
191 178 254
190 178 254
190 178 254
190 178 254
190 178 254
191 179 254
190 178 254
191 179 254
190 178 254
223 236 254
223 236 254
223 236 254
223 236 254
223 236 254
223 236 254
223 236 254
223 236 254
223 236 254
223 236 254
223 236 254
223 236 254
223 236 254
223 236 254
223 236 254
223 236 254
223 236 254
223 236 254
223 236 254
223 236 254
223 236 254
223 236 254
223 236 254
223 236 254
223 236 254
223 236 254
223 236 254
223 236 254
223 236 254
223 236 254
223 236 254
223 236 254
223 236 254
223 236 254
223 236 254
223 236 254
223 236 254
223 236 254
223 236 254
223 236 254
223 236 254
223 236 254
223 236 254
223 236 254
223 236 254
223 236 254
223 236 254
223 236 254
223 236 254
223 236 254
223 236 254
223 236 254
223 236 254
223 236 254
223 236 254
223 236 254
223 236 254
222 236 254
223 236 254
223 236 254
223 236 254
222 236 254
223 236 254
222 236 254
223 236 254
223 236 254
223 236 254
223 236 254
223 236 254
223 236 254
223 236 254
223 236 254
223 236 254
223 236 254
223 236 254
223 236 254
223 236 254
223 236 254
223 236 254
223 236 254
223 236 254
223 236 254
223 236 254
223 236 254
223 236 254
223 236 254
223 236 254
223 236 254
223 236 254
223 236 254
223 236 254
223 236 254
223 236 254
223 236 254
223 236 254
223 236 254
223 236 254
223 236 254
223 236 254
223 236 254
223 236 254
223 236 254
223 236 254
223 236 254
223 236 254
223 236 254
223 236 254
223 236 254
223 236 254
223 236 254
223 236 254
223 236 254
223 236 254
223 236 254
223 236 254
223 236 254
223 236 254
223 236 254
223 236 254
223 236 254
224 236 254
224 236 254
224 236 254
224 236 254
224 237 254
224 237 254
224 237 254
224 237 254
224 237 254
224 237 254
224 237 254
224 237 254
224 237 254
216 230 232
203 220 187
185 206 116
173 197 0
175 198 0
173 196 0
174 197 0
176 198 0
173 196 0
173 197 0
173 196 0
174 197 0
172 196 0
174 197 0
183 204 111
217 233 254
180 219 220
60 190 127
60 191 134
60 191 134
61 193 141
60 191 139
60 191 139
60 191 130
61 193 144
60 191 137
61 193 148
60 192 143
62 195 147
61 193 140
60 190 137
60 192 143
61 194 152
60 192 137
59 190 134
61 193 144
61 193 145
61 192 137
60 192 145
61 194 148
60 192 143
60 189 133
62 194 147
61 192 137
61 193 145
60 190 133
61 194 147
61 194 147
60 191 139
61 192 140
60 191 138
61 192 143
61 192 148
61 193 139
61 193 145
60 191 138
61 192 145
60 190 132
61 192 147
60 190 136
62 197 162
61 194 149
60 192 143
60 192 143
61 194 146
61 194 150
60 191 140
61 192 140
61 192 145
60 190 132
61 193 143
60 191 146
60 191 143
60 192 145
61 193 151
61 193 146
61 193 151
60 191 148
60 190 144
60 190 137
60 190 143
60 191 145
61 194 149
60 191 141
60 190 141
60 190 146
61 191 144
60 191 139
60 189 147
60 190 143
59 187 141
60 191 146
60 188 145
62 193 156
59 186 137
59 187 138
61 192 151
59 186 139
60 191 146
60 189 147
59 186 141
60 189 143
59 186 143
58 184 140
60 188 147
58 185 138
60 187 145
60 187 144
60 185 150
59 181 150
59 182 151
59 182 155
58 180 147
58 183 148
56 176 135
56 173 151
53 168 149
171 208 219
217 233 254
183 182 232
188 176 251
157 161 224
126 148 204
82 129 172
44 120 154
42 118 157
43 118 154
44 122 154
43 117 152
44 123 157
46 123 150
48 131 157
46 125 147
49 134 154
49 131 154
49 134 150
49 134 150
50 136 151
52 142 156
52 138 151
52 141 157
52 143 159
53 145 159
56 145 163
81 146 159
83 147 176
113 157 194
121 158 201
136 160 213
148 166 223
153 167 226
161 168 229
169 171 237
173 172 239
182 175 248
186 176 254
186 176 254
185 176 254
186 176 254
186 176 254
186 176 254
186 176 254
185 176 254
186 176 254
185 176 254
186 176 254
186 176 254
187 177 254
186 176 254
186 177 254
186 176 254
186 177 254
186 176 254
186 176 254
186 176 254
186 176 254
186 176 254
187 177 254
186 177 254
186 176 254
186 176 254
187 177 254
186 176 254
186 176 254
187 177 254
187 177 254
187 177 254
187 177 254
187 177 254
187 177 254
188 177 254
187 177 254
187 177 254
187 177 254
187 177 254
187 177 254
187 177 254
188 177 254
187 177 254
187 177 254
188 177 254
187 177 254
187 177 254
188 177 254
187 177 254
188 177 254
188 177 254
188 177 254
188 177 254
188 177 254
188 177 254
188 177 254
188 177 254
189 178 254
188 177 254
188 177 254
189 178 254
188 177 254
188 177 254
189 178 254
188 177 254
189 178 254
189 178 254
189 178 254
189 178 254
189 178 254
189 178 254
189 178 254
190 178 254
189 178 254
189 178 254
190 178 254
189 178 254
190 178 254
189 178 254
189 178 254
190 178 254
189 178 254
189 178 254
190 178 254
190 178 254
190 178 254
190 178 254
190 178 254
190 178 254
190 178 254
190 178 254
190 178 254
190 178 254
190 178 254
190 178 254
191 178 254
190 178 254
191 179 254
190 178 254
190 178 254
191 178 254
191 179 254
191 179 254
191 179 254
191 179 254
191 179 254
191 179 254
191 179 254
192 179 254
190 178 254
191 179 254
223 236 254
223 236 254
223 236 254
223 236 254
223 236 254
223 236 254
223 236 254
223 236 254
223 236 254
223 236 254
223 236 254
223 236 254
223 236 254
223 236 254
223 236 254
222 236 254
222 236 254
222 236 254
222 236 254
222 236 254
222 236 254
222 236 254
222 236 254
222 236 254
222 236 254
222 236 254
222 236 254
222 236 254
222 236 254
222 236 254
222 236 254
222 236 254
222 236 254
222 236 254
222 236 254
222 236 254
222 236 254
222 236 254
222 236 254
222 236 254
222 236 254
222 236 254
222 236 254
222 236 254
222 236 254
222 236 254
222 236 254
222 236 254
222 236 254
222 236 254
222 236 254
222 236 254
222 236 254
222 236 254
222 236 254
222 236 254
222 236 254
222 236 254
222 236 254
222 236 254
222 236 254
222 236 254
222 236 254
222 236 254
222 236 254
222 236 254
222 236 254
222 236 254
222 236 254
222 236 254
222 236 254
222 236 254
222 236 254
222 236 254
222 236 254
222 236 254
222 236 254
222 236 254
222 236 254
222 236 254
222 236 254
222 236 254
222 236 254
222 236 254
222 236 254
222 236 254
222 236 254
222 236 254
222 236 254
222 236 254
222 236 254
222 236 254
222 236 254
222 236 254
222 236 254
222 236 254
223 236 254
223 236 254
223 236 254
223 236 254
223 236 254
223 236 254
223 236 254
223 236 254
223 236 254
223 236 254
223 236 254
223 236 254
223 236 254
223 236 254
223 236 254
223 236 254
223 236 254
223 236 254
223 236 254
223 236 254
223 236 254
223 236 254
223 236 254
223 236 254
223 236 254
223 236 254
223 236 254
223 236 254
223 236 254
223 236 254
224 236 254
224 236 254
224 236 254
224 237 254
224 237 254
224 237 254
224 237 254
224 237 254
224 237 254
224 237 254
219 232 239
200 218 176
185 205 108
175 198 0
174 197 0
172 196 0
174 197 0
174 196 0
172 196 0
172 196 0
173 197 0
174 198 51
215 231 247
147 209 190
59 188 120
61 192 137
61 193 141
61 193 145
61 193 144
60 190 133
61 193 138
61 192 137
61 194 145
60 191 131
60 193 147
62 195 148
61 191 138
61 194 148
62 195 151
59 190 134
61 192 144
61 193 141
61 193 140
60 192 144
60 192 140
60 193 149
61 193 143
62 194 149
61 193 140
61 193 145
60 190 132
62 196 154
60 191 138
61 194 148
59 189 134
60 191 136
60 191 141
60 191 138
61 194 146
60 190 139
61 193 146
60 192 144
61 193 148
61 192 139
62 194 150
60 190 139
61 194 151
60 191 138
60 191 139
60 190 134
59 189 130
61 192 143
61 193 145
61 192 144
60 192 138
61 193 146
60 191 139
60 191 144
60 192 146
62 194 152
60 191 140
60 191 143
60 189 132
60 191 138
61 193 146
61 192 149
60 190 141
60 191 141
60 192 148
61 191 146
61 192 147
61 193 148
60 191 145
61 192 145
59 186 133
59 188 132
62 195 157
60 190 140
59 188 137
61 191 148
59 187 137
61 190 149
60 189 143
59 187 139
60 189 140
59 187 133
59 185 134
58 185 143
60 189 157
60 189 142
58 184 133
60 187 146
59 187 148
58 183 138
60 187 149
59 184 141
59 184 150
58 181 144
58 181 144
57 181 138
57 177 143
57 177 148
56 174 145
53 167 142
153 197 204
216 230 254
175 163 232
184 175 247
144 152 213
98 131 176
44 117 149
41 112 147
39 112 146
42 118 144
44 121 147
45 125 153
44 122 148
45 121 140
46 126 146
47 128 153
48 130 160
47 127 153
48 132 148
50 137 154
51 139 159
50 134 155
51 137 159
52 140 155
53 145 153
51 139 158
52 141 156
75 147 161
79 149 167
95 150 175
123 158 197
136 161 207
142 161 211
145 165 218
167 170 234
174 173 239
174 173 239
180 173 243
185 176 253
186 177 254
186 177 254
186 176 254
187 177 254
187 177 254
187 177 254
187 177 254
187 177 254
187 177 254
187 177 254
187 177 254
187 177 254
187 177 254
187 177 254
186 176 254
187 177 254
187 177 254
186 176 254
187 177 254
187 177 254
187 177 254
187 177 254
187 177 254
187 177 254
187 177 254
187 177 254
188 177 254
187 177 254
188 177 254
188 177 254
189 178 254
188 177 254
187 177 254
188 177 254
188 177 254
188 177 254
188 177 254
188 177 254
188 177 254
188 177 254
188 177 254
189 178 254
189 178 254
189 178 254
189 178 254
189 178 254
189 178 254
188 177 254
188 177 254
189 178 254
188 177 254
189 178 254
189 178 254
189 178 254
189 178 254
188 177 254
189 178 254
189 178 254
189 178 254
190 178 254
189 178 254
189 178 254
190 178 254
189 178 254
189 178 254
190 178 254
190 178 254
189 178 254
189 178 254
190 178 254
190 178 254
190 178 254
190 178 254
190 178 254
190 178 254
190 178 254
191 178 254
190 178 254
190 178 254
190 178 254
191 178 254
190 178 254
190 178 254
191 179 254
190 178 254
191 179 254
191 179 254
190 178 254
190 178 254
191 179 254
190 178 254
190 178 254
191 179 254
191 179 254
191 179 254
191 178 254
192 179 254
191 179 254
192 179 254
191 179 254
191 179 254
192 179 254
192 179 254
191 179 254
191 179 254
191 179 254
192 179 254
192 179 254
192 179 254
191 179 254
192 179 254
222 236 254
222 236 254
222 236 254
222 236 254
222 236 254
222 236 254
222 236 254
222 236 254
222 236 254
222 236 254
222 236 254
222 236 254
222 236 254
222 236 254
222 236 254
222 236 254
222 236 254
222 236 254
222 236 254
222 236 254
222 236 254
222 236 254
222 236 254
222 236 254
222 236 254
222 236 254
222 236 254
222 236 254
222 236 254
222 236 254
222 236 254
222 236 254
222 236 254
222 236 254
222 236 254
222 236 254
222 236 254
222 236 254
222 236 254
222 236 254
222 236 254
222 236 254
222 236 254
222 236 254
222 236 254
222 236 254
222 236 254
222 236 254
222 236 254
222 236 254
222 236 254
222 236 254
222 236 254
222 236 254
222 236 254
222 236 254
222 236 254
222 236 254
222 236 254
222 236 254
222 236 254
222 236 254
222 236 254
222 236 254
222 236 254
222 236 254
222 236 254
222 236 254
222 236 254
222 236 254
222 236 254
222 236 254
222 236 254
222 236 254
222 236 254
222 236 254
222 236 254
222 236 254
222 236 254
222 236 254
222 236 254
222 236 254
222 236 254
222 236 254
222 236 254
222 236 254
222 236 254
222 236 254
222 236 254
222 236 254
222 236 254
222 236 254
222 236 254
222 236 254
222 236 254
222 236 254
222 236 254
222 236 254
222 236 254
222 236 254
222 236 254
222 236 254
222 236 254
222 236 254
222 236 254
222 236 254
222 236 254
222 236 254
223 236 254
223 236 254
223 236 254
223 236 254
223 236 254
223 236 254
223 236 254
223 236 254
223 236 254
223 236 254
223 236 254
223 236 254
223 236 254
223 236 254
223 236 254
223 236 254
223 236 254
223 236 254
223 236 254
223 236 254
223 236 254
223 236 254
224 236 254
224 236 254
224 236 254
224 237 254
224 237 254
224 237 254
224 237 254
224 237 254
224 237 254
220 234 243
197 215 163
183 203 91
173 197 0
174 196 0
174 197 0
173 196 0
173 197 0
173 197 0
208 225 222
108 200 161
61 191 127
61 191 130
62 195 150
63 197 152
62 194 147
60 191 136
62 195 149
61 193 145
62 195 146
61 194 149
60 192 139
61 192 140
61 193 143
61 192 136
61 193 140
60 190 136
61 194 148
61 192 141
60 192 139
61 193 143
60 192 140
62 195 149
60 191 133
61 194 146
61 192 141
61 194 151
61 192 144
59 190 134
61 193 144
60 192 140
60 191 141
61 192 138
61 194 149
60 191 144
60 190 139
60 192 147
60 192 139
60 192 139
60 191 139
61 192 140
59 190 137
60 191 138
60 190 133
60 190 133
62 195 148
61 193 144
61 193 147
61 193 146
61 194 145
61 193 144
60 191 136
61 193 148
60 192 140
60 192 140
61 193 146
59 188 137
61 193 146
61 193 146
60 191 146
60 191 139
59 189 132
61 193 146
60 191 144
61 193 146
60 190 139
61 192 145
59 187 136
60 191 141
60 190 147
61 194 151
60 189 136
60 192 148
59 189 140
60 190 137
60 189 137
60 189 140
60 190 146
59 187 137
60 187 139
60 189 146
59 185 141
60 188 149
59 186 138
59 186 143
60 189 148
60 188 144
59 188 140
58 181 143
59 184 142
59 186 145
58 185 141
60 186 150
58 182 143
59 184 150
58 181 144
59 181 154
57 177 145
59 182 154
55 172 143
55 172 147
122 188 183
204 214 244
182 169 240
171 166 235
119 141 191
65 117 152
38 111 142
36 107 141
37 106 138
39 113 137
40 114 144
43 119 148
45 122 154
46 126 159
45 124 151
46 128 146
46 129 155
47 129 139
47 129 156
50 134 151
49 133 155
51 136 148
50 137 148
51 138 146
51 141 148
52 138 152
53 143 150
57 146 157
76 149 166
95 152 181
114 157 189
121 158 195
147 165 214
147 165 220
160 168 222
172 171 234
173 172 237
176 173 235
187 176 251
187 176 249
188 177 254
188 177 254
188 177 254
188 177 254
187 177 254
187 177 254
189 177 254
187 177 254
188 177 254
188 177 254
188 177 254
188 177 254
189 178 254
188 177 254
189 178 254
188 177 254
188 177 254
188 177 254
188 177 254
188 177 254
189 178 254
189 178 254
188 177 254
189 178 254
189 178 254
189 178 254
188 177 254
188 177 254
188 177 254
189 178 254
189 178 254
188 177 254
189 178 254
189 178 254
189 178 254
189 178 254
189 178 254
189 178 254
189 178 254
189 178 254
189 178 254
189 178 254
189 178 254
190 178 254
189 178 254
190 178 254
189 178 254
189 178 254
189 178 254
189 178 254
190 178 254
190 178 254
189 178 254
190 178 254
190 178 254
190 178 254
190 178 254
190 178 254
191 179 254
190 178 254
190 178 254
190 178 254
190 178 254
190 178 254
190 178 254
190 178 254
191 179 254
191 178 254
190 178 254
190 178 254
191 179 254
191 179 254
191 179 254
191 179 254
190 178 254
191 179 254
190 178 254
191 179 254
191 179 254
191 179 254
191 179 254
190 178 254
191 179 254
191 179 254
191 179 254
191 179 254
192 179 254
191 179 254
191 179 254
192 179 254
191 179 254
192 179 254
191 179 254
192 179 254
191 179 254
192 179 254
192 179 254
191 179 254
192 179 254
192 179 254
192 179 254
192 179 254
193 179 254
193 180 254
192 179 254
192 179 254
191 179 254
193 180 254
193 180 254
192 179 254
222 236 254
222 236 254
222 236 254
222 236 254
222 236 254
222 236 254
222 236 254
222 236 254
222 236 254
222 236 254
222 236 254
222 236 254
222 236 254
222 236 254
222 236 254
222 236 254
222 236 254
222 236 254
222 236 254
222 236 254
222 236 254
222 236 254
222 236 254
222 236 254
222 236 254
222 236 254
222 236 254
222 236 254
222 236 254
222 236 254
222 236 254
222 236 254
222 236 254
222 236 254
222 236 254
222 236 254
222 236 254
222 236 254
222 236 254
222 236 254
222 235 254
222 235 254
222 235 254
222 235 254
222 235 254
222 235 254
222 235 254
222 235 254
222 235 254
222 235 254
222 235 254
222 235 254
222 235 254
222 235 254
222 235 254
222 235 254
222 235 254
222 235 254
222 235 254
222 235 254
222 235 254
222 235 254
222 235 254
222 235 254
222 235 254
222 235 254
222 235 254
222 235 254
222 235 254
222 235 254
222 235 254
222 235 254
222 235 254
222 235 254
222 235 254
222 235 254
222 235 254
222 236 254
222 236 254
222 236 254
222 236 254
222 236 254
222 236 254
222 236 254
222 236 254
222 236 254
222 236 254
222 236 254
222 236 254
222 236 254
222 236 254
222 236 254
222 236 254
222 236 254
222 236 254
222 236 254
222 236 254
222 236 254
222 236 254
222 236 254
222 236 254
222 236 254
222 236 254
222 236 254
222 236 254
222 236 254
222 236 254
222 236 254
222 236 254
222 236 254
222 236 254
222 236 254
222 236 254
222 236 254
222 236 254
222 236 254
222 236 254
223 236 254
223 236 254
223 236 254
223 236 254
223 236 254
223 236 254
223 236 254
223 236 254
223 236 254
223 236 254
223 236 254
223 236 254
223 236 254
223 236 254
223 236 254
223 236 254
223 236 254
223 236 254
224 236 254
224 236 254
224 237 254
224 237 254
224 237 254
224 237 254
224 237 254
211 226 217
194 213 155
176 199 51
173 197 0
172 196 0
173 196 0
199 218 190
68 194 141
61 191 132
61 193 134
61 193 141
61 193 145
61 193 138
62 194 144
61 193 141
62 195 147
62 196 154
61 192 136
61 193 140
61 193 143
61 193 143
61 193 145
60 191 138
61 192 136
61 194 150
62 195 150
60 191 138
61 192 141
61 193 147
60 190 133
62 194 146
60 191 138
60 191 138
61 192 138
61 193 144
60 192 141
61 194 149
60 192 141
60 190 134
62 194 145
60 191 136
60 190 136
60 191 137
60 192 138
61 193 146
61 193 140
60 190 136
61 193 145
61 192 136
59 189 134
60 190 138
60 192 143
60 191 138
60 192 138
61 192 139
61 194 150
61 192 145
60 191 145
59 190 138
59 190 131
62 195 151
61 193 147
61 192 140
61 192 147
61 192 146
59 189 138
61 194 145
60 189 134
59 187 137
60 188 139
61 192 144
58 185 124
61 192 147
60 190 144
59 188 144
61 191 140
60 189 137
60 189 141
61 191 146
60 190 141
60 189 144
61 192 146
59 186 132
60 189 147
60 190 144
60 190 139
59 188 143
60 190 141
59 185 134
60 189 145
61 192 150
61 190 148
59 187 143
60 188 144
60 188 146
59 185 141
58 182 137
59 185 146
58 183 142
59 186 147
60 185 149
57 178 137
58 178 142
58 182 143
57 178 142
55 172 142
56 174 141
53 165 144
70 168 149
189 194 230
187 175 249
148 156 216
94 123 168
44 108 129
36 104 134
38 110 135
38 110 140
41 116 142
40 114 131
42 118 146
42 121 142
44 122 148
45 123 148
45 123 142
47 129 145
47 129 147
50 134 153
50 134 151
50 135 144
51 138 147
49 134 148
51 137 149
51 138 144
52 142 144
52 142 145
54 147 154
63 145 157
87 150 168
116 157 191
118 156 193
132 161 204
143 165 217
155 167 217
164 169 230
170 170 223
180 174 241
184 174 239
187 176 247
189 178 253
189 178 254
189 178 254
189 178 254
190 178 254
189 178 254
189 178 254
188 177 254
189 178 254
189 178 254
189 178 254
188 177 254
189 178 254
189 178 254
189 178 254
190 178 254
189 178 254
189 178 254
189 178 254
189 178 254
190 178 254
189 178 254
190 178 254
189 178 254
189 178 254
189 178 254
189 178 254
189 178 254
190 178 254
190 178 254
190 178 254
191 179 254
190 178 254
189 178 254
189 178 254
190 178 254
190 178 254
189 178 254
190 178 254
190 178 254
190 178 254
190 178 254
190 178 254
191 178 254
190 178 254
190 178 254
190 178 254
190 178 254
191 178 254
190 178 254
191 179 254
191 179 254
191 178 254
190 178 254
191 179 254
190 178 254
191 179 254
191 179 254
191 179 254
191 179 254
191 178 254
191 178 254
191 179 254
191 179 254
191 179 254
191 179 254
191 179 254
191 179 254
191 179 254
192 179 254
191 179 254
191 179 254
191 179 254
192 179 254
192 179 254
192 179 254
192 179 254
192 179 254
191 179 254
191 179 254
191 179 254
192 179 254
191 179 254
192 179 254
192 179 254
192 179 254
192 179 254
192 179 254
192 179 254
192 179 254
192 179 254
192 179 254
192 179 254
192 179 254
191 179 254
192 179 254
192 179 254
192 179 254
192 179 254
193 179 254
192 179 254
193 179 254
193 180 254
192 179 254
193 179 254
192 179 254
192 179 254
193 180 254
193 180 254
193 180 254
222 236 254
222 236 254
222 235 254
222 235 254
222 235 254
222 235 254
222 235 254
222 235 254
222 235 254
222 235 254
222 235 254
222 235 254
222 235 254
222 235 254
222 235 254
222 235 254
222 235 254
222 235 254
222 235 254
222 235 254
222 235 254
222 235 254
222 235 254
222 235 254
222 235 254
222 235 254
222 235 254
222 235 254
222 235 254
222 235 254
222 235 254
222 235 254
222 235 254
222 235 254
222 235 254
222 235 254
222 235 254
222 235 254
222 235 254
222 235 254
222 235 254
222 235 254
222 235 254
222 235 254
222 235 254
222 235 254
222 235 254
222 235 254
222 235 254
222 235 254
222 235 254
222 235 254
222 235 254
222 235 254
222 235 254
222 235 254
222 235 254
222 235 254
222 235 254
222 235 254
222 235 254
222 235 254
222 235 254
222 235 254
222 235 254
222 235 254
222 235 254
222 235 254
222 235 254
222 235 254
222 235 254
222 235 254
222 235 254
222 235 254
222 235 254
222 235 254
222 235 254
222 235 254
222 235 254
222 235 254
222 235 254
222 235 254
222 235 254
222 235 254
222 235 254
222 235 254
222 235 254
222 235 254
222 235 254
222 235 254
222 235 254
222 235 254
222 235 254
222 235 254
222 235 254
222 235 254
222 235 254
222 235 254
222 235 254
222 235 254
222 235 254
222 235 254
222 236 254
222 235 254
222 236 254
222 236 254
222 236 254
222 236 254
222 236 254
222 236 254
222 236 254
222 236 254
222 236 254
222 236 254
222 236 254
222 236 254
222 236 254
222 236 254
222 236 254
222 236 254
222 236 254
222 236 254
222 236 254
222 236 254
222 236 254
223 236 254
223 236 254
223 236 254
223 236 254
223 236 254
223 236 254
223 236 254
223 236 254
223 236 254
223 236 254
223 236 254
223 236 254
223 236 254
223 236 254
223 236 254
224 236 254
224 237 254
224 237 254
224 237 254
222 235 248
205 221 192
183 204 102
173 197 0
182 207 137
63 196 144
63 195 140
63 197 147
60 191 136
61 194 146
62 195 147
61 194 144
62 194 146
63 198 157
61 193 147
61 193 146
61 193 143
62 194 145
61 194 144
60 191 136
61 193 140
61 193 146
61 194 149
59 190 137
61 192 138
62 195 151
61 193 145
61 193 145
60 191 139
61 192 140
60 191 138
60 191 137
61 194 145
59 189 131
61 192 141
61 192 137
61 194 144
61 194 145
60 190 134
59 189 128
61 193 148
60 192 144
60 192 139
60 190 132
59 190 131
61 192 139
60 190 132
61 193 146
61 193 143
59 190 137
60 190 138
59 189 132
61 192 140
60 191 138
60 191 138
60 193 144
60 191 144
60 190 139
61 192 146
60 190 134
60 191 136
61 193 145
60 189 131
59 190 137
60 191 139
59 187 134
60 190 141
61 192 144
61 194 151
61 193 146
60 190 140
60 188 130
60 191 148
60 190 141
60 190 136
61 192 147
59 188 138
59 189 143
60 190 141
59 189 144
60 190 141
59 186 143
59 186 138
59 188 137
59 189 143
57 185 134
59 185 136
60 187 138
59 185 141
59 184 138
60 188 144
60 186 137
58 183 134
60 187 147
59 184 145
59 185 143
58 183 136
58 181 139
58 181 141
58 181 146
59 181 146
58 180 150
55 170 137
58 182 155
56 175 143
54 168 142
50 160 147
172 176 211
181 172 241
123 140 193
76 114 150
33 99 130
36 105 130
35 104 134
39 110 139
39 114 135
40 114 137
42 119 135
39 111 132
45 124 141
46 123 149
44 124 141
48 128 140
46 123 136
49 131 148
50 134 149
49 133 147
50 136 147
48 130 140
52 141 151
52 138 148
51 138 141
51 140 151
53 142 155
58 143 152
84 149 172
100 152 172
112 156 191
138 162 202
143 165 208
152 166 212
161 168 220
161 169 226
181 175 241
185 175 237
185 175 237
190 178 252
190 178 254
190 178 254
190 178 254
190 178 254
190 178 254
189 178 254
190 178 254
190 178 254
190 178 254
189 178 254
190 178 254
190 178 254
189 178 254
190 178 254
190 178 254
190 178 254
190 178 254
191 179 254
190 178 254
190 178 254
190 178 254
190 178 254
191 179 254
190 178 254
191 179 254
190 178 254
191 179 254
190 178 254
191 179 254
190 178 254
192 179 254
190 178 254
190 178 254
191 179 254
190 178 254
191 179 254
190 178 254
191 179 254
192 179 254
191 179 254
191 179 254
192 179 254
191 179 254
191 178 254
191 179 254
190 178 254
191 179 254
191 179 254
191 179 254
191 179 254
192 179 254
191 179 254
191 179 254
191 179 254
191 179 254
192 179 254
192 179 254
191 179 254
191 179 254
192 179 254
192 179 254
192 179 254
192 179 254
191 179 254
192 179 254
192 179 254
192 179 254
192 179 254
192 179 254
192 179 254
193 179 254
193 180 254
193 179 254
192 179 254
191 179 254
192 179 254
192 179 254
192 179 254
192 179 254
193 180 254
193 180 254
193 179 254
192 179 254
192 179 254
192 179 254
193 180 254
192 179 254
192 179 254
192 179 254
192 179 254
193 179 254
193 180 254
193 180 254
193 180 254
192 179 254
193 179 254
193 180 254
193 180 254
193 180 254
193 180 254
193 180 254
193 180 254
193 180 254
193 180 254
193 180 254
193 180 254
193 180 254
193 180 254
193 180 254
222 235 254
222 235 254
222 235 254
222 235 254
222 235 254
222 235 254
222 235 254
222 235 254
222 235 254
222 235 254
222 235 254
222 235 254
222 235 254
222 235 254
222 235 254
222 235 254
222 235 254
222 235 254
222 235 254
222 235 254
222 235 254
222 235 254
222 235 254
222 235 254
222 235 254
222 235 254
222 235 254
222 235 254
222 235 254
222 235 254
222 235 254
222 235 254
222 235 254
222 235 254
222 235 254
222 235 254
222 235 254
222 235 254
222 235 254
222 235 254
222 235 254
222 235 254
222 235 254
222 235 254
222 235 254
222 235 254
222 235 254
222 235 254
222 235 254
222 235 254
222 235 254
222 235 254
222 235 254
222 235 254
222 235 254
222 235 254
222 235 254
222 235 254
222 235 254
222 235 254
222 235 254
221 235 254
222 235 254
221 235 254
221 235 254
222 235 254
222 235 254
222 235 254
222 235 254
222 235 254
222 235 254
222 235 254
222 235 254
222 235 254
222 235 254
222 235 254
222 235 254
222 235 254
222 235 254
222 235 254
222 235 254
222 235 254
222 235 254
222 235 254
222 235 254
222 235 254
222 235 254
222 235 254
222 235 254
222 235 254
222 235 254
222 235 254
222 235 254
222 235 254
222 235 254
222 235 254
222 235 254
222 235 254
222 235 254
222 235 254
222 235 254
222 235 254
222 235 254
222 235 254
222 235 254
222 235 254
222 235 254
222 235 254
222 235 254
222 235 254
222 235 254
222 235 254
222 235 254
222 235 254
222 235 254
222 235 254
222 236 254
222 236 254
222 236 254
222 236 254
222 236 254
222 236 254
222 236 254
222 236 254
222 236 254
222 236 254
222 236 254
222 236 254
222 236 254
222 236 254
222 236 254
222 236 254
223 236 254
223 236 254
223 236 254
223 236 254
223 236 254
223 236 254
223 236 254
223 236 254
223 236 254
223 236 254
223 236 254
224 236 254
224 237 254
224 237 254
224 237 254
208 223 204
168 205 128
64 199 152
63 197 149
64 198 155
62 196 147
62 195 145
62 196 151
61 193 140
61 192 140
62 196 148
62 195 150
61 192 137
62 195 149
61 192 137
61 191 133
61 193 141
61 194 145
60 192 138
60 191 140
61 193 136
61 194 151
61 193 141
60 191 139
60 190 139
61 193 139
60 192 139
59 188 133
61 192 145
59 190 140
62 194 149
60 190 133
60 190 140
61 192 144
61 193 145
63 197 152
60 192 140
60 192 140
61 193 141
60 192 145
60 190 132
60 189 137
60 190 138
60 191 138
60 192 146
59 190 139
61 193 144
58 186 126
61 192 141
60 190 136
59 188 130
61 193 148
60 190 140
61 194 151
61 194 145
62 194 147
61 192 140
60 190 138
59 188 124
59 188 130
61 193 149
61 194 152
61 194 148
61 193 143
61 192 145
58 187 130
60 190 139
59 188 141
60 189 139
60 190 137
60 190 143
60 189 137
60 189 137
59 187 136
59 187 138
59 189 137
60 188 140
60 188 133
61 190 143
59 189 141
60 188 144
61 193 148
60 190 144
60 188 144
59 188 144
60 185 136
61 189 149
59 184 139
59 187 143
59 184 134
59 185 141
60 188 145
59 188 144
58 182 140
58 181 139
60 186 148
59 184 144
57 177 137
57 178 140
57 176 144
57 176 143
53 169 141
54 170 139
54 167 141
151 160 203
180 171 242
119 133 183
55 104 138
34 99 127
36 104 132
36 106 133
36 106 127
38 110 137
40 112 138
42 115 140
42 117 136
42 117 133
45 123 135
46 124 139
47 128 145
46 127 140
48 131 142
50 135 143
49 134 150
48 131 141
50 135 135
50 139 151
51 138 146
51 138 145
52 142 144
54 144 146
56 146 156
77 148 159
104 152 175
116 157 187
127 159 195
123 159 187
150 166 211
155 167 218
161 168 219
173 172 229
183 175 235
189 177 245
189 177 248
190 178 252
190 178 254
191 179 254
191 179 254
191 179 254
191 179 254
192 179 254
191 179 254
191 179 254
191 179 254
191 179 254
191 179 254
190 178 254
190 178 254
191 179 254
191 179 254
191 179 254
191 179 254
191 179 254
191 179 254
191 179 254
191 179 254
191 179 254
192 179 254
191 179 254
191 179 254
191 179 254
191 179 254
192 179 254
192 179 254
192 179 254
192 179 254
191 179 254
192 179 254
192 179 254
191 179 254
192 179 254
191 179 254
191 179 254
192 179 254
191 179 254
191 179 254
192 179 254
192 179 254
192 179 254
192 179 254
192 179 254
192 179 254
192 179 254
192 179 254
192 179 254
192 179 254
193 180 254
192 179 254
192 179 254
192 179 254
192 179 254
192 179 254
192 179 254
192 179 254
192 179 254
192 179 254
193 179 254
193 180 254
193 180 254
193 180 254
192 179 254
193 179 254
193 179 254
193 179 254
192 179 254
193 180 254
193 180 254
193 180 254
192 179 254
193 180 254
193 180 254
193 180 254
193 180 254
193 180 254
192 179 254
193 180 254
193 180 254
194 180 254
193 180 254
193 180 254
193 180 254
192 179 254
193 180 254
193 180 254
193 180 254
194 180 254
194 180 254
193 180 254
194 180 254
193 180 254
194 180 254
194 180 254
193 180 254
194 180 254
194 180 254
194 180 254
194 180 254
194 180 254
194 180 254
194 180 254
193 180 254
194 180 254
194 180 254
221 235 254
221 235 254
221 235 254
221 235 254
221 235 254
221 235 254
221 235 254
221 235 254
221 235 254
221 235 254
221 235 254
221 235 254
221 235 254
221 235 254
221 235 254
221 235 254
221 235 254
221 235 254
221 235 254
221 235 254
221 235 254
221 235 254
221 235 254
221 235 254
221 235 254
221 235 254
221 235 254
221 235 254
221 235 254
221 235 254
221 235 254
221 235 254
221 235 254
221 235 254
221 235 254
221 235 254
221 235 254
221 235 254
221 235 254
221 235 254
221 235 254
221 235 254
221 235 254
221 235 254
221 235 254
221 235 254
221 235 254
221 235 254
221 235 254
221 235 254
221 235 254
221 235 254
221 235 254
221 235 254
221 235 254
221 235 254
221 235 254
221 235 254
221 235 254
221 235 254
221 235 254
221 235 254
221 235 254
221 235 254
221 235 254
221 235 254
221 235 254
221 235 254
221 235 254
221 235 254
221 235 254
221 235 254
221 235 254
221 235 254
221 235 254
221 235 254
221 235 254
221 235 254
221 235 254
221 235 254
221 235 254
221 235 254
221 235 254
221 235 254
221 235 254
221 235 254
221 235 254
221 235 254
221 235 254
221 235 254
221 235 254
221 235 254
221 235 254
221 235 254
221 235 254
221 235 254
221 235 254
221 235 254
221 235 254
221 235 254
221 235 254
221 235 254
221 235 254
221 235 254
221 235 254
222 235 254
222 235 254
222 235 254
222 235 254
222 235 254
222 235 254
222 235 254
222 235 254
222 235 254
222 235 254
222 235 254
222 235 254
222 235 254
222 235 254
222 235 254
222 235 254
222 235 254
222 235 254
222 235 254
222 235 254
222 235 254
222 235 254
222 236 254
222 236 254
222 236 254
222 236 254
222 236 254
222 236 254
222 236 254
222 236 254
222 236 254
222 236 254
222 236 254
223 236 254
223 236 254
223 236 254
223 236 254
223 236 254
223 236 254
223 236 254
223 236 254
224 236 254
224 237 254
179 221 214
63 197 145
62 196 146
63 198 152
64 198 154
63 196 152
63 196 150
60 191 130
62 195 149
60 192 143
61 193 139
62 195 150
60 190 133
59 189 130
61 194 147
60 192 141
62 195 147
61 192 143
61 192 143
60 191 140
60 190 132
60 190 143
60 191 138
61 193 146
61 193 141
60 191 139
61 193 140
60 192 143
61 193 144
62 194 148
60 191 136
61 193 144
61 193 141
60 190 136
61 193 143
60 191 134
60 191 141
59 189 132
60 190 136
61 194 148
61 192 136
60 191 139
60 191 132
60 192 139
60 192 141
60 191 141
60 190 136
60 191 136
60 191 140
60 191 138
60 190 134
59 189 139
59 189 138
61 193 145
61 193 146
60 191 139
61 192 146
60 190 137
60 191 134
61 192 147
61 191 139
60 190 147
61 193 146
60 191 146
61 192 141
60 191 143
61 193 146
60 189 137
60 190 139
61 192 144
59 187 131
60 189 139
59 188 133
61 190 146
60 188 139
60 189 139
59 187 137
61 192 143
59 185 134
61 191 140
61 191 138
58 185 133
58 184 130
59 185 138
59 184 128
58 185 143
59 186 132
59 183 130
60 187 143
58 183 133
58 182 139
58 184 136
59 184 142
58 181 138
59 184 148
58 184 144
58 178 145
58 182 141
57 179 139
54 171 136
53 168 126
53 167 144
52 166 135
145 162 199
170 167 229
124 138 191
41 96 130
29 93 123
32 96 126
35 103 121
39 109 136
33 102 123
39 112 134
43 119 140
43 120 132
45 123 147
43 120 133
48 128 144
45 124 139
46 126 138
48 127 136
49 131 141
49 131 141
48 130 141
50 137 141
50 133 137
52 140 144
50 135 134
53 141 144
50 137 135
53 145 140
67 144 145
98 151 171
108 157 184
128 161 198
135 162 197
148 163 209
154 166 209
176 173 234
178 174 234
185 176 242
185 174 228
189 177 247
191 179 252
192 179 254
192 179 254
191 179 254
192 179 254
192 179 254
192 179 254
192 179 254
192 179 254
192 179 254
192 179 254
192 179 254
192 179 254
192 179 254
191 179 254
192 179 254
193 179 254
192 179 254
192 179 254
192 179 254
192 179 254
192 179 254
192 179 254
192 179 254
192 179 254
192 179 254
192 179 254
192 179 254
192 179 254
192 179 254
192 179 254
192 179 254
193 179 254
192 179 254
193 179 254
192 179 254
192 179 254
193 180 254
193 179 254
193 180 254
193 179 254
193 180 254
193 180 254
193 180 254
193 180 254
193 180 254
193 179 254
193 180 254
193 180 254
193 180 254
193 180 254
193 180 254
193 180 254
193 180 254
193 179 254
193 180 254
193 180 254
193 180 254
193 180 254
193 180 254
193 180 254
193 180 254
194 180 254
193 180 254
193 180 254
194 180 254
193 180 254
194 180 254
193 179 254
193 180 254
194 180 254
193 180 254
193 180 254
194 180 254
193 180 254
193 180 254
194 180 254
193 180 254
193 180 254
194 180 254
194 180 254
194 180 254
194 180 254
193 180 254
194 180 254
193 180 254
194 180 254
194 180 254
194 180 254
193 180 254
194 180 254
193 180 252
194 180 254
194 180 254
195 180 254
194 180 253
195 180 254
194 180 253
194 180 254
194 180 254
194 180 254
194 180 252
194 180 252
194 180 253
194 180 253
193 180 252
193 180 251
193 180 253
194 180 252
221 235 254
221 235 254
221 235 254
221 235 254
221 235 254
221 235 254
221 235 254
221 235 254
221 235 254
221 235 254
221 235 254
221 235 254
221 235 254
221 235 254
221 235 254
221 235 254
221 235 254
221 235 254
221 235 254
221 235 254
221 235 254
221 235 254
221 235 254
221 235 254
221 235 254
221 235 254
221 235 254
221 235 254
221 235 254
221 235 254
221 235 254
221 235 254
221 235 254
221 235 254
221 235 254
221 235 254
221 235 254
221 235 254
221 235 254
221 235 254
221 235 254
221 235 254
221 235 254
221 235 254
221 235 254
221 235 254
221 235 254
221 235 254
221 235 254
221 235 254
221 235 254
221 235 254
221 235 254
221 235 254
221 235 254
221 235 254
221 235 254
221 235 254
221 235 254
221 235 254
221 235 254
221 235 254
221 235 254
221 235 254
221 235 254
221 235 254
221 235 254
221 235 254
221 235 254
221 235 254
221 235 254
221 235 254
221 235 254
221 235 254
221 235 254
221 235 254
221 235 254
221 235 254
221 235 254
221 235 254
221 235 254
221 235 254
221 235 254
221 235 254
221 235 254
221 235 254
221 235 254
221 235 254
221 235 254
221 235 254
221 235 254
221 235 254
221 235 254
221 235 254
221 235 254
221 235 254
221 235 254
221 235 254
221 235 254
221 235 254
221 235 254
221 235 254
221 235 254
221 235 254
221 235 254
221 235 254
221 235 254
221 235 254
221 235 254
221 235 254
221 235 254
221 235 254
221 235 254
221 235 254
221 235 254
221 235 254
221 235 254
221 235 254
221 235 254
221 235 254
221 235 254
221 235 254
222 235 254
222 235 254
222 235 254
222 235 254
222 235 254
222 235 254
222 235 254
222 235 254
222 235 254
222 235 254
222 235 254
222 235 254
222 235 254
222 235 254
222 236 254
222 236 254
222 236 254
222 236 254
222 236 254
222 236 254
222 236 254
222 236 254
223 236 254
223 236 254
223 236 254
223 236 254
161 217 206
64 198 154
63 198 155
63 197 144
63 196 149
62 195 147
61 194 147
63 196 149
62 194 143
61 194 145
61 193 146
62 194 144
60 192 141
62 195 149
60 192 138
61 192 137
61 193 141
60 191 136
61 192 136
60 190 131
61 192 138
60 190 131
62 194 146
60 191 136
60 191 134
61 193 141
61 193 145
61 193 144
60 191 138
60 189 133
59 189 128
59 190 133
60 191 141
60 190 137
60 190 127
61 193 141
61 191 139
61 192 134
60 191 141
61 193 147
60 191 139
61 192 140
60 189 132
60 191 137
60 190 132
61 192 144
61 193 143
60 191 138
59 189 134
60 190 132
59 189 136
63 196 151
61 192 143
61 192 138
60 190 141
60 190 137
60 189 139
58 187 128
61 192 138
61 192 143
61 192 143
58 187 133
59 188 128
62 195 152
60 191 144
61 192 143
61 192 138
59 187 128
59 190 138
61 193 146
61 190 141
60 192 144
60 189 139
60 191 138
60 187 144
60 190 141
59 185 136
59 186 131
60 189 139
58 184 128
60 189 136
60 191 145
60 189 140
59 187 139
58 186 137
59 185 131
59 187 146
60 188 145
60 186 141
59 185 132
59 185 141
57 181 128
59 186 141
60 188 151
56 177 134
57 178 137
57 179 140
56 177 138
57 178 141
58 179 145
55 174 143
52 162 130
51 161 134
145 164 197
147 151 204
85 110 148
26 86 105
28 90 115
32 94 119
34 102 122
38 107 125
36 105 131
41 111 128
38 112 128
41 116 141
42 118 136
42 119 131
44 120 131
43 122 135
48 129 139
45 122 124
48 130 136
46 127 135
49 135 139
50 136 152
50 134 143
51 139 149
52 138 148
51 137 142
52 141 152
52 140 139
70 143 150
87 149 161
116 156 180
126 159 188
143 162 204
145 165 210
159 168 216
170 172 231
174 173 236
184 176 240
189 177 241
191 178 245
192 179 251
193 180 254
193 179 254
193 180 254
193 180 254
193 180 254
193 179 254
193 180 254
193 180 254
193 180 254
193 179 254
193 180 254
193 180 254
193 180 254
193 180 254
193 180 254
193 180 254
193 180 254
193 180 254
193 180 254
193 180 254
193 180 254
193 179 254
193 180 254
193 180 254
194 180 254
193 180 254
193 180 254
193 180 254
193 180 254
193 180 254
193 180 254
194 180 254
194 180 254
194 180 254
193 180 254
194 180 254
193 180 254
193 180 254
194 180 254
192 179 253
193 180 254
193 180 254
193 180 253
194 180 254
194 180 254
193 180 254
193 180 254
194 180 254
194 180 254
194 180 254
194 180 253
193 180 254
194 180 252
193 179 251
193 180 254
195 180 254
194 180 254
194 180 254
193 180 254
193 180 253
194 180 253
194 180 254
193 180 254
193 180 253
193 180 252
193 180 252
193 180 253
193 180 253
192 179 249
193 180 252
194 180 253
193 179 249
195 180 254
194 180 251
193 180 252
193 180 252
193 179 251
194 180 253
193 179 251
194 180 252
193 179 252
192 179 251
191 178 247
194 180 251
194 180 253
194 180 252
194 180 254
193 179 251
193 180 253
194 180 252
192 179 247
194 180 253
193 179 248
193 180 252
193 180 251
193 179 251
192 179 248
193 180 252
192 178 241
192 179 245
192 178 245
192 178 244
193 179 249
192 179 245
190 177 237
192 179 247
192 178 244
190 177 239
221 235 254
221 235 254
221 235 254
221 235 254
221 235 254
221 235 254
221 235 254
221 235 254
221 235 254
221 235 254
221 235 254
221 235 254
221 235 254
221 235 254
221 235 254
221 235 254
221 235 254
221 235 254
221 235 254
221 235 254
221 235 254
221 235 254
221 235 254
221 235 254
221 235 254
221 235 254
221 235 254
221 235 254
221 235 254
221 235 254
221 235 254
221 235 254
221 235 254
221 235 254
221 235 254
221 235 254
221 235 254
221 235 254
221 235 254
221 235 254
221 235 254
221 235 254
221 235 254
221 235 254
221 235 254
221 235 254
221 235 254
221 235 254
221 235 254
221 235 254
221 235 254
221 235 254
221 235 254
221 235 254
221 235 254
221 235 254
221 235 254
221 235 254
221 235 254
221 235 254
221 235 254
221 235 254
221 235 254
221 235 254
221 235 254
221 235 254
221 235 254
221 235 254
221 235 254
221 235 254
221 235 254
221 235 254
221 235 254
221 235 254
221 235 254
221 235 254
221 235 254
221 235 254
221 235 254
221 235 254
221 235 254
221 235 254
221 235 254
221 235 254
221 235 254
221 235 254
221 235 254
221 235 254
221 235 254
221 235 254
221 235 254
221 235 254
221 235 254
221 235 254
221 235 254
221 235 254
221 235 254
221 235 254
221 235 254
221 235 254
221 235 254
221 235 254
221 235 254
221 235 254
221 235 254
221 235 254
221 235 254
221 235 254
221 235 254
221 235 254
221 235 254
221 235 254
221 235 254
221 235 254
221 235 254
221 235 254
221 235 254
221 235 254
221 235 254
221 235 254
221 235 254
221 235 254
221 235 254
221 235 254
221 235 254
221 235 254
221 235 254
221 235 254
221 235 254
221 235 254
221 235 254
221 235 254
221 235 254
221 235 254
221 235 254
222 235 254
222 235 254
222 235 254
222 235 254
222 235 254
222 235 254
222 235 254
222 235 254
222 235 254
222 236 254
222 236 254
222 236 254
222 236 254
169 220 215
65 202 163
63 196 147
64 199 156
62 194 143
62 196 148
61 191 134
63 196 149
62 196 150
61 194 145
61 194 144
61 193 145
60 191 134
61 193 140
61 192 138
60 191 132
61 193 145
59 190 133
60 190 132
59 189 126
61 193 147
62 195 147
61 193 144
58 188 124
60 191 136
59 188 131
59 190 128
60 191 140
61 192 136
60 192 137
60 191 141
59 189 133
60 191 134
60 190 133
60 189 137
60 190 128
60 190 132
61 192 139
61 192 147
60 191 139
60 191 137
60 191 137
60 191 141
60 190 136
60 189 128
60 192 146
60 190 137
60 191 141
60 191 138
61 193 141
60 193 151
60 191 139
59 190 132
59 189 138
60 191 137
60 190 132
59 188 133
59 188 136
59 187 130
59 189 133
60 191 137
61 193 144
60 190 134
60 190 139
60 189 133
61 193 140
61 191 141
59 189 139
60 191 139
59 188 128
59 189 133
61 191 141
59 188 134
58 184 123
60 189 136
59 188 134
59 187 139
60 189 136
59 188 132
59 186 131
59 188 144
60 189 140
58 184 131
60 188 140
59 185 128
58 185 127
59 185 128
59 187 138
59 184 139
59 184 136
60 189 150
59 182 138
58 183 138
57 178 133
58 180 139
58 178 140
58 182 140
56 175 133
56 176 137
56 174 139
53 165 132
56 174 141
51 162 128
127 164 179
130 137 182
71 108 142
31 91 115
30 89 115
29 92 110
30 92 101
31 93 107
38 110 129
38 108 121
39 111 127
40 112 123
40 113 124
44 120 135
48 128 146
47 127 143
48 130 139
48 128 141
45 124 125
48 130 135
49 132 139
49 133 130
49 133 133
50 135 134
50 136 133
52 139 142
53 142 149
53 143 149
57 147 151
83 148 158
102 153 173
118 156 185
143 162 206
148 163 199
155 167 214
163 170 220
181 174 231
183 175 233
188 176 234
191 178 241
191 178 245
193 180 252
193 179 251
193 179 252
193 180 254
193 179 251
192 179 251
193 180 251
192 179 248
193 179 251
194 180 253
193 179 251
193 180 252
194 180 254
192 179 249
193 180 252
194 180 254
193 179 249
193 180 252
193 180 252
193 179 248
193 180 252
194 180 253
194 180 253
193 179 251
193 180 252
193 179 249
192 179 245
193 179 249
192 179 249
192 179 245
192 179 249
193 180 252
193 179 249
193 179 249
193 180 252
192 179 248
190 178 243
193 180 251
192 178 247
193 179 248
192 178 247
194 180 249
193 179 251
192 179 244
193 179 251
193 179 249
194 180 251
191 178 243
191 178 245
192 179 247
193 179 248
193 179 248
191 178 243
191 178 247
192 179 248
192 179 248
191 178 243
192 179 247
192 179 248
192 178 244
192 178 244
192 179 247
191 178 241
191 178 244
192 178 244
192 179 248
193 179 248
193 179 247
194 180 251
191 178 241
192 179 244
192 178 243
191 178 243
189 177 237
193 179 249
193 179 248
192 179 245
192 178 241
192 178 244
193 179 248
192 178 243
190 177 239
190 177 240
190 177 237
193 179 249
192 178 245
190 177 241
192 179 244
191 178 240
191 178 243
192 179 247
191 178 240
192 179 247
192 179 247
191 178 240
190 177 239
192 178 244
191 178 243
192 178 243
193 179 247
191 178 240
192 178 243
192 178 243
192 178 241
192 178 243
190 177 240
193 179 247
190 177 240
221 235 254
221 235 254
221 235 254
221 235 254
221 235 254
221 235 254
221 235 254
221 235 254
221 235 254
221 235 254
221 235 254
221 235 254
221 235 254
221 235 254
221 235 254
221 235 254
221 235 254
221 235 254
221 235 254
221 235 254
221 235 254
221 235 254
221 235 254
221 235 254
221 235 254
221 235 254
221 235 254
221 235 254
221 235 254
221 235 254
221 235 254
221 235 254
221 235 254
221 235 254
221 235 254
221 235 254
221 235 254
221 235 254
221 235 254
221 235 254
221 235 254
221 235 254
221 235 254
221 235 254
221 235 254
221 235 254
221 235 254
221 235 254
221 235 254
221 235 254
221 235 254
221 235 254
221 235 254
221 235 254
221 235 254
221 235 254
221 235 254
221 235 254
221 235 254
221 235 254
221 235 254
221 235 254
221 235 254
221 235 254
221 235 254
221 235 254
221 235 254
221 235 254
221 235 254
221 235 254
221 235 254
221 235 254
221 235 254
221 235 254
221 235 254
221 235 254
221 235 254
221 235 254
221 235 254
221 235 254
221 235 254
221 235 254
221 235 254
221 235 254
221 235 254
221 235 254
221 235 254
221 235 254
221 235 254
221 235 254
221 235 254
221 235 254
221 235 254
221 235 254
221 235 254
221 235 254
221 235 254
221 235 254
221 235 254
221 235 254
221 235 254
221 235 254
221 235 254
221 235 254
221 235 254
221 235 254
221 235 254
221 235 254
221 235 254
221 235 254
221 235 254
221 235 254
221 235 254
221 235 254
221 235 254
221 235 254
221 235 254
221 235 254
221 235 254
221 235 254
221 235 254
221 235 254
221 235 254
221 235 254
221 235 254
221 235 254
221 235 254
221 235 254
221 235 254
221 235 254
221 235 254
221 235 254
221 235 254
221 235 254
221 235 254
221 235 254
221 235 254
221 235 254
221 235 254
221 235 254
221 235 254
221 235 254
221 235 254
221 235 254
221 235 254
221 235 254
222 235 254
222 235 254
153 215 205
63 197 147
64 200 159
62 196 146
63 197 151
62 196 148
62 195 154
62 195 151
62 195 150
61 193 141
62 194 144
61 194 145
61 193 146
61 193 139
60 191 132
59 190 138
61 193 144
62 194 143
61 193 146
60 192 144
60 192 143
61 192 140
61 193 143
61 192 137
61 192 139
59 190 141
61 192 137
61 192 134
60 192 139
60 190 137
60 191 137
60 191 137
60 190 137
61 193 138
58 187 122
60 190 140
60 191 137
61 193 147
60 189 128
59 189 133
60 191 141
60 190 136
61 194 146
60 191 136
60 190 132
61 193 144
60 192 139
60 189 131
61 193 139
60 189 130
59 189 133
60 190 134
60 190 138
60 191 141
60 189 131
60 190 134
60 190 133
60 189 139
58 186 126
60 191 137
61 194 146
60 191 139
61 191 138
60 191 140
60 189 136
61 192 140
60 191 146
59 188 132
60 191 139
59 187 134
59 188 124
60 187 134
60 190 144
59 188 132
61 191 137
59 187 140
60 188 138
61 190 143
59 187 136
59 188 130
59 187 142
59 185 137
60 188 132
58 183 134
61 189 141
60 190 144
58 183 130
59 186 138
59 187 141
58 183 132
59 184 134
57 179 126
58 183 133
58 180 133
57 179 127
57 176 127
56 173 129
57 175 137
55 171 133
53 170 130
55 173 137
52 163 130
49 160 126
129 158 177
137 142 180
69 99 123
27 86 107
24 79 98
30 92 116
31 93 111
35 104 116
38 109 120
37 106 118
39 110 123
42 113 125
42 117 124
40 114 122
44 121 123
44 123 134
46 125 131
46 124 131
49 134 140
48 131 142
48 131 137
48 131 133
51 138 144
50 134 140
49 132 119
50 137 136
52 143 145
52 141 136
59 142 145
77 147 163
110 151 177
125 156 180
130 158 182
148 164 199
159 167 215
163 169 217
173 172 220
184 174 228
188 175 229
188 176 232
189 176 236
192 179 245
189 177 236
192 179 247
191 178 241
190 177 237
192 178 245
192 178 244
193 179 248
189 176 233
192 178 244
188 176 233
190 177 236
190 177 239
191 178 243
192 179 245
191 178 243
190 177 237
191 178 241
191 178 243
191 178 243
191 178 244
191 178 245
191 178 241
190 177 239
189 177 237
191 178 243
191 178 241
191 178 241
192 178 244
190 177 240
192 179 247
191 177 237
190 177 237
191 178 243
190 177 237
189 177 236
191 178 245
192 179 247
189 176 233
191 178 241
192 179 247
191 178 241
192 178 244
190 177 240
188 176 233
191 178 240
192 179 245
191 178 243
190 177 236
189 177 237
189 177 237
188 176 230
189 177 236
191 178 241
190 177 236
190 177 239
188 176 230
190 177 239
190 177 237
192 179 245
191 178 241
192 178 244
190 178 241
191 178 241
191 178 240
193 179 243
190 177 240
190 177 236
189 176 232
191 178 241
189 176 230
190 177 237
189 176 230
189 176 233
191 178 241
189 176 232
189 176 233
192 178 241
190 177 239
189 177 235
190 177 237
191 178 241
190 177 237
190 177 237
189 176 233
190 177 236
192 179 245
192 178 244
190 177 237
188 176 230
191 178 240
189 176 233
190 177 235
190 177 237
192 178 240
188 175 226
189 177 235
191 178 241
189 176 230
191 178 240
189 176 236
189 176 230
190 177 237
190 177 241
190 177 236
192 178 240
189 176 233
189 176 232
221 235 254
221 235 254
221 235 254
221 235 254
221 235 254
221 235 254
221 235 254
221 235 254
221 235 254
221 235 254
221 235 254
221 235 254
221 235 254
221 235 254
221 235 254
221 235 254
221 235 254
221 235 254
221 235 254
221 235 254
221 235 254
221 235 254
221 235 254
221 235 254
221 235 254
221 235 254
221 235 254
221 235 254
221 235 254
221 235 254
221 235 254
221 235 254
221 235 254
221 235 254
221 235 254
221 235 254
221 235 254
221 235 254
221 235 254
221 235 254
221 235 254
221 235 254
221 235 254
221 235 254
221 235 254
221 235 254
221 235 254
221 235 254
221 235 254
221 235 254
221 235 254
221 235 254
221 235 254
221 235 254
221 235 254
221 235 254
221 235 254
221 235 254
221 235 254
221 235 254
221 235 254
221 235 254
221 235 254
221 235 254
221 235 254
221 235 254
221 235 254
221 235 254
221 235 254
221 235 254
221 235 254
221 235 254
221 235 254
221 235 254
221 235 254
221 235 254
221 235 254
221 235 254
221 235 254
221 235 254
221 235 254
221 235 254
221 235 254
221 235 254
221 235 254
221 235 254
221 235 254
221 235 254
221 235 254
221 235 254
221 235 254
221 235 254
221 235 254
221 235 254
221 235 254
221 235 254
221 235 254
221 235 254
221 235 254
221 235 254
221 235 254
221 235 254
221 235 254
221 235 254
221 235 254
221 235 254
221 235 254
221 235 254
221 235 254
221 235 254
221 235 254
221 235 254
221 235 254
221 235 254
221 235 254
221 235 254
221 235 254
221 235 254
221 235 254
221 235 254
221 235 254
221 235 254
221 235 254
221 235 254
221 235 254
221 235 254
221 235 254
221 235 254
221 235 254
221 235 254
221 235 254
221 235 254
221 235 254
221 235 254
221 235 254
221 235 254
221 235 254
221 235 254
221 235 254
221 235 254
221 235 254
221 235 254
221 235 254
221 235 254
221 235 254
221 235 254
221 235 254
221 235 254
147 216 204
64 199 157
65 200 158
63 197 151
64 198 156
61 192 136
62 196 146
61 194 143
62 194 146
61 193 145
61 193 140
62 194 145
61 192 139
61 194 145
60 191 131
60 191 141
62 194 143
60 191 134
60 191 134
59 190 138
61 192 140
60 190 128
61 194 143
57 185 119
61 192 136
60 191 134
60 191 134
60 190 133
61 192 143
62 193 145
61 193 141
59 190 133
61 193 139
61 194 147
59 191 136
60 191 137
58 187 119
60 190 133
60 190 134
60 190 130
60 191 134
61 192 140
59 189 138
61 192 143
59 189 131
60 192 133
58 189 132
60 191 141
59 190 132
59 188 131
59 187 126
62 195 152
59 189 130
59 188 132
60 192 144
60 191 136
61 193 145
59 190 137
60 191 145
61 194 148
58 186 128
60 191 134
60 191 138
60 191 139
60 189 134
61 191 140
60 190 137
61 192 146
60 191 146
59 189 134
59 189 132
59 188 133
59 187 133
58 186 124
60 191 140
59 186 130
59 187 136
60 189 137
58 183 127
59 189 140
60 189 141
59 186 134
58 183 131
59 186 138
59 184 131
60 188 147
60 188 139
59 185 140
59 186 132
58 182 126
56 179 126
59 183 131
59 182 133
57 180 130
58 181 141
57 177 134
59 184 140
56 175 135
56 176 141
56 174 135
53 166 130
51 162 123
55 170 134
128 158 172
131 137 171
58 97 116
27 84 96
25 83 93
30 93 113
34 101 110
36 105 121
35 105 111
35 102 111
36 106 110
42 115 127
42 118 115
44 120 131
44 122 117
44 119 132
46 123 130
48 128 140
47 127 124
48 132 139
48 130 128
48 132 136
50 136 132
49 132 127
51 139 141
49 135 132
52 139 139
50 137 130
57 141 141
91 146 157
105 149 158
123 155 171
128 158 180
130 159 191
145 162 190
164 167 203
172 170 207
178 172 217
188 176 233
185 174 220
186 174 223
186 174 220
189 177 236
192 178 243
188 176 228
192 178 244
189 176 233
188 176 230
188 176 235
189 176 232
188 176 232
188 176 229
185 173 217
190 177 236
188 176 229
188 176 229
189 176 230
189 176 232
189 176 230
190 177 236
189 176 233
189 176 233
190 177 235
189 176 232
189 176 232
186 174 220
189 176 233
188 176 232
186 174 219
186 174 222
190 177 239
189 176 232
188 176 229
188 176 232
189 176 230
189 176 232
186 174 225
189 176 235
187 175 226
188 175 225
187 175 223
189 177 235
192 178 244
189 176 232
188 176 229
190 177 236
189 176 229
190 177 236
189 176 235
186 174 223
188 176 230
188 175 228
189 176 230
187 175 226
187 175 230
187 175 226
185 174 222
189 176 230
189 176 232
190 177 235
191 178 240
188 176 232
189 176 232
189 176 232
188 176 230
188 176 229
190 177 236
186 175 226
191 177 236
190 177 233
187 175 223
189 176 229
188 175 225
189 177 235
189 176 230
188 176 232
189 176 232
190 177 235
189 176 235
190 177 233
188 176 228
190 177 235
189 177 235
189 176 230
190 177 233
188 175 226
189 176 229
190 177 235
187 175 226
187 175 226
191 177 235
189 176 230
189 176 233
192 179 244
188 175 226
187 175 225
186 174 222
187 175 222
189 176 233
189 177 235
189 177 233
187 174 222
189 176 226
188 176 228
191 177 236
187 175 229
188 175 226
186 174 219
190 177 233
220 235 254
220 235 254
220 235 254
220 235 254
220 235 254
220 235 254
220 235 254
220 235 254
220 235 254
220 235 254
220 235 254
220 235 254
220 235 254
220 235 254
220 235 254
220 235 254
220 235 254
220 235 254
220 235 254
220 235 254
220 235 254
220 235 254
220 235 254
220 235 254
220 235 254
220 235 254
220 235 254
220 235 254
220 235 254
220 235 254
220 235 254
220 235 254
220 235 254
220 235 254
220 235 254
220 235 254
220 235 254
220 235 254
220 235 254
220 235 254
220 235 254
220 235 254
220 235 254
220 235 254
220 235 254
220 235 254
220 235 254
220 235 254
220 235 254
220 235 254
220 235 254
220 235 254
220 235 254
220 235 254
220 235 254
220 235 254
220 235 254
220 235 254
220 235 254
220 235 254
220 235 254
220 235 254
220 235 254
220 235 254
220 235 254
220 235 254
220 235 254
220 235 254
220 235 254
220 235 254
220 235 254
220 235 254
220 235 254
220 235 254
220 235 254
220 235 254
220 235 254
220 235 254
220 235 254
220 235 254
220 235 254
220 235 254
220 235 254
220 235 254
220 235 254
220 235 254
220 235 254
220 235 254
220 235 254
220 235 254
220 235 254
220 235 254
220 235 254
220 235 254
220 235 254
220 235 254
220 235 254
220 235 254
220 235 254
220 235 254
220 235 254
220 235 254
220 235 254
220 235 254
220 235 254
220 235 254
220 235 254
220 235 254
220 235 254
220 235 254
220 235 254
220 235 254
220 235 254
220 235 254
220 235 254
220 235 254
220 235 254
220 235 254
220 235 254
220 235 254
220 235 254
220 235 254
220 235 254
220 235 254
220 235 254
220 235 254
220 235 254
220 235 254
220 235 254
220 235 254
220 235 254
220 235 254
220 235 254
220 235 254
220 235 254
220 235 254
220 235 254
220 235 254
220 235 254
220 235 254
220 235 254
220 235 254
220 235 254
220 235 254
220 235 254
220 235 254
220 235 254
220 235 254
157 216 207
63 199 157
63 196 154
62 196 147
62 195 143
61 194 144
61 193 140
63 197 156
61 194 146
60 190 134
60 192 139
61 193 144
60 191 138
60 190 131
61 193 143
61 193 141
59 189 133
59 189 134
59 188 124
60 190 131
60 192 138
60 189 133
60 191 136
60 191 134
60 191 133
61 192 134
59 189 127
60 191 138
60 191 134
60 190 133
59 189 136
61 192 141
60 191 136
60 190 136
61 192 137
61 192 137
62 194 150
61 193 145
59 188 123
60 191 137
60 190 136
60 190 138
60 191 134
60 190 136
59 188 130
62 193 143
59 188 130
60 190 133
60 191 138
59 190 134
59 189 130
59 190 138
60 190 136
59 188 122
59 188 130
61 193 143
61 192 145
60 189 123
59 189 137
59 188 138
60 190 144
60 190 134
60 189 138
59 187 130
58 187 128
60 190 141
60 189 133
60 189 137
61 192 146
59 188 134
61 191 141
60 189 139
60 191 139
59 185 133
60 191 145
59 187 138
57 182 126
58 184 134
59 187 134
58 184 132
61 190 146
59 185 131
58 184 131
57 183 132
59 186 139
59 185 140
59 183 137
59 185 140
59 187 140
58 184 128
57 180 137
59 184 139
59 185 138
58 181 136
57 178 124
55 174 118
56 174 133
56 174 137
58 180 137
56 173 139
54 169 132
53 166 121
53 165 139
113 159 158
131 140 168
66 97 119
19 71 70
27 84 89
30 92 105
33 99 105
33 97 102
36 103 113
38 106 117
36 101 103
41 115 122
43 117 121
43 117 119
42 115 117
43 118 128
45 125 123
44 123 119
48 131 131
46 128 121
46 126 118
49 134 133
47 126 124
49 134 120
51 138 136
52 139 131
50 137 131
52 141 134
70 143 143
81 145 149
112 153 167
112 152 163
132 158 181
152 164 193
151 163 192
159 163 194
167 167 195
177 169 199
179 170 201
185 174 219
187 175 223
185 173 214
188 176 229
185 173 216
189 176 230
186 174 222
186 174 219
186 174 219
187 174 220
186 174 217
187 175 225
185 173 213
185 173 219
186 174 220
185 173 213
186 174 217
185 174 217
187 175 222
186 174 222
184 173 214
186 174 220
187 175 225
186 174 216
186 174 222
187 175 222
186 174 223
187 175 223
184 173 216
186 174 222
184 173 216
184 172 210
189 176 229
185 173 216
188 175 229
187 175 223
185 174 219
183 172 213
188 176 228
185 173 217
187 175 225
186 174 217
189 176 233
188 175 226
187 175 223
184 173 211
187 175 223
186 174 222
185 173 214
186 174 220
187 174 222
184 173 217
185 173 222
184 173 214
186 174 222
184 172 213
186 174 219
186 174 220
185 173 216
187 175 222
185 174 217
184 173 213
188 176 228
185 173 217
186 174 216
188 176 230
190 177 233
186 174 222
188 175 226
189 176 233
189 176 230
189 176 230
187 175 226
187 175 226
186 174 222
187 175 223
187 175 225
186 174 222
184 172 211
189 176 232
189 176 228
185 173 214
188 176 226
186 174 220
188 175 225
190 177 232
188 175 225
186 174 223
185 173 214
186 174 217
186 174 217
188 175 226
187 175 228
188 175 226
186 174 219
187 175 222
188 176 230
188 176 228
183 172 205
186 174 220
187 174 220
187 175 222
186 174 219
187 175 222
189 176 230
189 176 229
185 173 217
190 177 233
182 171 208
185 173 216
220 234 254
220 234 254
220 234 254
220 234 254
220 234 254
220 234 254
220 234 254
220 234 254
220 234 254
220 234 254
220 234 254
220 234 254
220 234 254
220 234 254
220 234 254
220 234 254
220 234 254
220 234 254
220 234 254
220 234 254
220 234 254
220 234 254
220 234 254
220 234 254
220 234 254
220 234 254
220 234 254
220 234 254
220 234 254
220 234 254
220 234 254
220 234 254
220 234 254
220 234 254
220 234 254
220 234 254
220 234 254
220 234 254
220 234 254
220 234 254
220 234 254
220 234 254
220 234 254
220 234 254
220 234 254
220 234 254
220 234 254
220 234 254
220 234 254
220 234 254
220 234 254
220 234 254
220 234 254
220 234 254
220 234 254
220 234 254
220 234 254
220 234 254
220 234 254
220 234 254
220 234 254
220 234 254
220 234 254
220 234 254
220 234 254
220 234 254
220 234 254
220 234 254
220 234 254
220 234 254
220 234 254
220 234 254
220 234 254
220 234 254
220 234 254
220 234 254
220 234 254
220 234 254
220 234 254
220 234 254
220 234 254
220 234 254
220 234 254
220 234 254
220 234 254
220 234 254
220 234 254
220 234 254
220 234 254
220 234 254
220 234 254
220 234 254
220 234 254
220 234 254
220 234 254
220 234 254
220 234 254
220 234 254
220 234 254
220 234 254
220 234 254
220 234 254
220 234 254
220 234 254
220 234 254
220 234 254
220 234 254
220 234 254
220 234 254
220 234 254
220 234 254
220 234 254
220 234 254
220 234 254
220 234 254
220 234 254
220 234 254
220 234 254
220 234 254
220 234 254
220 234 254
220 234 254
220 234 254
220 234 254
220 234 254
220 234 254
220 234 254
220 234 254
220 234 254
220 234 254
220 234 254
220 234 254
220 234 254
220 234 254
220 234 254
220 234 254
220 234 254
220 234 254
220 234 254
220 234 254
220 234 254
220 234 254
220 234 254
220 234 254
220 234 254
220 234 254
220 234 254
220 234 254
151 215 204
63 198 155
64 198 151
64 198 157
62 195 146
61 193 138
62 196 149
62 196 145
60 192 138
62 195 146
61 194 145
63 196 148
62 196 152
62 195 145
59 189 131
62 194 147
60 192 139
59 189 133
62 195 149
61 192 139
60 191 134
60 190 130
59 189 128
60 191 136
60 190 138
61 192 143
61 192 143
60 189 128
61 192 144
60 191 131
59 190 134
60 192 138
61 191 132
59 189 131
61 192 136
59 190 134
60 191 134
61 193 144
60 191 133
60 192 138
61 192 144
60 190 133
61 194 149
60 190 133
58 187 119
60 189 130
58 187 124
59 189 134
60 191 139
61 193 141
60 189 124
59 190 131
61 193 147
60 190 141
60 190 136
59 189 131
61 192 141
60 189 132
61 192 144
60 190 139
59 188 133
59 190 137
60 189 134
59 187 132
60 187 134
61 192 143
60 188 138
58 185 127
59 188 133
61 191 140
60 189 133
59 187 133
60 189 138
58 186 127
59 188 134
59 186 131
60 190 145
58 185 127
58 186 130
59 187 132
61 191 147
58 186 128
60 190 144
57 182 130
58 184 132
58 184 130
59 186 136
58 185 130
58 184 130
58 182 139
60 187 141
56 177 125
58 182 134
56 178 129
57 178 132
57 177 133
55 171 129
56 175 132
57 178 129
55 173 127
55 170 127
53 168 132
51 161 121
121 156 160
126 133 162
58 95 104
26 83 82
26 84 84
30 93 101
32 98 105
35 100 111
35 102 115
36 105 102
40 111 113
38 110 112
39 108 109
44 122 112
42 116 118
45 120 118
43 119 116
44 121 123
46 124 120
46 127 123
46 127 126
48 129 128
50 133 131
48 130 124
51 137 131
49 133 124
50 136 121
51 137 124
55 142 139
91 144 152
110 150 150
115 152 155
123 157 168
139 157 162
140 160 177
157 165 195
168 165 182
176 170 202
178 170 200
184 172 213
183 172 211
184 172 210
184 172 207
186 174 217
181 171 202
181 170 202
182 171 205
187 174 220
185 173 214
181 170 199
183 172 207
183 172 207
184 172 208
181 170 197
183 172 205
184 173 217
182 171 204
181 170 197
178 168 183
184 173 213
183 172 207
184 173 211
182 171 200
185 174 217
185 174 216
185 173 211
183 172 210
184 173 214
187 174 219
185 173 214
185 173 216
183 172 208
185 173 214
180 170 194
187 175 220
184 173 213
186 174 217
182 171 207
184 173 210
187 174 222
187 175 222
184 173 211
186 174 222
183 172 210
183 172 207
187 175 225
182 171 200
184 172 207
184 172 208
179 169 192
187 175 222
183 172 210
188 175 223
182 171 205
184 173 211
186 174 216
182 171 202
183 172 208
186 174 217
185 173 211
187 175 223
185 173 214
184 173 210
181 171 202
183 172 208
182 171 205
185 173 217
183 172 208
183 172 205
185 174 216
187 174 220
188 176 226
184 172 210
183 172 208
186 174 222
181 170 199
188 175 225
185 174 219
185 173 217
187 174 220
186 174 219
185 173 216
187 175 223
187 175 222
185 174 216
185 173 213
183 172 207
185 174 216
185 173 214
186 174 220
186 174 217
187 175 223
184 173 210
188 176 226
186 174 217
184 173 208
183 172 210
184 172 208
183 172 208
184 173 213
185 173 214
188 175 223
186 174 220
187 174 216
186 174 219
187 175 222
186 174 222
187 174 219
184 173 210
220 234 254
220 234 254
220 234 254
220 234 254
220 234 254
220 234 254
220 234 254
220 234 254
220 234 254
220 234 254
220 234 254
220 234 254
220 234 254
220 234 254
220 234 254
220 234 254
220 234 254
220 234 254
220 234 254
220 234 254
220 234 254
220 234 254
220 234 254
220 234 254
220 234 254
220 234 254
220 234 254
220 234 254
220 234 254
220 234 254
220 234 254
220 234 254
220 234 254
220 234 254
220 234 254
220 234 254
220 234 254
220 234 254
220 234 254
220 234 254
220 234 254
220 234 254
220 234 254
220 234 254
220 234 254
220 234 254
220 234 254
220 234 254
220 234 254
220 234 254
220 234 254
220 234 254
220 234 254
220 234 254
220 234 254
220 234 254
220 234 254
220 234 254
220 234 254
220 234 254
220 234 254
220 234 254
220 234 254
220 234 254
220 234 254
220 234 254
220 234 254
220 234 254
220 234 254
220 234 254
220 234 254
220 234 254
220 234 254
220 234 254
220 234 254
220 234 254
220 234 254
220 234 254
220 234 254
220 234 254
220 234 254
220 234 254
220 234 254
220 234 254
220 234 254
220 234 254
220 234 254
220 234 254
220 234 254
220 234 254
220 234 254
220 234 254
220 234 254
220 234 254
220 234 254
220 234 254
220 234 254
220 234 254
220 234 254
220 234 254
220 234 254
220 234 254
220 234 254
220 234 254
220 234 254
220 234 254
220 234 254
220 234 254
220 234 254
220 234 254
220 234 254
220 234 254
220 234 254
220 234 254
220 234 254
220 234 254
220 234 254
220 234 254
220 234 254
220 234 254
220 234 254
220 234 254
220 234 254
220 234 254
220 234 254
220 234 254
220 234 254
220 234 254
220 234 254
220 234 254
220 234 254
220 234 254
220 234 254
220 234 254
220 234 254
220 234 254
220 234 254
219 234 254
219 234 254
219 234 254
219 234 254
219 234 254
219 234 254
219 234 254
219 234 254
219 234 254
219 234 254
219 234 254
169 220 219
64 200 161
62 196 154
62 195 143
62 195 145
62 195 147
62 195 144
62 194 143
62 194 144
61 192 139
61 192 141
60 192 141
61 194 143
62 195 145
59 189 137
60 191 144
61 192 139
62 194 145
59 190 133
62 195 150
61 192 137
61 191 133
59 188 124
60 192 139
61 193 140
59 189 126
61 193 140
61 194 145
59 189 132
60 190 136
59 188 123
59 188 128
60 191 137
59 189 131
60 191 138
61 194 143
59 188 127
60 190 136
60 190 134
59 188 128
59 189 128
60 192 141
59 189 132
59 188 120
60 190 136
58 186 126
60 191 140
60 191 137
60 189 130
60 190 132
59 189 131
60 191 139
57 184 119
58 186 118
60 191 138
59 188 127
59 188 128
59 188 131
61 191 136
59 187 123
59 189 133
59 187 126
59 188 128
60 190 137
58 186 127
59 188 130
60 191 137
59 187 126
58 185 127
60 191 133
59 187 128
59 189 134
58 185 124
59 187 124
59 187 136
61 192 140
59 188 134
59 185 130
57 181 114
57 182 130
59 185 133
58 184 123
57 183 131
58 181 127
59 186 136
58 182 133
57 183 125
58 182 128
58 185 133
57 178 133
58 179 126
57 179 126
57 181 134
58 181 136
57 181 133
56 173 125
56 176 128
56 175 124
57 177 140
53 167 119
54 168 126
50 163 121
48 156 112
121 153 143
128 135 153
52 83 79
22 78 81
27 85 74
31 95 101
31 93 93
32 95 87
37 108 106
34 102 100
39 110 117
43 118 126
41 116 125
40 115 118
45 122 123
41 116 115
43 119 114
44 122 111
45 122 126
45 124 126
46 124 118
48 129 119
50 132 132
50 136 137
49 136 133
50 138 137
51 139 134
51 139 128
57 137 122
85 144 140
101 148 147
117 151 148
119 154 157
131 157 161
148 162 174
153 161 178
165 164 173
178 171 204
178 170 196
183 172 207
181 170 197
179 169 192
180 169 192
183 171 202
181 171 199
178 168 183
178 168 183
178 168 185
176 167 180
177 168 182
178 168 185
177 168 182
178 168 185
181 171 199
180 170 195
181 171 200
180 169 190
176 166 185
179 169 190
179 169 194
177 167 182
177 168 183
182 171 200
183 172 205
182 171 202
178 169 189
181 170 194
181 170 194
182 171 202
185 173 213
182 171 202
184 172 211
183 172 204
180 170 195
182 171 199
183 172 210
179 168 187
184 173 211
182 171 204
185 173 211
181 170 197
181 170 199
183 171 204
179 169 190
183 172 207
183 171 202
182 171 199
177 168 182
181 171 200
183 172 204
177 168 183
179 169 192
182 171 204
182 171 204
180 169 190
181 170 199
184 172 211
179 169 192
182 171 199
182 171 200
178 169 189
180 170 199
186 174 217
178 168 185
184 173 213
183 172 207
184 172 210
184 173 211
183 172 210
181 170 195
182 171 204
185 173 219
180 170 197
184 172 210
187 175 223
182 171 205
186 174 214
180 170 200
180 170 195
185 173 216
183 171 202
181 170 197
181 170 199
186 174 217
185 173 213
183 172 205
182 171 205
179 169 192
184 172 207
181 170 197
181 171 199
186 173 214
187 175 219
184 172 208
185 173 216
183 172 207
180 170 192
183 172 207
187 175 220
186 174 214
185 173 213
182 170 205
185 173 211
182 171 205
184 172 210
187 175 220
184 172 214
182 171 195
181 171 202
220 234 254
220 234 254
220 234 254
220 234 254
220 234 254
220 234 254
220 234 254
220 234 254
220 234 254
220 234 254
220 234 254
220 234 254
220 234 254
220 234 254
220 234 254
220 234 254
220 234 254
220 234 254
220 234 254
220 234 254
220 234 254
220 234 254
220 234 254
220 234 254
220 234 254
220 234 254
220 234 254
220 234 254
220 234 254
220 234 254
220 234 254
220 234 254
220 234 254
220 234 254
220 234 254
220 234 254
220 234 254
220 234 254
220 234 254
220 234 254
220 234 254
220 234 254
220 234 254
220 234 254
220 234 254
220 234 254
220 234 254
220 234 254
220 234 254
220 234 254
220 234 254
220 234 254
220 234 254
220 234 254
220 234 254
220 234 254
220 234 254
220 234 254
220 234 254
220 234 254
220 234 254
220 234 254
220 234 254
220 234 254
220 234 254
220 234 254
220 234 254
220 234 254
220 234 254
220 234 254
220 234 254
220 234 254
220 234 254
220 234 254
220 234 254
220 234 254
220 234 254
220 234 254
220 234 254
220 234 254
220 234 254
220 234 254
220 234 254
220 234 254
220 234 254
220 234 254
220 234 254
220 234 254
220 234 254
220 234 254
220 234 254
220 234 254
220 234 254
220 234 254
220 234 254
220 234 254
220 234 254
220 234 254
220 234 254
220 234 254
220 234 254
220 234 254
220 234 254
220 234 254
220 234 254
220 234 254
220 234 254
220 234 254
220 234 254
220 234 254
220 234 254
220 234 254
220 234 254
220 234 254
220 234 254
220 234 254
220 234 254
220 234 254
220 234 254
220 234 254
219 234 254
219 234 254
219 234 254
219 234 254
219 234 254
219 234 254
219 234 254
219 234 254
219 234 254
219 234 254
219 234 254
219 234 254
219 234 254
219 234 254
219 234 254
219 234 254
219 234 254
219 234 254
219 234 254
219 234 254
219 234 254
219 234 254
219 234 254
219 234 254
219 234 254
219 234 254
218 234 254
218 233 254
164 218 214
63 198 154
63 196 150
63 198 154
62 195 144
62 194 144
61 192 138
59 189 128
60 191 136
61 193 138
60 191 134
60 193 143
61 193 138
60 191 133
59 189 123
60 190 134
60 191 132
62 196 149
60 192 140
60 191 136
61 193 140
61 193 137
59 188 127
61 193 140
59 190 131
59 187 122
60 191 138
59 189 131
60 190 132
60 191 134
58 187 126
58 186 118
61 192 138
59 188 123
59 188 120
61 192 141
61 192 138
59 189 132
60 189 133
60 190 138
59 190 131
60 191 140
58 185 115
58 187 133
59 188 128
60 191 143
60 190 133
59 189 124
59 189 133
61 191 146
60 191 136
61 193 144
62 193 146
60 189 138
59 188 124
61 191 137
59 188 131
60 190 130
58 187 131
58 186 126
59 186 120
59 186 120
60 190 133
59 189 131
59 189 134
61 190 131
58 185 123
59 188 139
59 187 134
59 189 139
58 184 126
60 188 132
59 187 127
60 189 137
58 183 130
59 186 123
59 186 128
58 184 124
60 189 143
59 187 132
59 187 133
60 186 133
59 187 138
57 182 127
59 181 131
58 181 123
57 181 121
58 183 138
59 186 134
57 181 127
56 176 119
57 176 126
57 178 127
58 180 131
58 182 133
57 182 134
56 176 121
55 175 125
56 175 125
55 170 126
52 162 113
50 160 117
50 159 119
143 164 180
141 144 154
62 93 91
24 79 81
28 85 75
23 78 76
29 88 86
31 96 88
32 97 97
35 104 107
36 106 106
40 110 103
41 111 118
39 111 102
42 114 117
44 119 105
45 121 124
45 123 123
49 129 125
46 124 120
48 131 125
46 128 110
48 129 118
50 132 141
50 136 131
49 133 118
50 135 122
51 137 131
62 139 124
86 146 146
95 146 143
118 154 153
121 149 144
124 152 134
144 158 149
146 157 149
163 164 172
170 167 189
179 169 191
182 171 200
179 168 187
176 167 178
177 168 183
181 170 194
176 167 174
175 166 171
177 168 183
176 167 174
179 169 185
176 167 172
174 166 172
181 170 194
177 167 176
176 167 176
178 168 178
180 169 192
179 169 190
178 168 183
181 170 195
178 168 182
176 167 174
178 168 182
178 168 187
179 169 194
177 168 185
180 170 194
178 168 187
176 167 180
179 169 190
177 168 182
180 169 190
178 168 183
178 168 187
177 167 176
177 167 178
181 170 197
180 169 189
181 170 197
178 168 185
178 168 185
176 167 176
182 171 200
180 169 190
179 169 192
185 173 213
176 167 180
180 170 195
176 167 178
179 169 190
182 171 200
175 166 171
176 167 180
180 170 194
181 170 192
181 170 200
179 169 187
183 172 205
179 169 189
180 170 194
181 170 192
175 166 172
182 171 204
179 169 190
183 172 204
178 168 187
183 172 205
177 168 180
183 172 204
183 172 207
178 168 183
182 171 199
182 171 199
182 171 200
181 170 199
178 168 182
179 169 192
183 172 205
182 171 199
181 170 197
181 170 197
182 171 204
183 172 204
180 170 194
187 174 219
182 171 200
184 172 207
181 170 195
181 171 200
184 172 207
180 170 192
183 172 207
183 172 204
182 171 205
183 172 205
181 170 197
185 173 210
182 171 200
178 169 187
179 169 192
181 170 197
182 171 202
185 173 210
181 170 195
181 170 194
184 172 208
181 170 200
186 174 217
184 172 207
185 173 210
219 234 254
219 234 254
219 234 254
219 234 254
219 234 254
219 234 254
219 234 254
219 234 254
219 234 254
219 234 254
219 234 254
219 234 254
219 234 254
219 234 254
219 234 254
219 234 254
219 234 254
219 234 254
219 234 254
219 234 254
220 234 254
219 234 254
219 234 254
219 234 254
220 234 254
220 234 254
220 234 254
220 234 254
220 234 254
220 234 254
220 234 254
220 234 254
220 234 254
220 234 254
220 234 254
220 234 254
220 234 254
220 234 254
220 234 254
220 234 254
220 234 254
220 234 254
220 234 254
220 234 254
220 234 254
220 234 254
220 234 254
220 234 254
220 234 254
220 234 254
220 234 254
220 234 254
220 234 254
220 234 254
220 234 254
220 234 254
220 234 254
220 234 254
220 234 254
220 234 254
220 234 254
220 234 254
220 234 254
220 234 254
220 234 254
220 234 254
220 234 254
220 234 254
220 234 254
220 234 254
220 234 254
220 234 254
220 234 254
220 234 254
220 234 254
220 234 254
220 234 254
220 234 254
220 234 254
220 234 254
220 234 254
220 234 254
220 234 254
220 234 254
220 234 254
220 234 254
220 234 254
220 234 254
220 234 254
220 234 254
219 234 254
220 234 254
219 234 254
219 234 254
219 234 254
219 234 254
219 234 254
219 234 254
219 234 254
219 234 254
219 234 254
219 234 254
219 234 254
219 234 254
219 234 254
219 234 254
219 234 254
219 234 254
219 234 254
219 234 254
219 234 254
219 234 254
219 234 254
219 234 254
219 234 254
219 234 254
219 234 254
219 234 254
219 234 254
219 234 254
219 234 254
219 234 254
219 234 254
219 234 254
219 234 254
219 234 254
219 234 254
219 234 254
219 234 254
219 234 254
219 234 254
219 234 254
219 234 254
219 234 254
219 234 254
219 234 254
219 234 254
219 234 254
219 234 254
219 234 254
218 234 254
218 234 254
218 233 254
218 233 254
218 233 254
218 233 254
218 233 254
218 233 254
156 216 208
63 197 152
63 197 148
61 194 138
61 194 145
60 192 137
60 191 132
62 195 148
62 194 143
62 194 141
62 195 146
61 193 140
62 195 141
61 192 136
61 192 140
60 191 134
60 192 139
58 187 122
60 189 130
59 189 124
60 190 130
60 191 131
59 189 128
60 191 133
60 192 136
60 189 126
60 191 137
60 190 130
60 192 145
60 190 137
59 189 133
60 190 127
60 189 122
58 187 128
59 189 124
60 191 140
60 189 130
59 187 127
61 192 137
60 190 138
59 189 131
61 193 143
59 188 122
60 191 136
60 192 146
59 188 122
61 192 140
60 189 137
60 191 138
61 192 137
57 184 116
59 187 115
60 191 136
61 192 141
59 188 127
60 190 136
59 188 132
61 192 143
58 186 124
59 189 127
57 184 119
60 190 133
60 190 133
59 188 128
60 189 132
60 191 136
59 188 128
58 184 126
60 188 131
60 190 133
59 189 131
58 184 126
59 188 130
59 187 130
58 186 130
60 189 141
60 188 132
59 187 127
58 184 122
59 186 132
59 185 136
59 186 136
59 189 133
57 182 126
60 189 137
59 185 134
57 182 123
58 182 131
58 182 131
58 182 142
58 183 140
55 176 122
58 183 136
57 178 134
57 176 126
57 177 133
57 178 119
56 173 126
55 174 120
55 173 133
54 170 140
52 164 109
52 165 125
126 153 149
136 138 141
73 97 101
24 78 65
20 72 55
31 90 86
28 88 75
31 90 84
34 100 92
38 108 107
39 109 105
36 101 84
39 111 107
39 111 108
43 119 109
43 119 115
42 117 105
47 128 130
47 126 119
47 127 119
47 128 116
47 127 118
47 126 105
48 132 119
49 134 119
50 134 122
50 136 130
51 138 120
63 139 131
84 139 131
104 149 132
108 146 127
124 152 151
134 156 156
148 160 168
158 159 157
156 159 146
170 166 178
175 167 182
174 166 180
173 164 161
174 165 163
170 163 155
172 164 157
179 169 189
173 165 163
174 166 167
171 163 150
177 167 174
174 165 167
174 166 167
177 167 176
178 168 180
173 165 167
176 166 171
173 165 169
178 168 183
172 164 159
176 166 169
176 167 174
173 165 159
173 165 167
175 166 176
174 166 176
176 167 176
176 167 171
176 167 176
174 166 172
170 163 150
178 168 178
176 166 172
178 168 187
172 164 161
177 167 180
175 166 171
176 167 176
175 166 171
173 164 157
176 167 174
172 164 157
179 169 185
179 169 185
176 167 178
175 166 176
177 168 182
179 169 189
178 168 183
174 165 167
178 168 183
174 165 165
178 168 185
172 164 161
179 169 189
176 167 178
176 167 180
176 166 172
175 166 172
179 169 185
178 168 182
174 165 169
181 170 197
176 168 182
176 167 182
180 170 194
175 166 171
179 169 189
178 169 189
179 168 185
178 168 185
182 170 197
179 169 187
180 169 192
178 168 185
178 168 183
178 168 180
177 168 182
176 167 178
178 168 185
179 169 187
182 171 197
180 169 190
178 168 182
179 169 189
184 172 204
179 169 190
180 170 194
179 169 187
180 170 195
182 171 200
180 170 194
182 171 200
179 168 185
176 167 182
183 171 202
179 169 185
180 169 192
177 167 180
180 170 194
179 169 187
183 172 205
179 169 187
180 170 194
181 170 197
184 172 204
181 170 195
181 170 199
186 174 214
182 171 202
183 171 202
219 234 254
219 234 254
219 234 254
219 234 254
219 234 254
219 234 254
219 234 254
219 234 254
219 234 254
219 234 254
219 234 254
219 234 254
219 234 254
219 234 254
219 234 254
219 234 254
219 234 254
219 234 254
219 234 254
219 234 254
219 234 254
219 234 254
219 234 254
219 234 254
219 234 254
219 234 254
219 234 254
219 234 254
219 234 254
219 234 254
219 234 254
219 234 254
219 234 254
219 234 254
219 234 254
219 234 254
219 234 254
219 234 254
219 234 254
219 234 254
219 234 254
219 234 254
219 234 254
219 234 254
219 234 254
219 234 254
219 234 254
219 234 254
219 234 254
219 234 254
219 234 254
219 234 254
219 234 254
219 234 254
219 234 254
219 234 254
219 234 254
219 234 254
219 234 254
219 234 254
219 234 254
219 234 254
219 234 254
219 234 254
219 234 254
219 234 254
219 234 254
219 234 254
219 234 254
219 234 254
219 234 254
219 234 254
219 234 254
219 234 254
219 234 254
219 234 254
219 234 254
219 234 254
219 234 254
219 234 254
219 234 254
219 234 254
219 234 254
219 234 254
219 234 254
219 234 254
219 234 254
219 234 254
219 234 254
219 234 254
219 234 254
219 234 254
219 234 254
219 234 254
219 234 254
219 234 254
219 234 254
219 234 254
219 234 254
219 234 254
219 234 254
219 234 254
219 234 254
219 234 254
219 234 254
219 234 254
219 234 254
219 234 254
219 234 254
219 234 254
219 234 254
219 234 254
219 234 254
219 234 254
219 234 254
219 234 254
219 234 254
219 234 254
219 234 254
219 234 254
219 234 254
219 234 254
219 234 254
219 234 254
219 234 254
219 234 254
219 234 254
219 234 254
219 234 254
219 234 254
219 234 254
219 234 254
219 234 254
218 234 254
218 234 254
218 233 254
218 233 254
218 233 254
218 233 254
218 233 254
218 233 254
218 233 254
218 233 254
218 233 254
217 233 254
217 233 254
217 233 254
217 233 254
180 222 225
63 197 148
62 194 146
62 195 145
62 193 145
61 191 131
62 194 146
62 194 145
60 191 133
60 191 133
61 192 137
60 191 132
60 190 127
60 189 123
60 190 131
61 193 138
60 191 134
60 191 134
59 188 132
61 192 138
60 193 141
59 188 124
60 191 137
60 190 138
61 193 144
61 191 137
59 189 126
61 192 141
60 191 130
60 191 137
59 190 132
60 192 143
60 191 132
59 188 123
60 191 134
60 191 136
60 190 133
58 187 128
58 185 126
60 191 138
60 191 141
59 188 119
59 189 126
59 188 126
60 190 133
59 188 122
59 188 127
60 191 133
59 189 127
59 189 133
60 190 134
59 186 127
59 188 127
60 191 138
59 189 132
60 191 139
59 188 126
60 189 127
58 187 134
61 193 145
59 188 130
59 188 126
59 188 130
59 188 134
59 188 130
58 184 124
60 189 132
59 186 123
59 190 139
59 187 128
57 182 112
58 185 130
58 184 128
58 186 134
58 185 130
60 189 139
58 185 127
58 185 124
61 190 140
58 184 127
57 182 128
58 184 127
59 186 130
58 183 123
57 179 123
59 185 140
57 178 131
58 179 132
57 180 120
58 182 136
57 181 131
58 182 132
57 177 119
57 177 119
58 183 137
56 176 124
57 176 133
54 170 125
55 173 124
55 172 128
53 167 120
53 162 114
49 152 109
156 160 173
155 154 155
102 116 103
36 82 83
25 77 68
27 87 69
30 94 77
31 95 88
38 106 111
37 104 92
39 109 96
39 108 109
39 109 110
37 106 110
41 115 105
41 116 110
42 117 111
42 118 109
43 121 107
48 128 128
44 122 107
46 127 115
50 134 132
48 131 118
48 131 112
48 132 111
51 136 118
49 133 118
55 136 130
79 139 114
93 139 117
108 146 124
128 154 147
136 154 144
143 157 138
145 155 144
158 160 150
159 159 133
170 163 150
171 164 161
170 163 157
170 162 148
170 164 165
170 162 139
170 163 148
171 163 150
176 167 174
173 164 157
169 162 144
168 162 144
168 162 141
171 164 157
173 165 165
171 163 150
173 165 167
169 162 146
172 164 159
172 164 155
172 164 155
171 164 159
172 164 159
173 165 165
176 167 174
174 165 161
173 165 165
169 162 139
174 166 169
171 163 152
167 161 137
171 163 146
170 163 148
174 165 167
170 163 146
169 163 152
175 166 171
174 165 167
175 166 169
173 164 157
175 166 169
173 165 167
170 163 148
174 166 167
172 164 159
175 166 172
174 165 167
176 167 174
170 163 152
175 166 169
175 166 172
172 165 167
174 165 161
176 167 171
169 162 139
177 167 178
174 165 165
174 165 167
179 168 183
176 166 176
178 168 185
174 166 169
172 164 159
178 168 180
174 165 165
176 167 172
174 166 169
175 166 167
174 165 161
176 167 174
177 167 180
173 165 167
179 169 189
176 167 178
177 167 182
178 168 183
174 165 165
175 166 172
177 167 178
177 167 180
178 167 185
180 170 192
176 167 176
178 168 187
175 166 171
178 168 182
181 170 195
181 170 194
178 168 183
177 168 180
180 169 187
178 168 187
176 167 176
179 169 189
174 165 163
180 170 194
181 170 194
180 169 194
180 170 192
178 168 183
180 170 190
175 166 171
181 170 197
178 168 183
182 171 199
179 169 187
180 170 192
180 170 194
181 170 195
181 170 195
180 169 190
219 234 254
219 234 254
219 234 254
219 234 254
219 234 254
219 234 254
219 234 254
219 234 254
219 234 254
219 234 254
219 234 254
219 234 254
219 234 254
219 234 254
219 234 254
219 234 254
219 234 254
219 234 254
219 234 254
219 234 254
219 234 254
219 234 254
219 234 254
219 234 254
219 234 254
219 234 254
219 234 254
219 234 254
219 234 254
219 234 254
219 234 254
219 234 254
219 234 254
219 234 254
219 234 254
219 234 254
219 234 254
219 234 254
219 234 254
219 234 254
219 234 254
219 234 254
219 234 254
219 234 254
219 234 254
219 234 254
219 234 254
219 234 254
219 234 254
219 234 254
219 234 254
219 234 254
219 234 254
219 234 254
219 234 254
219 234 254
219 234 254
219 234 254
219 234 254
219 234 254
219 234 254
219 234 254
219 234 254
219 234 254
219 234 254
219 234 254
219 234 254
219 234 254
219 234 254
219 234 254
219 234 254
219 234 254
219 234 254
219 234 254
219 234 254
219 234 254
219 234 254
219 234 254
219 234 254
219 234 254
219 234 254
219 234 254
219 234 254
219 234 254
219 234 254
219 234 254
219 234 254
219 234 254
219 234 254
219 234 254
219 234 254
219 234 254
219 234 254
219 234 254
219 234 254
219 234 254
219 234 254
219 234 254
219 234 254
219 234 254
219 234 254
219 234 254
219 234 254
219 234 254
219 234 254
219 234 254
219 234 254
219 234 254
219 234 254
219 234 254
219 234 254
219 234 254
219 234 254
219 234 254
219 234 254
219 234 254
219 234 254
219 234 254
219 234 254
219 234 254
219 234 254
219 234 254
219 234 254
219 234 254
218 234 254
218 234 254
218 234 254
218 234 254
218 233 254
218 233 254
218 233 254
218 233 254
218 233 254
218 233 254
218 233 254
218 233 254
218 233 254
218 233 254
218 233 254
218 233 254
217 233 254
217 233 254
217 233 254
217 233 254
217 233 254
217 233 254
216 232 254
216 232 254
187 222 230
63 197 148
61 194 144
61 194 146
62 195 146
61 194 146
61 194 144
61 192 133
61 192 140
60 193 143
59 190 134
60 191 137
59 190 132
61 194 145
61 193 138
60 189 130
61 192 137
60 191 133
59 190 137
60 191 131
59 189 126
59 189 128
61 192 133
60 191 130
59 188 130
59 189 124
61 192 138
60 190 130
59 189 123
60 190 128
60 191 128
59 188 122
58 187 120
59 189 130
58 186 115
59 190 133
58 186 119
59 189 133
59 187 126
60 189 134
58 187 123
59 189 131
61 191 137
59 188 126
61 192 144
59 189 130
60 189 133
60 189 130
59 188 127
60 191 133
60 190 134
60 190 132
58 185 123
59 188 133
57 183 111
59 186 118
59 189 138
58 186 120
61 192 143
60 190 134
59 189 132
59 189 132
61 191 140
60 190 137
59 189 138
60 190 131
60 191 134
59 188 119
59 188 136
60 191 140
58 185 119
59 188 131
58 185 126
58 186 133
59 186 132
59 187 136
59 186 134
58 185 131
59 188 139
58 185 119
57 183 126
58 183 120
56 180 115
59 186 138
58 182 118
58 182 127
58 183 139
58 181 130
58 182 131
58 182 127
58 181 138
57 179 128
58 181 130
56 178 126
59 183 140
57 175 140
55 172 117
55 171 123
55 170 124
54 169 118
53 167 114
51 162 108
50 155 120
141 154 146
160 156 165
101 116 97
45 94 82
30 90 80
28 85 74
26 84 68
34 98 91
33 95 78
34 102 99
35 101 99
37 105 98
39 109 98
41 113 106
41 115 107
42 114 97
42 114 97
44 119 110
44 121 115
45 122 111
47 127 110
45 124 106
48 131 119
47 127 111
48 128 108
48 131 112
49 132 108
50 138 114
76 139 109
91 142 108
95 143 108
112 145 111
119 146 108
122 148 115
138 154 115
146 154 120
156 157 131
163 162 160
164 158 122
163 158 124
168 161 132
162 158 108
168 161 139
166 160 130
168 161 137
167 161 130
167 161 134
168 161 144
167 161 130
167 160 127
167 161 134
167 161 132
168 161 139
165 159 122
168 161 134
167 161 127
169 162 137
168 161 139
166 160 137
170 163 148
169 162 146
166 160 130
164 159 119
171 163 150
170 162 150
170 162 146
167 160 139
170 163 146
171 163 148
169 162 146
173 165 163
172 164 159
172 164 157
170 163 144
172 164 163
169 161 134
170 162 144
172 164 152
166 160 137
170 163 146
173 164 159
173 165 159
169 162 141
169 162 148
172 164 157
172 164 152
173 165 165
169 162 139
172 164 159
175 166 167
170 163 146
173 164 152
172 164 150
172 164 159
172 164 157
177 168 182
173 165 165
174 165 163
172 164 150
173 164 157
174 165 165
176 166 169
175 166 165
175 166 171
171 163 141
172 164 150
173 164 155
173 164 152
171 163 144
173 165 159
177 167 176
173 164 161
175 165 165
172 164 157
174 166 167
173 165 163
177 167 178
176 167 176
175 166 171
177 167 178
178 168 182
175 166 171
182 171 195
177 167 176
176 167 172
173 165 161
177 168 183
175 166 167
175 166 169
175 166 171
176 166 171
178 168 183
179 169 187
183 172 204
177 167 176
177 167 180
179 169 187
176 167 174
178 169 187
175 166 172
180 169 187
175 166 171
180 170 192
178 168 180
178 168 183
182 171 199
175 167 176
179 169 183
180 169 192
219 234 254
219 234 254
219 234 254
219 234 254
219 234 254
219 234 254
219 234 254
219 234 254
219 234 254
219 234 254
219 234 254
219 234 254
219 234 254
219 234 254
219 234 254
219 234 254
219 234 254
219 234 254
219 234 254
219 234 254
219 234 254
219 234 254
219 234 254
219 234 254
219 234 254
219 234 254
219 234 254
219 234 254
219 234 254
219 234 254
219 234 254
219 234 254
219 234 254
219 234 254
219 234 254
219 234 254
219 234 254
219 234 254
219 234 254
219 234 254
219 234 254
219 234 254
219 234 254
219 234 254
219 234 254
219 234 254
219 234 254
219 234 254
219 234 254
219 234 254
219 234 254
219 234 254
219 234 254
219 234 254
219 234 254
219 234 254
219 234 254
219 234 254
219 234 254
219 234 254
219 234 254
219 234 254
219 234 254
219 234 254
219 234 254
219 234 254
219 234 254
219 234 254
219 234 254
219 234 254
219 234 254
219 234 254
219 234 254
219 234 254
219 234 254
219 234 254
219 234 254
219 234 254
219 234 254
219 234 254
219 234 254
219 234 254
219 234 254
219 234 254
219 234 254
219 234 254
219 234 254
219 234 254
219 234 254
219 234 254
219 234 254
219 234 254
219 234 254
219 234 254
219 234 254
219 234 254
219 234 254
219 234 254
219 234 254
219 234 254
219 234 254
219 234 254
219 234 254
219 234 254
219 234 254
219 234 254
219 234 254
219 234 254
219 234 254
219 234 254
219 234 254
219 234 254
219 234 254
219 234 254
219 234 254
218 234 254
218 234 254
218 234 254
218 233 254
218 233 254
218 233 254
218 233 254
218 233 254
218 233 254
218 233 254
218 233 254
218 233 254
218 233 254
218 233 254
218 233 254
218 233 254
218 233 254
218 233 254
218 233 254
218 233 254
218 233 254
217 233 254
217 233 254
217 233 254
217 233 254
217 233 254
217 233 254
217 233 254
217 232 254
216 232 254
216 232 254
216 232 254
215 232 254
206 230 246
63 197 152
64 197 148
63 197 151
62 195 147
61 192 131
61 193 137
60 191 138
61 192 133
61 193 140
61 193 141
60 191 137
59 189 128
58 187 115
59 188 127
60 192 138
61 193 141
60 191 132
60 190 130
60 190 132
61 192 134
60 191 133
58 185 123
58 188 126
59 190 132
59 189 127
59 189 126
58 187 127
59 188 118
59 189 127
59 189 131
59 188 127
60 190 130
60 191 136
58 186 128
59 188 123
59 189 130
58 187 119
59 189 124
58 188 123
61 191 137
59 187 127
58 188 128
60 191 137
58 186 114
59 189 132
60 190 133
59 189 134
59 190 136
59 189 127
60 190 133
59 188 133
59 188 132
58 187 119
58 187 124
60 189 133
59 189 131
58 188 120
59 188 127
60 190 136
59 187 126
58 186 124
59 188 130
59 188 131
60 188 124
60 190 139
59 187 130
59 188 124
61 190 132
59 187 120
59 187 124
59 185 123
58 186 128
59 188 134
58 185 127
58 184 127
58 184 132
60 189 138
57 181 118
57 182 119
59 185 128
58 183 127
58 185 127
57 183 127
59 185 133
59 185 128
58 184 130
58 182 124
56 180 118
57 182 126
55 174 110
58 180 123
56 177 115
57 177 126
55 175 121
56 178 130
54 172 116
54 169 114
55 171 125
54 168 118
50 162 111
51 161 116
48 153 110
171 178 183
170 162 163
117 128 104
67 101 75
30 88 62
29 86 65
30 90 74
29 90 79
34 97 81
34 98 70
36 105 91
42 113 99
38 107 86
39 109 103
42 114 92
39 113 99
41 113 94
46 124 111
45 124 112
43 122 104
45 122 104
47 130 119
49 131 120
46 127 114
48 131 116
48 129 108
49 131 108
54 135 123
74 138 100
84 140 90
100 146 115
102 144 111
119 148 103
121 148 115
147 155 115
144 154 119
151 155 118
159 158 130
163 158 116
163 158 111
162 158 119
164 159 116
160 156 102
161 157 105
164 158 114
161 157 105
165 159 119
164 159 122
162 157 105
164 158 114
165 159 119
158 154 102
166 160 127
164 159 127
164 159 122
163 158 111
164 159 119
167 160 130
167 161 141
164 159 124
167 161 130
163 158 116
165 160 124
163 158 111
167 161 134
164 159 134
166 160 130
164 158 111
167 161 134
167 160 134
169 162 139
167 160 122
167 161 134
165 159 122
166 160 134
169 162 137
166 160 130
166 160 124
166 159 130
170 162 144
170 162 148
168 161 132
170 163 148
168 161 139
166 160 122
169 162 139
171 163 146
169 162 144
168 162 148
169 162 139
168 161 137
165 159 119
169 162 141
169 162 137
170 163 148
168 161 134
172 164 152
171 163 150
169 162 139
171 163 152
170 163 141
172 163 150
168 161 139
173 165 161
172 164 150
172 163 159
171 163 148
170 162 141
173 165 165
170 162 141
171 163 152
172 164 157
173 164 157
172 164 155
170 162 141
174 166 171
171 163 157
171 164 155
170 163 148
175 166 169
178 169 183
174 165 161
171 163 155
175 166 169
173 165 165
174 165 159
175 165 169
178 168 178
176 166 178
173 165 165
178 168 183
174 165 167
178 168 183
174 165 165
173 164 155
180 169 187
177 168 180
180 169 185
176 167 171
176 167 176
174 165 161
172 164 155
179 169 189
175 166 171
173 165 161
177 167 178
178 168 183
179 169 187
176 167 171
218 234 254
218 234 254
218 234 254
219 234 254
219 234 254
219 234 254
219 234 254
219 234 254
219 234 254
219 234 254
219 234 254
219 234 254
219 234 254
219 234 254
219 234 254
219 234 254
219 234 254
219 234 254
219 234 254
219 234 254
219 234 254
219 234 254
219 234 254
219 234 254
219 234 254
219 234 254
219 234 254
219 234 254
219 234 254
219 234 254
219 234 254
219 234 254
219 234 254
219 234 254
219 234 254
219 234 254
219 234 254
219 234 254
219 234 254
219 234 254
219 234 254
219 234 254
219 234 254
219 234 254
219 234 254
219 234 254
219 234 254
219 234 254
219 234 254
219 234 254
219 234 254
219 234 254
219 234 254
219 234 254
219 234 254
219 234 254
219 234 254
219 234 254
219 234 254
219 234 254
219 234 254
219 234 254
219 234 254
219 234 254
219 234 254
219 234 254
219 234 254
219 234 254
219 234 254
219 234 254
219 234 254
219 234 254
219 234 254
219 234 254
219 234 254
219 234 254
219 234 254
219 234 254
219 234 254
219 234 254
219 234 254
219 234 254
219 234 254
219 234 254
219 234 254
219 234 254
219 234 254
219 234 254
219 234 254
219 234 254
219 234 254
219 234 254
219 234 254
219 234 254
219 234 254
219 234 254
219 234 254
219 234 254
219 234 254
219 234 254
219 234 254
219 234 254
218 234 254
218 234 254
218 234 254
218 234 254
218 234 254
218 234 254
218 234 254
218 233 254
218 233 254
218 233 254
218 233 254
218 233 254
218 233 254
218 233 254
218 233 254
218 233 254
218 233 254
218 233 254
218 233 254
218 233 254
218 233 254
218 233 254
218 233 254
218 233 254
218 233 254
218 233 254
218 233 254
218 233 254
218 233 254
217 233 254
217 233 254
217 233 254
217 233 254
217 233 254
217 233 254
217 233 254
217 233 254
217 233 254
216 232 254
216 232 254
216 232 254
216 232 254
216 232 254
215 232 254
215 232 254
215 231 254
220 234 254
88 201 163
63 197 155
61 193 133
62 195 147
59 189 131
62 195 145
60 192 136
61 191 130
60 191 136
60 192 138
61 191 136
59 189 133
60 191 132
60 189 118
59 188 122
61 193 139
59 189 130
59 189 133
60 189 128
60 191 136
59 189 130
60 191 133
59 189 130
59 188 126
59 188 126
59 189 127
58 187 126
59 188 122
60 192 139
57 185 122
58 187 126
59 188 124
61 192 138
59 190 134
59 189 127
59 189 132
59 188 126
60 191 136
59 189 130
59 190 130
59 187 127
60 188 119
59 188 128
59 190 131
59 189 139
61 192 139
59 189 127
58 187 131
60 191 132
58 184 111
59 189 132
59 189 136
59 187 115
59 189 126
60 189 137
58 188 123
58 186 127
59 187 120
59 188 132
60 188 126
59 189 137
59 189 134
58 185 123
59 186 128
58 187 126
60 189 134
59 190 128
60 190 136
58 183 122
58 186 133
59 187 123
57 182 122
58 186 130
59 186 127
60 188 130
57 182 118
58 186 133
59 186 131
58 182 124
59 186 137
59 187 134
58 185 126
57 183 127
59 185 128
58 184 127
58 185 131
55 173 118
57 178 121
57 180 123
58 180 127
56 179 122
57 179 127
56 176 125
58 180 128
56 173 122
57 177 132
54 169 116
55 170 124
55 173 119
54 167 114
52 160 114
79 154 119
196 201 216
168 160 159
135 140 110
92 112 89
33 89 61
31 92 74
29 93 66
32 95 82
35 100 75
36 104 87
35 101 80
36 102 78
38 107 89
38 109 84
42 115 99
42 114 108
41 114 93
42 115 96
45 125 104
45 124 104
45 121 103
47 128 106
48 130 108
48 132 119
48 131 104
48 132 110
49 135 122
54 138 124
82 139 100
86 140 100
95 144 94
106 144 91
122 146 97
129 148 95
130 151 114
144 153 111
157 157 120
152 154 98
150 152 76
156 155 88
157 154 84
156 154 62
156 154 80
156 154 57
155 153 51
159 156 98
157 154 62
157 155 80
159 154 76
156 154 57
159 156 91
158 155 80
163 157 98
154 152 62
163 158 102
157 154 67
157 154 72
162 158 116
161 156 95
159 156 88
160 155 84
160 156 91
159 156 88
160 156 98
163 157 91
160 156 95
160 156 95
160 155 95
163 157 102
163 158 102
161 157 91
162 157 102
160 155 95
166 160 130
163 157 105
162 157 108
165 159 119
159 155 95
164 158 111
162 157 98
166 159 124
166 160 124
165 159 127
170 162 144
166 159 122
161 156 95
168 161 137
167 161 132
165 159 124
163 159 122
169 162 139
166 160 119
167 160 124
171 163 148
167 161 137
167 160 122
167 160 127
168 161 132
171 163 150
167 160 134
170 162 141
174 165 159
167 160 127
168 161 137
174 165 165
169 161 137
168 161 132
167 160 127
169 162 141
170 162 146
171 163 146
170 163 144
171 164 157
167 160 124
171 163 152
167 161 134
169 162 141
173 165 161
170 162 146
175 166 165
174 165 157
175 165 161
171 163 146
169 161 141
172 164 155
174 165 165
171 163 152
174 165 163
177 167 171
174 165 161
170 162 144
174 165 161
173 165 167
173 164 159
172 164 161
170 162 152
174 165 165
174 165 161
177 167 176
175 166 167
176 166 172
170 163 144
173 165 163
175 166 163
171 164 150
173 164 159
174 165 167
176 166 169
179 169 182
218 233 254
218 233 254
218 233 254
218 233 254
218 233 254
218 233 254
218 233 254
218 233 254
218 233 254
218 233 254
218 233 254
218 233 254
218 233 254
218 233 254
218 233 254
218 233 254
218 234 254
218 234 254
218 234 254
218 234 254
218 234 254
218 234 254
218 234 254
218 234 254
218 234 254
218 234 254
218 234 254
218 234 254
218 234 254
218 234 254
218 234 254
218 234 254
218 234 254
218 234 254
218 234 254
219 234 254
219 234 254
219 234 254
219 234 254
219 234 254
219 234 254
219 234 254
219 234 254
219 234 254
219 234 254
219 234 254
219 234 254
219 234 254
219 234 254
219 234 254
219 234 254
219 234 254
219 234 254
219 234 254
219 234 254
219 234 254
219 234 254
219 234 254
219 234 254
219 234 254
219 234 254
219 234 254
219 234 254
219 234 254
219 234 254
219 234 254
219 234 254
219 234 254
219 234 254
219 234 254
219 234 254
219 234 254
219 234 254
219 234 254
219 234 254
219 234 254
219 234 254
219 234 254
219 234 254
219 234 254
219 234 254
218 234 254
218 234 254
218 234 254
218 234 254
218 234 254
218 234 254
218 234 254
218 234 254
218 234 254
218 234 254
218 234 254
218 234 254
218 233 254
218 233 254
218 233 254
218 233 254
218 233 254
218 233 254
218 233 254
218 233 254
218 233 254
218 233 254
218 233 254
218 233 254
218 233 254
218 233 254
218 233 254
218 233 254
218 233 254
218 233 254
218 233 254
218 233 254
218 233 254
218 233 254
218 233 254
218 233 254
218 233 254
218 233 254
218 233 254
218 233 254
218 233 254
218 233 254
218 233 254
218 233 254
217 233 254
217 233 254
217 233 254
217 233 254
217 233 254
217 233 254
217 233 254
217 233 254
217 233 254
217 233 254
217 233 254
217 232 254
216 232 254
216 232 254
216 232 254
216 232 254
216 232 254
216 232 254
215 232 254
215 232 254
215 231 254
214 231 254
214 231 254
220 235 254
116 203 172
63 197 152
62 195 148
63 197 151
61 192 139
61 192 137
61 193 139
61 193 143
61 193 138
61 192 133
62 193 143
60 192 134
61 193 139
60 189 133
59 188 128
60 190 127
60 191 131
58 189 127
61 192 137
60 190 131
59 187 123
59 189 126
59 190 128
59 189 126
60 189 127
60 190 132
61 192 138
60 190 131
59 188 126
59 189 130
60 190 131
59 188 131
59 189 124
59 188 124
59 187 118
60 191 132
59 188 130
58 186 119
61 192 137
58 187 126
60 191 138
58 187 131
59 188 123
59 188 123
58 186 124
60 191 133
58 184 118
60 191 132
60 191 130
57 184 114
58 186 118
58 186 116
60 188 134
60 189 126
60 189 132
59 188 126
58 184 123
59 188 126
59 188 124
58 185 122
60 189 130
59 185 123
58 185 122
57 184 115
58 184 124
59 187 128
60 188 132
58 187 124
58 185 122
59 186 124
58 186 130
59 186 132
59 187 123
58 186 122
58 184 122
58 183 123
58 185 130
57 185 122
59 186 123
59 186 123
57 182 119
59 185 131
59 186 137
57 179 118
57 183 126
57 180 120
56 177 122
58 183 123
59 184 131
57 179 129
59 180 126
57 177 130
56 177 117
55 175 118
57 178 133
55 172 111
54 172 127
54 168 118
52 163 102
51 161 117
48 153 107
110 172 150
210 221 237
163 155 161
146 147 111
100 120 81
41 87 60
29 89 59
32 94 70
32 95 73
30 91 69
35 105 78
38 106 91
38 108 91
39 109 86
39 113 97
41 112 94
40 113 94
40 115 84
43 117 93
46 124 101
45 124 111
46 123 109
45 124 101
47 128 107
46 125 109
47 129 101
49 132 114
47 129 103
67 133 108
79 138 100
86 137 103
96 142 88
106 141 76
116 145 72
126 149 100
139 149 72
140 150 80
142 149 57
153 152 88
156 153 67
152 151 25
152 152 25
153 152 57
152 152 36
154 152 57
154 153 51
151 151 36
153 152 51
152 151 0
156 154 57
154 153 67
156 154 67
153 152 51
154 152 51
152 151 25
154 152 36
156 153 67
156 154 72
158 155 80
156 154 62
158 154 72
158 155 76
158 154 76
157 154 76
154 151 62
158 154 72
158 156 91
155 152 62
158 154 72
160 156 91
159 155 72
159 155 76
158 154 76
158 155 88
157 153 84
162 157 98
164 158 111
160 155 80
158 155 76
156 154 80
162 157 108
161 156 95
163 157 105
164 158 108
160 156 91
160 156 88
165 159 108
162 158 116
159 154 76
163 157 91
163 158 108
162 156 98
166 160 122
163 158 102
161 156 88
161 157 105
160 155 84
165 159 124
164 158 116
167 160 122
166 160 130
163 158 108
162 157 95
168 161 132
166 159 119
166 159 114
165 159 119
166 159 124
164 158 105
162 157 114
170 162 141
171 163 155
173 164 152
163 157 111
164 157 119
168 161 132
166 160 127
168 162 137
170 162 144
170 162 144
167 160 134
172 164 152
169 162 144
170 162 144
172 164 157
169 162 137
167 161 134
171 163 150
172 164 157
174 165 163
168 161 134
170 162 144
175 166 165
173 165 161
168 161 137
172 164 152
170 162 144
172 163 152
168 161 134
176 167 176
175 166 172
176 166 171
170 163 146
174 166 169
173 165 161
172 164 159
171 163 148
175 166 171
175 166 171
175 166 169
218 233 254
218 233 254
218 233 254
218 233 254
218 233 254
218 233 254
218 233 254
218 233 254
218 233 254
218 233 254
218 233 254
218 233 254
218 233 254
218 233 254
218 233 254
218 233 254
218 233 254
218 233 254
218 233 254
218 233 254
218 233 254
218 233 254
218 233 254
218 233 254
218 233 254
218 233 254
218 233 254
218 233 254
218 233 254
218 233 254
218 233 254
218 233 254
218 233 254
218 233 254
218 233 254
218 233 254
218 233 254
218 233 254
218 233 254
218 233 254
218 233 254
218 233 254
218 233 254
218 233 254
218 233 254
218 233 254
218 233 254
218 233 254
218 233 254
218 233 254
218 233 254
218 233 254
218 233 254
218 233 254
218 233 254
218 233 254
218 233 254
218 233 254
218 233 254
218 233 254
218 233 254
218 233 254
218 233 254
218 233 254
218 233 254
218 233 254
218 233 254
218 233 254
218 233 254
218 233 254
218 233 254
218 233 254
218 233 254
218 233 254
218 233 254
218 233 254
218 233 254
218 233 254
218 233 254
218 233 254
218 233 254
218 233 254
218 233 254
218 233 254
218 233 254
218 233 254
218 233 254
218 233 254
218 233 254
218 233 254
218 233 254
218 233 254
218 233 254
218 233 254
218 233 254
218 233 254
218 233 254
218 233 254
218 233 254
218 233 254
218 233 254
218 233 254
218 233 254
218 233 254
218 233 254
218 233 254
218 233 254
218 233 254
218 233 254
218 233 254
218 233 254
218 233 254
218 233 254
218 233 254
218 233 254
218 233 254
218 233 254
218 233 254
218 233 254
217 233 254
217 233 254
217 233 254
217 233 254
217 233 254
217 233 254
217 233 254
217 233 254
217 233 254
217 233 254
217 233 254
217 233 254
217 233 254
217 232 254
216 232 254
216 232 254
216 232 254
216 232 254
216 232 254
216 232 254
216 232 254
215 232 254
215 232 254
215 232 254
215 231 254
214 231 254
214 231 254
214 231 254
213 231 254
223 236 254
167 219 211
62 196 151
62 196 151
62 196 148
60 191 133
60 192 137
60 191 137
61 193 140
60 191 133
61 193 138
61 193 138
60 190 133
60 190 127
60 190 132
60 191 134
60 190 128
60 189 124
60 189 124
60 190 131
60 192 140
59 188 127
57 185 123
60 190 128
60 190 133
57 185 119
59 188 120
60 190 134
59 188 124
60 190 132
60 192 139
59 187 123
59 187 123
59 188 122
61 192 139
59 189 128
60 191 136
60 190 139
60 190 130
60 190 126
60 190 128
59 188 133
58 188 124
59 187 123
60 189 130
59 188 123
59 187 127
59 189 128
59 188 123
59 189 133
56 182 119
59 189 123
58 187 124
59 188 134
59 188 124
59 187 127
59 188 130
58 185 116
58 185 123
59 189 128
60 192 140
60 188 127
59 188 124
58 185 126
59 187 130
58 184 120
58 185 119
60 190 137
60 189 130
59 187 128
59 188 127
60 188 134
59 185 127
58 186 126
59 187 127
57 182 122
58 183 123
57 182 114
58 185 127
55 176 118
58 183 133
57 180 120
57 182 128
57 181 116
57 183 124
57 182 122
57 182 110
57 178 126
57 178 116
57 180 122
58 181 134
56 177 126
58 182 127
55 171 109
56 176 125
55 172 115
56 175 119
53 166 103
52 163 110
52 166 109
52 161 116
50 156 112
147 187 176
218 231 247
165 158 155
154 153 122
115 129 75
77 110 64
43 99 70
29 88 54
31 92 69
33 98 78
30 93 66
35 100 76
38 109 82
38 108 80
41 114 93
43 115 108
39 110 78
43 116 90
42 116 97
44 120 105
43 121 88
45 124 104
45 123 99
46 126 97
45 122 93
47 129 106
48 132 102
50 133 97
69 136 108
79 138 97
106 143 81
96 140 80
107 141 84
109 140 72
123 146 73
126 145 59
141 148 59
146 150 65
147 150 44
151 151 0
151 151 0
150 150 0
149 150 0
147 149 0
149 149 0
151 150 0
150 150 0
150 150 0
153 151 0
150 151 0
151 150 0
152 150 0
151 150 0
149 149 0
150 150 36
152 151 0
152 151 25
154 152 0
152 151 25
153 151 0
153 151 0
151 150 0
152 152 25
153 151 0
153 151 25
153 151 25
155 152 25
155 152 51
154 152 44
154 152 36
155 153 36
155 153 57
154 153 44
155 153 51
155 152 25
155 152 57
155 152 51
156 153 51
155 152 57
157 153 67
159 155 84
161 156 88
157 154 72
158 154 72
158 154 72
157 154 72
157 154 72
158 155 84
158 154 72
159 155 67
160 155 76
159 154 95
158 155 84
165 158 105
164 158 114
162 157 98
162 157 98
162 156 98
162 156 91
161 156 91
161 156 95
160 156 95
165 158 116
162 157 105
164 157 114
166 159 114
164 158 116
165 159 124
164 159 114
160 156 102
164 159 122
165 159 116
166 160 124
168 160 132
164 158 119
163 158 116
167 161 124
166 160 127
165 159 114
164 158 116
168 161 134
164 158 119
169 161 137
163 158 105
168 161 132
171 163 152
167 160 127
169 161 139
168 161 139
161 156 88
171 163 144
167 160 127
167 160 132
168 162 144
170 162 141
168 161 130
165 159 122
170 163 144
170 162 141
169 161 139
172 164 155
172 163 159
169 162 144
170 163 148
173 164 159
170 163 144
171 163 146
169 162 139
174 165 163
173 164 161
218 233 254
218 233 254
218 233 254
218 233 254
218 233 254
218 233 254
218 233 254
218 233 254
218 233 254
218 233 254
218 233 254
218 233 254
218 233 254
218 233 254
218 233 254
218 233 254
218 233 254
218 233 254
218 233 254
218 233 254
218 233 254
218 233 254
218 233 254
218 233 254
218 233 254
218 233 254
218 233 254
218 233 254
218 233 254
218 233 254
218 233 254
218 233 254
218 233 254
218 233 254
218 233 254
218 233 254
218 233 254
218 233 254
218 233 254
218 233 254
218 233 254
218 233 254
218 233 254
218 233 254
218 233 254
218 233 254
218 233 254
218 233 254
218 233 254
218 233 254
218 233 254
218 233 254
218 233 254
218 233 254
218 233 254
218 233 254
218 233 254
218 233 254
218 233 254
218 233 254
218 233 254
218 233 254
218 233 254
218 233 254
218 233 254
218 233 254
218 233 254
218 233 254
218 233 254
218 233 254
218 233 254
218 233 254
218 233 254
218 233 254
218 233 254
218 233 254
218 233 254
218 233 254
218 233 254
218 233 254
218 233 254
218 233 254
218 233 254
218 233 254
218 233 254
218 233 254
218 233 254
218 233 254
218 233 254
218 233 254
218 233 254
218 233 254
218 233 254
218 233 254
218 233 254
218 233 254
218 233 254
218 233 254
218 233 254
218 233 254
218 233 254
218 233 254
218 233 254
218 233 254
218 233 254
218 233 254
218 233 254
218 233 254
218 233 254
218 233 254
218 233 254
218 233 254
217 233 254
217 233 254
217 233 254
217 233 254
217 233 254
217 233 254
217 233 254
217 233 254
217 233 254
217 233 254
217 233 254
217 233 254
217 233 254
217 233 254
217 233 254
217 233 254
217 232 254
216 232 254
216 232 254
216 232 254
216 232 254
216 232 254
216 232 254
216 232 254
216 232 254
215 232 254
215 232 254
215 232 254
215 232 254
215 231 254
214 231 254
214 231 254
214 231 254
213 231 254
213 230 254
213 230 251
216 230 229
163 213 190
62 196 154
62 195 145
61 192 137
60 191 138
61 192 134
61 192 140
59 190 132
60 191 132
57 183 114
59 188 124
59 189 131
60 190 130
60 190 133
60 190 127
59 189 126
61 194 145
58 187 122
60 189 124
58 187 122
59 189 124
59 189 120
60 190 128
60 191 130
59 188 128
59 189 126
57 186 122
59 188 124
59 188 120
58 186 116
59 189 133
60 189 127
59 188 118
60 190 134
60 189 127
59 188 119
59 189 134
59 188 128
60 189 133
60 190 127
60 189 128
59 188 128
59 189 126
58 188 124
57 184 106
59 188 126
60 192 138
59 187 123
59 188 128
59 187 126
58 187 126
58 184 115
58 185 119
58 186 122
58 187 123
59 187 124
58 186 115
60 191 133
57 183 126
58 187 122
58 185 119
58 185 120
60 189 133
59 188 132
58 186 130
59 187 128
58 186 118
58 184 122
59 188 130
59 188 127
58 182 118
57 181 109
58 184 128
58 185 123
58 183 124
59 188 127
58 184 118
57 182 115
57 181 112
58 186 128
58 182 127
56 179 119
58 180 118
58 183 123
57 182 131
57 179 126
57 180 130
56 178 122
56 177 122
57 177 118
57 179 129
57 179 126
55 173 108
54 171 106
56 176 124
54 171 108
56 171 114
55 171 125
52 164 116
49 155 103
49 154 107
175 203 198
216 230 233
161 160 148
168 161 146
130 139 98
90 114 46
51 97 55
36 94 57
33 92 69
31 91 56
39 109 78
36 103 78
36 103 78
39 107 83
40 113 90
40 111 91
41 112 88
46 124 103
42 115 93
43 118 92
43 115 91
44 121 90
44 121 77
48 127 121
46 126 106
46 125 91
55 135 103
56 132 98
71 136 103
94 142 95
92 138 86
94 136 72
112 141 74
114 142 76
122 144 62
132 146 80
133 145 51
147 149 25
146 149 0
150 150 0
147 150 0
146 148 0
146 148 0
147 149 0
152 152 0
149 150 0
148 148 0
150 150 0
144 149 0
151 150 0
150 151 0
150 150 0
149 149 0
153 151 0
150 150 0
153 151 0
149 150 0
153 152 0
150 150 0
152 151 0
150 150 0
151 150 0
151 150 0
152 151 0
153 151 0
153 151 0
153 152 0
154 152 0
153 151 0
153 151 0
154 151 0
153 152 0
154 151 0
153 151 0
153 151 0
154 152 0
154 152 0
153 151 0
155 153 36
153 151 0
154 152 0
155 152 36
153 150 0
154 153 44
151 149 0
152 151 0
154 152 25
156 153 62
156 153 62
156 153 36
156 153 62
158 154 62
157 153 67
156 154 72
156 154 72
158 154 84
158 154 76
157 154 76
159 155 80
159 155 76
160 155 80
157 154 80
159 155 80
159 155 72
161 156 98
162 157 91
160 156 80
159 156 88
162 157 91
164 158 111
160 156 84
163 158 108
161 156 95
164 159 111
164 158 116
158 155 80
161 157 98
165 159 119
164 158 108
163 157 95
164 159 116
162 157 105
164 158 111
165 159 111
164 158 114
165 159 108
165 159 114
165 159 124
168 161 137
165 159 119
168 161 137
167 160 130
164 158 114
165 159 116
170 162 141
170 162 144
166 160 119
172 164 150
172 163 157
165 159 114
166 160 127
169 162 139
167 160 119
169 162 144
169 161 139
171 163 152
174 165 165
165 159 116
169 162 139
174 165 161
218 233 254
218 233 254
218 233 254
218 233 254
218 233 254
218 233 254
218 233 254
218 233 254
218 233 254
218 233 254
218 233 254
218 233 254
218 233 254
218 233 254
218 233 254
218 233 254
218 233 254
218 233 254
218 233 254
218 233 254
218 233 254
218 233 254
218 233 254
218 233 254
218 233 254
218 233 254
218 233 254
218 233 254
218 233 254
218 233 254
218 233 254
218 233 254
218 233 254
218 233 254
218 233 254
218 233 254
218 233 254
218 233 254
218 233 254
218 233 254
218 233 254
218 233 254
218 233 254
218 233 254
218 233 254
218 233 254
218 233 254
218 233 254
218 233 254
218 233 254
218 233 254
218 233 254
218 233 254
218 233 254
218 233 254
218 233 254
218 233 254
218 233 254
218 233 254
218 233 254
218 233 254
218 233 254
218 233 254
218 233 254
218 233 254
218 233 254
218 233 254
218 233 254
218 233 254
218 233 254
218 233 254
218 233 254
218 233 254
218 233 254
218 233 254
218 233 254
218 233 254
218 233 254
218 233 254
218 233 254
218 233 254
218 233 254
218 233 254
218 233 254
218 233 254
218 233 254
218 233 254
218 233 254
218 233 254
218 233 254
218 233 254
218 233 254
218 233 254
218 233 254
218 233 254
218 233 254
218 233 254
218 233 254
218 233 254
218 233 254
218 233 254
218 233 254
218 233 254
217 233 254
217 233 254
217 233 254
217 233 254
217 233 254
217 233 254
217 233 254
217 233 254
217 233 254
217 233 254
217 233 254
217 233 254
217 233 254
217 233 254
217 233 254
217 233 254
217 233 254
217 233 254
217 233 254
217 233 254
217 232 254
217 232 254
216 232 254
216 232 254
216 232 254
216 232 254
216 232 254
216 232 254
216 232 254
216 232 254
216 232 254
215 232 254
215 232 254
215 232 254
215 232 254
215 231 254
215 231 254
214 231 254
214 231 254
214 231 254
213 231 254
213 230 254
212 230 254
212 230 254
195 215 185
174 197 0
158 196 59
63 196 147
62 195 144
62 196 152
62 194 149
60 191 130
59 189 126
60 190 127
60 190 128
59 189 126
59 189 126
59 189 127
61 193 137
59 188 122
59 190 130
60 190 124
60 191 134
60 190 127
59 188 124
60 191 133
59 189 124
58 187 112
59 187 119
58 187 115
59 188 123
59 189 128
60 191 131
61 191 133
59 190 132
59 188 122
59 187 124
58 186 114
60 190 134
61 190 136
60 189 127
60 189 131
58 185 118
59 187 123
58 187 122
60 191 132
59 189 131
58 188 128
59 189 128
58 187 123
58 185 116
58 187 123
59 188 130
59 188 126
58 187 118
60 189 134
59 187 126
60 190 131
57 184 115
59 188 131
59 188 128
59 189 131
61 190 134
59 187 127
59 188 116
59 188 128
58 185 119
58 186 124
59 187 128
58 184 114
59 188 132
58 185 112
58 184 124
59 187 131
58 188 126
58 186 120
59 187 123
58 186 116
58 184 130
59 186 127
58 186 133
59 187 127
58 183 126
59 185 126
59 185 127
59 187 134
59 184 130
56 177 119
57 181 127
58 182 126
57 181 126
56 179 122
57 179 122
56 177 108
56 178 120
56 176 106
57 179 128
56 175 123
56 175 125
55 174 115
56 175 119
56 172 118
56 172 122
54 165 107
54 167 112
50 160 100
48 151 99
166 194 31
175 198 0
160 171 88
163 157 139
150 152 102
123 136 71
84 110 57
49 102 57
32 96 51
34 96 41
34 99 62
34 96 59
37 102 69
38 107 70
39 110 81
40 111 90
39 109 79
41 113 87
42 116 79
44 120 87
44 122 104
44 121 96
45 123 94
44 123 89
45 125 89
47 130 90
54 133 101
68 129 69
78 136 88
82 134 82
96 139 84
113 141 59
110 140 65
112 142 65
119 144 72
130 146 54
144 148 40
148 149 0
139 147 0
146 149 0
147 150 0
146 149 0
144 147 0
149 149 0
146 149 0
148 150 0
145 148 0
152 151 0
153 151 0
147 148 0
146 148 0
150 150 0
148 149 0
153 151 0
150 150 0
149 150 0
150 150 0
148 150 0
149 149 0
151 150 0
150 150 0
152 150 0
150 149 0
151 151 0
151 150 0
151 151 0
151 149 0
151 151 0
152 150 0
150 149 0
154 151 0
154 152 0
152 150 0
149 149 0
153 151 0
153 152 0
152 151 0
153 152 0
152 150 0
154 151 0
150 149 0
154 151 0
153 152 0
152 150 0
153 152 0
154 152 0
154 151 0
154 152 0
154 151 0
151 149 0
152 151 0
155 152 0
153 151 0
154 152 36
156 152 25
153 152 36
153 151 25
155 153 51
158 154 36
155 153 25
156 153 57
156 153 51
156 152 51
155 153 51
159 155 76
158 155 72
160 155 88
158 154 62
156 153 57
159 155 84
159 154 76
157 153 57
155 153 76
161 156 91
159 154 80
158 154 67
160 155 98
159 155 84
161 156 95
161 156 84
159 154 88
162 157 108
160 156 91
163 157 102
162 157 102
162 157 95
164 158 105
161 156 91
163 157 108
165 159 116
163 158 111
163 157 108
165 159 122
163 158 111
163 158 111
168 161 127
165 159 111
165 159 114
164 158 111
165 159 114
164 159 124
168 161 124
165 158 119
161 156 98
168 161 132
166 160 124
167 160 124
164 158 122
164 158 127
166 160 124
217 233 254
217 233 254
217 233 254
217 233 254
217 233 254
217 233 254
217 233 254
217 233 254
217 233 254
217 233 254
217 233 254
217 233 254
217 233 254
217 233 254
217 233 254
217 233 254
217 233 254
218 233 254
218 233 254
218 233 254
218 233 254
218 233 254
218 233 254
218 233 254
218 233 254
218 233 254
218 233 254
218 233 254
218 233 254
218 233 254
218 233 254
218 233 254
218 233 254
218 233 254
218 233 254
218 233 254
218 233 254
218 233 254
218 233 254
218 233 254
218 233 254
218 233 254
218 233 254
218 233 254
218 233 254
218 233 254
218 233 254
218 233 254
218 233 254
218 233 254
218 233 254
218 233 254
218 233 254
218 233 254
218 233 254
218 233 254
218 233 254
218 233 254
218 233 254
218 233 254
218 233 254
218 233 254
218 233 254
218 233 254
218 233 254
218 233 254
218 233 254
218 233 254
218 233 254
218 233 254
218 233 254
218 233 254
218 233 254
218 233 254
218 233 254
218 233 254
218 233 254
218 233 254
218 233 254
218 233 254
218 233 254
218 233 254
218 233 254
218 233 254
218 233 254
218 233 254
218 233 254
218 233 254
218 233 254
218 233 254
218 233 254
217 233 254
217 233 254
217 233 254
217 233 254
217 233 254
217 233 254
217 233 254
217 233 254
217 233 254
217 233 254
217 233 254
217 233 254
217 233 254
217 233 254
217 233 254
217 233 254
217 233 254
217 233 254
217 233 254
217 233 254
217 233 254
217 233 254
217 233 254
217 233 254
217 233 254
217 233 254
217 233 254
217 232 254
217 232 254
216 232 254
216 232 254
216 232 254
216 232 254
216 232 254
216 232 254
216 232 254
216 232 254
216 232 254
216 232 254
216 232 254
215 232 254
215 232 254
215 232 254
215 232 254
215 231 254
215 231 254
214 231 254
214 231 254
214 231 254
214 231 254
213 231 254
213 231 254
213 230 254
212 230 254
212 230 254
211 229 254
182 204 111
172 196 0
174 197 0
78 193 131
61 193 141
59 190 138
60 190 132
61 192 136
60 191 132
59 190 130
60 190 130
59 190 131
60 191 138
59 189 127
59 191 133
59 188 123
58 187 123
59 187 127
59 188 119
59 190 131
58 187 116
59 188 128
58 186 118
59 189 132
59 188 123
59 188 120
59 188 123
61 192 133
60 191 134
60 191 136
58 188 131
58 188 127
59 189 130
57 186 119
58 187 124
59 189 130
59 189 130
57 186 119
58 185 126
57 187 128
59 188 123
57 184 114
60 189 126
59 187 120
59 188 118
59 187 115
60 190 128
59 188 131
59 189 127
60 189 126
58 186 115
58 186 123
60 191 133
59 189 128
58 187 128
58 186 114
57 184 116
59 188 128
58 185 124
58 185 116
60 189 131
58 186 120
59 186 118
57 184 115
59 187 127
58 187 127
59 188 124
59 187 132
58 186 124
59 186 128
59 188 133
59 186 122
59 186 126
58 184 122
58 184 120
60 188 132
58 185 120
58 187 132
59 188 132
57 181 112
59 185 127
58 186 124
59 186 127
56 177 119
58 183 122
57 181 122
56 178 119
57 180 123
57 181 124
58 184 129
56 177 123
55 175 120
54 173 110
55 174 116
54 171 103
55 173 122
52 166 111
55 174 118
55 174 109
51 162 105
50 161 107
52 162 111
74 163 91
173 196 0
173 197 0
170 190 57
159 154 137
154 153 80
119 135 65
99 123 39
63 101 41
49 102 50
34 97 59
36 103 73
33 95 57
38 105 64
35 101 66
38 110 67
40 111 81
40 112 87
42 116 79
42 118 90
44 120 102
43 116 77
44 120 82
45 123 92
45 123 90
45 128 93
46 127 98
52 126 91
62 127 82
71 131 88
83 131 65
90 134 76
100 138 67
117 139 62
120 144 65
128 145 51
132 145 44
137 146 0
143 147 0
139 145 0
144 149 0
141 146 0
140 146 0
145 147 0
146 149 0
145 148 0
150 149 0
146 147 0
147 149 0
144 148 0
147 149 0
146 148 0
150 150 0
149 149 0
149 149 0
150 150 0
149 150 0
146 148 0
145 147 0
150 150 0
149 149 0
149 149 0
148 149 0
147 150 0
150 149 0
154 152 0
151 149 0
151 149 0
151 150 0
152 150 0
153 151 0
151 150 0
154 151 0
151 150 0
149 149 0
151 150 0
152 150 0
151 151 0
150 150 0
149 149 0
150 149 0
152 151 0
153 150 0
151 149 0
154 153 0
151 151 0
150 150 0
156 152 0
153 151 0
153 151 0
153 151 0
154 152 0
151 150 0
153 151 0
154 151 0
152 151 0
152 151 0
154 152 0
154 151 0
153 151 0
155 152 0
153 151 0
153 151 0
152 151 0
153 150 0
157 153 36
153 151 0
155 152 36
154 152 0
154 152 25
153 152 0
157 153 51
156 153 44
154 152 25
158 155 88
155 152 25
157 153 57
157 153 76
158 154 67
160 155 84
159 155 84
158 154 72
158 154 76
158 154 72
156 154 67
156 153 57
160 155 88
160 156 88
160 155 84
162 156 98
161 156 91
162 157 102
159 155 84
164 158 114
161 157 91
165 158 108
161 156 91
162 157 102
165 159 116
161 157 95
164 158 122
166 160 122
161 157 108
168 161 132
162 157 105
165 159 119
165 159 122
167 160 124
167 160 130
164 158 116
171 163 146
217 233 254
217 233 254
217 233 254
217 233 254
217 233 254
217 233 254
217 233 254
217 233 254
217 233 254
217 233 254
217 233 254
217 233 254
217 233 254
217 233 254
217 233 254
217 233 254
217 233 254
217 233 254
217 233 254
217 233 254
217 233 254
217 233 254
217 233 254
217 233 254
217 233 254
217 233 254
217 233 254
217 233 254
217 233 254
217 233 254
217 233 254
217 233 254
217 233 254
217 233 254
217 233 254
217 233 254
217 233 254
217 233 254
217 233 254
217 233 254
217 233 254
217 233 254
217 233 254
217 233 254
217 233 254
217 233 254
217 233 254
217 233 254
217 233 254
217 233 254
217 233 254
218 233 254
218 233 254
218 233 254
218 233 254
218 233 254
218 233 254
218 233 254
218 233 254
218 233 254
218 233 254
218 233 254
217 233 254
218 233 254
218 233 254
218 233 254
218 233 254
217 233 254
217 233 254
217 233 254
217 233 254
217 233 254
217 233 254
217 233 254
217 233 254
217 233 254
217 233 254
217 233 254
217 233 254
217 233 254
217 233 254
217 233 254
217 233 254
217 233 254
217 233 254
217 233 254
217 233 254
217 233 254
217 233 254
217 233 254
217 233 254
217 233 254
217 233 254
217 233 254
217 233 254
217 233 254
217 233 254
217 233 254
217 233 254
217 233 254
217 233 254
217 233 254
217 233 254
217 233 254
217 233 254
217 233 254
217 233 254
217 233 254
217 233 254
217 233 254
217 233 254
217 233 254
217 233 254
217 232 254
216 232 254
216 232 254
216 232 254
216 232 254
216 232 254
216 232 254
216 232 254
216 232 254
216 232 254
216 232 254
216 232 254
216 232 254
216 232 254
215 232 254
215 232 254
215 232 254
215 232 254
215 232 254
215 232 254
215 231 254
214 231 254
214 231 254
214 231 254
214 231 254
214 231 254
213 231 254
213 231 254
213 230 254
212 230 254
212 230 254
211 230 254
211 229 254
204 224 233
175 198 25
173 197 0
173 196 0
118 196 115
60 191 136
60 192 137
61 194 146
61 194 145
59 189 128
60 189 124
59 189 127
59 188 126
60 190 128
60 191 134
60 191 133
59 189 131
59 189 123
58 188 127
59 190 130
58 187 118
57 188 126
59 190 132
58 186 118
61 192 137
59 188 120
58 186 114
61 192 132
59 189 123
59 189 132
59 187 119
59 187 120
60 189 130
58 187 127
59 189 131
58 187 123
59 188 124
59 190 132
57 185 114
59 189 126
58 187 116
58 186 115
58 187 120
60 191 132
58 186 119
59 188 123
59 187 120
58 187 124
59 188 124
57 184 116
58 186 124
59 188 126
58 186 120
58 186 124
60 189 127
59 188 132
59 189 128
59 187 118
60 191 132
58 186 120
58 185 119
58 187 128
60 191 134
59 186 123
60 190 133
59 186 123
60 189 131
58 184 120
58 182 115
58 187 118
59 187 130
58 185 126
58 185 120
58 184 115
60 190 137
58 186 130
57 183 126
57 185 127
57 181 114
59 184 126
59 185 127
59 183 136
57 181 118
58 183 126
57 180 118
58 180 126
58 183 128
55 176 117
58 183 131
57 178 119
56 176 112
57 180 120
55 173 118
54 173 111
56 178 125
55 174 111
56 175 115
54 170 118
54 171 108
52 166 102
54 170 119
51 163 108
50 162 100
114 167 73
174 197 0
171 196 0
173 196 0
153 151 111
157 154 98
139 144 47
108 128 27
91 117 36
67 107 41
40 96 37
32 99 50
38 105 66
36 100 62
35 101 54
37 109 71
41 114 91
40 111 64
38 108 75
41 114 80
40 112 70
43 119 77
41 113 65
46 127 105
47 126 94
47 124 82
56 125 94
57 124 73
69 126 90
72 128 80
88 137 65
98 131 47
106 136 51
113 139 36
120 140 40
125 141 44
132 144 31
137 145 0
134 145 0
138 146 0
138 144 0
144 148 0
131 145 0
145 147 0
140 147 0
141 147 0
144 148 0
144 147 0
140 145 0
141 147 0
146 147 0
143 149 0
148 150 0
149 149 0
147 149 0
148 149 0
149 149 0
148 149 0
151 151 0
147 149 0
149 149 0
147 149 0
148 150 0
148 150 0
152 150 0
151 150 0
149 150 0
153 151 0
151 150 0
149 149 0
148 149 0
151 150 0
153 151 0
152 150 0
152 151 0
149 149 0
152 150 0
152 151 0
154 151 0
152 150 0
149 148 0
153 151 0
152 151 0
152 150 0
153 151 0
152 151 0
154 152 0
154 151 0
153 151 0
153 151 0
149 148 0
154 152 0
154 152 0
152 151 0
154 152 0
152 151 0
154 152 0
154 152 0
153 151 0
153 151 0
154 151 0
151 149 0
155 152 0
155 152 0
155 152 0
152 150 0
153 151 0
153 151 0
156 152 0
155 152 0
155 152 0
153 151 0
150 150 0
155 152 25
154 151 25
155 152 0
156 153 0
155 151 44
155 152 36
154 151 36
154 151 36
155 152 36
156 153 57
157 153 57
156 153 51
158 154 72
157 154 62
155 153 51
159 155 76
160 156 84
156 153 44
161 155 80
159 155 80
158 154 67
163 158 102
164 158 108
160 156 91
162 156 91
163 157 98
159 155 72
161 156 95
165 159 111
162 157 108
160 155 76
164 158 108
164 158 114
167 160 124
162 157 95
163 157 95
165 159 114
167 160 127
217 233 254
217 233 254
217 233 254
217 233 254
217 233 254
217 233 254
217 233 254
217 233 254
217 233 254
217 233 254
217 233 254
217 233 254
217 233 254
217 233 254
217 233 254
217 233 254
217 233 254
217 233 254
217 233 254
217 233 254
217 233 254
217 233 254
217 233 254
217 233 254
217 233 254
217 233 254
217 233 254
217 233 254
217 233 254
217 233 254
217 233 254
217 233 254
217 233 254
217 233 254
217 233 254
217 233 254
217 233 254
217 233 254
217 233 254
217 233 254
217 233 254
217 233 254
217 233 254
217 233 254
217 233 254
217 233 254
217 233 254
217 233 254
217 233 254
217 233 254
217 233 254
217 233 254
217 233 254
217 233 254
217 233 254
217 233 254
217 233 254
217 233 254
217 233 254
217 233 254
217 233 254
217 233 254
217 233 254
217 233 254
217 233 254
217 233 254
217 233 254
217 233 254
217 233 254
217 233 254
217 233 254
217 233 254
217 233 254
217 233 254
217 233 254
217 233 254
217 233 254
217 233 254
217 233 254
217 233 254
217 233 254
217 233 254
217 233 254
217 233 254
217 233 254
217 233 254
217 233 254
217 233 254
217 233 254
217 233 254
217 233 254
217 233 254
217 233 254
217 233 254
217 233 254
217 233 254
217 233 254
217 233 254
217 233 254
217 233 254
217 233 254
217 233 254
217 233 254
217 233 254
217 233 254
217 233 254
217 232 254
217 232 254
217 232 254
216 232 254
216 232 254
216 232 254
216 232 254
216 232 254
216 232 254
216 232 254
216 232 254
216 232 254
216 232 254
216 232 254
216 232 254
216 232 254
216 232 254
216 232 254
215 232 254
215 232 254
215 232 254
215 232 254
215 232 254
215 232 254
215 231 254
215 231 254
214 231 254
214 231 254
214 231 254
214 231 254
214 231 254
213 231 254
213 231 254
213 230 254
212 230 254
212 230 254
212 230 254
211 229 254
210 229 254
210 229 254
192 213 183
173 197 0
173 197 0
173 197 0
150 197 82
60 192 134
61 193 141
61 193 136
59 188 119
60 190 132
61 195 143
60 189 126
60 191 132
60 191 130
60 191 134
60 191 131
58 187 123
59 188 126
60 190 130
60 190 128
57 185 120
59 189 123
56 183 114
59 187 123
58 186 118
60 190 132
59 190 132
58 187 119
59 189 127
58 187 116
58 186 115
59 189 128
58 187 122
58 186 118
60 191 137
58 185 114
58 185 114
58 187 118
60 190 136
59 187 119
59 187 119
58 186 122
58 187 122
59 188 124
58 186 115
59 188 126
58 187 124
59 189 130
58 187 118
58 187 126
58 185 120
59 189 123
58 188 131
58 186 124
58 185 111
58 185 118
58 186 131
59 187 126
59 187 124
59 188 123
59 188 123
58 185 123
58 186 120
59 188 124
59 186 123
58 187 126
57 184 116
57 181 116
58 185 124
58 185 118
58 184 116
58 185 127
58 182 127
59 187 133
57 183 120
59 187 132
59 187 127
58 183 126
58 185 124
60 187 128
57 180 116
57 181 115
56 178 112
58 183 119
57 181 115
58 181 123
58 183 119
56 180 114
58 181 133
56 176 118
56 176 117
57 180 120
55 174 109
56 175 116
56 177 111
54 172 117
53 165 101
54 169 116
55 170 116
52 163 110
51 160 111
48 157 96
49 154 97
134 177 63
174 197 0
175 197 0
172 196 0
154 163 62
155 151 88
153 151 44
122 134 25
105 128 43
89 121 51
75 110 44
38 101 51
34 99 40
37 107 61
36 102 51
38 105 61
40 111 75
39 108 75
40 115 73
40 111 77
41 113 70
42 116 73
42 118 95
44 124 89
47 117 81
53 119 80
50 121 79
65 131 88
66 124 69
76 126 62
89 131 57
93 133 57
107 137 40
119 142 54
120 142 51
127 143 36
136 146 18
128 143 0
138 145 0
135 143 0
138 145 0
142 146 0
139 146 0
146 148 0
139 147 0
144 148 0
143 147 0
137 143 0
142 146 0
143 147 0
141 146 0
142 147 0
145 146 0
145 147 0
145 149 0
148 148 0
149 149 0
148 150 0
148 149 0
150 150 0
147 148 0
150 148 0
149 149 0
151 149 0
148 149 0
144 148 0
150 149 0
150 148 0
150 149 0
149 149 0
148 148 0
152 150 0
152 150 0
148 148 0
154 152 0
153 151 0
150 149 0
153 150 0
149 148 0
151 149 0
153 151 0
154 151 0
151 150 0
153 150 0
153 151 0
154 152 0
154 151 0
153 151 0
150 149 0
152 151 0
153 150 0
153 151 0
154 151 0
152 151 0
154 151 0
153 151 0
153 150 0
153 151 0
154 152 0
155 152 0
151 151 0
153 152 0
154 151 0
154 151 0
154 152 0
153 151 0
154 151 0
151 150 0
153 151 0
153 151 0
154 151 0
154 151 0
153 151 0
153 150 0
151 150 0
154 151 0
156 152 0
156 153 0
154 151 0
154 152 0
154 151 0
154 152 0
156 152 25
157 153 36
155 152 25
156 153 0
154 151 25
154 151 44
154 152 36
153 151 25
155 153 67
155 152 36
159 155 62
159 155 67
156 152 44
157 154 67
155 152 44
161 155 84
157 154 72
156 153 57
160 155 88
159 155 84
159 154 80
161 156 88
160 156 80
164 157 102
164 158 111
165 159 111
163 157 102
164 158 105
161 156 91
217 232 254
217 232 254
217 232 254
217 232 254
217 232 254
217 233 254
217 233 254
217 233 254
217 233 254
217 233 254
217 233 254
217 233 254
217 233 254
217 233 254
217 233 254
217 233 254
217 233 254
217 233 254
217 233 254
217 233 254
217 233 254
217 233 254
217 233 254
217 233 254
217 233 254
217 233 254
217 233 254
217 233 254
217 233 254
217 233 254
217 233 254
217 233 254
217 233 254
217 233 254
217 233 254
217 233 254
217 233 254
217 233 254
217 233 254
217 233 254
217 233 254
217 233 254
217 233 254
217 233 254
217 233 254
217 233 254
217 233 254
217 233 254
217 233 254
217 233 254
217 233 254
217 233 254
217 233 254
217 233 254
217 233 254
217 233 254
217 233 254
217 233 254
217 233 254
217 233 254
217 233 254
217 233 254
217 233 254
217 233 254
217 233 254
217 233 254
217 233 254
217 233 254
217 233 254
217 233 254
217 233 254
217 233 254
217 233 254
217 233 254
217 233 254
217 233 254
217 233 254
217 233 254
217 233 254
217 233 254
217 233 254
217 233 254
217 233 254
217 233 254
217 233 254
217 233 254
217 233 254
217 233 254
217 233 254
217 233 254
217 233 254
217 233 254
217 233 254
217 233 254
217 233 254
217 233 254
217 233 254
217 233 254
217 233 254
217 232 254
217 232 254
216 232 254
216 232 254
216 232 254
216 232 254
216 232 254
216 232 254
216 232 254
216 232 254
216 232 254
216 232 254
216 232 254
216 232 254
216 232 254
216 232 254
216 232 254
216 232 254
216 232 254
216 232 254
216 232 254
215 232 254
215 232 254
215 232 254
215 232 254
215 232 254
215 232 254
215 231 254
215 231 254
215 231 254
214 231 254
214 231 254
214 231 254
214 231 254
214 231 254
213 231 254
213 231 254
213 231 254
213 230 254
212 230 254
212 230 254
212 230 254
211 230 254
211 229 254
210 229 254
209 229 254
208 228 254
182 204 108
172 196 0
173 197 0
174 197 0
170 196 25
72 192 133
60 191 133
59 189 124
59 188 122
60 191 128
60 193 140
59 188 120
59 190 131
60 192 137
60 192 136
59 188 123
60 189 130
59 187 118
58 186 114
59 188 122
58 187 122
60 191 128
60 190 126
59 188 123
57 185 115
59 188 124
58 186 118
58 187 122
58 186 114
57 184 115
58 186 118
58 186 118
57 185 118
60 190 134
58 186 112
59 188 116
60 190 128
59 189 123
60 191 132
58 188 133
60 190 128
58 187 123
58 185 116
60 189 126
56 184 108
57 186 120
59 187 122
59 189 131
60 190 131
58 186 118
58 187 130
58 186 120
58 186 119
58 185 114
59 189 124
59 187 122
60 189 133
58 186 120
59 188 133
58 185 116
58 187 126
58 186 122
58 186 116
60 190 128
58 183 118
58 186 128
58 187 123
59 187 122
59 187 127
57 183 116
59 187 122
58 186 116
59 185 124
57 183 126
58 186 127
58 185 120
56 181 114
58 185 124
57 180 126
55 177 108
55 176 106
59 184 124
55 176 114
59 185 132
58 183 120
57 181 118
57 183 118
55 177 110
56 177 106
56 177 116
56 177 123
53 168 98
57 180 119
56 174 112
55 172 111
54 174 105
55 174 107
56 178 117
55 171 128
50 161 102
50 157 109
50 160 111
45 145 73
168 195 18
174 197 0
172 196 0
173 196 0
167 188 57
150 146 102
151 150 51
138 144 18
126 139 44
104 126 40
82 119 33
56 108 45
54 105 52
39 102 58
40 110 79
39 107 71
41 111 72
39 108 68
39 109 74
41 111 65
41 113 74
43 121 79
41 115 66
48 121 84
49 112 65
60 123 79
64 122 58
64 123 61
82 128 65
89 127 54
94 129 54
96 134 54
107 136 40
116 137 51
110 134 36
129 141 0
131 141 0
133 144 0
135 144 0
138 144 0
130 142 0
138 144 0
136 144 0
140 145 0
139 145 0
141 146 0
139 145 0
136 142 0
143 147 0
142 148 0
146 147 0
144 147 0
150 150 0
147 149 0
146 147 0
149 149 0
148 149 0
144 146 0
145 147 0
148 148 0
149 148 0
149 149 0
148 148 0
145 148 0
151 149 0
149 149 0
153 151 0
149 149 0
146 148 0
150 149 0
148 148 0
151 149 0
152 150 0
150 150 0
150 149 0
148 150 0
149 149 0
150 149 0
154 151 0
150 150 0
149 149 0
151 149 0
152 150 0
149 149 0
151 149 0
152 150 0
153 151 0
154 151 0
153 152 0
153 150 0
150 149 0
153 151 0
153 151 0
150 150 0
154 151 0
152 150 0
151 150 0
153 150 0
154 151 0
152 149 0
152 150 0
151 149 0
152 150 0
154 151 0
153 150 0
153 150 0
153 151 0
153 151 0
154 152 0
154 151 0
153 151 0
152 150 0
155 152 0
152 150 0
155 152 0
154 151 0
154 151 0
155 152 0
153 151 0
154 152 0
155 152 0
154 151 0
154 152 0
156 153 0
152 151 0
153 151 0
154 151 0
154 152 0
152 150 0
154 151 0
155 152 0
154 151 0
153 151 25
157 152 36
157 154 36
155 153 51
158 154 44
152 150 36
156 153 57
156 153 62
158 154 57
159 154 67
158 154 67
158 154 67
156 153 67
159 155 72
158 154 67
161 156 91
159 156 88
159 155 80
156 153 67
216 232 254
216 232 254
216 232 254
216 232 254
216 232 254
216 232 254
216 232 254
216 232 254
216 232 254
216 232 254
216 232 254
216 232 254
216 232 254
216 232 254
217 232 254
217 232 254
217 232 254
217 232 254
217 232 254
217 232 254
217 232 254
217 233 254
217 233 254
217 233 254
217 233 254
217 233 254
217 233 254
217 233 254
217 233 254
217 233 254
217 233 254
217 233 254
217 233 254
217 233 254
217 233 254
217 233 254
217 233 254
217 233 254
217 233 254
217 233 254
217 233 254
217 233 254
217 233 254
217 233 254
217 233 254
217 233 254
217 233 254
217 233 254
217 233 254
217 233 254
217 233 254
217 233 254
217 233 254
217 233 254
217 233 254
217 233 254
217 233 254
217 233 254
217 233 254
217 233 254
217 233 254
217 233 254
217 233 254
217 233 254
217 233 254
217 233 254
217 233 254
217 233 254
217 233 254
217 233 254
217 233 254
217 233 254
217 233 254
217 233 254
217 233 254
217 233 254
217 233 254
217 233 254
217 233 254
217 233 254
217 233 254
217 233 254
217 233 254
217 233 254
217 233 254
217 233 254
217 233 254
217 233 254
217 232 254
217 232 254
217 232 254
217 232 254
217 232 254
216 232 254
216 232 254
216 232 254
216 232 254
216 232 254
216 232 254
216 232 254
216 232 254
216 232 254
216 232 254
216 232 254
216 232 254
216 232 254
216 232 254
216 232 254
216 232 254
216 232 254
216 232 254
216 232 254
216 232 254
216 232 254
216 232 254
215 232 254
215 232 254
215 232 254
215 232 254
215 232 254
215 232 254
215 232 254
215 232 254
215 231 254
215 231 254
215 231 254
214 231 254
214 231 254
214 231 254
214 231 254
214 231 254
214 231 254
213 231 254
213 231 254
213 230 254
213 230 254
212 230 254
212 230 254
212 230 254
211 230 254
211 229 254
211 229 254
210 229 254
209 228 254
208 228 254
199 220 217
172 196 0
174 197 0
174 197 0
173 196 0
172 196 0
116 193 109
58 188 128
60 190 130
60 191 133
59 188 116
60 189 128
59 190 130
59 187 128
59 188 123
59 189 126
59 189 120
59 189 127
58 187 115
59 190 127
58 186 119
59 188 120
60 189 119
59 188 122
59 188 132
59 187 116
57 185 120
59 187 122
59 189 123
61 192 133
59 188 120
59 188 128
58 187 124
58 188 124
58 188 123
61 191 138
58 186 116
59 188 123
59 187 124
58 186 119
59 188 120
59 187 114
57 185 116
60 190 136
58 187 118
58 185 115
57 185 118
58 187 122
58 187 120
60 190 127
59 189 123
59 189 123
57 184 119
59 188 127
57 184 118
58 185 123
58 186 122
58 185 122
58 185 119
58 186 119
58 186 120
56 182 105
58 186 118
57 185 120
59 187 122
59 187 123
58 186 115
56 181 112
59 188 126
59 187 120
58 184 122
57 184 123
58 185 126
57 182 119
57 180 109
56 181 114
56 181 111
58 183 109
58 185 126
59 187 126
57 181 116
58 184 122
57 183 114
57 183 120
57 181 120
56 178 114
56 179 109
55 173 112
58 184 122
54 172 106
57 179 119
54 174 112
55 176 115
55 176 112
55 174 116
55 173 113
55 172 120
53 169 104
53 168 108
53 166 102
51 160 106
53 166 101
50 156 103
110 161 62
171 196 0
174 196 0
173 196 0
173 197 0
173 196 0
145 150 72
152 149 44
145 147 0
129 140 25
109 132 36
95 123 44
82 119 49
69 111 39
52 105 40
41 103 49
41 105 63
37 106 61
42 108 54
45 111 67
38 107 59
41 113 54
48 115 62
45 114 67
43 113 77
52 118 65
55 120 67
52 119 67
80 124 59
80 125 62
77 124 51
98 132 54
105 132 40
100 130 44
109 133 31
115 136 25
121 139 18
125 136 0
134 141 0
133 142 0
130 141 0
134 143 0
137 144 0
135 143 0
132 142 0
133 142 0
142 147 0
142 147 0
139 145 0
145 148 0
146 147 0
146 148 0
137 142 0
143 146 0
140 145 0
145 148 0
149 149 0
144 148 0
146 148 0
153 150 0
142 145 0
147 148 0
144 145 0
145 148 0
148 149 0
148 148 0
148 148 0
147 149 0
150 149 0
152 150 0
146 147 0
150 150 0
153 150 0
145 147 0
148 148 0
153 150 0
150 149 0
153 149 0
147 149 0
150 149 0
151 149 0
149 147 0
151 150 0
151 150 0
151 149 0
152 150 0
152 151 0
149 149 0
153 150 0
155 151 0
149 148 0
152 150 0
152 151 0
153 150 0
151 150 0
152 150 0
151 149 0
153 150 0
153 150 0
152 150 0
153 151 0
154 151 0
153 150 0
151 151 0
154 150 0
152 150 0
152 150 0
153 150 0
155 152 0
152 150 0
154 152 0
153 151 0
153 150 0
153 150 0
152 151 0
154 152 0
152 150 0
154 152 0
154 151 0
154 152 0
154 152 0
152 150 0
155 151 0
153 151 0
155 152 0
154 151 0
154 152 0
155 152 0
154 151 0
154 150 0
154 152 0
154 152 0
154 151 0
153 151 0
155 152 0
156 153 0
154 151 0
154 151 0
156 153 25
154 151 0
156 153 36
155 152 36
155 153 36
154 152 36
155 152 57
157 153 51
159 155 67
157 153 57
158 154 72
154 152 44
157 153 72
158 153 67
216 232 254
216 232 254
216 232 254
216 232 254
216 232 254
216 232 254
216 232 254
216 232 254
216 232 254
216 232 254
216 232 254
216 232 254
216 232 254
216 232 254
216 232 254
216 232 254
216 232 254
216 232 254
216 232 254
216 232 254
216 232 254
216 232 254
216 232 254
216 232 254
216 232 254
216 232 254
216 232 254
216 232 254
216 232 254
216 232 254
216 232 254
216 232 254
216 232 254
217 232 254
217 232 254
217 232 254
217 232 254
217 232 254
217 232 254
217 232 254
217 232 254
217 232 254
217 232 254
217 232 254
217 232 254
217 232 254
217 232 254
217 232 254
217 232 254
217 233 254
217 233 254
217 233 254
217 233 254
217 233 254
217 233 254
217 233 254
217 233 254
217 233 254
217 233 254
217 233 254
217 233 254
217 233 254
217 233 254
217 233 254
217 233 254
217 233 254
217 232 254
217 233 254
217 232 254
217 232 254
217 232 254
217 232 254
217 232 254
217 232 254
217 232 254
217 232 254
217 232 254
217 232 254
216 232 254
216 232 254
216 232 254
216 232 254
216 232 254
216 232 254
216 232 254
216 232 254
216 232 254
216 232 254
216 232 254
216 232 254
216 232 254
216 232 254
216 232 254
216 232 254
216 232 254
216 232 254
216 232 254
216 232 254
216 232 254
216 232 254
216 232 254
216 232 254
216 232 254
216 232 254
216 232 254
216 232 254
216 232 254
216 232 254
216 232 254
216 232 254
215 232 254
215 232 254
215 232 254
215 232 254
215 232 254
215 232 254
215 232 254
215 232 254
215 232 254
215 232 254
215 231 254
215 231 254
214 231 254
214 231 254
214 231 254
214 231 254
214 231 254
214 231 254
214 231 254
213 231 254
213 231 254
213 231 254
213 230 254
213 230 254
212 230 254
212 230 254
212 230 254
211 230 254
211 229 254
211 229 254
210 229 254
210 229 254
209 228 254
208 228 254
207 227 254
186 208 150
175 197 0
173 197 0
172 196 0
174 197 0
172 196 0
149 194 65
61 192 139
58 188 124
60 190 133
59 188 127
59 187 118
60 191 130
59 190 128
60 190 127
58 186 123
59 189 132
59 188 122
57 186 123
58 186 118
58 186 123
59 190 133
59 187 122
58 187 118
58 187 120
58 187 119
59 189 126
58 184 118
58 187 124
58 185 119
58 187 123
58 188 126
58 185 112
59 188 131
58 188 122
59 188 126
57 185 114
58 186 112
58 186 116
58 188 131
58 186 112
58 186 120
59 187 124
58 185 106
59 187 116
59 188 124
58 185 118
58 187 116
59 189 126
59 188 123
59 188 127
57 185 116
60 190 124
59 188 123
58 185 112
58 187 123
57 185 127
56 184 115
57 185 115
58 187 127
57 183 112
57 183 109
57 184 108
59 188 127
58 187 124
59 187 120
58 185 124
57 183 114
57 184 119
56 181 115
58 185 120
58 183 124
58 183 115
57 180 109
59 187 122
60 188 131
59 184 118
58 184 118
57 182 119
57 181 118
55 176 108
58 182 116
57 183 118
56 180 114
56 177 105
57 180 115
57 179 118
54 175 103
57 178 116
56 178 105
56 179 109
55 175 103
55 173 113
54 173 93
54 172 112
55 177 116
53 173 100
53 167 97
53 167 111
52 165 100
53 167 99
50 156 104
49 157 93
142 181 58
174 197 0
172 197 0
171 195 0
171 196 0
172 196 0
161 176 67
147 144 57
143 146 0
141 145 0
126 138 18
110 132 33
99 122 28
87 120 33
81 116 44
66 112 18
52 109 66
59 111 56
41 110 54
44 107 59
54 115 62
48 108 51
46 112 57
51 113 51
54 113 65
60 120 66
56 112 58
80 126 57
66 112 57
82 124 59
90 128 44
90 121 40
102 132 45
109 134 44
104 128 31
123 137 0
115 135 18
125 141 0
121 137 0
131 141 0
127 141 0
127 138 0
129 140 0
138 145 0
133 140 0
136 145 0
132 141 0
135 143 0
139 144 0
144 147 0
141 143 0
140 145 0
142 148 0
145 148 0
142 146 0
144 147 0
139 145 0
143 146 0
145 145 0
144 146 0
146 147 0
147 148 0
144 146 0
147 149 0
151 149 0
145 147 0
148 148 0
146 148 0
151 150 0
148 147 0
148 148 0
152 151 0
150 149 0
147 148 0
147 148 0
150 149 0
152 150 0
152 150 0
148 149 0
151 150 0
150 151 0
151 149 0
148 147 0
152 150 0
152 149 0
147 146 0
150 148 0
152 150 0
151 150 0
150 149 0
152 150 0
148 147 0
153 150 0
146 147 0
154 151 0
154 150 0
151 149 0
153 151 0
153 151 0
151 150 0
152 150 0
153 150 0
151 150 0
153 150 0
154 150 0
154 151 0
154 150 0
151 149 0
153 150 0
155 152 0
152 149 0
152 151 0
151 151 0
153 150 0
153 151 0
154 151 0
151 149 0
151 150 0
155 151 0
153 151 0
152 150 0
155 152 0
155 151 0
153 151 0
151 150 0
152 150 0
154 152 0
155 152 0
154 151 0
153 150 0
153 151 0
154 151 0
155 152 0
152 151 0
155 151 0
152 150 0
155 151 0
154 152 0
155 152 0
153 150 0
155 152 0
154 150 0
155 151 0
155 152 0
153 150 0
154 152 25
153 151 0
155 152 36
156 153 44
159 154 62
156 152 44
157 153 51
216 232 254
216 232 254
216 232 254
216 232 254
216 232 254
216 232 254
216 232 254
216 232 254
216 232 254
216 232 254
216 232 254
216 232 254
216 232 254
216 232 254
216 232 254
216 232 254
216 232 254
216 232 254
216 232 254
216 232 254
216 232 254
216 232 254
216 232 254
216 232 254
216 232 254
216 232 254
216 232 254
216 232 254
216 232 254
216 232 254
216 232 254
216 232 254
216 232 254
216 232 254
216 232 254
216 232 254
216 232 254
216 232 254
216 232 254
216 232 254
216 232 254
216 232 254
216 232 254
216 232 254
216 232 254
216 232 254
216 232 254
216 232 254
216 232 254
216 232 254
216 232 254
216 232 254
216 232 254
216 232 254
216 232 254
216 232 254
216 232 254
216 232 254
216 232 254
216 232 254
216 232 254
216 232 254
216 232 254
216 232 254
216 232 254
216 232 254
216 232 254
216 232 254
216 232 254
216 232 254
216 232 254
216 232 254
216 232 254
216 232 254
216 232 254
216 232 254
216 232 254
216 232 254
216 232 254
216 232 254
216 232 254
216 232 254
216 232 254
216 232 254
216 232 254
216 232 254
216 232 254
216 232 254
216 232 254
216 232 254
216 232 254
216 232 254
216 232 254
216 232 254
216 232 254
216 232 254
216 232 254
216 232 254
216 232 254
216 232 254
216 232 254
216 232 254
216 232 254
216 232 254
216 232 254
215 232 254
215 232 254
215 232 254
215 232 254
215 232 254
215 232 254
215 232 254
215 232 254
215 232 254
215 232 254
215 231 254
215 231 254
215 231 254
215 231 254
214 231 254
214 231 254
214 231 254
214 231 254
214 231 254
214 231 254
214 231 254
214 231 254
213 231 254
213 231 254
213 230 254
213 230 254
213 230 254
212 230 254
212 230 254
212 230 254
211 230 254
211 229 254
211 229 254
210 229 254
210 229 254
209 229 254
209 228 254
208 228 254
207 227 254
202 223 237
171 196 25
173 197 0
172 195 0
172 196 0
173 197 0
172 196 0
170 197 31
80 193 132
59 191 128
59 188 126
57 185 120
59 189 126
60 190 123
59 188 130
59 189 128
58 186 120
58 185 114
57 185 120
61 191 136
58 187 128
58 187 123
59 188 120
59 188 126
58 187 119
59 188 124
59 188 120
58 187 118
58 186 116
58 187 119
59 188 122
57 182 112
56 184 114
57 184 122
59 188 122
59 188 123
58 186 118
58 187 127
59 189 127
58 187 122
57 185 114
58 186 124
58 187 114
58 186 111
57 184 119
57 184 114
58 186 119
60 192 137
57 185 119
56 182 103
57 183 111
58 186 116
58 186 124
59 188 124
57 183 118
58 185 122
58 185 119
57 184 114
58 187 127
57 185 126
58 186 120
57 183 116
59 186 120
59 187 128
57 185 118
58 186 120
57 183 108
57 182 111
59 185 114
58 185 123
58 185 116
59 189 132
58 184 114
57 184 123
57 183 116
57 180 111
57 181 116
58 183 120
57 183 111
56 180 111
57 182 114
56 179 108
54 176 108
57 179 120
58 183 124
56 179 116
54 176 105
56 177 115
57 182 116
56 179 116
56 177 111
54 172 93
57 178 112
55 174 110
56 174 108
55 174 114
53 170 105
57 178 122
53 166 102
54 169 109
52 163 112
50 161 106
51 159 92
65 149 78
170 195 18
174 197 0
171 196 0
173 197 0
172 196 0
172 197 0
173 196 0
146 149 36
141 144 0
143 144 0
141 144 0
126 139 31
111 130 31
80 112 18
74 114 31
71 112 47
71 112 36
66 108 36
54 107 44
45 103 40
46 111 46
46 110 65
47 107 52
55 110 65
59 116 51
63 115 65
63 116 47
74 114 36
74 119 67
67 115 31
85 125 44
99 131 44
96 126 18
102 123 18
120 135 0
116 135 0
122 134 0
119 135 0
130 140 0
133 140 0
122 136 0
130 140 0
124 140 0
125 140 0
134 143 0
135 142 0
136 143 0
132 140 0
140 144 0
139 145 0
136 142 0
137 144 0
143 146 0
140 147 0
141 145 0
140 147 0
141 145 0
146 146 0
141 146 0
146 147 0
148 148 0
143 146 0
144 145 0
144 146 0
147 148 0
148 148 0
147 147 0
148 147 0
150 148 0
148 148 0
148 148 0
149 148 0
145 146 0
148 146 0
142 146 0
150 148 0
148 148 0
150 149 0
147 148 0
150 150 0
149 148 0
151 149 0
150 149 0
149 147 0
151 149 0
153 150 0
147 149 0
151 150 0
149 148 0
151 150 0
150 149 0
150 149 0
153 150 0
152 151 0
151 150 0
150 148 0
147 145 0
155 151 0
151 149 0
148 147 0
151 149 0
152 150 0
151 148 0
153 151 0
151 149 0
153 150 0
150 149 0
151 151 0
153 150 0
150 149 0
152 150 0
153 151 0
153 151 0
155 151 0
154 151 0
155 151 0
153 150 0
153 150 0
153 151 0
152 149 0
152 150 0
153 150 0
153 150 0
155 151 0
153 150 0
155 151 0
154 151 0
155 152 0
156 152 0
154 151 0
152 151 0
154 151 0
151 150 0
153 151 0
154 150 0
155 151 0
152 150 0
154 152 0
155 151 0
154 150 0
153 150 0
152 149 0
153 151 0
155 152 0
155 152 0
154 151 0
154 152 0
156 152 0
154 151 0
153 151 0
154 152 25
157 153 36
215 232 254
215 232 254
216 232 254
216 232 254
216 232 254
216 232 254
216 232 254
216 232 254
216 232 254
216 232 254
216 232 254
216 232 254
216 232 254
216 232 254
216 232 254
216 232 254
216 232 254
216 232 254
216 232 254
216 232 254
216 232 254
216 232 254
216 232 254
216 232 254
216 232 254
216 232 254
216 232 254
216 232 254
216 232 254
216 232 254
216 232 254
216 232 254
216 232 254
216 232 254
216 232 254
216 232 254
216 232 254
216 232 254
216 232 254
216 232 254
216 232 254
216 232 254
216 232 254
216 232 254
216 232 254
216 232 254
216 232 254
216 232 254
216 232 254
216 232 254
216 232 254
216 232 254
216 232 254
216 232 254
216 232 254
216 232 254
216 232 254
216 232 254
216 232 254
216 232 254
216 232 254
216 232 254
216 232 254
216 232 254
216 232 254
216 232 254
216 232 254
216 232 254
216 232 254
216 232 254
216 232 254
216 232 254
216 232 254
216 232 254
216 232 254
216 232 254
216 232 254
216 232 254
216 232 254
216 232 254
216 232 254
216 232 254
216 232 254
216 232 254
216 232 254
216 232 254
216 232 254
216 232 254
216 232 254
216 232 254
216 232 254
216 232 254
216 232 254
216 232 254
216 232 254
216 232 254
216 232 254
216 232 254
216 232 254
215 232 254
215 232 254
215 232 254
215 232 254
215 232 254
215 232 254
215 232 254
215 232 254
215 232 254
215 232 254
215 232 254
215 232 254
215 231 254
215 231 254
215 231 254
215 231 254
214 231 254
214 231 254
214 231 254
214 231 254
214 231 254
214 231 254
214 231 254
214 231 254
214 231 254
213 231 254
213 231 254
213 231 254
213 230 254
213 230 254
212 230 254
212 230 254
212 230 254
212 230 254
211 230 254
211 229 254
211 229 254
210 229 254
210 229 254
210 229 254
209 228 254
208 228 254
208 228 254
207 227 254
206 227 254
185 208 150
172 196 0
173 197 0
171 196 0
174 197 0
173 197 0
174 198 0
173 197 0
121 192 95
59 188 126
59 190 124
59 188 128
59 190 131
58 187 119
59 189 126
59 187 123
58 188 128
57 185 115
60 190 126
58 187 118
59 187 118
60 190 130
58 187 124
59 189 128
58 186 115
57 184 108
56 184 119
58 186 114
59 188 123
59 187 116
60 190 131
59 189 126
57 185 111
59 188 119
57 184 112
58 185 111
58 185 109
58 185 118
59 187 124
58 186 120
59 187 127
56 184 116
57 184 112
58 186 109
59 188 123
58 186 119
59 187 120
58 187 120
58 186 112
59 188 124
58 185 109
58 187 124
57 184 112
57 183 106
58 187 123
59 186 119
58 185 120
58 185 120
59 188 126
58 187 124
59 188 128
58 185 119
57 183 115
58 185 123
57 183 111
58 185 124
59 187 114
58 186 128
59 186 124
57 182 106
58 186 119
55 181 111
58 185 116
57 181 116
56 182 109
59 186 123
57 182 118
57 183 114
57 182 112
56 180 118
56 182 116
57 181 115
56 179 111
56 177 120
55 180 111
57 179 116
56 178 116
56 178 122
54 174 105
55 175 112
56 176 106
54 174 109
56 177 118
54 172 109
53 170 93
55 172 109
55 175 115
54 169 100
55 171 108
54 166 114
52 163 99
49 154 86
50 156 88
125 169 51
170 195 0
171 196 0
173 196 0
173 197 0
172 196 0
173 197 0
173 196 0
158 172 57
144 142 44
148 147 0
131 141 0
126 137 0
118 134 0
97 124 25
98 122 36
84 119 40
80 113 34
63 111 31
67 111 57
73 113 33
52 107 52
54 109 44
60 105 36
54 106 36
69 108 44
69 109 47
75 117 47
69 113 40
86 117 40
83 115 18
84 120 44
87 118 31
103 127 25
98 123 18
109 131 18
112 135 0
116 135 0
121 137 0
128 138 0
121 134 0
116 134 0
127 136 0
125 138 0
135 142 0
132 139 0
133 139 0
135 142 0
136 143 0
135 143 0
138 144 0
136 142 0
140 144 0
142 147 0
141 145 0
141 144 0
142 146 0
144 146 0
149 149 0
141 145 0
147 146 0
143 145 0
144 146 0
142 146 0
148 148 0
151 148 0
149 148 0
147 147 0
146 147 0
149 148 0
142 147 0
147 148 0
149 145 0
146 146 0
146 146 0
145 146 0
147 147 0
149 148 0
150 149 0
149 150 0
150 148 0
150 148 0
151 148 0
147 148 0
149 146 0
151 149 0
150 149 0
150 148 0
149 147 0
153 149 0
154 150 0
148 147 0
151 150 0
151 149 0
152 151 0
152 151 0
152 148 0
152 150 0
151 149 0
152 149 0
150 149 0
152 150 0
151 150 0
151 150 0
152 150 0
153 150 0
151 150 0
153 150 0
153 150 0
152 151 0
153 151 0
152 149 0
154 151 0
154 151 0
151 150 0
153 151 0
152 149 0
155 152 0
151 150 0
153 150 0
149 149 0
153 151 0
153 150 0
153 151 0
152 150 0
154 151 0
154 151 0
154 151 0
151 148 0
153 150 0
153 151 0
154 151 0
155 152 0
153 151 0
154 151 0
152 151 0
153 151 0
154 151 0
152 151 0
154 151 0
153 150 0
154 151 0
155 151 0
154 151 0
156 152 0
153 151 0
154 151 0
152 150 0
155 152 0
155 152 0
152 151 0
154 151 0
154 152 0
215 232 254
215 232 254
215 232 254
215 232 254
215 232 254
215 232 254
215 232 254
215 232 254
215 232 254
215 232 254
215 232 254
215 232 254
215 232 254
215 232 254
216 232 254
216 232 254
216 232 254
216 232 254
216 232 254
216 232 254
216 232 254
216 232 254
216 232 254
216 232 254
216 232 254
216 232 254
216 232 254
216 232 254
216 232 254
216 232 254
216 232 254
216 232 254
216 232 254
216 232 254
216 232 254
216 232 254
216 232 254
216 232 254
216 232 254
216 232 254
216 232 254
216 232 254
216 232 254
216 232 254
216 232 254
216 232 254
216 232 254
216 232 254
216 232 254
216 232 254
216 232 254
216 232 254
216 232 254
216 232 254
216 232 254
216 232 254
216 232 254
216 232 254
216 232 254
216 232 254
216 232 254
216 232 254
216 232 254
216 232 254
216 232 254
216 232 254
216 232 254
216 232 254
216 232 254
216 232 254
216 232 254
216 232 254
216 232 254
216 232 254
216 232 254
216 232 254
216 232 254
216 232 254
216 232 254
216 232 254
216 232 254
216 232 254
216 232 254
216 232 254
216 232 254
216 232 254
216 232 254
216 232 254
216 232 254
216 232 254
215 232 254
215 232 254
215 232 254
215 232 254
215 232 254
215 232 254
215 232 254
215 232 254
215 232 254
215 232 254
215 232 254
215 232 254
215 232 254
215 232 254
215 232 254
215 232 254
215 231 254
215 231 254
215 231 254
215 231 254
215 231 254
214 231 254
214 231 254
214 231 254
214 231 254
214 231 254
214 231 254
214 231 254
214 231 254
214 231 254
213 231 254
213 231 254
213 231 254
213 231 254
213 230 254
213 230 254
213 230 254
212 230 254
212 230 254
212 230 254
212 230 254
211 230 254
211 229 254
211 229 254
211 229 254
210 229 254
210 229 254
209 228 254
209 228 254
208 228 254
208 227 254
207 227 254
206 227 254
198 220 226
173 196 25
173 197 0
174 197 0
173 197 0
173 197 0
172 196 0
170 195 0
173 197 0
165 197 40
61 190 131
58 188 124
57 185 114
56 184 108
59 188 131
59 189 128
58 187 123
57 185 115
58 186 112
58 186 122
59 188 122
58 188 119
58 187 118
59 188 126
57 185 114
58 185 116
59 189 133
58 188 124
58 185 109
59 186 119
58 186 124
59 187 115
58 185 116
57 186 120
56 182 106
58 186 126
58 187 123
57 184 109
57 186 118
56 183 106
58 186 116
60 189 128
58 185 111
57 185 112
57 185 114
58 186 118
57 183 112
60 191 133
58 186 122
58 185 116
59 186 116
56 184 108
59 188 122
58 185 119
58 186 114
58 184 112
60 190 131
58 188 127
58 185 119
57 183 111
57 182 112
58 185 119
57 184 112
59 188 123
58 187 126
57 186 119
57 184 115
55 179 102
58 184 116
61 191 134
57 184 124
58 184 119
56 181 105
56 180 119
56 181 111
56 178 100
56 181 109
57 182 118
57 180 109
59 186 124
58 184 130
57 182 115
57 182 115
57 181 123
56 179 106
58 182 115
56 179 118
57 181 116
55 177 102
54 175 109
54 176 108
55 176 105
54 170 106
58 182 128
55 173 93
55 170 111
53 170 95
52 168 91
54 172 103
54 171 110
51 160 97
51 161 97
51 162 97
50 146 76
162 190 31
172 196 0
172 196 0
172 196 0
171 196 0
172 196 0
171 196 0
171 196 0
170 194 0
135 140 0
145 146 0
137 143 0
132 140 0
128 135 0
113 131 18
95 121 25
95 118 18
87 115 18
84 113 31
65 107 32
72 112 31
65 109 22
60 111 47
60 100 28
65 112 62
66 114 47
47 103 40
80 116 25
77 116 36
84 120 40
90 122 47
101 125 18
96 124 36
99 124 25
112 130 0
101 126 0
113 131 0
115 134 0
115 134 0
122 134 0
131 140 0
122 135 0
125 138 0
119 132 0
130 138 0
134 143 0
133 141 0
136 142 0
131 140 0
128 139 0
135 142 0
133 139 0
133 141 0
136 143 0
138 142 0
134 142 0
141 143 0
143 145 0
144 145 0
135 141 0
139 143 0
140 143 0
144 145 0
145 145 0
146 147 0
146 148 0
147 148 0
145 146 0
150 148 0
142 146 0
144 147 0
146 147 0
143 145 0
148 148 0
147 146 0
150 148 0
147 147 0
148 147 0
148 148 0
147 146 0
149 147 0
144 146 0
147 147 0
148 146 0
148 148 0
145 146 0
148 149 0
152 149 0
148 147 0
152 150 0
151 149 0
151 149 0
150 149 0
148 147 0
152 150 0
149 146 0
151 149 0
150 148 0
152 147 0
149 148 0
153 149 0
148 148 0
152 149 0
150 148 0
152 150 0
150 149 0
152 151 0
152 151 0
153 151 0
150 149 0
151 150 0
149 146 0
153 150 0
149 148 0
151 149 0
152 150 0
152 150 0
153 149 0
152 150 0
155 152 0
153 150 0
152 150 0
153 151 0
154 152 0
153 151 0
153 150 0
155 152 0
153 151 0
152 150 0
152 151 0
152 149 0
150 150 0
154 151 0
153 150 0
154 151 0
154 152 0
153 151 0
154 152 0
153 150 0
152 149 0
153 150 0
155 152 0
153 151 0
155 151 0
153 151 0
155 152 0
154 152 0
154 151 0
153 151 0
154 152 0
153 150 0
154 151 0
154 151 0
215 232 254
215 232 254
215 232 254
215 232 254
215 232 254
215 232 254
215 232 254
215 232 254
215 232 254
215 232 254
215 232 254
215 232 254
215 232 254
215 232 254
215 232 254
215 232 254
215 232 254
215 232 254
215 232 254
215 232 254
215 232 254
215 232 254
215 232 254
215 232 254
215 232 254
215 232 254
215 232 254
215 232 254
215 232 254
215 232 254
215 232 254
216 232 254
216 232 254
216 232 254
216 232 254
216 232 254
216 232 254
216 232 254
216 232 254
216 232 254
216 232 254
216 232 254
216 232 254
216 232 254
216 232 254
216 232 254
216 232 254
216 232 254
216 232 254
216 232 254
216 232 254
216 232 254
216 232 254
216 232 254
216 232 254
216 232 254
216 232 254
216 232 254
216 232 254
216 232 254
216 232 254
216 232 254
216 232 254
216 232 254
216 232 254
216 232 254
216 232 254
216 232 254
216 232 254
216 232 254
216 232 254
216 232 254
216 232 254
216 232 254
216 232 254
216 232 254
216 232 254
216 232 254
215 232 254
215 232 254
215 232 254
215 232 254
215 232 254
215 232 254
215 232 254
215 232 254
215 232 254
215 232 254
215 232 254
215 232 254
215 232 254
215 232 254
215 232 254
215 232 254
215 232 254
215 232 254
215 232 254
215 232 254
215 232 254
215 232 254
215 231 254
215 231 254
215 231 254
215 231 254
215 231 254
215 231 254
214 231 254
214 231 254
214 231 254
214 231 254
214 231 254
214 231 254
214 231 254
214 231 254
214 231 254
214 231 254
214 231 254
213 231 254
213 231 254
213 231 254
213 231 254
213 230 254
213 230 254
213 230 254
212 230 254
212 230 254
212 230 254
212 230 254
212 230 254
211 230 254
211 229 254
211 229 254
211 229 254
210 229 254
210 229 254
209 229 254
209 228 254
209 228 254
208 228 254
207 227 254
207 227 254
206 226 254
204 226 254
183 207 152
171 196 0
173 196 0
169 195 0
172 196 0
173 197 0
173 197 0
169 195 0
171 195 0
173 197 0
111 194 112
59 188 122
59 189 127
58 187 120
56 185 109
58 188 124
59 187 120
57 184 118
59 188 119
56 183 103
60 189 127
59 187 116
59 188 120
57 185 112
58 187 122
56 184 112
59 189 128
59 189 128
58 187 127
59 188 123
58 186 118
59 189 119
58 186 116
57 185 119
59 187 124
59 187 116
58 186 118
59 188 126
57 186 122
57 183 106
58 185 111
58 186 124
60 190 130
60 189 123
59 187 123
58 187 122
59 189 133
57 185 111
58 185 119
56 183 115
57 185 118
56 184 118
57 184 105
59 186 112
57 185 119
57 183 111
57 185 111
57 184 112
57 184 108
57 182 114
57 181 103
58 184 119
58 186 118
58 185 123
59 188 124
57 184 116
56 180 115
58 185 116
55 180 105
55 181 111
58 184 116
57 181 112
57 183 119
55 181 105
57 182 119
55 176 103
57 183 116
58 184 116
59 186 124
57 180 114
54 176 108
55 178 111
56 181 123
55 176 109
57 180 119
56 179 109
57 180 123
55 178 115
56 179 111
56 180 114
56 177 119
53 170 108
56 176 105
54 174 105
54 173 100
53 169 109
53 169 111
52 168 100
51 165 97
47 153 80
52 166 93
50 157 88
47 152 66
107 168 65
172 194 0
172 196 0
172 195 0
170 194 0
171 195 0
171 195 0
172 197 0
172 195 0
173 196 0
161 180 25
139 140 0
144 145 0
131 138 0
127 137 0
127 136 0
112 129 0
111 126 31
92 119 31
87 113 31
74 113 51
85 111 18
68 106 44
65 111 31
66 106 31
78 113 31
81 117 44
63 107 25
88 113 25
83 109 18
80 114 18
93 118 25
84 115 18
98 124 25
92 120 0
108 124 0
104 125 0
107 123 0
119 134 0
118 133 0
120 135 0
120 134 0
123 134 0
127 137 0
130 141 0
127 139 0
131 140 0
129 135 0
132 140 0
132 139 0
131 137 0
134 142 0
141 143 0
145 146 0
140 143 0
135 142 0
143 145 0
137 143 0
141 143 0
143 146 0
140 143 0
142 144 0
139 141 0
140 144 0
145 146 0
138 143 0
142 146 0
150 150 0
146 147 0
144 146 0
143 146 0
148 147 0
146 147 0
138 142 0
150 147 0
145 146 0
144 147 0
149 147 0
149 146 0
145 148 0
144 146 0
148 147 0
151 149 0
149 146 0
147 146 0
152 150 0
147 147 0
148 146 0
146 146 0
149 149 0
150 148 0
147 144 0
151 149 0
148 148 0
147 145 0
152 150 0
152 150 0
147 146 0
148 147 0
147 149 0
151 147 0
151 150 0
151 149 0
154 150 0
150 149 0
151 149 0
151 150 0
153 150 0
152 149 0
152 151 0
152 149 0
151 149 0
152 150 0
152 150 0
151 149 0
151 148 0
152 149 0
150 150 0
152 150 0
152 151 0
152 149 0
155 151 0
153 149 0
151 148 0
154 150 0
152 148 0
152 150 0
151 150 0
154 150 0
151 150 0
153 150 0
154 151 0
152 150 0
155 151 0
154 150 0
151 150 0
155 152 0
154 152 0
152 150 0
153 150 0
155 151 0
154 151 0
153 151 0
153 150 0
154 152 0
154 151 0
155 152 0
154 151 0
156 152 0
155 152 0
155 151 0
154 152 0
154 152 0
156 152 0
215 231 254
215 231 254
215 231 254
215 231 254
215 231 254
215 231 254
215 231 254
215 231 254
215 232 254
215 232 254
215 232 254
215 232 254
215 232 254
215 232 254
215 232 254
215 232 254
215 232 254
215 232 254
215 232 254
215 232 254
215 232 254
215 232 254
215 232 254
215 232 254
215 232 254
215 232 254
215 232 254
215 232 254
215 232 254
215 232 254
215 232 254
215 232 254
215 232 254
215 232 254
215 232 254
215 232 254
215 232 254
215 232 254
215 232 254
215 232 254
215 232 254
215 232 254
215 232 254
215 232 254
215 232 254
215 232 254
215 232 254
215 232 254
215 232 254
215 232 254
215 232 254
215 232 254
215 232 254
215 232 254
215 232 254
215 232 254
215 232 254
215 232 254
215 232 254
215 232 254
215 232 254
215 232 254
215 232 254
215 232 254
215 232 254
215 232 254
215 232 254
215 232 254
215 232 254
215 232 254
215 232 254
215 232 254
215 232 254
215 232 254
215 232 254
215 232 254
215 232 254
215 232 254
215 232 254
215 232 254
215 232 254
215 232 254
215 232 254
215 232 254
215 232 254
215 232 254
215 232 254
215 232 254
215 232 254
215 232 254
215 232 254
215 232 254
215 232 254
215 231 254
215 231 254
215 231 254
215 231 254
215 231 254
215 231 254
215 231 254
214 231 254
214 231 254
214 231 254
214 231 254
214 231 254
214 231 254
214 231 254
214 231 254
214 231 254
214 231 254
214 231 254
214 231 254
214 231 254
213 231 254
213 231 254
213 231 254
213 231 254
213 231 254
213 230 254
213 230 254
213 230 254
212 230 254
212 230 254
212 230 254
212 230 254
212 230 254
212 230 254
211 230 254
211 229 254
211 229 254
210 229 254
210 229 254
210 229 254
210 229 254
209 228 254
209 228 254
208 228 254
208 228 254
207 227 254
206 227 254
205 226 254
204 226 254
196 218 219
170 194 44
172 196 0
172 196 0
173 196 0
169 195 0
171 196 0
171 196 0
175 198 0
172 196 0
169 195 0
155 196 67
59 189 127
56 183 112
58 187 122
59 188 127
59 189 124
57 186 112
59 188 124
57 185 114
57 183 109
58 186 123
57 184 109
58 187 114
56 184 108
57 185 115
59 189 126
59 189 123
58 187 126
55 181 111
59 188 122
57 184 109
58 188 122
59 188 130
57 184 114
57 184 109
58 186 119
58 187 122
58 188 128
58 184 111
57 184 118
58 186 108
56 183 108
59 189 126
59 188 123
58 187 120
59 188 123
59 187 119
58 187 126
56 181 103
56 183 118
60 190 126
57 184 114
60 190 128
58 186 122
56 180 100
57 182 105
57 184 115
57 183 111
59 187 126
56 182 108
57 185 116
58 186 116
56 180 102
54 177 93
58 185 116
58 186 123
59 188 123
58 186 115
56 181 103
58 184 118
59 188 123
57 183 114
55 178 95
58 182 122
57 182 112
58 185 115
58 182 114
57 180 102
57 181 112
57 181 112
57 180 111
56 178 115
57 182 122
57 181 109
56 179 115
57 179 120
56 180 114
56 178 108
55 176 118
55 175 105
54 171 103
52 168 91
53 168 98
54 171 98
53 174 112
55 174 105
54 172 112
53 169 103
53 166 99
55 169 108
53 170 103
49 155 82
47 150 77
156 185 25
169 195 0
169 194 0
172 195 0
170 194 0
172 195 0
173 195 0
170 195 0
172 196 0
169 194 0
172 195 0
135 141 36
141 143 0
141 142 0
136 139 0
132 138 0
122 132 0
119 127 0
107 127 31
92 115 12
95 113 18
86 113 25
70 104 18
82 108 0
75 108 25
68 104 25
80 111 18
78 107 18
88 118 31
80 110 0
91 117 25
100 121 0
94 115 0
94 119 0
107 125 0
105 127 0
107 126 0
112 130 0
112 129 0
121 131 0
115 133 0
123 133 0
128 137 0
125 134 0
131 141 0
125 137 0
127 136 0
133 140 0
134 141 0
130 140 0
130 136 0
132 139 0
137 143 0
131 138 0
136 142 0
137 141 0
138 142 0
137 143 0
138 143 0
140 144 0
145 146 0
134 137 0
144 145 0
141 146 0
142 143 0
139 143 0
141 144 0
146 147 0
150 148 0
146 145 0
148 147 0
146 146 0
145 147 0
146 145 0
152 149 0
145 144 0
142 144 0
150 148 0
142 143 0
144 145 0
146 145 0
148 147 0
148 146 0
148 146 0
150 148 0
148 147 0
146 146 0
146 146 0
147 146 0
151 147 0
147 146 0
147 147 0
150 147 0
150 146 0
150 148 0
152 150 0
152 150 0
150 149 0
151 149 0
150 148 0
147 146 0
145 144 0
153 149 0
150 148 0
150 147 0
150 150 0
150 149 0
148 147 0
151 148 0
152 148 0
152 150 0
153 149 0
153 150 0
151 149 0
152 149 0
151 149 0
153 150 0
153 150 0
153 151 0
151 149 0
151 149 0
152 148 0
153 150 0
153 151 0
153 150 0
153 150 0
153 150 0
153 150 0
153 150 0
153 151 0
153 150 0
152 151 0
153 151 0
154 150 0
152 151 0
153 150 0
153 150 0
153 151 0
153 151 0
154 151 0
154 151 0
154 150 0
153 149 0
153 150 0
153 151 0
154 151 0
151 150 0
155 152 0
155 151 0
153 150 0
153 151 0
154 151 0
154 151 0
153 150 0
214 231 254
214 231 254
214 231 254
214 231 254
214 231 254
214 231 254
215 231 254
215 231 254
215 231 254
215 231 254
215 231 254
215 231 254
215 231 254
215 231 254
215 231 254
215 231 254
215 231 254
215 231 254
215 231 254
215 231 254
215 232 254
215 232 254
215 232 254
215 232 254
215 232 254
215 232 254
215 232 254
215 232 254
215 232 254
215 232 254
215 232 254
215 232 254
215 232 254
215 232 254
215 232 254
215 232 254
215 232 254
215 232 254
215 232 254
215 232 254
215 232 254
215 232 254
215 232 254
215 232 254
215 232 254
215 232 254
215 232 254
215 232 254
215 232 254
215 232 254
215 232 254
215 232 254
215 232 254
215 232 254
215 232 254
215 232 254
215 232 254
215 232 254
215 232 254
215 232 254
215 232 254
215 232 254
215 232 254
215 232 254
215 232 254
215 232 254
215 232 254
215 232 254
215 232 254
215 232 254
215 232 254
215 232 254
215 232 254
215 232 254
215 232 254
215 232 254
215 232 254
215 232 254
215 232 254
215 232 254
215 232 254
215 232 254
215 232 254
215 232 254
215 232 254
215 231 254
215 231 254
215 231 254
215 231 254
215 231 254
215 231 254
215 231 254
215 231 254
215 231 254
214 231 254
214 231 254
214 231 254
214 231 254
214 231 254
214 231 254
214 231 254
214 231 254
214 231 254
214 231 254
214 231 254
214 231 254
214 231 254
214 231 254
214 231 254
213 231 254
213 231 254
213 231 254
213 231 254
213 231 254
213 230 254
213 230 254
213 230 254
213 230 254
212 230 254
212 230 254
212 230 254
212 230 254
212 230 254
212 230 254
211 230 254
211 230 254
211 229 254
211 229 254
210 229 254
210 229 254
210 229 254
210 229 254
209 228 254
209 228 254
208 228 254
208 228 254
207 227 254
207 227 254
206 227 254
205 226 254
204 226 254
203 225 254
174 199 84
172 196 0
170 196 0
171 196 0
171 195 0
173 197 0
170 196 0
175 198 0
169 195 0
173 197 0
171 196 0
172 196 0
108 189 100
57 186 124
58 187 118
59 188 124
59 187 118
58 188 120
56 184 109
58 187 124
55 183 109
57 184 115
57 184 105
59 187 123
54 180 98
57 184 111
56 183 114
56 181 112
58 186 120
58 185 109
58 186 116
57 185 111
57 186 122
58 185 106
57 184 103
57 183 106
57 183 108
59 188 120
56 183 103
57 184 103
58 186 123
58 185 116
55 182 105
57 185 112
57 185 112
58 186 120
58 186 118
57 184 116
57 184 115
58 185 111
58 186 116
57 184 111
57 184 111
58 186 118
58 185 108
59 187 122
58 186 115
57 181 111
56 182 108
58 185 109
58 188 123
56 182 109
59 187 119
56 180 105
58 186 124
57 183 111
54 179 97
58 183 112
56 181 109
56 182 111
56 181 109
58 185 109
58 184 111
56 181 112
56 182 114
56 181 118
56 181 106
56 182 114
57 180 106
57 182 115
56 177 108
55 178 100
56 181 105
54 176 114
57 182 111
55 177 115
54 174 95
55 176 95
57 178 116
55 175 106
55 172 102
56 178 118
56 178 111
55 173 103
54 172 105
53 171 107
54 169 107
51 167 102
53 168 99
50 164 88
51 162 100
49 154 83
48 156 74
110 170 54
171 193 0
170 193 0
171 195 0
169 194 0
172 197 0
170 194 0
172 195 0
170 194 0
172 196 0
170 194 0
168 195 0
165 184 36
134 135 0
143 143 0
131 137 0
124 133 0
131 136 0
111 126 0
115 127 0
111 123 18
102 118 0
96 118 0
95 114 18
81 108 18
69 100 18
89 113 25
81 101 0
84 107 25
79 106 18
74 103 0
94 116 18
103 115 0
102 120 0
103 119 0
104 118 0
99 120 0
111 126 0
111 127 0
116 132 0
108 125 0
111 125 0
130 139 0
119 134 0
132 138 0
125 137 0
123 133 0
128 138 0
119 134 0
121 132 0
135 140 0
131 137 0
134 139 0
133 138 0
137 142 0
132 140 0
138 140 0
139 141 0
136 139 0
140 142 0
138 143 0
140 143 0
143 144 0
140 142 0
144 146 0
138 142 0
150 148 0
144 146 0
139 143 0
139 143 0
147 147 0
147 147 0
142 145 0
143 146 0
144 145 0
146 147 0
147 147 0
148 146 0
146 145 0
149 147 0
146 145 0
146 145 0
149 146 0
149 146 0
147 146 0
149 149 0
152 148 0
152 148 0
147 147 0
146 147 0
152 149 0
151 148 0
148 146 0
147 147 0
150 148 0
150 149 0
148 149 0
152 149 0
151 149 0
150 149 0
149 147 0
151 151 0
154 151 0
152 148 0
149 147 0
150 150 0
151 149 0
150 147 0
149 148 0
152 150 0
152 150 0
150 149 0
149 147 0
152 149 0
153 150 0
145 144 0
153 150 0
154 150 0
152 150 0
152 149 0
152 150 0
154 151 0
154 150 0
153 149 0
152 149 0
150 149 0
153 151 0
152 151 0
149 148 0
149 147 0
152 151 0
153 150 0
149 146 0
152 150 0
152 149 0
154 151 0
153 150 0
152 149 0
154 152 0
153 150 0
154 151 0
153 150 0
153 150 0
151 151 0
155 150 0
155 151 0
154 151 0
154 151 0
154 151 0
154 151 0
153 150 0
153 150 0
153 150 0
151 149 0
154 151 0
214 231 254
214 231 254
214 231 254
214 231 254
214 231 254
214 231 254
214 231 254
214 231 254
214 231 254
214 231 254
214 231 254
214 231 254
214 231 254
214 231 254
214 231 254
214 231 254
214 231 254
214 231 254
215 231 254
215 231 254
215 231 254
215 231 254
215 231 254
215 231 254
215 231 254
215 231 254
215 231 254
215 231 254
215 231 254
215 231 254
215 231 254
215 231 254
215 231 254
215 231 254
215 231 254
215 231 254
215 232 254
215 231 254
215 231 254
215 231 254
215 232 254
215 232 254
215 232 254
215 232 254
215 232 254
215 232 254
215 232 254
215 232 254
215 232 254
215 232 254
215 232 254
215 232 254
215 232 254
215 232 254
215 232 254
215 232 254
215 232 254
215 232 254
215 232 254
215 232 254
215 232 254
215 232 254
215 232 254
215 232 254
215 232 254
215 232 254
215 232 254
215 232 254
215 232 254
215 231 254
215 231 254
215 231 254
215 231 254
215 231 254
215 231 254
215 231 254
215 231 254
215 231 254
215 231 254
215 231 254
215 231 254
215 231 254
215 231 254
215 231 254
215 231 254
214 231 254
214 231 254
214 231 254
214 231 254
214 231 254
214 231 254
214 231 254
214 231 254
214 231 254
214 231 254
214 231 254
214 231 254
214 231 254
214 231 254
214 231 254
214 231 254
214 231 254
214 231 254
214 231 254
214 231 254
213 231 254
213 231 254
213 231 254
213 231 254
213 231 254
213 230 254
213 230 254
213 230 254
213 230 254
213 230 254
212 230 254
212 230 254
212 230 254
212 230 254
212 230 254
212 230 254
211 230 254
211 230 254
211 229 254
211 229 254
211 229 254
210 229 254
210 229 254
210 229 254
209 229 254
209 228 254
209 228 254
208 228 254
208 228 254
207 227 254
207 227 254
206 227 254
206 226 254
205 226 254
204 225 254
203 225 254
190 214 205
172 196 0
172 197 0
169 195 0
172 197 0
170 195 0
170 195 0
170 195 0
171 196 0
168 195 0
168 194 0
169 195 0
172 196 0
163 195 44
65 189 128
56 183 114
57 185 114
57 183 106
58 187 118
56 182 100
57 186 120
57 186 118
58 186 112
57 185 111
57 185 115
57 185 111
59 187 116
58 185 111
57 186 116
58 185 106
58 187 123
56 181 98
58 185 116
58 185 116
55 181 106
57 184 108
59 188 122
57 184 106
58 186 122
56 180 95
57 182 103
57 186 118
57 186 119
58 185 108
57 185 115
58 186 115
56 181 103
57 185 118
56 182 105
57 185 122
56 183 109
58 187 120
57 183 114
57 185 116
57 184 114
57 183 111
57 183 116
57 183 116
57 183 114
59 187 116
57 182 100
56 183 112
57 182 116
58 185 118
57 183 114
56 181 108
55 178 97
57 185 116
57 181 102
56 183 109
55 179 103
58 184 120
57 181 102
58 184 112
57 183 106
56 181 109
56 182 109
56 181 115
57 182 122
56 182 109
56 181 102
56 180 106
56 179 114
56 179 111
57 182 119
54 176 106
55 179 103
56 178 109
57 179 119
56 178 114
56 178 111
56 178 106
54 176 115
54 171 97
54 172 105
54 170 105
51 166 88
53 169 103
53 169 109
52 165 95
50 164 89
50 161 99
50 161 86
56 159 97
162 188 18
168 192 0
165 190 0
170 195 0
167 192 0
171 194 0
167 193 0
170 193 0
170 194 0
170 194 0
169 193 0
168 193 0
168 191 0
145 160 0
139 139 0
135 141 0
134 139 0
119 129 0
113 122 0
107 123 0
107 119 0
100 117 0
92 112 0
85 112 0
81 107 0
89 109 0
77 105 0
84 110 18
79 107 0
84 111 0
90 115 0
94 114 0
92 110 0
79 110 0
103 122 0
103 124 0
106 122 0
99 120 0
118 129 0
114 125 0
121 133 0
117 131 0
124 136 0
125 133 0
125 133 0
123 135 0
118 132 0
132 138 0
130 138 0
128 136 0
123 133 0
128 137 0
133 139 0
135 139 0
135 141 0
140 141 0
130 137 0
136 140 0
132 140 0
138 141 0
140 144 0
137 141 0
138 139 0
138 141 0
137 140 0
139 144 0
144 143 0
145 144 0
140 144 0
143 143 0
147 146 0
143 143 0
145 145 0
145 146 0
142 143 0
146 147 0
149 147 0
143 144 0
145 146 0
143 143 0
147 145 0
145 144 0
147 146 0
142 144 0
144 145 0
150 146 0
147 147 0
144 144 0
146 147 0
146 146 0
150 148 0
147 146 0
146 145 0
151 149 0
148 147 0
145 145 0
148 147 0
150 148 0
146 145 0
150 148 0
148 145 0
149 149 0
149 148 0
150 149 0
148 147 0
152 149 0
148 148 0
149 148 0
147 146 0
151 148 0
150 148 0
151 149 0
148 149 0
150 148 0
151 149 0
152 150 0
151 148 0
151 149 0
151 149 0
152 150 0
150 149 0
152 149 0
150 148 0
151 148 0
153 151 0
149 149 0
153 150 0
152 150 0
150 148 0
154 151 0
153 150 0
152 150 0
152 150 0
153 149 0
152 150 0
153 151 0
151 149 0
154 150 0
152 148 0
152 149 0
153 150 0
153 151 0
155 151 0
154 151 0
154 151 0
153 150 0
155 152 0
154 151 0
152 149 0
153 151 0
153 148 0
155 152 0
153 151 0
153 151 0
151 149 0
214 231 254
214 231 254
214 231 254
214 231 254
214 231 254
214 231 254
214 231 254
214 231 254
214 231 254
214 231 254
214 231 254
214 231 254
214 231 254
214 231 254
214 231 254
214 231 254
214 231 254
214 231 254
214 231 254
214 231 254
214 231 254
214 231 254
214 231 254
214 231 254
214 231 254
214 231 254
214 231 254
214 231 254
214 231 254
214 231 254
214 231 254
214 231 254
214 231 254
214 231 254
215 231 254
215 231 254
215 231 254
215 231 254
215 231 254
215 231 254
215 231 254
215 231 254
215 231 254
215 231 254
215 231 254
215 231 254
215 231 254
215 231 254
215 231 254
215 231 254
215 231 254
215 231 254
215 231 254
215 231 254
215 231 254
215 231 254
215 231 254
215 231 254
215 231 254
215 231 254
215 231 254
215 231 254
215 231 254
215 231 254
215 231 254
215 231 254
215 231 254
215 231 254
215 231 254
215 231 254
215 231 254
215 231 254
214 231 254
214 231 254
214 231 254
214 231 254
214 231 254
214 231 254
214 231 254
214 231 254
214 231 254
214 231 254
214 231 254
214 231 254
214 231 254
214 231 254
214 231 254
214 231 254
214 231 254
214 231 254
214 231 254
214 231 254
214 231 254
214 231 254
214 231 254
214 231 254
214 231 254
214 231 254
214 231 254
214 231 254
213 231 254
213 231 254
213 231 254
213 231 254
213 231 254
213 231 254
213 231 254
213 230 254
213 230 254
213 230 254
213 230 254
213 230 254
212 230 254
212 230 254
212 230 254
212 230 254
212 230 254
212 230 254
211 230 254
211 230 254
211 229 254
211 229 254
211 229 254
211 229 254
210 229 254
210 229 254
210 229 254
209 229 254
209 228 254
209 228 254
208 228 254
208 228 254
208 228 254
207 227 254
207 227 254
206 227 254
205 226 254
204 226 254
203 225 254
202 225 254
199 222 247
173 197 62
171 195 0
169 195 0
171 196 0
171 196 0
171 196 0
171 196 0
170 196 0
168 196 0
172 196 0
172 197 0
173 197 0
169 195 0
169 195 0
120 190 90
57 186 122
57 184 115
58 187 116
57 185 118
57 185 116
57 184 106
57 185 114
56 183 112
57 183 108
57 184 115
58 186 116
57 184 112
57 184 109
57 185 114
57 184 112
57 184 114
57 183 105
57 184 111
59 187 114
57 185 115
56 182 105
57 185 109
58 186 123
58 185 119
58 186 116
58 186 120
55 181 106
57 184 119
57 185 116
55 181 106
54 178 95
58 185 122
57 183 108
57 183 116
56 183 115
55 181 108
58 189 130
55 184 111
56 180 103
56 183 115
56 180 106
57 185 124
57 185 111
57 184 106
57 184 116
57 184 109
58 184 108
56 183 111
56 181 106
57 184 105
57 185 116
57 183 115
53 178 103
57 182 114
55 179 108
57 184 115
58 183 109
55 178 105
57 182 103
57 183 115
57 183 120
55 176 103
55 176 112
55 177 102
56 180 103
55 179 109
55 176 105
57 183 118
55 178 106
54 174 90
56 178 98
53 173 100
55 178 105
53 173 103
55 176 98
56 177 112
55 174 109
55 175 103
54 174 105
54 173 102
53 171 106
54 171 95
51 163 91
50 161 99
53 168 97
51 161 100
50 158 93
50 158 91
122 170 55
168 194 0
167 193 0
167 191 0
170 193 0
169 194 0
171 194 0
166 191 0
167 191 0
168 193 0
169 193 0
168 192 0
169 193 0
169 193 0
167 191 0
135 144 0
134 138 0
134 139 0
120 129 0
111 122 0
108 126 0
112 127 0
107 124 0
97 113 0
97 115 0
98 114 0
87 108 0
94 111 0
101 117 0
99 114 0
97 115 0
98 116 0
102 119 0
98 117 0
108 125 0
106 119 0
105 122 0
101 123 0
119 130 0
122 132 0
109 124 0
117 130 0
126 134 0
118 131 0
115 129 0
132 138 0
123 134 0
124 133 0
131 136 0
126 133 0
131 138 0
129 136 0
129 137 0
129 137 0
131 136 0
130 138 0
130 140 0
138 142 0
130 137 0
133 138 0
137 141 0
135 142 0
136 141 0
144 144 0
142 144 0
138 143 0
146 146 0
142 143 0
145 145 0
137 143 0
138 139 0
141 141 0
143 146 0
147 146 0
149 147 0
141 142 0
143 143 0
144 144 0
147 145 0
147 147 0
143 142 0
144 144 0
146 145 0
142 144 0
148 146 0
149 146 0
142 143 0
144 145 0
148 148 0
150 148 0
144 144 0
148 147 0
149 146 0
148 147 0
149 148 0
147 147 0
150 147 0
148 146 0
150 146 0
152 148 0
149 146 0
151 148 0
152 148 0
150 147 0
151 149 0
149 146 0
153 149 0
147 147 0
151 148 0
150 146 0
148 146 0
149 147 0
151 149 0
151 148 0
151 148 0
149 148 0
151 148 0
151 148 0
151 150 0
151 150 0
151 149 0
152 149 0
152 150 0
153 150 0
150 148 0
151 149 0
151 149 0
152 150 0
151 149 0
151 148 0
152 150 0
150 148 0
152 149 0
150 148 0
154 150 0
153 150 0
152 148 0
151 149 0
153 150 0
152 150 0
154 151 0
153 150 0
152 150 0
154 151 0
151 147 0
153 151 0
155 151 0
154 151 0
153 151 0
153 150 0
151 148 0
152 150 0
154 150 0
153 149 0
154 150 0
153 149 0
213 231 254
213 231 254
213 231 254
214 231 254
214 231 254
214 231 254
214 231 254
214 231 254
214 231 254
214 231 254
214 231 254
214 231 254
214 231 254
214 231 254
214 231 254
214 231 254
214 231 254
214 231 254
214 231 254
214 231 254
214 231 254
214 231 254
214 231 254
214 231 254
214 231 254
214 231 254
214 231 254
214 231 254
214 231 254
214 231 254
214 231 254
214 231 254
214 231 254
214 231 254
214 231 254
214 231 254
214 231 254
214 231 254
214 231 254
214 231 254
214 231 254
214 231 254
214 231 254
214 231 254
214 231 254
214 231 254
214 231 254
214 231 254
214 231 254
214 231 254
214 231 254
214 231 254
214 231 254
214 231 254
214 231 254
214 231 254
214 231 254
214 231 254
214 231 254
214 231 254
214 231 254
214 231 254
214 231 254
214 231 254
214 231 254
214 231 254
214 231 254
214 231 254
214 231 254
214 231 254
214 231 254
214 231 254
214 231 254
214 231 254
214 231 254
214 231 254
214 231 254
214 231 254
214 231 254
214 231 254
214 231 254
214 231 254
214 231 254
214 231 254
214 231 254
214 231 254
214 231 254
214 231 254
214 231 254
214 231 254
214 231 254
214 231 254
214 231 254
214 231 254
213 231 254
213 231 254
213 231 254
213 231 254
213 231 254
213 231 254
213 231 254
213 231 254
213 230 254
213 230 254
213 230 254
213 230 254
213 230 254
212 230 254
212 230 254
212 230 254
212 230 254
212 230 254
212 230 254
212 230 254
212 230 254
212 230 254
211 230 254
211 229 254
211 229 254
211 229 254
211 229 254
210 229 254
210 229 254
210 229 254
210 229 254
209 229 254
209 228 254
209 228 254
208 228 254
208 228 254
208 228 254
207 227 254
207 227 254
206 227 254
206 226 254
205 226 254
204 226 254
203 225 254
202 225 254
200 224 253
179 203 124
171 196 0
173 196 0
168 194 0
171 196 0
171 196 0
169 196 0
169 195 0
169 196 0
167 195 0
171 197 0
171 197 0
169 195 0
170 196 0
170 196 0
164 195 31
83 185 111
59 189 123
54 181 103
57 184 112
57 184 115
59 187 119
58 186 119
57 183 106
57 184 108
57 186 109
56 182 95
56 182 102
56 182 105
57 184 114
56 181 103
58 188 122
57 185 109
57 184 116
58 186 115
56 182 95
56 183 103
57 185 112
56 183 100
59 187 118
56 182 106
56 184 109
57 184 108
56 181 98
58 186 115
59 187 119
55 181 103
57 184 118
57 183 112
57 184 106
59 188 128
56 183 120
57 185 114
56 184 111
55 179 98
55 181 106
57 183 108
55 180 102
54 178 98
57 182 108
56 182 97
56 182 116
54 177 90
56 182 109
57 182 111
55 179 106
57 184 114
55 177 95
55 179 105
57 183 111
56 180 105
57 183 118
56 180 108
59 185 116
56 181 106
56 181 114
56 179 106
55 177 103
56 180 111
56 181 118
56 181 109
56 178 109
54 174 93
55 178 102
57 181 115
54 176 103
53 172 88
55 177 112
55 177 108
57 179 115
56 179 119
54 170 97
53 170 98
54 170 102
51 167 100
54 172 108
53 171 99
50 163 93
51 165 88
49 157 84
50 163 91
49 155 92
50 158 91
65 151 77
165 191 25
165 192 0
167 192 0
166 190 0
166 192 0
171 194 0
171 194 0
170 193 0
166 192 0
168 193 0
168 191 0
168 193 0
168 191 0
167 192 0
166 191 0
151 170 0
134 133 0
134 138 0
131 136 0
119 128 0
108 122 0
110 123 0
110 123 0
115 123 0
99 115 0
98 115 0
96 115 0
103 118 0
101 116 0
82 104 0
104 115 0
102 118 0
93 115 0
103 118 0
107 123 0
111 125 0
109 117 0
107 122 0
111 125 0
117 128 0
110 127 0
118 132 0
113 126 0
116 130 0
122 131 0
118 129 0
120 128 0
120 131 0
121 132 0
123 130 0
134 140 0
131 138 0
131 138 0
129 135 0
137 137 0
142 141 0
139 142 0
135 138 0
137 140 0
138 142 0
135 139 0
141 145 0
142 142 0
138 142 0
137 139 0
138 141 0
138 140 0
144 144 0
143 143 0
136 140 0
142 141 0
143 145 0
142 142 0
139 141 0
143 144 0
142 144 0
142 144 0
143 144 0
147 145 0
145 143 0
146 147 0
149 146 0
143 144 0
144 145 0
146 144 0
144 144 0
149 146 0
146 146 0
144 146 0
144 144 0
146 146 0
146 147 0
146 145 0
149 146 0
145 145 0
149 147 0
147 146 0
149 147 0
151 148 0
150 147 0
150 146 0
149 148 0
151 149 0
149 146 0
151 148 0
152 149 0
149 147 0
149 148 0
147 146 0
149 148 0
149 147 0
150 147 0
147 146 0
150 147 0
151 149 0
152 149 0
149 147 0
147 146 0
153 149 0
151 148 0
150 148 0
151 149 0
151 149 0
152 150 0
152 149 0
152 149 0
151 147 0
152 148 0
151 148 0
150 149 0
151 147 0
154 151 0
151 148 0
148 145 0
153 149 0
152 149 0
153 151 0
150 146 0
152 151 0
152 149 0
153 151 0
154 150 0
155 150 0
153 151 0
154 151 0
155 151 0
154 150 0
152 149 0
154 152 0
153 149 0
155 151 0
152 148 0
152 150 0
152 150 0
154 150 0
154 150 0
213 231 254
213 231 254
213 231 254
213 231 254
213 231 254
213 231 254
213 231 254
213 231 254
213 231 254
213 231 254
213 231 254
213 231 254
213 231 254
214 231 254
214 231 254
214 231 254
214 231 254
214 231 254
214 231 254
214 231 254
214 231 254
214 231 254
214 231 254
214 231 254
214 231 254
214 231 254
214 231 254
214 231 254
214 231 254
214 231 254
214 231 254
214 231 254
214 231 254
214 231 254
214 231 254
214 231 254
214 231 254
214 231 254
214 231 254
214 231 254
214 231 254
214 231 254
214 231 254
214 231 254
214 231 254
214 231 254
214 231 254
214 231 254
214 231 254
214 231 254
214 231 254
214 231 254
214 231 254
214 231 254
214 231 254
214 231 254
214 231 254
214 231 254
214 231 254
214 231 254
214 231 254
214 231 254
214 231 254
214 231 254
214 231 254
214 231 254
214 231 254
214 231 254
214 231 254
214 231 254
214 231 254
214 231 254
214 231 254
214 231 254
214 231 254
214 231 254
214 231 254
214 231 254
214 231 254
214 231 254
214 231 254
214 231 254
214 231 254
214 231 254
214 231 254
214 231 254
214 231 254
213 231 254
213 231 254
213 231 254
213 231 254
213 231 254
213 231 254
213 231 254
213 231 254
213 231 254
213 230 254
213 230 254
213 230 254
213 230 254
213 230 254
213 230 254
213 230 254
212 230 254
212 230 254
212 230 254
212 230 254
212 230 254
212 230 254
212 230 254
212 230 254
212 230 254
211 230 254
211 230 254
211 229 254
211 229 254
211 229 254
211 229 254
211 229 254
210 229 254
210 229 254
210 229 254
210 229 254
209 228 254
209 228 254
209 228 254
208 228 254
208 228 254
208 228 254
207 227 254
207 227 254
206 227 254
206 227 254
205 226 254
205 226 254
204 225 254
203 225 254
202 224 254
200 224 254
185 210 180
169 194 0
173 197 0
170 195 0
171 196 0
169 195 0
166 194 0
170 195 0
171 196 0
172 197 0
172 196 0
170 196 0
170 196 0
170 196 0
169 195 0
168 195 0
168 195 0
146 193 65
56 184 112
55 182 112
56 184 119
57 186 119
57 184 106
56 184 118
57 186 114
57 184 116
55 180 103
58 185 116
56 183 109
59 189 128
57 184 115
57 185 115
57 184 108
57 184 98
56 183 112
56 183 105
56 182 109
55 181 100
55 181 103
56 183 109
57 183 100
56 182 108
56 183 103
57 183 112
56 181 109
57 185 120
57 184 116
56 184 116
55 181 108
56 181 102
56 184 119
58 185 115
55 179 103
56 181 98
56 180 109
57 184 116
57 183 109
58 185 116
56 183 103
59 187 124
56 183 105
56 181 95
56 183 105
56 183 111
56 181 91
59 188 123
56 181 108
57 181 98
57 182 111
55 179 97
56 180 108
55 179 103
56 181 98
56 181 100
55 177 105
52 175 91
56 180 111
55 177 90
57 181 106
56 179 108
56 180 120
54 177 93
58 183 114
54 176 105
56 181 105
55 175 102
55 180 103
53 175 106
56 177 114
52 169 102
53 174 106
54 174 95
53 171 97
55 176 102
55 175 109
53 169 106
55 172 100
54 171 105
52 169 97
49 161 87
53 167 91
51 162 90
51 160 100
46 146 67
148 182 22
169 193 0
164 189 0
162 189 0
165 191 0
170 193 0
165 190 0
166 190 0
167 193 0
166 191 0
167 191 0
165 192 0
167 190 0
167 191 0
165 187 0
164 188 0
171 192 0
143 155 0
130 131 0
127 133 0
129 131 0
130 134 0
117 125 0
110 123 0
109 118 0
103 114 0
107 120 0
92 110 0
98 115 0
102 117 0
99 116 0
98 112 0
95 116 0
101 118 0
101 116 0
103 119 0
100 116 0
115 121 0
111 120 0
111 125 0
121 127 0
116 128 0
116 127 0
115 129 0
117 132 0
119 132 0
118 131 0
129 133 0
131 136 0
127 134 0
128 134 0
125 131 0
124 132 0
132 137 0
134 137 0
122 131 0
128 136 0
137 139 0
131 135 0
138 142 0
137 139 0
135 138 0
141 143 0
138 138 0
140 142 0
144 142 0
138 139 0
139 142 0
141 143 0
141 142 0
136 141 0
138 140 0
144 145 0
137 137 0
139 142 0
143 144 0
147 148 0
143 142 0
139 142 0
145 142 0
141 142 0
143 140 0
139 142 0
142 143 0
144 142 0
144 144 0
149 147 0
149 146 0
143 143 0
149 145 0
145 144 0
145 147 0
146 144 0
146 143 0
147 147 0
149 146 0
150 149 0
152 149 0
148 147 0
146 142 0
148 146 0
149 147 0
150 147 0
149 148 0
145 145 0
147 147 0
149 146 0
150 148 0
145 145 0
144 142 0
152 150 0
150 147 0
151 150 0
149 147 0
151 148 0
152 148 0
148 146 0
150 148 0
151 149 0
151 148 0
153 150 0
152 147 0
148 145 0
151 148 0
148 148 0
152 150 0
150 146 0
153 150 0
151 147 0
153 149 0
155 151 0
147 144 0
152 147 0
151 146 0
151 148 0
153 149 0
154 150 0
151 147 0
153 150 0
154 151 0
149 148 0
153 149 0
150 149 0
152 149 0
155 151 0
154 150 0
153 150 0
153 149 0
153 150 0
152 149 0
153 150 0
152 150 0
153 149 0
151 150 0
152 148 0
154 151 0
155 151 0
213 230 254
213 230 254
213 230 254
213 230 254
213 230 254
213 230 254
213 230 254
213 231 254
213 231 254
213 231 254
213 231 254
213 231 254
213 231 254
213 231 254
213 231 254
213 231 254
213 231 254
213 231 254
213 231 254
213 231 254
213 231 254
213 231 254
213 231 254
213 231 254
213 231 254
213 231 254
213 231 254
214 231 254
214 231 254
214 231 254
214 231 254
214 231 254
214 231 254
214 231 254
214 231 254
214 231 254
214 231 254
214 231 254
214 231 254
214 231 254
214 231 254
214 231 254
214 231 254
214 231 254
214 231 254
214 231 254
214 231 254
214 231 254
214 231 254
214 231 254
214 231 254
214 231 254
214 231 254
214 231 254
214 231 254
214 231 254
214 231 254
214 231 254
214 231 254
214 231 254
214 231 254
214 231 254
214 231 254
214 231 254
214 231 254
214 231 254
214 231 254
214 231 254
214 231 254
214 231 254
214 231 254
214 231 254
214 231 254
214 231 254
214 231 254
214 231 254
214 231 254
213 231 254
213 231 254
213 231 254
213 231 254
213 231 254
213 231 254
213 231 254
213 231 254
213 231 254
213 231 254
213 231 254
213 231 254
213 231 254
213 230 254
213 230 254
213 230 254
213 230 254
213 230 254
213 230 254
213 230 254
213 230 254
213 230 254
212 230 254
212 230 254
212 230 254
212 230 254
212 230 254
212 230 254
212 230 254
212 230 254
212 230 254
212 230 254
211 230 254
211 230 254
211 229 254
211 229 254
211 229 254
211 229 254
211 229 254
210 229 254
210 229 254
210 229 254
210 229 254
209 229 254
209 228 254
209 228 254
209 228 254
208 228 254
208 228 254
208 228 254
207 227 254
207 227 254
206 227 254
206 227 254
205 226 254
205 226 254
204 226 254
203 225 254
203 225 254
202 224 254
200 224 254
196 220 236
170 196 25
171 196 0
171 196 0
172 196 0
171 196 0
167 195 0
171 196 0
171 196 0
166 194 0
171 196 0
171 196 0
172 196 0
171 196 0
170 196 0
166 195 0
170 196 0
172 196 0
170 196 0
110 188 93
57 185 115
56 183 108
57 184 111
54 180 109
54 179 93
57 184 115
58 186 115
55 181 98
56 183 106
58 186 109
57 183 108
55 180 98
56 182 106
57 183 111
55 181 98
56 183 102
54 180 100
58 186 122
57 185 114
59 189 127
56 183 115
58 187 118
56 181 105
57 185 109
55 182 103
58 185 111
57 184 109
58 186 115
55 179 95
55 180 105
55 180 102
55 180 97
58 185 112
56 182 103
56 182 105
55 180 102
56 182 105
57 184 112
56 181 105
57 183 111
57 184 114
59 188 120
56 184 116
58 184 116
58 185 115
56 180 98
57 182 112
54 178 100
55 181 102
58 184 112
57 183 108
56 181 111
55 179 102
55 179 98
56 184 114
55 178 109
57 184 112
55 179 106
56 180 100
57 180 109
56 181 111
57 181 115
54 176 88
53 173 102
55 176 103
53 174 103
56 178 108
55 177 106
52 172 91
55 176 105
54 176 108
55 175 103
54 173 102
53 170 86
54 174 93
54 171 97
53 175 103
52 169 93
54 172 100
48 157 80
52 165 102
50 157 78
49 161 87
49 159 83
98 165 54
162 187 0
165 190 0
164 187 0
163 189 0
166 190 0
161 186 0
166 191 0
160 185 0
164 190 0
165 190 0
168 191 0
162 188 0
167 190 0
163 189 0
167 190 0
163 186 0
165 191 0
168 189 0
136 141 0
127 133 0
133 135 0
120 129 0
123 126 0
109 120 0
103 117 0
107 117 0
102 117 0
104 119 0
107 113 0
98 113 0
104 117 0
96 114 0
105 118 0
101 113 0
99 111 0
116 125 0
105 119 0
116 126 0
102 117 0
112 123 0
114 124 0
112 123 0
117 126 0
119 126 0
121 129 0
121 128 0
119 132 0
119 129 0
127 136 0
124 133 0
122 130 0
117 130 0
129 133 0
127 134 0
129 131 0
131 136 0
134 138 0
131 135 0
135 136 0
132 137 0
135 134 0
129 137 0
134 140 0
138 140 0
134 139 0
139 141 0
136 140 0
141 141 0
142 142 0
140 140 0
144 142 0
141 141 0
144 144 0
139 137 0
142 141 0
138 141 0
141 140 0
142 142 0
145 143 0
145 143 0
145 145 0
144 141 0
145 145 0
143 143 0
142 142 0
149 147 0
143 142 0
148 146 0
151 147 0
147 145 0
145 146 0
149 146 0
146 145 0
145 146 0
149 146 0
149 148 0
146 144 0
150 147 0
147 146 0
148 146 0
146 147 0
143 143 0
150 147 0
141 143 0
145 142 0
148 147 0
150 148 0
148 145 0
149 147 0
148 147 0
148 147 0
147 145 0
149 148 0
150 147 0
151 149 0
151 149 0
148 147 0
151 148 0
150 146 0
149 144 0
149 148 0
154 149 0
150 147 0
148 146 0
148 146 0
151 148 0
150 148 0
151 148 0
153 150 0
153 149 0
150 148 0
151 148 0
150 148 0
151 147 0
154 150 0
152 150 0
150 148 0
151 147 0
153 150 0
153 150 0
151 148 0
152 150 0
150 148 0
153 149 0
149 147 0
152 148 0
151 149 0
152 148 0
152 149 0
153 150 0
152 149 0
153 149 0
153 149 0
153 150 0
152 148 0
152 149 0
152 148 0
212 230 254
212 230 254
213 230 254
213 230 254
213 230 254
213 230 254
213 230 254
213 230 254
213 230 254
213 230 254
213 230 254
213 230 254
213 230 254
213 230 254
213 230 254
213 230 254
213 230 254
213 230 254
213 231 254
213 231 254
213 231 254
213 231 254
213 231 254
213 231 254
213 231 254
213 231 254
213 231 254
213 231 254
213 231 254
213 231 254
213 231 254
213 231 254
213 231 254
213 231 254
213 231 254
213 231 254
213 231 254
213 231 254
213 231 254
213 231 254
213 231 254
213 231 254
213 231 254
213 231 254
213 231 254
213 231 254
213 231 254
213 231 254
213 231 254
213 231 254
213 231 254
213 231 254
213 231 254
213 231 254
213 231 254
213 231 254
213 231 254
213 231 254
213 231 254
213 231 254
213 231 254
213 231 254
213 231 254
213 231 254
213 231 254
213 231 254
213 231 254
213 231 254
213 231 254
213 231 254
213 231 254
213 231 254
213 231 254
213 231 254
213 231 254
213 231 254
213 231 254
213 231 254
213 231 254
213 231 254
213 231 254
213 231 254
213 230 254
213 230 254
213 230 254
213 230 254
213 230 254
213 230 254
213 230 254
213 230 254
213 230 254
213 230 254
213 230 254
212 230 254
212 230 254
212 230 254
212 230 254
212 230 254
212 230 254
212 230 254
212 230 254
212 230 254
212 230 254
212 230 254
212 230 254
211 230 254
211 230 254
211 229 254
211 229 254
211 229 254
211 229 254
211 229 254
210 229 254
210 229 254
210 229 254
210 229 254
210 229 254
210 229 254
209 228 254
209 228 254
209 228 254
209 228 254
208 228 254
208 228 254
208 228 254
207 227 254
207 227 254
207 227 254
206 227 254
206 226 254
205 226 254
204 226 254
204 225 254
203 225 254
202 225 254
201 224 254
200 223 254
196 220 243
175 200 84
168 195 0
171 196 0
166 195 0
169 195 0
168 195 0
167 194 0
170 196 0
170 195 0
169 195 0
168 195 0
168 195 0
169 195 0
168 194 0
171 196 0
167 195 0
170 196 0
171 196 0
165 193 0
163 193 0
78 182 93
57 185 114
56 183 109
56 183 108
55 183 112
56 181 108
56 182 105
56 181 95
58 185 105
57 183 106
57 185 114
55 180 100
55 181 105
57 184 111
56 184 116
59 187 122
57 184 112
56 184 112
58 186 109
56 183 111
56 182 97
56 183 114
56 182 108
56 181 102
55 181 103
55 183 111
55 179 100
55 180 100
55 179 102
56 184 111
59 188 115
58 186 116
57 183 106
57 186 120
57 184 109
56 182 105
55 180 98
55 178 97
56 183 98
55 178 91
57 182 109
53 176 91
55 180 103
56 182 108
56 182 109
53 175 90
54 177 102
55 181 103
55 181 98
56 181 103
56 182 112
55 180 106
56 180 106
55 179 98
57 181 106
54 175 95
57 183 122
55 179 103
56 180 97
55 179 105
55 178 109
56 179 105
56 179 112
56 181 106
54 174 105
51 167 76
54 178 95
57 182 118
56 180 100
55 174 102
55 178 106
55 178 102
52 169 90
56 177 115
51 166 88
53 171 106
49 165 97
51 165 84
52 163 84
51 162 88
49 158 66
49 158 72
47 154 69
73 160 86
151 184 0
163 191 0
160 186 0
166 190 0
165 190 0
161 187 0
165 189 0
164 189 0
165 188 0
163 189 0
166 190 0
164 188 0
162 188 0
164 187 0
167 190 0
166 189 0
167 189 0
163 187 0
168 190 0
165 186 0
138 138 0
132 135 0
129 135 0
118 129 0
129 132 0
115 122 0
108 118 0
105 117 0
108 115 0
98 113 0
99 115 0
104 114 0
108 118 0
111 119 0
106 115 0
115 122 0
113 125 0
110 119 0
119 127 0
116 124 0
112 125 0
105 118 0
111 121 0
112 125 0
110 123 0
118 129 0
114 126 0
126 130 0
117 127 0
124 128 0
123 131 0
121 130 0
133 135 0
124 132 0
123 128 0
140 141 0
130 137 0
132 137 0
133 137 0
136 138 0
135 138 0
133 140 0
133 137 0
134 136 0
138 140 0
141 141 0
139 143 0
136 137 0
139 139 0
143 144 0
138 136 0
142 143 0
145 145 0
136 143 0
135 138 0
135 138 0
144 144 0
146 143 0
144 145 0
143 141 0
142 143 0
144 142 0
142 144 0
146 141 0
147 144 0
145 146 0
142 141 0
140 142 0
149 146 0
144 141 0
141 143 0
141 142 0
146 144 0
145 145 0
144 142 0
144 145 0
144 143 0
142 141 0
145 145 0
147 146 0
148 144 0
147 147 0
146 145 0
147 146 0
143 141 0
153 148 0
148 147 0
148 145 0
146 144 0
147 146 0
147 147 0
151 148 0
150 148 0
149 147 0
148 145 0
149 147 0
151 149 0
149 146 0
149 147 0
152 147 0
150 148 0
151 147 0
150 147 0
148 146 0
151 147 0
149 145 0
146 145 0
150 147 0
148 146 0
151 147 0
152 149 0
150 147 0
152 150 0
151 148 0
150 146 0
153 150 0
150 149 0
154 152 0
152 149 0
150 148 0
150 148 0
153 149 0
151 148 0
151 148 0
151 148 0
153 150 0
152 148 0
152 150 0
153 150 0
153 150 0
152 150 0
152 149 0
151 148 0
152 149 0
155 152 0
153 148 0
154 151 0
156 152 0
212 230 254
212 230 254
212 230 254
212 230 254
212 230 254
212 230 254
212 230 254
212 230 254
212 230 254
212 230 254
212 230 254
213 230 254
213 230 254
213 230 254
213 230 254
213 230 254
213 230 254
213 230 254
213 230 254
213 230 254
213 230 254
213 230 254
213 230 254
213 230 254
213 230 254
213 230 254
213 230 254
213 230 254
213 230 254
213 230 254
213 230 254
213 230 254
213 231 254
213 231 254
213 231 254
213 231 254
213 231 254
213 231 254
213 231 254
213 231 254
213 231 254
213 231 254
213 231 254
213 231 254
213 231 254
213 231 254
213 231 254
213 231 254
213 231 254
213 231 254
213 231 254
213 231 254
213 231 254
213 231 254
213 231 254
213 231 254
213 231 254
213 231 254
213 231 254
213 231 254
213 231 254
213 231 254
213 231 254
213 231 254
213 231 254
213 231 254
213 231 254
213 231 254
213 231 254
213 231 254
213 231 254
213 230 254
213 230 254
213 230 254
213 230 254
213 230 254
213 230 254
213 230 254
213 230 254
213 230 254
213 230 254
213 230 254
213 230 254
213 230 254
213 230 254
213 230 254
212 230 254
212 230 254
212 230 254
212 230 254
212 230 254
212 230 254
212 230 254
212 230 254
212 230 254
212 230 254
212 230 254
212 230 254
212 230 254
212 230 254
211 230 254
211 230 254
211 230 254
211 230 254
211 229 254
211 229 254
211 229 254
211 229 254
211 229 254
210 229 254
210 229 254
210 229 254
210 229 254
210 229 254
210 229 254
209 229 254
209 228 254
209 228 254
209 228 254
208 228 254
208 228 254
208 228 254
208 228 254
207 227 254
207 227 254
207 227 254
206 227 254
206 226 254
205 226 254
205 226 254
204 226 254
203 225 254
203 225 254
202 224 254
201 224 254
199 223 254
197 221 249
176 201 111
167 194 0
170 196 0
170 196 0
169 195 0
168 195 0
169 195 0
167 195 0
167 195 0
170 195 0
168 196 0
167 195 0
169 195 0
164 195 0
162 192 0
173 197 0
170 195 0
168 195 0
162 192 0
164 194 0
170 196 0
150 192 44
56 182 108
54 180 100
55 182 105
55 181 100
56 182 97
57 184 114
55 181 103
56 185 112
57 184 108
56 181 112
55 180 98
56 181 98
55 180 100
55 180 100
58 186 112
56 182 109
55 181 98
55 181 102
57 184 108
55 181 103
57 183 111
58 185 111
54 180 97
54 180 97
55 180 109
53 176 88
57 185 111
57 184 111
58 185 109
57 184 111
54 179 100
55 181 105
55 179 100
57 182 105
57 182 100
56 183 103
55 179 98
57 183 111
54 179 102
56 182 106
55 179 95
56 181 105
54 179 100
55 178 93
56 182 108
55 180 111
54 178 100
54 178 95
57 183 112
55 179 98
55 179 105
56 180 108
55 177 98
55 176 91
53 175 90
57 184 115
54 177 111
53 174 90
56 179 106
55 178 100
53 173 86
54 177 97
56 180 108
54 175 103
55 176 105
55 174 90
55 179 108
54 175 111
55 176 103
55 177 105
55 177 105
55 175 102
52 170 100
54 172 105
52 168 91
52 168 93
51 166 95
51 164 87
51 166 91
50 160 69
47 155 82
48 150 54
139 176 31
160 187 0
163 188 0
163 188 0
158 184 0
161 184 0
160 188 0
163 188 0
160 185 0
161 187 0
165 192 0
161 184 0
162 188 0
166 188 0
162 188 0
154 183 0
167 191 0
162 188 0
162 188 0
166 189 0
160 187 0
155 177 0
125 127 0
132 133 0
118 126 0
121 127 0
107 117 0
107 120 0
103 117 0
102 113 0
110 116 0
107 116 0
116 124 0
109 117 0
105 117 0
99 115 0
113 122 0
114 125 0
105 118 0
110 119 0
118 128 0
112 120 0
112 122 0
116 127 0
120 123 0
118 127 0
124 128 0
109 119 0
120 130 0
120 129 0
126 131 0
132 135 0
119 127 0
123 128 0
122 130 0
128 132 0
136 136 0
118 125 0
126 132 0
136 139 0
137 140 0
132 136 0
135 138 0
135 136 0
132 133 0
134 134 0
128 135 0
137 141 0
136 137 0
134 135 0
134 137 0
141 140 0
143 140 0
142 140 0
142 141 0
139 139 0
141 141 0
143 142 0
145 143 0
144 143 0
136 140 0
144 143 0
139 140 0
146 144 0
145 145 0
144 143 0
148 146 0
149 145 0
147 144 0
146 145 0
143 141 0
148 147 0
145 142 0
143 142 0
149 145 0
149 147 0
148 145 0
141 142 0
145 143 0
147 144 0
146 145 0
143 145 0
149 147 0
147 147 0
150 147 0
147 146 0
150 147 0
149 146 0
149 148 0
147 144 0
152 147 0
145 140 0
150 147 0
151 149 0
147 147 0
149 145 0
148 145 0
149 145 0
149 148 0
148 147 0
148 146 0
149 148 0
154 151 0
152 148 0
152 147 0
150 147 0
150 146 0
147 146 0
152 147 0
151 148 0
146 146 0
147 146 0
150 147 0
152 149 0
152 149 0
149 147 0
152 148 0
149 146 0
150 148 0
150 146 0
153 150 0
153 149 0
152 150 0
154 151 0
153 149 0
153 148 0
153 148 0
151 148 0
151 147 0
152 148 0
151 149 0
154 149 0
155 150 0
152 148 0
153 149 0
154 150 0
153 150 0
152 148 0
154 151 0
212 230 254
212 230 254
212 230 254
212 230 254
212 230 254
212 230 254
212 230 254
212 230 254
212 230 254
212 230 254
212 230 254
212 230 254
212 230 254
212 230 254
212 230 254
212 230 254
212 230 254
212 230 254
212 230 254
212 230 254
212 230 254
212 230 254
212 230 254
213 230 254
213 230 254
213 230 254
213 230 254
213 230 254
213 230 254
213 230 254
213 230 254
213 230 254
213 230 254
213 230 254
213 230 254
213 230 254
213 230 254
213 230 254
213 230 254
213 230 254
213 230 254
213 230 254
213 230 254
213 230 254
213 230 254
213 230 254
213 230 254
213 230 254
213 230 254
213 230 254
213 230 254
213 230 254
213 230 254
213 230 254
213 230 254
213 230 254
213 230 254
213 230 254
213 230 254
213 230 254
213 230 254
213 230 254
213 230 254
213 230 254
213 230 254
213 230 254
213 230 254
213 230 254
213 230 254
213 230 254
213 230 254
213 230 254
213 230 254
213 230 254
213 230 254
213 230 254
212 230 254
212 230 254
212 230 254
212 230 254
212 230 254
212 230 254
212 230 254
212 230 254
212 230 254
212 230 254
212 230 254
212 230 254
212 230 254
212 230 254
212 230 254
212 230 254
212 230 254
212 230 254
212 230 254
212 230 254
211 230 254
211 230 254
211 230 254
211 229 254
211 229 254
211 229 254
211 229 254
211 229 254
211 229 254
211 229 254
210 229 254
210 229 254
210 229 254
210 229 254
210 229 254
210 229 254
209 229 254
209 228 254
209 228 254
209 228 254
209 228 254
208 228 254
208 228 254
208 228 254
207 227 254
207 227 254
207 227 254
207 227 254
206 227 254
206 227 254
205 226 254
205 226 254
204 226 254
204 225 254
203 225 254
202 225 254
201 224 254
200 224 254
199 223 254
197 222 252
178 203 141
169 195 0
169 196 0
171 196 0
167 194 0
170 196 0
167 194 0
165 194 0
167 195 0
170 196 0
169 196 0
171 196 0
165 194 0
167 195 0
165 194 0
170 196 0
165 195 0
166 194 0
165 195 0
162 193 0
163 194 0
160 193 0
165 194 0
126 187 59
56 183 108
53 178 88
56 184 111
55 181 106
55 182 98
59 188 115
54 180 95
54 179 95
55 179 103
55 181 95
57 185 112
55 180 95
56 183 109
55 181 97
55 183 103
55 181 108
54 180 93
56 183 105
56 184 115
57 184 108
57 184 100
54 180 103
56 182 102
58 186 106
57 182 97
54 181 97
55 181 100
57 184 112
54 177 95
59 188 123
56 181 106
55 181 109
54 178 100
57 183 112
57 184 111
56 181 98
54 178 90
56 182 102
54 179 91
56 182 108
55 181 109
54 180 97
56 180 111
57 182 106
57 184 111
53 175 95
54 177 93
53 173 93
55 178 98
57 182 106
55 180 108
54 176 88
54 179 105
54 176 93
56 182 102
56 181 109
56 182 109
55 179 102
55 178 98
56 179 106
53 173 97
54 177 108
55 178 112
53 173 86
53 171 95
54 175 98
55 176 103
53 171 86
53 172 97
56 178 109
52 165 90
52 169 95
54 176 97
53 171 105
51 166 84
51 163 90
50 162 82
49 158 80
49 161 84
46 149 51
125 175 40
166 191 0
160 186 0
160 187 0
158 186 0
160 185 0
156 185 0
158 187 0
161 187 0
163 188 0
159 183 0
161 186 0
160 185 0
159 184 0
165 189 0
160 181 0
164 188 0
166 186 0
165 185 0
162 187 0
165 188 0
166 188 0
166 189 0
151 166 0
130 129 0
125 128 0
115 121 0
116 119 0
108 119 0
110 119 0
110 116 0
106 115 0
103 116 0
115 119 0
108 113 0
109 118 0
107 118 0
107 117 0
113 127 0
107 119 0
107 120 0
109 120 0
121 125 0
111 122 0
114 124 0
112 123 0
110 122 0
122 128 0
116 125 0
114 124 0
122 130 0
121 126 0
126 129 0
125 132 0
128 136 0
127 131 0
126 129 0
125 133 0
136 138 0
129 134 0
126 132 0
134 135 0
136 138 0
137 137 0
138 138 0
135 137 0
134 137 0
138 137 0
139 141 0
139 140 0
141 140 0
138 141 0
139 141 0
140 139 0
141 143 0
138 140 0
135 136 0
139 140 0
140 141 0
144 142 0
137 140 0
143 141 0
141 141 0
145 142 0
140 141 0
137 140 0
142 140 0
143 143 0
149 146 0
146 146 0
141 140 0
144 144 0
144 143 0
143 143 0
143 144 0
144 143 0
148 144 0
144 142 0
147 145 0
142 139 0
147 147 0
148 144 0
145 143 0
144 144 0
147 143 0
142 143 0
147 143 0
150 146 0
147 145 0
146 143 0
149 144 0
151 148 0
151 147 0
150 147 0
148 144 0
151 147 0
147 145 0
150 146 0
150 146 0
151 147 0
150 148 0
152 147 0
151 147 0
150 147 0
151 148 0
151 147 0
149 145 0
153 149 0
149 146 0
152 147 0
152 148 0
150 147 0
152 149 0
150 145 0
151 148 0
151 148 0
151 148 0
149 147 0
153 148 0
153 148 0
154 150 0
150 148 0
152 147 0
151 147 0
149 146 0
152 148 0
150 147 0
150 147 0
151 147 0
151 146 0
156 151 0
154 149 0
153 150 0
151 149 0
153 149 0
150 147 0
150 148 0
154 150 0
152 147 0
152 149 0
211 230 254
211 230 254
211 230 254
212 230 254
212 230 254
212 230 254
212 230 254
212 230 254
212 230 254
212 230 254
212 230 254
212 230 254
212 230 254
212 230 254
212 230 254
212 230 254
212 230 254
212 230 254
212 230 254
212 230 254
212 230 254
212 230 254
212 230 254
212 230 254
212 230 254
212 230 254
212 230 254
212 230 254
212 230 254
212 230 254
212 230 254
212 230 254
212 230 254
212 230 254
212 230 254
212 230 254
212 230 254
212 230 254
212 230 254
212 230 254
212 230 254
212 230 254
212 230 254
212 230 254
212 230 254
213 230 254
213 230 254
213 230 254
213 230 254
213 230 254
213 230 254
213 230 254
213 230 254
213 230 254
213 230 254
213 230 254
212 230 254
213 230 254
212 230 254
212 230 254
212 230 254
212 230 254
212 230 254
212 230 254
212 230 254
212 230 254
212 230 254
212 230 254
212 230 254
212 230 254
212 230 254
212 230 254
212 230 254
212 230 254
212 230 254
212 230 254
212 230 254
212 230 254
212 230 254
212 230 254
212 230 254
212 230 254
212 230 254
212 230 254
212 230 254
212 230 254
212 230 254
212 230 254
212 230 254
212 230 254
211 230 254
211 230 254
211 230 254
211 230 254
211 229 254
211 229 254
211 229 254
211 229 254
211 229 254
211 229 254
211 229 254
211 229 254
210 229 254
210 229 254
210 229 254
210 229 254
210 229 254
210 229 254
210 229 254
209 229 254
209 228 254
209 228 254
209 228 254
209 228 254
208 228 254
208 228 254
208 228 254
208 228 254
207 227 254
207 227 254
207 227 254
206 227 254
206 227 254
206 226 254
205 226 254
205 226 254
204 226 254
204 225 254
203 225 254
202 225 254
202 224 254
201 224 254
200 223 254
199 223 254
197 222 254
185 211 194
168 195 0
167 195 0
168 194 0
169 196 0
170 196 0
171 196 0
169 196 0
166 195 0
167 194 0
170 195 0
171 196 0
164 193 0
163 193 0
164 194 0
166 194 0
165 194 0
162 192 0
165 193 0
168 195 0
157 190 0
164 194 0
169 196 0
162 193 0
162 193 0
107 183 78
54 179 98
54 180 98
54 180 109
56 182 98
56 183 108
56 183 100
56 182 102
56 182 100
55 181 102
56 182 106
56 182 103
56 182 105
57 185 108
56 182 106
56 183 112
57 186 111
58 188 119
57 185 106
54 180 103
57 185 116
53 177 91
57 184 105
55 180 108
55 182 115
56 183 112
57 185 112
54 178 88
55 179 102
56 183 106
56 183 111
56 183 115
55 182 103
56 181 108
57 183 106
56 184 106
55 180 103
56 181 106
56 183 109
54 176 93
54 177 93
55 179 102
55 180 106
56 180 103
54 177 93
52 175 88
54 179 105
52 174 84
54 176 95
56 180 102
54 177 102
56 180 114
53 174 90
55 178 103
53 176 91
53 173 97
53 174 88
53 176 102
53 173 88
56 181 111
53 173 97
53 173 90
55 176 93
53 172 91
53 172 95
54 174 97
53 170 98
55 179 105
52 171 90
52 168 82
49 162 80
51 166 80
50 168 91
49 167 86
50 162 80
49 159 72
49 161 78
45 153 74
46 153 70
97 165 51
149 178 0
160 188 0
157 182 0
158 185 0
155 181 0
157 182 0
157 181 0
160 184 0
153 182 0
160 186 0
164 185 0
160 183 0
157 183 0
164 188 0
161 186 0
162 184 0
161 186 0
165 186 0
164 184 0
161 185 0
159 182 0
161 183 0
163 186 0
161 189 0
143 156 0
125 126 0
123 130 0
121 123 0
112 117 0
105 118 0
112 118 0
111 120 0
111 123 0
102 113 0
107 119 0
116 125 0
109 116 0
108 114 0
114 123 0
105 114 0
115 123 0
113 123 0
112 120 0
118 126 0
113 120 0
114 122 0
118 121 0
109 122 0
125 132 0
123 129 0
117 125 0
131 134 0
126 131 0
126 131 0
132 131 0
125 128 0
129 130 0
129 133 0
133 135 0
127 131 0
131 133 0
134 133 0
133 135 0
134 135 0
129 136 0
138 137 0
125 130 0
127 134 0
135 137 0
135 137 0
134 135 0
142 140 0
138 137 0
139 140 0
139 140 0
139 139 0
138 140 0
133 137 0
144 143 0
138 139 0
138 138 0
140 138 0
142 143 0
137 139 0
141 140 0
143 143 0
138 140 0
146 144 0
147 144 0
138 142 0
140 139 0
143 142 0
145 142 0
144 142 0
140 139 0
143 140 0
146 145 0
145 144 0
148 143 0
148 146 0
145 144 0
145 142 0
148 145 0
145 143 0
148 144 0
150 147 0
149 146 0
151 147 0
145 143 0
146 146 0
143 142 0
151 146 0
144 142 0
149 146 0
149 145 0
150 147 0
149 145 0
148 144 0
151 148 0
150 147 0
148 144 0
150 147 0
151 146 0
152 147 0
149 146 0
150 144 0
149 146 0
147 144 0
149 145 0
152 147 0
147 144 0
149 147 0
151 147 0
149 145 0
151 147 0
149 144 0
152 148 0
148 146 0
152 148 0
151 147 0
154 149 0
153 149 0
149 145 0
151 147 0
151 148 0
149 146 0
151 146 0
152 149 0
151 148 0
152 148 0
150 148 0
153 149 0
151 147 0
151 148 0
151 149 0
151 148 0
152 149 0
151 149 0
153 148 0
152 149 0
211 229 254
211 229 254
211 229 254
211 229 254
211 230 254
211 230 254
211 230 254
211 230 254
211 230 254
211 230 254
211 230 254
211 230 254
212 230 254
212 230 254
212 230 254
212 230 254
212 230 254
212 230 254
212 230 254
212 230 254
212 230 254
212 230 254
212 230 254
212 230 254
212 230 254
212 230 254
212 230 254
212 230 254
212 230 254
212 230 254
212 230 254
212 230 254
212 230 254
212 230 254
212 230 254
212 230 254
212 230 254
212 230 254
212 230 254
212 230 254
212 230 254
212 230 254
212 230 254
212 230 254
212 230 254
212 230 254
212 230 254
212 230 254
212 230 254
212 230 254
212 230 254
212 230 254
212 230 254
212 230 254
212 230 254
212 230 254
212 230 254
212 230 254
212 230 254
212 230 254
212 230 254
212 230 254
212 230 254
212 230 254
212 230 254
212 230 254
212 230 254
212 230 254
212 230 254
212 230 254
212 230 254
212 230 254
212 230 254
212 230 254
212 230 254
212 230 254
212 230 254
212 230 254
212 230 254
212 230 254
212 230 254
212 230 254
212 230 254
211 230 254
211 230 254
211 230 254
211 230 254
211 230 254
211 229 254
211 229 254
211 229 254
211 229 254
211 229 254
211 229 254
211 229 254
211 229 254
211 229 254
210 229 254
210 229 254
210 229 254
210 229 254
210 229 254
210 229 254
210 229 254
210 229 254
209 229 254
209 228 254
209 228 254
209 228 254
209 228 254
209 228 254
208 228 254
208 228 254
208 228 254
208 228 254
208 227 254
207 227 254
207 227 254
207 227 254
206 227 254
206 227 254
206 226 254
205 226 254
205 226 254
204 226 254
204 225 254
203 225 254
203 225 254
202 224 254
201 224 254
200 224 254
199 223 254
198 222 254
197 222 254
183 210 192
169 196 0
169 195 0
167 194 0
164 194 0
169 195 0
168 196 0
165 194 0
166 193 0
165 194 0
171 196 0
166 195 0
164 193 0
162 193 0
167 193 0
166 195 0
167 195 0
165 194 0
164 194 0
165 195 0
152 189 0
161 191 0
158 192 0
161 192 0
159 192 0
162 193 0
156 192 0
107 184 74
55 180 103
53 178 93
54 179 105
54 179 88
55 180 102
54 178 90
56 182 103
57 185 114
55 181 106
55 179 106
54 179 91
54 177 90
55 180 103
55 180 91
57 183 106
55 178 95
54 180 93
56 185 115
56 182 102
54 178 90
54 178 95
56 180 100
56 179 103
56 181 100
56 179 102
56 180 106
55 180 97
54 177 95
56 183 106
56 183 114
55 179 100
54 180 103
55 179 102
56 182 106
56 181 105
56 183 109
56 182 106
54 177 93
54 180 103
56 181 106
56 182 100
57 184 108
53 177 95
56 181 105
56 182 109
54 178 93
54 176 93
55 179 102
53 177 82
55 178 105
55 179 98
53 176 98
52 175 88
54 177 100
53 176 91
55 180 97
56 180 106
53 177 97
55 177 111
53 174 100
54 175 88
52 171 80
56 178 91
54 177 98
53 172 91
55 175 114
54 176 103
51 169 82
50 163 76
52 169 88
48 159 88
52 166 86
52 170 95
49 164 74
50 162 90
49 158 84
89 161 54
158 181 18
151 180 0
151 183 0
152 175 0
151 175 0
154 180 0
154 179 0
159 185 0
155 180 0
163 184 0
158 183 0
158 184 0
156 181 0
159 186 0
161 186 0
156 182 0
153 179 0
160 183 0
159 183 0
153 175 0
151 180 0
154 180 0
163 185 0
155 181 0
161 185 0
160 182 0
140 157 0
119 120 0
121 123 0
112 120 0
117 124 0
114 118 0
112 116 0
103 116 0
97 108 0
119 122 0
116 121 0
103 113 0
110 118 0
104 112 0
116 122 0
115 122 0
117 124 0
110 118 0
120 123 0
116 121 0
120 130 0
108 120 0
119 129 0
117 127 0
123 127 0
129 130 0
119 125 0
129 132 0
120 125 0
124 131 0
123 127 0
117 127 0
127 130 0
129 131 0
132 132 0
129 131 0
130 132 0
128 131 0
139 138 0
136 136 0
136 135 0
137 136 0
135 133 0
135 138 0
140 141 0
134 136 0
139 138 0
139 137 0
139 141 0
138 138 0
135 136 0
139 139 0
139 140 0
135 138 0
139 136 0
135 137 0
140 139 0
139 139 0
142 141 0
143 142 0
143 143 0
139 138 0
147 143 0
139 137 0
141 140 0
143 141 0
147 143 0
142 141 0
145 142 0
147 145 0
146 143 0
146 144 0
145 143 0
149 144 0
142 140 0
145 143 0
147 145 0
146 145 0
148 144 0
148 145 0
148 145 0
141 139 0
146 143 0
147 146 0
145 143 0
151 147 0
147 145 0
146 145 0
152 149 0
148 145 0
150 145 0
150 146 0
148 145 0
150 146 0
151 147 0
146 142 0
146 145 0
150 146 0
148 145 0
148 146 0
151 146 0
148 146 0
150 147 0
149 145 0
151 148 0
151 146 0
150 147 0
151 147 0
145 143 0
150 148 0
149 146 0
151 147 0
151 148 0
151 148 0
152 149 0
153 149 0
152 148 0
150 147 0
150 146 0
151 147 0
148 146 0
148 146 0
152 150 0
150 145 0
153 151 0
152 147 0
153 149 0
152 147 0
150 147 0
153 150 0
154 150 0
153 148 0
152 149 0
151 147 0
153 150 0
211 229 254
211 229 254
211 229 254
211 229 254
211 229 254
211 229 254
211 229 254
211 229 254
211 229 254
211 229 254
211 229 254
211 229 254
211 229 254
211 230 254
211 230 254
211 230 254
211 230 254
211 230 254
211 230 254
211 230 254
211 230 254
211 230 254
211 230 254
212 230 254
212 230 254
212 230 254
212 230 254
212 230 254
212 230 254
212 230 254
212 230 254
212 230 254
212 230 254
212 230 254
212 230 254
212 230 254
212 230 254
212 230 254
212 230 254
212 230 254
212 230 254
212 230 254
212 230 254
212 230 254
212 230 254
212 230 254
212 230 254
212 230 254
212 230 254
212 230 254
212 230 254
212 230 254
212 230 254
212 230 254
212 230 254
212 230 254
212 230 254
212 230 254
212 230 254
212 230 254
212 230 254
212 230 254
212 230 254
212 230 254
212 230 254
212 230 254
212 230 254
212 230 254
212 230 254
212 230 254
212 230 254
212 230 254
212 230 254
212 230 254
211 230 254
211 230 254
211 230 254
211 230 254
211 230 254
211 230 254
211 230 254
211 229 254
211 229 254
211 229 254
211 229 254
211 229 254
211 229 254
211 229 254
211 229 254
211 229 254
211 229 254
211 229 254
210 229 254
210 229 254
210 229 254
210 229 254
210 229 254
210 229 254
210 229 254
210 229 254
210 229 254
209 229 254
209 228 254
209 228 254
209 228 254
209 228 254
209 228 254
209 228 254
208 228 254
208 228 254
208 228 254
208 228 254
208 228 254
207 227 254
207 227 254
207 227 254
207 227 254
206 227 254
206 227 254
206 226 254
205 226 254
205 226 254
204 226 254
204 225 254
203 225 254
203 225 254
202 225 254
201 224 254
201 224 254
200 223 254
199 223 254
198 222 254
196 221 254
180 208 187
171 196 0
169 195 0
169 195 0
171 196 0
167 195 0
161 193 0
166 194 0
160 193 0
167 196 0
167 195 0
165 195 0
164 194 0
164 193 0
161 193 0
161 193 0
162 193 0
160 192 0
165 194 0
164 193 0
160 192 0
162 193 0
161 193 0
157 192 0
164 194 0
163 193 0
162 193 0
161 194 0
163 192 0
89 185 91
54 179 98
53 178 103
55 183 106
53 179 100
55 181 102
54 179 90
56 184 114
54 180 100
55 182 100
54 180 93
53 177 88
55 180 100
55 183 98
55 181 100
56 182 103
55 179 91
55 181 100
55 180 102
54 177 93
54 178 91
54 180 102
56 181 105
54 179 105
53 177 91
56 182 108
55 181 103
56 181 95
54 178 97
56 182 108
55 181 106
56 181 108
54 178 100
53 177 88
55 181 108
55 182 105
56 182 102
54 178 91
54 179 97
56 183 103
54 178 102
54 177 88
53 178 102
55 180 106
54 178 108
55 178 102
57 182 109
53 174 93
55 178 108
54 177 90
52 174 93
56 181 106
57 182 111
53 172 95
53 173 93
54 177 95
54 176 100
53 170 98
54 178 102
55 176 102
52 173 90
50 170 82
54 174 98
51 167 80
51 169 91
55 177 98
54 174 98
52 167 80
52 170 93
52 170 95
49 163 73
49 161 80
47 154 76
49 164 84
48 159 82
75 154 62
145 179 0
148 181 0
158 182 0
153 180 0
153 182 0
150 180 0
153 183 0
154 181 0
152 181 0
151 178 0
160 184 0
150 176 0
154 179 0
154 183 0
157 182 0
156 182 0
160 182 0
155 181 0
153 174 0
150 176 0
156 181 0
160 184 0
155 180 0
156 178 0
160 182 0
162 184 0
159 184 0
149 173 0
136 144 0
118 119 0
125 128 0
117 119 0
119 121 0
108 116 0
110 114 0
100 112 0
112 116 0
115 116 0
106 116 0
114 122 0
101 110 0
113 120 0
116 117 0
107 118 0
112 125 0
122 125 0
110 119 0
119 124 0
115 124 0
125 128 0
126 127 0
115 123 0
122 128 0
124 128 0
123 128 0
114 123 0
128 130 0
130 132 0
130 133 0
122 129 0
133 137 0
122 130 0
133 136 0
123 130 0
124 129 0
132 132 0
130 132 0
132 136 0
134 134 0
136 137 0
134 136 0
133 137 0
141 141 0
142 139 0
138 140 0
138 141 0
134 136 0
133 133 0
139 137 0
140 139 0
133 135 0
134 132 0
140 139 0
138 140 0
142 140 0
144 139 0
144 139 0
137 137 0
146 142 0
139 141 0
142 140 0
141 140 0
140 140 0
143 140 0
144 139 0
141 139 0
141 140 0
146 144 0
143 143 0
144 140 0
146 142 0
141 139 0
147 143 0
141 137 0
147 144 0
150 148 0
149 144 0
143 139 0
148 143 0
148 146 0
143 142 0
147 144 0
148 144 0
148 145 0
147 144 0
147 141 0
148 144 0
149 145 0
151 146 0
148 142 0
148 144 0
146 142 0
150 146 0
148 144 0
145 144 0
148 144 0
144 142 0
150 148 0
149 145 0
150 146 0
149 143 0
148 145 0
153 148 0
150 146 0
148 146 0
149 145 0
150 147 0
149 145 0
150 146 0
149 147 0
151 148 0
152 147 0
151 146 0
151 147 0
152 148 0
152 148 0
149 147 0
153 148 0
152 148 0
151 147 0
151 147 0
152 148 0
151 147 0
152 147 0
150 146 0
150 147 0
152 148 0
151 147 0
152 148 0
151 147 0
152 147 0
151 147 0
210 229 254
210 229 254
210 229 254
210 229 254
210 229 254
210 229 254
211 229 254
211 229 254
211 229 254
211 229 254
211 229 254
211 229 254
211 229 254
211 229 254
211 229 254
211 229 254
211 229 254
211 229 254
211 229 254
211 229 254
211 229 254
211 229 254
211 229 254
211 229 254
211 229 254
211 229 254
211 230 254
211 230 254
211 230 254
211 230 254
211 230 254
211 230 254
211 230 254
211 230 254
211 230 254
211 230 254
211 230 254
211 230 254
211 230 254
211 230 254
211 230 254
211 230 254
211 230 254
211 230 254
211 230 254
211 230 254
211 230 254
211 230 254
211 230 254
211 230 254
211 230 254
211 230 254
211 230 254
211 230 254
211 230 254
211 230 254
211 230 254
211 230 254
211 230 254
211 230 254
211 230 254
211 230 254
211 230 254
211 230 254
211 230 254
211 230 254
211 230 254
211 230 254
211 230 254
211 230 254
211 230 254
211 229 254
211 229 254
211 229 254
211 229 254
211 229 254
211 229 254
211 229 254
211 229 254
211 229 254
211 229 254
211 229 254
211 229 254
211 229 254
211 229 254
211 229 254
210 229 254
210 229 254
210 229 254
210 229 254
210 229 254
210 229 254
210 229 254
210 229 254
210 229 254
210 229 254
210 229 254
209 229 254
209 228 254
209 228 254
209 228 254
209 228 254
209 228 254
209 228 254
209 228 254
208 228 254
208 228 254
208 228 254
208 228 254
208 228 254
207 227 254
207 227 254
207 227 254
207 227 254
206 227 254
206 227 254
206 227 254
205 226 254
205 226 254
205 226 254
204 226 254
204 225 254
203 225 254
203 225 254
202 225 254
202 224 254
201 224 254
200 223 254
199 223 254
198 222 254
197 222 254
195 221 254
182 211 199
167 194 25
170 196 0
172 197 0
166 195 0
166 194 0
168 195 0
172 197 0
165 195 0
163 194 0
162 192 0
164 193 0
164 194 0
167 195 0
163 193 0
162 194 0
163 193 0
165 194 0
166 195 0
160 191 0
162 193 0
167 195 0
153 189 0
160 192 0
154 190 0
159 192 0
151 189 0
156 190 0
156 190 0
158 190 0
149 188 0
79 179 86
52 178 95
54 180 103
54 179 97
54 177 102
57 184 105
56 183 111
55 180 97
55 182 93
56 182 108
54 179 84
54 178 78
55 183 108
55 180 105
54 178 91
55 180 97
54 177 88
54 177 80
55 182 108
54 179 95
56 181 98
54 180 97
53 176 78
53 175 95
53 177 82
55 181 100
55 179 95
55 179 98
54 179 105
52 174 84
55 180 98
55 179 100
54 177 78
55 180 97
55 179 93
57 185 112
54 177 91
54 178 95
53 177 84
54 177 88
56 182 103
55 178 93
53 176 88
53 176 90
55 179 105
54 178 91
55 179 105
53 174 103
54 176 86
54 175 86
52 174 90
56 181 106
54 175 86
56 182 105
54 175 86
57 182 103
54 175 93
52 172 98
55 177 103
53 172 90
52 174 98
52 169 86
51 166 88
52 172 91
52 171 103
51 166 88
51 167 90
52 168 86
52 167 86
51 167 88
48 156 76
48 161 65
46 153 65
67 156 58
150 181 22
149 176 0
139 172 0
149 180 0
146 175 0
145 173 0
151 175 0
153 180 0
152 178 0
148 177 0
148 178 0
149 176 0
153 178 0
146 172 0
152 177 0
149 171 0
151 176 0
156 182 0
153 179 0
157 181 0
151 173 0
153 176 0
155 179 0
156 176 0
158 181 0
166 183 0
153 176 0
160 179 0
157 179 0
156 175 0
136 146 0
110 114 0
112 117 0
110 112 0
104 114 0
109 114 0
116 118 0
103 108 0
110 117 0
108 114 0
100 111 0
111 115 0
107 117 0
106 113 0
107 116 0
113 119 0
113 120 0
121 121 0
115 119 0
109 119 0
120 123 0
122 124 0
116 122 0
129 132 0
118 124 0
114 124 0
121 125 0
126 131 0
130 131 0
132 134 0
123 126 0
129 131 0
125 127 0
120 126 0
134 134 0
136 134 0
134 134 0
134 134 0
127 130 0
128 133 0
129 132 0
137 134 0
134 133 0
137 136 0
138 136 0
136 137 0
138 137 0
140 136 0
140 140 0
135 136 0
136 134 0
137 136 0
135 135 0
142 139 0
139 139 0
138 134 0
134 131 0
142 140 0
141 139 0
140 137 0
138 140 0
143 142 0
145 140 0
143 142 0
140 139 0
141 139 0
144 143 0
144 142 0
146 142 0
146 145 0
146 143 0
142 140 0
147 142 0
144 139 0
144 142 0
145 143 0
145 143 0
141 139 0
149 145 0
143 141 0
146 143 0
149 144 0
144 142 0
149 148 0
146 143 0
145 140 0
147 141 0
151 146 0
151 147 0
144 142 0
150 145 0
148 145 0
151 149 0
146 145 0
151 146 0
148 145 0
147 143 0
150 145 0
146 143 0
149 146 0
148 146 0
145 142 0
147 145 0
147 144 0
149 145 0
150 146 0
150 146 0
146 143 0
152 145 0
149 143 0
151 148 0
148 143 0
147 144 0
150 147 0
148 144 0
150 147 0
151 147 0
152 148 0
153 149 0
150 148 0
153 150 0
150 145 0
151 148 0
149 145 0
151 147 0
153 149 0
151 148 0
152 149 0
151 147 0
151 147 0
154 149 0
154 149 0
151 147 0
210 229 254
210 229 254
210 229 254
210 229 254
210 229 254
210 229 254
210 229 254
210 229 254
210 229 254
210 229 254
210 229 254
210 229 254
210 229 254
210 229 254
210 229 254
211 229 254
211 229 254
211 229 254
211 229 254
211 229 254
211 229 254
211 229 254
211 229 254
211 229 254
211 229 254
211 229 254
211 229 254
211 229 254
211 229 254
211 229 254
211 229 254
211 229 254
211 229 254
211 229 254
211 229 254
211 229 254
211 229 254
211 229 254
211 229 254
211 229 254
211 229 254
211 229 254
211 229 254
211 229 254
211 229 254
211 229 254
211 229 254
211 229 254
211 229 254
211 229 254
211 229 254
211 229 254
211 229 254
211 229 254
211 229 254
211 229 254
211 229 254
211 229 254
211 229 254
211 229 254
211 229 254
211 229 254
211 229 254
211 229 254
211 229 254
211 229 254
211 229 254
211 229 254
211 229 254
211 229 254
211 229 254
211 229 254
211 229 254
211 229 254
211 229 254
211 229 254
211 229 254
211 229 254
210 229 254
210 229 254
210 229 254
210 229 254
210 229 254
210 229 254
210 229 254
210 229 254
210 229 254
210 229 254
210 229 254
210 229 254
210 229 254
210 229 254
209 229 254
209 229 254
209 228 254
209 228 254
209 228 254
209 228 254
209 228 254
209 228 254
209 228 254
208 228 254
208 228 254
208 228 254
208 228 254
208 228 254
208 228 254
207 227 254
207 227 254
207 227 254
207 227 254
206 227 254
206 227 254
206 227 254
206 226 254
205 226 254
205 226 254
205 226 254
204 226 254
204 225 254
203 225 254
203 225 254
202 225 254
202 224 254
201 224 254
200 224 254
200 223 254
199 223 254
198 222 254
196 221 254
195 221 254
178 207 182
167 195 0
166 193 0
170 195 0
169 196 0
167 195 0
162 193 0
168 196 0
167 195 0
162 194 0
162 193 0
162 193 0
163 193 0
163 194 0
167 195 0
162 193 0
153 190 0
164 194 0
160 192 0
156 190 0
154 190 0
154 190 0
159 191 0
161 193 0
158 191 0
158 191 0
161 193 0
161 193 0
163 193 0
152 190 0
146 185 0
159 192 0
147 189 0
85 180 86
50 174 76
53 178 95
53 177 82
55 181 100
52 176 91
53 176 93
51 174 84
53 178 95
54 179 97
52 176 78
54 177 82
53 177 86
52 176 82
54 178 86
54 177 95
55 181 95
53 175 82
58 185 111
52 177 91
55 179 95
56 182 106
52 176 95
53 176 82
55 181 105
53 177 82
54 178 91
53 176 93
56 181 103
55 179 100
51 170 84
54 178 103
54 179 95
53 173 86
53 173 84
54 176 90
52 172 88
53 174 90
55 179 102
52 172 86
52 173 88
54 177 97
55 179 102
53 173 78
53 177 102
55 178 93
56 181 103
52 173 84
56 179 103
56 180 97
55 177 95
53 174 97
54 175 91
56 179 97
53 172 86
53 174 93
51 169 80
53 170 97
51 170 88
48 160 65
50 170 80
51 166 86
50 165 74
50 167 88
50 168 88
50 165 82
49 162 78
51 165 82
48 161 78
47 160 62
47 154 74
72 151 51
129 169 0
145 173 0
139 170 0
152 181 0
148 175 0
155 181 0
146 174 0
151 180 0
149 175 0
145 171 0
144 175 0
143 172 0
153 176 0
143 175 0
153 178 0
151 177 0
147 174 0
153 177 0
143 171 0
152 174 0
152 179 0
155 177 0
156 176 0
155 173 0
153 177 0
153 174 0
155 175 0
153 174 0
162 180 0
154 175 0
158 178 0
158 178 0
139 151 0
113 114 0
117 117 0
112 115 0
108 111 0
106 110 0
101 112 0
111 117 0
107 114 0
96 110 0
107 114 0
109 116 0
116 117 0
114 121 0
118 122 0
122 125 0
120 122 0
117 123 0
118 123 0
111 118 0
106 113 0
122 126 0
121 127 0
118 122 0
127 126 0
122 123 0
116 124 0
122 126 0
123 130 0
127 130 0
127 130 0
131 132 0
127 130 0
132 132 0
127 129 0
130 132 0
133 135 0
134 134 0
137 136 0
136 135 0
131 134 0
135 135 0
132 133 0
131 131 0
135 135 0
128 130 0
132 131 0
135 135 0
138 139 0
140 136 0
136 137 0
142 140 0
137 136 0
142 139 0
145 142 0
141 139 0
139 139 0
142 136 0
142 142 0
142 139 0
143 140 0
140 138 0
139 139 0
140 140 0
142 139 0
141 139 0
145 143 0
141 140 0
144 140 0
141 139 0
147 143 0
144 141 0
144 142 0
145 141 0
144 140 0
143 139 0
141 139 0
143 140 0
148 145 0
145 141 0
146 145 0
146 140 0
146 142 0
138 136 0
149 145 0
148 144 0
150 146 0
148 146 0
145 142 0
147 143 0
150 147 0
145 142 0
148 144 0
148 145 0
146 143 0
147 145 0
148 144 0
151 147 0
148 144 0
149 145 0
147 145 0
147 142 0
151 146 0
146 144 0
151 145 0
150 146 0
146 142 0
149 146 0
151 147 0
150 145 0
150 145 0
152 146 0
150 146 0
152 148 0
148 144 0
150 146 0
149 145 0
149 145 0
152 147 0
152 148 0
152 146 0
152 148 0
153 149 0
154 149 0
153 147 0
151 147 0
155 151 0
149 146 0
149 146 0
150 145 0
151 145 0
155 150 0
209 229 254
209 229 254
210 229 254
210 229 254
210 229 254
210 229 254
210 229 254
210 229 254
210 229 254
210 229 254
210 229 254
210 229 254
210 229 254
210 229 254
210 229 254
210 229 254
210 229 254
210 229 254
210 229 254
210 229 254
210 229 254
210 229 254
210 229 254
210 229 254
210 229 254
210 229 254
210 229 254
210 229 254
211 229 254
211 229 254
211 229 254
211 229 254
211 229 254
211 229 254
211 229 254
211 229 254
211 229 254
211 229 254
211 229 254
211 229 254
211 229 254
211 229 254
211 229 254
211 229 254
211 229 254
211 229 254
211 229 254
211 229 254
211 229 254
211 229 254
211 229 254
211 229 254
211 229 254
211 229 254
211 229 254
211 229 254
211 229 254
211 229 254
211 229 254
211 229 254
211 229 254
211 229 254
211 229 254
211 229 254
211 229 254
211 229 254
211 229 254
210 229 254
210 229 254
210 229 254
210 229 254
210 229 254
210 229 254
210 229 254
210 229 254
210 229 254
210 229 254
210 229 254
210 229 254
210 229 254
210 229 254
210 229 254
210 229 254
210 229 254
210 229 254
210 229 254
210 229 254
209 229 254
209 228 254
209 228 254
209 228 254
209 228 254
209 228 254
209 228 254
209 228 254
209 228 254
209 228 254
208 228 254
208 228 254
208 228 254
208 228 254
208 228 254
208 228 254
207 227 254
207 227 254
207 227 254
207 227 254
207 227 254
206 227 254
206 227 254
206 227 254
206 226 254
205 226 254
205 226 254
205 226 254
204 226 254
204 226 254
204 225 254
203 225 254
203 225 254
202 225 254
202 224 254
201 224 254
200 224 254
200 223 254
199 223 254
198 222 254
197 222 254
195 221 254
194 220 253
176 205 163
170 196 0
160 192 0
167 195 0
166 195 0
165 194 0
165 194 0
164 193 0
165 195 0
158 192 0
164 195 0
164 193 0
162 192 0
160 193 0
163 194 0
166 195 0
160 191 0
166 195 0
162 194 0
154 191 0
164 194 0
158 191 0
161 193 0
158 192 0
159 190 0
154 190 0
153 188 0
158 191 0
151 188 0
152 189 0
153 190 0
156 190 0
152 189 0
143 186 0
143 186 31
79 178 74
53 178 100
51 176 82
54 178 82
53 177 93
52 176 82
53 175 76
54 177 86
54 180 105
52 176 93
55 180 103
52 175 78
54 178 88
54 180 93
54 177 100
53 178 93
55 181 109
55 182 106
53 177 88
56 185 108
52 175 86
54 178 95
55 179 91
53 177 88
54 179 93
53 177 93
56 182 108
56 183 112
54 177 80
55 178 97
52 175 84
54 178 100
53 176 86
55 179 102
53 174 98
52 174 88
53 175 91
55 180 102
54 177 98
52 174 95
53 175 91
54 177 95
54 177 98
52 175 93
52 171 76
55 178 95
54 175 91
53 174 84
52 171 90
53 174 95
53 176 95
53 172 95
51 172 91
52 173 93
53 172 91
51 167 88
54 177 100
53 172 86
51 168 86
50 167 84
49 162 76
50 169 90
52 167 74
52 171 82
51 167 76
45 153 72
51 166 82
48 163 76
46 155 59
77 157 54
129 165 0
139 173 0
141 173 0
141 176 0
137 166 0
138 171 0
149 175 0
149 173 0
143 171 0
144 171 0
144 175 0
148 172 0
148 172 0
141 169 0
149 174 0
149 177 0
150 173 0
151 177 0
144 169 0
139 167 0
145 169 0
147 170 0
152 175 0
148 168 0
153 173 0
148 173 0
147 171 0
154 176 0
151 171 0
159 178 0
150 170 0
146 169 0
151 172 0
159 179 0
129 142 0
115 116 0
113 115 0
113 115 0
114 114 0
111 113 0
104 111 0
115 118 0
103 111 0
115 117 0
100 111 0
116 116 0
105 115 0
114 115 0
109 117 0
115 120 0
116 122 0
115 120 0
114 120 0
122 128 0
114 121 0
120 120 0
127 126 0
125 128 0
128 128 0
128 128 0
121 125 0
134 132 0
125 131 0
124 128 0
126 129 0
130 129 0
121 123 0
128 132 0
140 137 0
131 128 0
127 127 0
132 133 0
129 132 0
134 134 0
135 136 0
138 135 0
136 134 0
137 136 0
130 131 0
136 135 0
132 136 0
139 136 0
138 134 0
138 135 0
141 138 0
139 137 0
136 136 0
135 134 0
140 138 0
132 132 0
135 134 0
144 141 0
139 139 0
141 139 0
142 140 0
141 138 0
140 137 0
141 139 0
143 140 0
143 140 0
145 141 0
141 141 0
143 140 0
142 141 0
141 141 0
143 141 0
141 138 0
144 139 0
141 138 0
146 143 0
142 142 0
143 141 0
149 145 0
149 145 0
142 138 0
146 140 0
145 142 0
150 145 0
145 142 0
147 145 0
146 142 0
150 147 0
145 141 0
143 140 0
148 145 0
147 142 0
148 144 0
151 146 0
143 141 0
149 145 0
149 145 0
151 146 0
149 144 0
148 145 0
149 145 0
151 147 0
148 144 0
150 145 0
151 148 0
152 148 0
150 146 0
148 145 0
152 147 0
148 143 0
153 148 0
149 143 0
149 146 0
152 148 0
149 146 0
151 146 0
148 143 0
151 146 0
152 147 0
152 148 0
152 148 0
150 145 0
150 145 0
152 149 0
151 148 0
149 147 0
154 150 0
150 146 0
151 146 0
151 146 0
151 147 0
209 228 254
209 228 254
209 228 254
209 228 254
209 228 254
209 228 254
209 228 254
209 228 254
209 229 254
209 229 254
210 229 254
210 229 254
210 229 254
210 229 254
210 229 254
210 229 254
210 229 254
210 229 254
210 229 254
210 229 254
210 229 254
210 229 254
210 229 254
210 229 254
210 229 254
210 229 254
210 229 254
210 229 254
210 229 254
210 229 254
210 229 254
210 229 254
210 229 254
210 229 254
210 229 254
210 229 254
210 229 254
210 229 254
210 229 254
210 229 254
210 229 254
210 229 254
210 229 254
210 229 254
210 229 254
210 229 254
210 229 254
210 229 254
210 229 254
210 229 254
210 229 254
210 229 254
210 229 254
210 229 254
210 229 254
210 229 254
210 229 254
210 229 254
210 229 254
210 229 254
210 229 254
210 229 254
210 229 254
210 229 254
210 229 254
210 229 254
210 229 254
210 229 254
210 229 254
210 229 254
210 229 254
210 229 254
210 229 254
210 229 254
210 229 254
210 229 254
210 229 254
210 229 254
210 229 254
210 229 254
209 229 254
209 229 254
209 228 254
209 228 254
209 228 254
209 228 254
209 228 254
209 228 254
209 228 254
209 228 254
209 228 254
209 228 254
208 228 254
208 228 254
208 228 254
208 228 254
208 228 254
208 228 254
208 228 254
207 227 254
207 227 254
207 227 254
207 227 254
207 227 254
207 227 254
206 227 254
206 227 254
206 227 254
206 226 254
205 226 254
205 226 254
205 226 254
205 226 254
204 226 254
204 225 254
203 225 254
203 225 254
203 225 254
202 225 254
202 224 254
201 224 254
200 224 254
200 223 254
199 223 254
198 222 254
197 222 254
196 221 254
195 221 254
193 219 253
176 203 146
165 194 0
167 194 0
167 194 0
166 195 0
163 194 0
161 193 0
161 192 0
162 193 0
161 194 0
161 193 0
160 192 0
162 192 0
160 192 0
161 193 0
158 192 0
157 191 0
161 193 0
159 191 0
157 191 0
162 193 0
153 190 0
159 191 0
158 191 0
152 188 0
162 192 0
161 193 0
152 188 0
153 190 0
158 191 0
147 187 0
157 191 0
149 187 0
151 187 0
147 187 0
152 187 0
140 185 31
98 177 69
53 177 80
53 177 108
49 172 80
52 175 93
54 179 88
50 173 91
53 175 91
54 177 93
53 178 93
54 177 90
54 178 95
53 176 88
53 176 90
53 178 102
55 180 97
54 178 98
53 176 82
54 180 103
52 176 90
53 178 98
57 184 109
54 177 91
54 178 100
54 178 95
53 178 95
53 177 93
55 180 108
54 176 98
53 177 95
51 174 88
54 179 97
54 178 98
50 171 80
54 177 93
56 180 100
53 177 103
54 177 95
54 178 100
55 179 105
54 178 100
52 174 91
54 176 93
53 174 90
55 177 98
54 176 97
52 172 91
53 174 82
50 170 90
54 176 98
52 171 93
54 174 100
54 177 100
53 174 95
51 169 80
52 168 93
51 169 80
51 171 86
49 164 76
52 169 88
51 168 88
49 165 80
49 159 76
46 160 57
46 154 59
48 160 82
47 157 67
82 155 47
131 163 0
125 166 0
138 173 0
140 171 0
136 173 0
136 171 0
143 172 0
137 170 0
146 175 0
144 169 0
138 168 0
141 171 0
138 170 0
134 167 0
141 169 0
150 175 0
146 173 0
151 173 0
143 172 0
141 168 0
147 170 0
147 174 0
148 168 0
148 170 0
145 168 0
151 173 0
145 167 0
150 170 0
150 173 0
150 173 0
153 170 0
150 169 0
155 176 0
149 168 0
153 168 0
150 172 0
148 159 0
115 112 0
115 114 0
113 117 0
106 113 0
118 114 0
119 117 0
113 117 0
114 116 0
111 112 0
103 113 0
112 115 0
116 118 0
106 113 0
104 113 0
121 119 0
114 118 0
118 123 0
119 122 0
117 119 0
117 122 0
114 119 0
118 120 0
116 122 0
124 127 0
126 124 0
129 130 0
130 128 0
125 129 0
123 125 0
132 131 0
130 131 0
128 131 0
129 127 0
127 131 0
124 125 0
127 130 0
128 130 0
127 126 0
140 135 0
134 132 0
128 132 0
130 131 0
132 132 0
137 137 0
136 134 0
134 136 0
142 139 0
139 137 0
135 134 0
136 135 0
134 135 0
141 140 0
132 132 0
134 133 0
143 141 0
136 135 0
139 137 0
144 142 0
140 136 0
143 139 0
141 137 0
140 139 0
143 140 0
143 136 0
143 139 0
142 137 0
135 136 0
142 138 0
143 140 0
149 144 0
138 133 0
144 140 0
146 143 0
143 141 0
148 144 0
142 140 0
145 142 0
148 143 0
148 144 0
146 142 0
145 142 0
147 142 0
146 141 0
145 144 0
149 143 0
149 145 0
147 143 0
148 145 0
146 142 0
147 142 0
148 144 0
149 147 0
149 144 0
150 144 0
148 141 0
150 144 0
149 144 0
149 145 0
143 138 0
150 144 0
147 143 0
148 144 0
150 144 0
147 146 0
148 142 0
149 145 0
150 144 0
152 146 0
151 146 0
146 146 0
150 145 0
153 148 0
150 145 0
153 147 0
152 148 0
151 146 0
152 148 0
151 146 0
151 148 0
151 145 0
148 145 0
150 146 0
148 143 0
151 145 0
149 145 0
153 149 0
151 147 0
152 148 0
150 146 0
209 228 254
209 228 254
209 228 254
209 228 254
209 228 254
209 228 254
209 228 254
209 228 254
209 228 254
209 228 254
209 228 254
209 228 254
209 228 254
209 228 254
209 228 254
209 228 254
209 228 254
209 228 254
209 229 254
209 229 254
209 229 254
210 229 254
210 229 254
210 229 254
210 229 254
210 229 254
210 229 254
210 229 254
210 229 254
210 229 254
210 229 254
210 229 254
210 229 254
210 229 254
210 229 254
210 229 254
210 229 254
210 229 254
210 229 254
210 229 254
210 229 254
210 229 254
210 229 254
210 229 254
210 229 254
210 229 254
210 229 254
210 229 254
210 229 254
210 229 254
210 229 254
210 229 254
210 229 254
210 229 254
210 229 254
210 229 254
210 229 254
210 229 254
210 229 254
210 229 254
210 229 254
210 229 254
210 229 254
210 229 254
210 229 254
210 229 254
210 229 254
210 229 254
210 229 254
210 229 254
210 229 254
210 229 254
209 229 254
209 228 254
209 228 254
209 228 254
209 228 254
209 228 254
209 228 254
209 228 254
209 228 254
209 228 254
209 228 254
209 228 254
209 228 254
209 228 254
209 228 254
208 228 254
208 228 254
208 228 254
208 228 254
208 228 254
208 228 254
208 228 254
208 228 254
207 227 254
207 227 254
207 227 254
207 227 254
207 227 254
207 227 254
207 227 254
206 227 254
206 227 254
206 227 254
206 226 254
205 226 254
205 226 254
205 226 254
205 226 254
204 226 254
204 226 254
204 225 254
203 225 254
203 225 254
202 225 254
202 224 254
201 224 254
201 224 254
200 224 254
200 223 254
199 223 254
198 222 254
197 222 254
196 221 254
195 221 254
194 220 254
191 217 244
168 199 116
165 195 0
168 194 0
165 195 0
168 196 0
162 193 0
162 192 0
167 195 0
161 192 0
160 192 0
162 193 0
165 193 0
163 193 0
162 193 0
154 190 0
161 192 0
159 192 0
160 192 0
157 191 0
148 188 0
162 192 0
158 192 0
153 189 0
156 192 0
157 190 0
156 191 0
153 188 0
155 189 0
152 189 0
145 186 0
154 189 0
148 186 0
153 188 0
140 183 0
148 188 0
142 183 0
150 186 0
142 184 0
146 185 0
98 177 59
52 176 86
47 170 59
51 176 88
54 177 86
53 178 78
57 183 102
52 176 91
52 175 88
51 175 72
51 172 86
55 180 100
54 177 97
51 173 84
51 175 78
51 170 72
51 173 80
55 178 90
55 179 80
54 177 84
53 177 82
54 178 80
53 176 90
54 177 90
53 175 88
53 176 88
52 176 93
53 175 90
51 172 82
51 173 84
54 178 93
53 178 88
52 176 86
52 176 97
52 175 86
53 175 93
51 171 88
55 180 106
51 174 84
51 171 86
53 175 95
55 179 95
51 173 84
52 172 88
50 171 84
51 170 86
52 170 88
52 172 86
52 173 88
53 173 90
53 170 78
51 170 80
49 166 74
53 171 95
54 173 91
51 168 84
51 171 93
51 165 80
50 165 80
48 159 67
48 163 67
49 163 69
48 159 67
44 152 65
47 152 65
91 152 44
132 162 0
134 165 0
125 167 0
135 170 0
130 168 0
125 166 0
138 167 0
138 168 0
141 172 0
129 161 0
135 167 0
140 166 0
138 168 0
143 174 0
138 166 0
136 168 0
135 164 0
144 166 0
139 164 0
140 162 0
145 169 0
142 165 0
141 163 0
143 167 0
141 167 0
147 166 0
143 164 0
135 161 0
141 161 0
143 168 0
136 163 0
147 170 0
144 162 0
140 160 0
145 166 0
149 167 0
146 167 0
154 171 0
130 143 0
112 115 0
110 111 0
116 113 0
120 118 0
113 115 0
109 111 0
112 115 0
107 111 0
107 114 0
116 117 0
111 115 0
117 116 0
109 112 0
111 112 0
118 121 0
115 119 0
117 122 0
124 126 0
126 125 0
119 122 0
128 126 0
121 124 0
124 127 0
125 126 0
123 126 0
127 126 0
127 127 0
130 128 0
127 125 0
128 131 0
132 127 0
128 130 0
127 129 0
126 124 0
128 125 0
134 133 0
133 134 0
136 133 0
123 124 0
132 131 0
133 132 0
133 132 0
136 131 0
138 137 0
138 136 0
134 135 0
142 139 0
140 137 0
138 134 0
138 135 0
134 130 0
140 135 0
135 131 0
139 134 0
142 138 0
143 137 0
141 139 0
137 132 0
140 138 0
140 139 0
138 136 0
141 137 0
141 137 0
140 136 0
140 140 0
145 142 0
146 141 0
146 141 0
144 141 0
146 140 0
140 139 0
143 139 0
142 137 0
147 141 0
146 141 0
142 141 0
143 139 0
147 142 0
141 138 0
147 144 0
148 144 0
148 143 0
146 142 0
146 141 0
147 144 0
148 143 0
144 141 0
146 142 0
144 142 0
148 143 0
147 142 0
148 145 0
145 141 0
148 142 0
148 143 0
148 145 0
152 147 0
151 145 0
151 146 0
149 145 0
148 143 0
149 143 0
146 142 0
146 142 0
148 144 0
151 145 0
150 144 0
150 144 0
150 145 0
152 147 0
149 145 0
149 147 0
150 144 0
151 146 0
145 141 0
148 145 0
153 148 0
152 146 0
149 144 0
149 145 0
152 147 0
148 145 0
150 145 0
152 147 0
153 147 0
152 147 0
152 147 0
152 146 0
208 228 254
208 228 254
208 228 254
208 228 254
208 228 254
208 228 254
208 228 254
208 228 254
209 228 254
209 228 254
209 228 254
209 228 254
209 228 254
209 228 254
209 228 254
209 228 254
209 228 254
209 228 254
209 228 254
209 228 254
209 228 254
209 228 254
209 228 254
209 228 254
209 228 254
209 228 254
209 228 254
209 228 254
209 228 254
209 228 254
209 228 254
209 228 254
209 229 254
209 229 254
209 229 254
209 229 254
209 229 254
209 229 254
209 229 254
209 229 254
210 229 254
209 229 254
209 229 254
210 229 254
210 229 254
210 229 254
210 229 254
210 229 254
210 229 254
210 229 254
209 229 254
210 229 254
210 229 254
209 229 254
210 229 254
209 229 254
209 229 254
209 229 254
209 229 254
209 229 254
209 229 254
209 228 254
209 228 254
209 228 254
209 228 254
209 228 254
209 228 254
209 228 254
209 228 254
209 228 254
209 228 254
209 228 254
209 228 254
209 228 254
209 228 254
209 228 254
209 228 254
209 228 254
209 228 254
209 228 254
208 228 254
208 228 254
208 228 254
208 228 254
208 228 254
208 228 254
208 228 254
208 228 254
208 228 254
208 228 254
208 227 254
207 227 254
207 227 254
207 227 254
207 227 254
207 227 254
207 227 254
207 227 254
206 227 254
206 227 254
206 227 254
206 227 254
206 226 254
205 226 254
205 226 254
205 226 254
205 226 254
204 226 254
204 226 254
204 225 254
203 225 254
203 225 254
203 225 254
202 225 254
202 224 254
201 224 254
201 224 254
200 224 254
200 223 254
199 223 254
198 223 254
197 222 254
197 222 254
196 221 254
194 220 254
193 220 254
184 213 220
171 199 91
168 195 0
161 192 0
167 194 0
164 194 0
160 193 0
164 193 0
162 193 0
167 195 0
168 195 0
159 193 0
161 192 0
159 191 0
160 191 0
161 193 0
161 191 0
158 190 0
163 194 0
153 189 0
157 191 0
148 187 0
158 192 0
154 190 0
153 191 0
156 190 0
156 189 0
154 189 0
161 193 0
151 189 0
152 188 0
148 188 0
140 183 0
149 188 0
145 187 0
144 186 0
145 186 0
141 184 0
141 183 0
135 180 0
133 181 0
134 179 0
123 180 51
63 179 98
50 173 80
52 175 86
53 176 91
54 180 97
50 172 76
51 175 88
52 175 82
51 171 82
50 171 69
53 178 86
52 178 91
54 180 106
51 172 82
51 173 82
52 174 86
53 176 88
54 179 93
55 179 103
55 180 106
53 178 91
55 180 102
55 179 97
52 174 90
53 174 86
54 177 93
54 177 80
53 175 97
52 175 93
57 182 105
51 173 84
53 178 93
51 171 82
54 177 88
52 174 90
51 172 82
51 169 91
52 172 74
53 175 91
52 174 90
51 172 86
53 174 91
53 173 80
50 168 74
55 179 95
53 171 90
51 168 86
52 172 88
49 167 67
49 168 65
51 170 86
50 170 86
48 161 78
49 167 84
49 164 80
50 168 80
51 167 95
49 161 84
46 159 76
46 156 67
49 159 57
63 152 59
94 154 36
133 167 0
125 158 0
124 158 0
129 163 0
124 160 0
120 157 0
121 162 0
127 161 0
135 166 0
135 167 0
128 165 0
134 166 0
134 163 0
131 162 0
142 169 0
136 162 0
136 166 0
137 166 0
142 167 0
141 166 0
135 162 0
136 164 0
133 159 0
142 164 0
142 164 0
141 168 0
148 165 0
149 170 0
143 163 0
142 169 0
146 163 0
150 163 0
141 162 0
145 167 0
151 165 0
136 156 0
147 158 0
151 168 0
149 165 0
148 164 0
145 160 0
118 120 0
120 116 0
118 110 0
106 106 0
109 113 0
105 110 0
102 108 0
108 110 0
115 118 0
117 119 0
112 112 0
111 116 0
119 117 0
120 122 0
114 119 0
112 116 0
113 116 0
120 119 0
119 123 0
117 119 0
116 117 0
124 123 0
129 127 0
116 117 0
123 123 0
124 124 0
133 130 0
121 126 0
128 125 0
129 127 0
132 131 0
124 126 0
132 129 0
129 129 0
130 129 0
130 132 0
129 128 0
129 128 0
138 135 0
133 131 0
132 130 0
134 130 0
135 132 0
126 129 0
136 133 0
136 135 0
139 135 0
140 138 0
133 133 0
139 137 0
139 137 0
139 136 0
144 140 0
141 140 0
132 134 0
143 135 0
141 135 0
146 141 0
141 140 0
147 141 0
141 137 0
143 137 0
143 136 0
139 135 0
143 140 0
138 136 0
144 141 0
139 137 0
138 136 0
143 138 0
141 136 0
145 140 0
146 141 0
145 138 0
148 142 0
140 134 0
144 139 0
144 139 0
142 137 0
142 140 0
147 143 0
146 140 0
148 143 0
147 141 0
148 142 0
145 139 0
146 140 0
148 143 0
148 143 0
145 142 0
148 144 0
145 142 0
148 142 0
148 142 0
149 143 0
146 139 0
148 143 0
144 142 0
145 138 0
145 141 0
149 145 0
148 143 0
150 145 0
149 143 0
152 146 0
151 146 0
150 144 0
152 147 0
147 142 0
151 144 0
150 146 0
149 145 0
151 147 0
150 147 0
150 145 0
148 142 0
153 148 0
152 146 0
150 146 0
151 145 0
151 144 0
151 146 0
151 147 0
152 147 0
151 146 0
152 146 0
152 146 0
208 227 254
208 228 254
208 228 254
208 228 254
208 228 254
208 228 254
208 228 254
208 228 254
208 228 254
208 228 254
208 228 254
208 228 254
208 228 254
208 228 254
208 228 254
208 228 254
208 228 254
208 228 254
209 228 254
209 228 254
209 228 254
209 228 254
209 228 254
209 228 254
209 228 254
209 228 254
209 228 254
209 228 254
209 228 254
209 228 254
209 228 254
209 228 254
209 228 254
209 228 254
209 228 254
209 228 254
209 228 254
209 228 254
209 228 254
209 228 254
209 228 254
209 228 254
209 228 254
209 228 254
209 228 254
209 228 254
209 228 254
209 228 254
209 228 254
209 228 254
209 228 254
209 228 254
209 228 254
209 228 254
209 228 254
209 228 254
209 228 254
209 228 254
209 228 254
209 228 254
209 228 254
209 228 254
209 228 254
209 228 254
209 228 254
209 228 254
209 228 254
209 228 254
209 228 254
209 228 254
209 228 254
209 228 254
208 228 254
208 228 254
208 228 254
208 228 254
208 228 254
208 228 254
208 228 254
208 228 254
208 228 254
208 228 254
208 228 254
208 228 254
208 228 254
207 227 254
207 227 254
207 227 254
207 227 254
207 227 254
207 227 254
207 227 254
207 227 254
207 227 254
206 227 254
206 227 254
206 227 254
206 227 254
206 226 254
205 226 254
205 226 254
205 226 254
205 226 254
205 226 254
204 226 254
204 226 254
204 225 254
203 225 254
203 225 254
203 225 254
202 225 254
202 225 254
202 224 254
201 224 254
201 224 254
200 224 254
200 223 254
199 223 254
198 223 254
198 222 254
197 222 254
196 221 254
195 221 254
194 220 254
192 219 254
179 208 199
165 195 51
167 194 0
161 192 0
164 193 0
162 192 0
164 194 0
163 192 0
163 193 0
165 195 0
159 192 0
158 191 0
166 194 0
156 191 0
164 194 0
164 194 0
161 193 0
156 191 0
161 192 0
157 190 0
159 191 0
153 190 0
158 191 0
156 191 0
150 188 0
148 189 0
147 187 0
153 188 0
151 189 0
152 189 0
146 186 0
140 184 0
145 187 0
151 187 0
151 189 0
153 188 0
141 184 0
135 183 0
133 180 0
134 179 0
139 181 0
139 182 0
137 181 0
129 174 0
110 170 25
82 177 80
50 172 78
50 171 84
50 171 82
49 171 62
53 179 103
50 173 86
52 174 78
53 178 82
48 171 80
51 173 69
53 177 97
51 173 90
53 176 95
51 175 84
52 175 90
52 175 90
55 180 102
53 177 88
52 177 91
53 174 86
55 180 102
53 175 93
50 173 91
53 176 97
52 175 82
54 176 90
54 178 91
53 176 93
51 172 80
54 179 97
53 174 95
55 179 93
55 180 103
53 176 86
51 172 76
52 172 84
52 174 88
52 172 80
51 173 97
51 170 82
53 175 97
52 174 91
52 172 91
54 173 80
51 169 78
50 169 82
52 173 90
52 174 78
51 164 80
53 175 88
49 167 74
50 166 82
49 162 84
46 159 69
48 162 80
49 165 80
45 158 74
44 150 57
68 153 51
110 157 25
118 162 0
126 161 0
120 155 0
120 155 0
131 164 0
121 163 0
132 164 0
133 167 0
137 168 0
134 163 0
132 161 0
128 160 0
133 162 0
136 165 0
130 165 0
137 165 0
132 161 0
134 159 0
129 160 0
132 161 0
135 164 0
127 157 0
133 162 0
140 164 0
130 153 0
141 163 0
144 168 0
137 160 0
139 163 0
138 155 0
140 158 0
143 162 0
140 163 0
139 157 0
136 158 0
143 158 0
149 166 0
145 166 0
142 161 0
144 162 0
144 158 0
138 162 0
146 155 0
118 128 0
107 104 0
113 110 0
107 107 0
109 111 0
107 109 0
98 102 0
105 109 0
109 110 0
105 108 0
107 110 0
118 119 0
115 115 0
111 115 0
106 111 0
109 118 0
119 120 0
123 121 0
122 127 0
124 123 0
116 119 0
120 121 0
122 124 0
126 129 0
124 122 0
118 119 0
124 125 0
125 125 0
123 124 0
131 129 0
130 130 0
131 128 0
127 130 0
128 127 0
133 131 0
126 128 0
129 126 0
136 134 0
130 127 0
130 130 0
134 130 0
134 132 0
136 132 0
141 137 0
131 132 0
139 132 0
137 135 0
137 131 0
138 137 0
138 136 0
132 126 0
135 132 0
139 137 0
142 138 0
140 137 0
137 135 0
137 133 0
138 134 0
140 137 0
140 136 0
139 136 0
140 138 0
141 137 0
140 134 0
144 140 0
146 141 0
140 137 0
138 134 0
145 138 0
146 139 0
141 139 0
142 139 0
140 137 0
144 139 0
148 141 0
147 142 0
140 135 0
146 141 0
146 139 0
146 142 0
142 138 0
145 141 0
148 143 0
145 142 0
143 142 0
149 144 0
148 141 0
144 140 0
147 142 0
148 141 0
149 143 0
146 140 0
146 142 0
150 146 0
148 143 0
147 142 0
148 143 0
146 142 0
150 145 0
143 138 0
151 146 0
147 145 0
146 142 0
148 144 0
152 148 0
149 143 0
149 143 0
152 147 0
150 145 0
151 145 0
151 145 0
146 141 0
150 143 0
151 146 0
151 147 0
150 147 0
151 146 0
148 143 0
151 147 0
151 148 0
150 144 0
151 146 0
150 143 0
148 141 0
150 146 0
151 146 0
207 227 254
207 227 254
207 227 254
207 227 254
207 227 254
207 227 254
207 227 254
208 227 254
208 228 254
208 228 254
208 228 254
208 228 254
208 228 254
208 228 254
208 228 254
208 228 254
208 228 254
208 228 254
208 228 254
208 228 254
208 228 254
208 228 254
208 228 254
208 228 254
208 228 254
208 228 254
208 228 254
208 228 254
208 228 254
208 228 254
208 228 254
208 228 254
209 228 254
208 228 254
209 228 254
209 228 254
209 228 254
209 228 254
209 228 254
209 228 254
209 228 254
209 228 254
209 228 254
209 228 254
209 228 254
209 228 254
209 228 254
209 228 254
209 228 254
209 228 254
209 228 254
209 228 254
209 228 254
209 228 254
209 228 254
209 228 254
209 228 254
209 228 254
209 228 254
208 228 254
208 228 254
208 228 254
208 228 254
208 228 254
208 228 254
208 228 254
208 228 254
208 228 254
208 228 254
208 228 254
208 228 254
208 228 254
208 228 254
208 228 254
208 228 254
208 228 254
208 228 254
208 228 254
208 227 254
207 227 254
207 227 254
207 227 254
207 227 254
207 227 254
207 227 254
207 227 254
207 227 254
207 227 254
207 227 254
206 227 254
206 227 254
206 227 254
206 227 254
206 227 254
206 226 254
206 226 254
205 226 254
205 226 254
205 226 254
205 226 254
205 226 254
204 226 254
204 226 254
204 225 254
203 225 254
203 225 254
203 225 254
203 225 254
202 225 254
202 224 254
201 224 254
201 224 254
201 224 254
200 223 254
200 223 254
199 223 254
198 222 254
198 222 254
197 222 254
196 221 254
195 221 254
194 220 254
193 219 254
188 216 245
174 203 157
163 193 0
164 193 0
161 191 0
162 192 0
165 194 0
159 193 0
164 193 0
155 191 0
156 190 0
159 192 0
163 194 0
161 193 0
159 192 0
155 190 0
156 192 0
162 193 0
161 192 0
153 190 0
153 189 0
160 192 0
155 190 0
157 191 0
155 190 0
159 190 0
147 187 0
155 189 0
149 188 0
151 188 0
147 188 0
152 188 0
144 185 0
132 180 0
145 184 0
146 186 0
140 183 0
141 183 0
143 183 0
145 187 0
139 184 0
132 180 0
124 175 0
136 181 0
138 180 0
126 175 0
117 171 0
131 175 0
96 170 44
54 175 86
51 173 78
51 175 80
48 170 67
49 168 62
51 174 82
48 169 82
52 173 84
50 171 82
53 176 86
51 173 80
51 174 84
54 178 86
53 177 90
52 177 97
50 169 78
52 173 86
52 176 88
52 172 82
51 173 74
51 172 78
55 178 102
52 172 90
51 175 95
52 173 72
51 172 62
51 172 76
50 171 86
50 171 80
51 171 84
55 178 98
51 171 84
51 170 74
51 174 78
51 172 84
52 175 84
50 168 80
52 170 82
50 171 90
51 173 82
53 173 88
54 176 102
51 172 91
48 166 74
49 166 74
53 174 90
52 170 88
52 172 86
51 167 86
50 167 76
48 162 72
46 159 67
46 160 72
47 160 72
44 150 59
44 154 67
95 151 36
113 153 0
109 151 0
113 156 0
114 150 0
119 161 0
101 144 0
127 160 0
115 151 0
130 156 0
120 160 0
120 154 0
120 154 0
125 157 0
132 161 0
134 163 0
126 157 0
138 169 0
130 158 0
134 163 0
139 166 0
134 163 0
137 164 0
130 157 0
136 163 0
127 152 0
135 167 0
137 161 0
142 163 0
136 161 0
146 165 0
141 164 0
125 153 0
136 160 0
130 158 0
142 160 0
132 154 0
129 156 0
135 158 0
140 166 0
142 160 0
134 153 0
142 155 0
142 159 0
145 163 0
141 157 0
146 161 0
124 133 0
108 106 0
112 109 0
112 109 0
109 109 0
110 110 0
112 111 0
115 116 0
116 115 0
110 114 0
117 117 0
115 114 0
106 114 0
114 114 0
116 116 0
116 115 0
120 120 0
118 116 0
119 119 0
127 123 0
120 119 0
121 120 0
124 122 0
120 120 0
121 121 0
127 124 0
120 117 0
128 128 0
123 124 0
126 122 0
133 130 0
134 131 0
127 125 0
125 132 0
137 131 0
131 128 0
130 128 0
134 130 0
130 128 0
135 131 0
132 130 0
140 134 0
131 127 0
139 135 0
135 133 0
135 133 0
143 137 0
133 132 0
134 132 0
136 131 0
134 135 0
139 135 0
140 134 0
137 135 0
137 133 0
134 130 0
142 136 0
141 137 0
141 135 0
142 138 0
143 136 0
135 132 0
140 134 0
138 135 0
143 136 0
139 135 0
145 139 0
141 137 0
147 141 0
143 139 0
140 137 0
144 140 0
146 139 0
144 139 0
140 138 0
142 137 0
146 140 0
147 140 0
145 141 0
147 142 0
144 138 0
143 139 0
147 141 0
145 141 0
146 142 0
148 142 0
144 138 0
147 142 0
149 141 0
141 137 0
144 141 0
149 145 0
150 141 0
145 143 0
146 143 0
150 143 0
146 141 0
152 146 0
148 141 0
147 141 0
141 137 0
149 144 0
146 141 0
147 141 0
151 144 0
148 143 0
151 146 0
147 142 0
147 142 0
148 142 0
147 141 0
151 143 0
148 143 0
149 143 0
153 147 0
150 143 0
152 147 0
150 145 0
149 142 0
149 144 0
150 145 0
151 147 0
151 146 0
151 146 0
152 147 0
207 227 254
207 227 254
207 227 254
207 227 254
207 227 254
207 227 254
207 227 254
207 227 254
207 227 254
207 227 254
207 227 254
207 227 254
207 227 254
207 227 254
207 227 254
207 227 254
207 227 254
208 227 254
208 228 254
208 228 254
208 228 254
208 228 254
208 228 254
208 228 254
208 228 254
208 228 254
208 228 254
208 228 254
208 228 254
208 228 254
208 228 254
208 228 254
208 228 254
208 228 254
208 228 254
208 228 254
208 228 254
208 228 254
208 228 254
208 228 254
208 228 254
208 228 254
208 228 254
208 228 254
208 228 254
208 228 254
208 228 254
208 228 254
208 228 254
208 228 254
208 228 254
208 228 254
208 228 254
208 228 254
208 228 254
208 228 254
208 228 254
208 228 254
208 228 254
208 228 254
208 228 254
208 228 254
208 228 254
208 228 254
208 228 254
208 228 254
208 228 254
208 228 254
208 228 254
208 228 254
208 228 254
207 227 254
207 227 254
207 227 254
207 227 254
207 227 254
207 227 254
207 227 254
207 227 254
207 227 254
207 227 254
207 227 254
207 227 254
207 227 254
206 227 254
206 227 254
206 227 254
206 227 254
206 227 254
206 227 254
206 226 254
205 226 254
205 226 254
205 226 254
205 226 254
205 226 254
205 226 254
204 226 254
204 226 254
204 226 254
204 225 254
203 225 254
203 225 254
203 225 254
203 225 254
202 225 254
202 224 254
202 224 254
201 224 254
201 224 254
200 224 254
200 223 254
199 223 254
199 223 254
198 222 254
197 222 254
197 222 254
196 221 254
195 221 254
194 220 254
193 219 254
192 219 254
185 213 223
170 197 95
161 192 0
162 193 0
156 190 0
166 193 0
161 192 0
162 192 0
158 192 0
161 193 0
160 192 0
161 193 0
159 191 0
160 192 0
160 191 0
166 194 0
156 192 0
159 193 0
151 188 0
161 193 0
162 193 0
154 190 0
159 191 0
155 190 0
155 191 0
150 187 0
162 194 0
149 189 0
153 190 0
157 190 0
144 185 0
147 186 0
151 188 0
149 188 0
143 182 0
150 186 0
141 182 0
139 183 0
138 182 0
145 184 0
134 180 0
133 178 0
135 180 0
129 178 0
133 177 0
126 176 0
126 175 0
120 172 0
118 169 0
124 172 0
107 173 31
59 161 62
45 166 59
49 170 65
54 179 98
49 170 76
47 166 78
51 173 84
53 176 82
50 170 76
49 172 82
50 172 82
50 171 76
50 171 67
50 171 72
52 174 84
50 173 76
52 175 88
52 177 84
50 170 90
50 170 74
50 171 78
52 176 90
52 174 97
50 172 69
53 176 97
50 169 76
51 174 90
51 173 82
49 169 78
53 174 91
50 171 88
50 170 80
51 170 86
50 172 80
52 174 90
51 172 84
51 171 84
51 172 88
51 170 84
51 170 78
51 172 76
49 166 78
49 162 69
48 163 72
50 170 86
51 170 82
47 158 54
52 171 86
49 163 62
46 158 67
46 155 65
44 152 72
45 153 57
58 150 47
103 151 25
104 147 0
97 141 0
109 154 0
109 151 0
111 150 0
111 148 0
110 152 0
110 153 0
124 159 0
113 153 0
120 154 0
123 162 0
122 156 0
122 152 0
126 161 0
125 161 0
122 155 0
121 160 0
122 152 0
130 155 0
134 160 0
125 156 0
135 161 0
138 162 0
124 157 0
135 159 0
120 148 0
127 155 0
127 152 0
124 152 0
132 153 0
134 155 0
133 151 0
131 154 0
133 150 0
135 151 0
140 158 0
131 151 0
130 149 0
133 150 0
141 156 0
127 146 0
142 155 0
139 156 0
142 156 0
134 149 0
135 147 0
137 150 0
128 136 0
108 107 0
101 98 0
103 100 0
112 112 0
102 109 0
105 110 0
106 108 0
103 105 0
113 116 0
106 109 0
106 106 0
120 116 0
117 116 0
114 113 0
121 119 0
117 116 0
114 113 0
122 120 0
125 123 0
116 119 0
134 126 0
126 123 0
119 117 0
126 124 0
123 121 0
119 121 0
124 120 0
121 123 0
131 127 0
124 123 0
127 125 0
130 128 0
132 125 0
124 123 0
125 127 0
130 131 0
129 128 0
133 126 0
131 129 0
128 132 0
133 130 0
137 136 0
132 130 0
137 132 0
140 135 0
133 133 0
140 134 0
136 134 0
137 134 0
135 131 0
138 135 0
134 133 0
136 133 0
136 133 0
140 137 0
143 138 0
143 137 0
143 139 0
141 135 0
133 129 0
139 134 0
142 137 0
138 138 0
136 132 0
138 135 0
144 139 0
144 136 0
141 134 0
146 139 0
136 133 0
144 137 0
144 139 0
140 136 0
148 141 0
144 138 0
146 140 0
141 136 0
147 142 0
148 142 0
146 141 0
149 142 0
145 140 0
142 139 0
145 140 0
145 138 0
141 135 0
150 143 0
146 141 0
150 144 0
146 141 0
145 139 0
147 140 0
149 143 0
146 140 0
149 143 0
148 143 0
148 142 0
150 143 0
144 140 0
148 143 0
149 143 0
149 141 0
146 141 0
149 144 0
151 145 0
151 144 0
151 145 0
152 145 0
151 143 0
148 143 0
150 144 0
148 143 0
147 142 0
149 143 0
146 141 0
151 145 0
150 144 0
149 144 0
151 144 0
150 144 0
150 144 0
151 145 0
150 144 0
206 227 254
206 227 254
206 227 254
206 227 254
206 227 254
206 227 254
206 227 254
206 227 254
207 227 254
207 227 254
207 227 254
207 227 254
207 227 254
207 227 254
207 227 254
207 227 254
207 227 254
207 227 254
207 227 254
207 227 254
207 227 254
207 227 254
207 227 254
207 227 254
207 227 254
207 227 254
207 227 254
207 227 254
207 227 254
207 227 254
207 227 254
208 227 254
208 227 254
208 228 254
208 228 254
208 228 254
208 228 254
208 228 254
208 228 254
208 228 254
208 228 254
208 228 254
208 228 254
208 228 254
208 228 254
208 228 254
208 228 254
208 228 254
208 228 254
208 228 254
208 228 254
208 228 254
208 228 254
208 228 254
208 228 254
208 227 254
208 227 254
208 227 254
207 227 254
207 227 254
207 227 254
207 227 254
207 227 254
207 227 254
207 227 254
207 227 254
207 227 254
207 227 254
207 227 254
207 227 254
207 227 254
207 227 254
207 227 254
207 227 254
207 227 254
207 227 254
207 227 254
206 227 254
206 227 254
206 227 254
206 227 254
206 227 254
206 227 254
206 227 254
206 227 254
206 226 254
205 226 254
205 226 254
205 226 254
205 226 254
205 226 254
205 226 254
205 226 254
204 226 254
204 226 254
204 226 254
204 225 254
204 225 254
203 225 254
203 225 254
203 225 254
203 225 254
202 225 254
202 224 254
202 224 254
201 224 254
201 224 254
200 224 254
200 223 254
200 223 254
199 223 254
199 223 254
198 222 254
197 222 254
197 222 254
196 221 254
195 221 254
194 220 254
193 220 254
191 219 254
189 218 252
177 206 185
162 193 25
163 192 0
163 193 0
166 194 0
165 194 0
160 192 0
161 192 0
157 191 0
162 193 0
162 193 0
156 191 0
156 190 0
160 192 0
158 191 0
161 192 0
148 188 0
158 192 0
153 190 0
155 191 0
155 190 0
146 187 0
154 191 0
146 186 0
159 191 0
151 188 0
151 190 0
154 192 0
149 186 0
150 187 0
150 187 0
143 184 0
153 188 0
148 188 0
146 186 0
142 181 0
135 178 0
140 180 0
142 182 0
137 182 0
127 178 0
135 181 0
126 178 0
136 183 0
120 172 0
129 177 0
126 176 0
121 171 0
109 166 0
120 169 0
122 174 0
118 169 0
117 168 0
109 166 25
57 165 57
46 164 80
48 170 74
48 168 78
50 173 88
48 171 72
49 169 76
51 175 82
49 169 65
51 173 76
50 169 67
50 171 74
51 174 74
49 172 67
47 167 65
51 171 82
54 178 97
50 170 67
51 172 80
51 173 93
50 170 76
50 167 69
51 171 76
50 170 67
50 171 67
48 166 69
47 167 62
52 173 88
51 171 76
50 171 76
47 166 59
49 167 72
51 170 72
49 166 76
52 174 88
49 167 93
49 168 78
48 167 80
48 165 76
47 165 80
46 159 62
48 164 80
49 165 67
49 164 86
45 157 62
45 156 62
48 164 65
44 156 57
46 161 74
50 144 40
81 150 36
101 144 0
102 146 0
108 152 0
111 148 0
124 156 0
114 152 0
125 158 0
111 147 0
118 154 0
111 152 0
110 148 0
127 157 0
106 146 0
124 154 0
119 157 0
131 163 0
125 157 0
118 152 0
125 156 0
129 158 0
134 158 0
135 162 0
127 156 0
127 155 0
129 159 0
121 154 0
128 157 0
130 155 0
128 156 0
126 154 0
122 149 0
126 153 0
119 144 0
135 157 0
134 156 0
126 149 0
129 151 0
131 149 0
136 152 0
138 156 0
133 151 0
136 156 0
137 153 0
135 155 0
133 148 0
132 146 0
129 147 0
129 138 0
128 143 0
130 142 0
135 149 0
145 156 0
119 123 0
99 93 0
99 100 0
103 100 0
103 102 0
99 100 0
102 103 0
117 114 0
97 105 0
117 115 0
112 117 0
116 110 0
107 107 0
113 115 0
108 108 0
118 117 0
111 112 0
120 120 0
120 117 0
126 122 0
120 118 0
116 117 0
123 125 0
123 122 0
125 121 0
126 120 0
117 118 0
135 129 0
129 125 0
123 121 0
128 123 0
136 129 0
129 124 0
127 125 0
134 130 0
135 132 0
133 131 0
132 130 0
127 123 0
130 130 0
138 129 0
134 131 0
131 127 0
136 136 0
136 130 0
142 134 0
133 131 0
132 128 0
139 135 0
134 132 0
134 130 0
134 131 0
137 133 0
139 133 0
141 136 0
135 133 0
144 138 0
134 130 0
138 134 0
143 137 0
141 135 0
137 133 0
141 135 0
143 138 0
139 136 0
143 137 0
144 137 0
143 135 0
142 137 0
144 139 0
144 138 0
140 132 0
147 142 0
143 137 0
148 140 0
146 140 0
140 137 0
145 137 0
144 138 0
145 140 0
145 138 0
145 142 0
144 136 0
147 138 0
148 142 0
146 141 0
146 139 0
150 144 0
149 144 0
146 141 0
148 142 0
148 141 0
144 140 0
145 139 0
148 140 0
151 146 0
144 139 0
148 141 0
147 142 0
148 142 0
147 141 0
148 143 0
150 145 0
153 144 0
150 147 0
148 144 0
150 144 0
147 141 0
148 142 0
151 147 0
149 143 0
148 142 0
150 143 0
151 144 0
151 143 0
150 144 0
151 145 0
153 146 0
150 145 0
150 145 0
150 145 0
150 143 0
205 226 254
205 226 254
206 226 254
206 226 254
206 226 254
206 227 254
206 227 254
206 227 254
206 227 254
206 227 254
206 227 254
206 227 254
206 227 254
206 227 254
206 227 254
206 227 254
206 227 254
207 227 254
207 227 254
207 227 254
207 227 254
207 227 254
207 227 254
207 227 254
207 227 254
207 227 254
207 227 254
207 227 254
207 227 254
207 227 254
207 227 254
207 227 254
207 227 254
207 227 254
207 227 254
207 227 254
207 227 254
207 227 254
207 227 254
207 227 254
207 227 254
207 227 254
207 227 254
207 227 254
207 227 254
207 227 254
207 227 254
207 227 254
207 227 254
207 227 254
207 227 254
207 227 254
207 227 254
207 227 254
207 227 254
207 227 254
207 227 254
207 227 254
207 227 254
207 227 254
207 227 254
207 227 254
207 227 254
207 227 254
207 227 254
207 227 254
207 227 254
207 227 254
206 227 254
206 227 254
206 227 254
206 227 254
206 227 254
206 227 254
206 227 254
206 227 254
206 227 254
206 227 254
206 227 254
206 226 254
206 226 254
205 226 254
205 226 254
205 226 254
205 226 254
205 226 254
205 226 254
205 226 254
204 226 254
204 226 254
204 226 254
204 226 254
204 225 254
204 225 254
203 225 254
203 225 254
203 225 254
203 225 254
202 225 254
202 225 254
202 224 254
202 224 254
201 224 254
201 224 254
200 224 254
200 223 254
200 223 254
199 223 254
199 223 254
198 222 254
198 222 254
197 222 254
196 222 254
196 221 254
195 221 254
194 220 254
193 220 254
192 219 254
190 218 254
180 210 219
169 199 111
164 193 0
161 192 0
160 191 0
159 192 0
163 193 0
160 191 0
158 191 0
156 191 0
162 193 0
159 190 0
153 190 0
159 191 0
159 191 0
159 192 0
160 193 0
155 190 0
151 189 0
155 189 0
158 191 0
157 192 0
152 189 0
153 189 0
153 189 0
157 191 0
152 189 0
155 192 0
149 190 0
158 192 0
147 183 0
147 189 0
153 190 0
151 189 0
154 189 0
144 184 0
146 184 0
142 184 0
139 182 0
132 178 0
135 180 0
139 183 0
131 180 0
137 179 0
141 185 0
127 178 0
130 176 0
130 176 0
134 177 0
126 175 0
116 168 0
127 173 0
119 170 0
111 164 0
108 166 0
104 163 0
109 159 0
103 168 36
52 161 62
50 173 74
49 168 84
49 173 72
50 173 86
49 168 72
50 169 65
47 167 80
48 167 72
50 171 80
47 169 82
49 170 65
51 174 90
51 171 82
47 167 67
48 167 65
50 171 74
50 173 91
51 173 82
48 170 72
47 166 78
50 172 88
49 171 72
51 173 69
50 171 91
48 167 80
50 170 78
48 165 80
50 170 76
47 165 76
47 162 51
45 160 57
51 171 86
50 168 86
47 162 80
50 167 62
49 167 72
47 162 67
45 161 62
48 163 67
44 155 65
46 157 54
47 158 59
44 156 74
45 154 67
51 149 59
70 140 36
88 139 0
88 137 0
90 135 0
114 152 0
89 134 0
95 144 0
115 150 0
101 147 0
108 148 0
108 151 0
114 151 0
111 148 0
110 148 0
125 155 0
118 154 0
118 154 0
111 148 0
110 145 0
133 159 0
128 162 0
115 153 0
124 153 0
118 150 0
118 150 0
122 158 0
136 160 0
129 156 0
121 153 0
120 149 0
126 158 0
133 159 0
129 155 0
122 153 0
121 147 0
116 146 0
136 159 0
125 149 0
133 151 0
133 153 0
132 152 0
132 153 0
128 149 0
131 148 0
134 151 0
127 146 0
130 154 0
123 148 0
133 145 0
131 147 0
133 148 0
132 148 0
137 150 0
125 141 0
130 141 0
131 142 0
122 135 0
105 101 0
99 93 0
118 112 0
102 99 0
105 104 0
103 101 0
109 107 0
100 105 0
103 101 0
104 108 0
114 115 0
111 109 0
105 104 0
112 114 0
118 114 0
112 115 0
118 116 0
124 120 0
122 120 0
124 123 0
125 122 0
123 118 0
121 119 0
125 123 0
124 121 0
121 119 0
129 126 0
130 129 0
126 122 0
127 121 0
128 124 0
132 128 0
134 129 0
127 125 0
128 122 0
134 129 0
133 125 0
128 124 0
137 128 0
131 125 0
138 131 0
136 131 0
141 135 0
129 124 0
136 134 0
134 130 0
136 131 0
137 132 0
137 133 0
135 130 0
141 134 0
138 133 0
143 136 0
140 136 0
139 135 0
133 129 0
139 133 0
143 136 0
139 134 0
140 133 0
139 134 0
139 135 0
139 133 0
136 131 0
140 134 0
140 134 0
143 135 0
145 141 0
139 135 0
146 140 0
141 136 0
145 142 0
144 138 0
145 137 0
145 138 0
144 140 0
143 138 0
145 138 0
145 140 0
147 139 0
147 141 0
144 138 0
143 138 0
146 138 0
144 140 0
145 139 0
148 142 0
149 142 0
145 138 0
145 140 0
147 140 0
146 141 0
143 137 0
148 142 0
147 140 0
147 138 0
148 141 0
149 142 0
149 141 0
151 144 0
151 144 0
148 141 0
147 142 0
147 139 0
148 144 0
149 145 0
150 144 0
147 141 0
148 143 0
150 144 0
150 143 0
153 146 0
149 144 0
149 143 0
152 146 0
149 144 0
151 145 0
152 145 0
153 148 0
150 146 0
205 226 254
205 226 254
205 226 254
205 226 254
205 226 254
205 226 254
205 226 254
205 226 254
205 226 254
205 226 254
206 226 254
206 226 254
206 226 254
206 227 254
206 227 254
206 227 254
206 227 254
206 227 254
206 227 254
206 227 254
206 227 254
206 227 254
206 227 254
206 227 254
206 227 254
206 227 254
206 227 254
206 227 254
206 227 254
206 227 254
206 227 254
206 227 254
207 227 254
207 227 254
207 227 254
207 227 254
207 227 254
207 227 254
207 227 254
207 227 254
207 227 254
207 227 254
207 227 254
207 227 254
207 227 254
207 227 254
207 227 254
207 227 254
207 227 254
207 227 254
207 227 254
207 227 254
207 227 254
206 227 254
207 227 254
206 227 254
206 227 254
206 227 254
206 227 254
206 227 254
206 227 254
206 227 254
206 227 254
206 227 254
206 227 254
206 227 254
206 227 254
206 227 254
206 227 254
206 227 254
206 227 254
206 226 254
206 226 254
206 226 254
205 226 254
205 226 254
205 226 254
205 226 254
205 226 254
205 226 254
205 226 254
205 226 254
205 226 254
204 226 254
204 226 254
204 226 254
204 226 254
204 226 254
204 225 254
204 225 254
203 225 254
203 225 254
203 225 254
203 225 254
203 225 254
202 225 254
202 224 254
202 224 254
201 224 254
201 224 254
201 224 254
200 224 254
200 223 254
200 223 254
199 223 254
199 223 254
198 223 254
198 222 254
197 222 254
197 222 254
196 221 254
195 221 254
195 221 254
194 220 254
193 220 254
192 219 254
190 218 254
188 217 251
175 204 182
159 193 36
162 192 0
161 193 0
159 191 0
165 194 0
164 192 0
161 192 0
161 192 0
159 190 0
157 191 0
156 191 0
159 192 0
157 191 0
158 192 0
157 192 0
157 191 0
152 190 0
155 191 0
156 190 0
152 189 0
158 193 0
159 191 0
149 188 0
150 188 0
154 190 0
156 190 0
150 188 0
152 189 0
146 186 0
153 188 0
146 186 0
145 185 0
144 185 0
144 185 0
149 187 0
144 184 0
144 187 0
149 186 0
140 183 0
136 181 0
131 179 0
137 183 0
135 179 0
142 181 0
131 175 0
126 173 0
133 178 0
130 177 0
121 173 0
116 173 0
120 171 0
112 167 0
119 169 0
115 171 0
98 161 0
117 167 0
106 160 0
94 152 0
108 159 0
77 159 51
57 163 54
46 168 72
46 162 62
46 163 65
45 164 76
49 172 69
45 163 72
48 168 62
46 166 72
49 169 80
49 166 76
50 171 72
51 173 78
43 160 57
46 164 67
48 168 67
47 168 74
46 163 67
49 168 67
50 172 80
45 162 54
47 161 51
48 166 78
47 164 65
47 165 76
48 165 82
51 171 78
48 166 72
50 169 88
49 167 78
49 166 84
47 161 74
47 165 82
48 166 62
45 159 69
47 164 69
45 159 65
46 162 78
46 160 62
39 147 51
43 154 59
41 147 44
72 132 18
89 137 0
91 135 0
89 135 0
91 135 0
93 137 0
85 134 0
98 140 0
87 136 0
100 144 0
113 155 0
99 137 0
122 160 0
105 144 0
94 142 0
105 144 0
104 147 0
112 148 0
115 150 0
117 154 0
127 158 0
114 147 0
115 151 0
123 158 0
129 159 0
122 148 0
117 150 0
120 149 0
122 153 0
119 152 0
123 153 0
129 159 0
125 152 0
126 152 0
123 152 0
127 157 0
125 152 0
131 152 0
121 149 0
133 160 0
123 152 0
128 151 0
120 150 0
128 149 0
122 145 0
122 141 0
135 153 0
132 145 0
131 146 0
130 149 0
131 148 0
117 137 0
121 139 0
122 137 0
131 143 0
128 137 0
135 141 0
127 133 0
124 133 0
134 141 0
121 123 0
99 99 0
100 95 0
102 99 0
104 105 0
110 108 0
105 102 0
104 102 0
100 102 0
99 98 0
121 115 0
113 113 0
118 115 0
121 114 0
116 113 0
110 112 0
111 112 0
117 117 0
126 122 0
123 120 0
123 118 0
122 121 0
118 119 0
123 117 0
118 117 0
125 122 0
132 126 0
125 126 0
125 123 0
130 126 0
128 124 0
122 121 0
125 120 0
129 124 0
124 122 0
128 126 0
132 125 0
131 127 0
133 126 0
136 131 0
136 130 0
136 131 0
139 135 0
130 127 0
136 134 0
130 127 0
137 133 0
141 133 0
142 135 0
138 135 0
138 132 0
138 130 0
139 133 0
136 134 0
137 132 0
140 132 0
138 132 0
141 135 0
139 131 0
136 132 0
139 133 0
145 137 0
141 134 0
143 136 0
142 134 0
140 133 0
147 139 0
141 136 0
145 138 0
143 136 0
144 138 0
141 135 0
141 137 0
146 138 0
150 143 0
144 138 0
144 135 0
145 137 0
144 136 0
145 139 0
142 136 0
146 136 0
147 140 0
140 135 0
143 137 0
144 137 0
144 137 0
147 140 0
147 141 0
145 136 0
148 142 0
148 139 0
146 140 0
148 142 0
144 138 0
146 141 0
146 139 0
149 142 0
149 144 0
148 142 0
147 141 0
151 144 0
146 140 0
147 142 0
145 138 0
149 140 0
151 143 0
148 140 0
147 140 0
147 138 0
149 142 0
149 143 0
152 145 0
150 142 0
153 147 0
149 145 0
150 142 0
153 147 0
152 145 0
204 226 254
204 226 254
204 226 254
204 226 254
204 226 254
205 226 254
205 226 254
205 226 254
205 226 254
205 226 254
205 226 254
205 226 254
205 226 254
205 226 254
205 226 254
205 226 254
205 226 254
205 226 254
205 226 254
205 226 254
206 226 254
206 226 254
206 226 254
206 226 254
206 226 254
206 227 254
206 227 254
206 227 254
206 227 254
206 227 254
206 227 254
206 227 254
206 227 254
206 227 254
206 227 254
206 227 254
206 227 254
206 227 254
206 227 254
206 227 254
206 227 254
206 227 254
206 227 254
206 227 254
206 227 254
206 227 254
206 227 254
206 227 254
206 227 254
206 227 254
206 227 254
206 227 254
206 227 254
206 227 254
206 227 254
206 227 254
206 227 254
206 227 254
206 227 254
206 227 254
206 226 254
206 226 254
206 226 254
206 226 254
206 226 254
205 226 254
205 226 254
205 226 254
205 226 254
205 226 254
205 226 254
205 226 254
205 226 254
205 226 254
205 226 254
205 226 254
205 226 254
204 226 254
204 226 254
204 226 254
204 226 254
204 226 254
204 226 254
204 225 254
204 225 254
203 225 254
203 225 254
203 225 254
203 225 254
203 225 254
202 225 254
202 225 254
202 225 254
202 224 254
202 224 254
201 224 254
201 224 254
201 224 254
200 224 254
200 223 254
200 223 254
199 223 254
199 223 254
199 223 254
198 222 254
198 222 254
197 222 254
196 221 254
196 221 254
195 221 254
195 220 254
194 220 254
193 219 254
191 219 254
190 218 254
189 217 254
178 208 204
168 198 127
160 191 0
159 190 0
164 193 0
159 190 0
156 189 0
158 190 0
162 192 0
159 191 0
156 189 0
159 191 0
154 189 0
157 191 0
151 190 0
159 191 0
160 191 0
156 191 0
155 190 0
155 190 0
153 189 0
160 191 0
145 186 0
152 190 0
151 190 0
155 191 0
154 190 0
139 185 0
147 188 0
137 185 0
147 184 0
150 188 0
151 189 0
146 185 0
147 186 0
151 188 0
139 185 0
145 186 0
143 184 0
144 185 0
145 186 0
137 180 0
135 180 0
141 182 0
144 185 0
133 180 0
121 173 0
120 171 0
131 179 0
131 177 0
122 175 0
117 166 0
116 171 0
129 175 0
121 172 0
112 167 0
108 167 0
119 169 0
96 157 0
109 160 0
111 159 0
114 162 0
107 159 0
84 143 0
81 143 25
77 156 31
42 161 51
44 159 67
46 165 62
44 164 78
48 169 72
52 175 88
47 166 67
46 163 76
48 167 74
50 170 88
46 167 62
47 167 84
49 165 65
49 166 76
45 163 47
46 164 59
45 164 62
48 169 74
51 173 86
48 168 62
48 166 74
47 164 76
47 166 65
48 165 72
50 169 78
48 165 67
45 159 65
46 161 65
45 162 74
44 159 72
44 161 69
48 163 78
44 157 57
42 153 65
41 150 44
45 151 62
62 142 47
61 123 25
85 130 0
83 128 0
88 136 0
75 133 0
93 142 0
79 132 0
98 142 0
102 146 0
93 142 0
105 147 0
101 143 0
100 145 0
98 144 0
104 146 0
108 146 0
106 143 0
104 147 0
107 144 0
116 151 0
104 140 0
103 145 0
121 153 0
118 151 0
105 141 0
113 147 0
122 155 0
122 154 0
123 151 0
122 153 0
118 153 0
114 147 0
127 156 0
104 141 0
136 160 0
108 142 0
125 151 0
130 153 0
119 141 0
119 148 0
112 141 0
122 147 0
119 147 0
126 145 0
118 143 0
119 141 0
124 140 0
129 148 0
121 145 0
131 154 0
122 145 0
131 143 0
122 139 0
124 147 0
125 136 0
116 134 0
114 129 0
125 140 0
116 131 0
118 128 0
124 132 0
125 135 0
124 129 0
116 120 0
112 110 0
94 90 0
96 93 0
106 100 0
103 106 0
111 104 0
109 105 0
107 106 0
109 107 0
107 104 0
106 103 0
108 106 0
122 117 0
117 114 0
116 110 0
110 108 0
118 116 0
117 114 0
126 121 0
116 113 0
121 116 0
125 119 0
126 121 0
117 118 0
128 121 0
120 115 0
129 123 0
130 123 0
127 120 0
125 121 0
134 128 0
132 129 0
135 129 0
132 126 0
127 120 0
127 125 0
126 126 0
129 125 0
128 125 0
132 126 0
131 125 0
135 128 0
139 131 0
136 132 0
135 129 0
136 128 0
133 131 0
141 135 0
141 134 0
140 133 0
137 136 0
135 129 0
141 136 0
139 133 0
141 133 0
141 136 0
137 134 0
145 137 0
136 129 0
144 134 0
141 134 0
141 136 0
141 135 0
145 134 0
141 133 0
144 136 0
145 138 0
137 137 0
146 139 0
142 132 0
144 140 0
145 136 0
146 140 0
143 137 0
145 138 0
146 139 0
145 138 0
145 140 0
151 144 0
148 141 0
149 143 0
150 143 0
145 137 0
145 141 0
150 141 0
148 142 0
148 142 0
149 143 0
146 138 0
149 142 0
148 142 0
144 138 0
146 142 0
148 141 0
147 140 0
148 142 0
148 141 0
149 142 0
144 138 0
142 136 0
145 140 0
148 143 0
149 141 0
149 141 0
148 142 0
150 142 0
147 141 0
150 144 0
148 143 0
151 142 0
152 145 0
152 145 0
153 148 0
153 146 0
149 142 0
152 146 0
151 145 0
203 225 254
203 225 254
204 225 254
204 225 254
204 225 254
204 226 254
204 226 254
204 226 254
204 226 254
204 226 254
204 226 254
204 226 254
204 226 254
205 226 254
205 226 254
205 226 254
205 226 254
205 226 254
205 226 254
205 226 254
205 226 254
205 226 254
205 226 254
205 226 254
205 226 254
205 226 254
205 226 254
205 226 254
205 226 254
205 226 254
205 226 254
205 226 254
205 226 254
205 226 254
205 226 254
205 226 254
205 226 254
205 226 254
205 226 254
205 226 254
205 226 254
205 226 254
206 226 254
205 226 254
205 226 254
205 226 254
205 226 254
205 226 254
205 226 254
205 226 254
205 226 254
205 226 254
205 226 254
205 226 254
205 226 254
205 226 254
205 226 254
205 226 254
205 226 254
205 226 254
205 226 254
205 226 254
205 226 254
205 226 254
205 226 254
205 226 254
205 226 254
205 226 254
205 226 254
205 226 254
204 226 254
204 226 254
204 226 254
204 226 254
204 226 254
204 226 254
204 225 254
204 225 254
204 225 254
204 225 254
203 225 254
203 225 254
203 225 254
203 225 254
203 225 254
203 225 254
202 225 254
202 225 254
202 224 254
202 224 254
202 224 254
201 224 254
201 224 254
201 224 254
201 224 254
200 224 254
200 223 254
200 223 254
199 223 254
199 223 254
199 223 254
198 222 254
198 222 254
197 222 254
197 222 254
196 221 254
196 221 254
195 221 254
194 220 254
193 220 254
192 219 254
191 219 254
190 218 254
189 217 254
184 213 232
167 197 127
161 192 0
158 190 0
164 192 0
163 192 0
163 193 0
164 193 0
154 190 0
162 193 0
161 191 0
158 191 0
156 190 0
160 191 0
155 190 0
153 190 0
157 191 0
155 190 0
155 191 0
157 191 0
155 189 0
154 191 0
156 191 0
147 189 0
164 194 0
161 192 0
156 190 0
158 191 0
156 189 0
153 191 0
156 188 0
143 188 0
152 189 0
147 188 0
154 190 0
152 189 0
138 183 0
148 186 0
131 181 0
142 186 0
143 185 0
144 183 0
137 181 0
137 182 0
137 181 0
134 181 0
137 182 0
136 179 0
136 183 0
129 177 0
136 178 0
128 173 0
124 174 0
120 169 0
115 170 0
125 172 0
119 168 0
103 163 0
111 165 0
115 164 0
110 163 0
103 160 0
95 158 0
97 152 0
104 154 0
94 151 0
91 147 0
86 142 0
83 137 0
55 138 31
65 148 47
46 157 65
42 156 59
44 159 69
46 164 69
43 159 47
46 165 78
46 164 65
47 167 69
49 170 72
45 161 62
43 160 62
45 160 65
46 161 69
46 163 78
49 168 74
44 159 57
45 162 59
44 161 65
45 161 65
41 153 59
45 161 72
45 160 67
45 161 62
44 156 69
46 162 51
45 159 54
44 159 65
40 153 65
44 157 59
42 154 69
45 141 47
60 125 25
55 109 0
56 115 0
75 132 0
87 130 0
70 121 0
84 132 0
96 139 0
99 135 0
95 135 0
83 134 0
76 129 0
95 139 0
108 148 0
101 141 0
98 140 0
101 142 0
108 150 0
103 141 0
106 145 0
112 152 0
100 147 0
115 150 0
111 147 0
115 153 0
106 142 0
117 149 0
117 149 0
122 157 0
118 150 0
118 149 0
118 153 0
115 146 0
118 149 0
113 151 0
129 159 0
110 145 0
121 148 0
119 151 0
124 150 0
129 152 0
125 150 0
120 147 0
131 153 0
127 147 0
124 146 0
133 157 0
119 147 0
125 150 0
124 146 0
123 142 0
131 148 0
116 137 0
118 133 0
122 138 0
124 142 0
125 141 0
122 140 0
120 134 0
119 133 0
120 130 0
117 130 0
125 138 0
123 133 0
117 127 0
128 129 0
120 129 0
112 115 0
102 108 0
99 102 0
98 92 0
92 89 0
108 102 0
98 97 0
108 105 0
109 104 0
108 107 0
110 107 0
109 106 0
111 111 0
124 119 0
112 108 0
110 108 0
119 115 0
119 115 0
118 115 0
116 113 0
121 116 0
120 115 0
120 114 0
132 124 0
124 119 0
120 117 0
127 120 0
124 117 0
133 129 0
126 122 0
124 120 0
125 121 0
125 122 0
127 121 0
135 129 0
134 124 0
129 125 0
126 121 0
133 128 0
137 130 0
136 130 0
134 131 0
128 124 0
135 129 0
136 131 0
138 133 0
136 130 0
140 131 0
136 127 0
137 131 0
131 127 0
141 133 0
135 130 0
135 132 0
141 135 0
138 130 0
139 132 0
137 129 0
133 127 0
139 132 0
143 136 0
139 132 0
141 135 0
144 137 0
144 134 0
138 130 0
145 135 0
142 135 0
142 135 0
146 139 0
138 131 0
142 134 0
146 139 0
141 135 0
142 133 0
147 140 0
147 138 0
143 133 0
144 139 0
143 135 0
145 138 0
148 144 0
144 136 0
144 135 0
145 139 0
150 140 0
145 139 0
150 140 0
146 139 0
144 138 0
149 142 0
146 139 0
144 139 0
149 142 0
151 143 0
147 141 0
148 141 0
147 140 0
143 136 0
150 145 0
150 144 0
145 138 0
148 142 0
152 144 0
152 146 0
148 142 0
146 138 0
149 142 0
150 143 0
149 141 0
151 146 0
148 140 0
151 144 0
149 143 0
148 143 0
150 144 0
149 141 0
203 225 254
203 225 254
203 225 254
203 225 254
203 225 254
203 225 254
203 225 254
203 225 254
203 225 254
204 225 254
204 225 254
204 225 254
204 225 254
204 225 254
204 226 254
204 226 254
204 226 254
204 226 254
204 226 254
204 226 254
204 226 254
204 226 254
204 226 254
204 226 254
204 226 254
205 226 254
205 226 254
205 226 254
205 226 254
205 226 254
205 226 254
205 226 254
205 226 254
205 226 254
205 226 254
205 226 254
205 226 254
205 226 254
205 226 254
205 226 254
205 226 254
205 226 254
205 226 254
205 226 254
205 226 254
205 226 254
205 226 254
205 226 254
205 226 254
205 226 254
205 226 254
205 226 254
205 226 254
205 226 254
205 226 254
205 226 254
205 226 254
205 226 254
205 226 254
204 226 254
204 226 254
204 226 254
204 226 254
204 226 254
204 226 254
204 226 254
204 226 254
204 226 254
204 225 254
204 225 254
204 225 254
204 225 254
204 225 254
203 225 254
203 225 254
203 225 254
203 225 254
203 225 254
203 225 254
203 225 254
203 225 254
202 225 254
202 225 254
202 224 254
202 224 254
202 224 254
201 224 254
201 224 254
201 224 254
201 224 254
201 224 254
200 224 254
200 223 254
200 223 254
200 223 254
199 223 254
199 223 254
198 223 254
198 222 254
198 222 254
197 222 254
197 222 254
196 221 254
196 221 254
195 221 254
194 220 254
194 220 254
193 220 254
192 219 254
191 219 254
190 218 254
189 217 254
184 213 233
172 202 163
163 192 25
162 192 0
156 189 0
164 193 0
159 191 0
159 191 0
163 193 0
160 191 0
159 190 0
160 192 0
157 191 0
151 186 0
160 192 0
155 189 0
155 190 0
161 192 0
151 190 0
154 188 0
156 191 0
153 190 0
151 189 0
152 188 0
149 187 0
159 192 0
148 186 0
154 190 0
156 190 0
148 186 0
151 187 0
153 189 0
151 187 0
142 186 0
144 185 0
145 187 0
139 181 0
152 189 0
147 189 0
138 182 0
146 186 0
147 186 0
138 182 0
130 179 0
124 177 0
143 183 0
145 183 0
135 181 0
121 176 0
129 178 0
125 174 0
127 174 0
129 175 0
127 175 0
124 173 0
130 175 0
134 175 0
122 173 0
128 173 0
110 167 0
119 167 0
107 161 0
117 163 0
104 153 0
97 150 0
99 154 0
88 149 0
101 154 0
86 144 0
94 148 0
84 138 0
90 136 0
66 124 0
77 134 0
65 138 31
70 150 44
47 152 62
36 148 25
43 158 59
46 164 62
45 162 67
43 159 62
42 159 57
43 160 65
42 157 57
41 154 40
43 156 65
43 159 59
42 157 54
42 157 62
44 159 47
45 159 62
42 156 57
43 153 54
44 157 74
43 155 59
42 158 54
40 151 51
38 146 51
38 141 47
50 129 25
49 111 25
44 106 0
64 113 0
71 119 0
61 120 0
86 131 0
87 127 0
76 125 0
82 131 0
81 128 0
90 134 0
89 138 0
104 147 0
87 130 0
84 133 0
96 139 0
86 132 0
95 139 0
99 142 0
100 146 0
100 142 0
107 146 0
107 143 0
102 143 0
109 148 0
109 147 0
115 151 0
111 149 0
110 143 0
113 147 0
115 145 0
109 144 0
111 150 0
122 155 0
130 159 0
108 143 0
118 151 0
120 144 0
107 141 0
109 138 0
128 155 0
120 152 0
118 149 0
114 145 0
117 142 0
118 149 0
117 151 0
120 144 0
126 150 0
120 147 0
132 155 0
121 142 0
119 143 0
123 147 0
122 141 0
115 137 0
125 142 0
118 141 0
121 139 0
120 141 0
114 139 0
109 125 0
113 126 0
119 134 0
119 135 0
116 134 0
121 131 0
110 123 0
120 133 0
127 136 0
104 114 0
115 119 0
114 117 0
110 106 0
89 87 0
95 88 0
96 94 0
109 100 0
97 96 0
98 93 0
108 105 0
112 106 0
105 100 0
116 110 0
119 115 0
113 107 0
118 114 0
122 114 0
119 113 0
110 108 0
113 110 0
120 117 0
122 117 0
116 112 0
119 114 0
123 118 0
123 117 0
132 123 0
123 120 0
130 119 0
131 124 0
132 125 0
125 120 0
135 128 0
130 126 0
124 121 0
128 127 0
132 127 0
129 123 0
137 130 0
133 128 0
135 128 0
134 127 0
141 132 0
135 128 0
130 122 0
132 126 0
129 125 0
137 129 0
137 129 0
136 131 0
138 131 0
140 133 0
140 132 0
142 135 0
140 134 0
137 130 0
141 134 0
138 132 0
142 134 0
133 128 0
135 126 0
142 135 0
144 134 0
140 133 0
144 137 0
141 134 0
138 132 0
137 128 0
140 133 0
141 130 0
145 137 0
143 134 0
143 139 0
144 137 0
144 136 0
145 138 0
144 138 0
144 137 0
144 137 0
142 135 0
149 141 0
147 143 0
146 138 0
144 136 0
148 140 0
147 139 0
145 135 0
145 138 0
146 138 0
147 140 0
145 137 0
148 139 0
144 136 0
145 139 0
145 136 0
148 139 0
149 141 0
147 140 0
148 141 0
148 139 0
145 137 0
149 140 0
146 139 0
150 146 0
147 140 0
150 143 0
152 144 0
150 143 0
147 138 0
148 140 0
152 146 0
151 143 0
150 143 0
147 141 0
152 145 0
152 146 0
202 224 254
202 224 254
202 225 254
202 225 254
202 225 254
202 225 254
203 225 254
203 225 254
203 225 254
203 225 254
203 225 254
203 225 254
203 225 254
203 225 254
203 225 254
203 225 254
203 225 254
203 225 254
204 225 254
204 225 254
204 225 254
204 225 254
204 225 254
204 225 254
204 225 254
204 225 254
204 226 254
204 226 254
204 226 254
204 226 254
204 226 254
204 226 254
204 226 254
204 226 254
204 226 254
204 226 254
204 226 254
204 226 254
204 226 254
204 226 254
204 226 254
204 226 254
204 226 254
204 226 254
204 226 254
204 226 254
204 226 254
204 226 254
204 226 254
204 226 254
204 226 254
204 226 254
204 226 254
204 226 254
204 226 254
204 226 254
204 226 254
204 225 254
204 225 254
204 225 254
204 225 254
204 225 254
204 225 254
204 225 254
203 225 254
203 225 254
203 225 254
203 225 254
203 225 254
203 225 254
203 225 254
203 225 254
203 225 254
203 225 254
203 225 254
202 225 254
202 225 254
202 225 254
202 224 254
202 224 254
202 224 254
201 224 254
201 224 254
201 224 254
201 224 254
201 224 254
201 224 254
200 224 254
200 223 254
200 223 254
199 223 254
199 223 254
199 223 254
199 223 254
198 222 254
198 222 254
198 222 254
197 222 254
197 222 254
196 221 254
196 221 254
195 221 254
194 220 254
194 220 254
193 220 254
192 219 254
192 219 254
191 218 254
190 218 254
188 217 254
183 213 237
173 203 172
163 192 62
162 192 0
162 192 0
157 190 0
162 191 0
160 190 0
161 192 0
160 190 0
156 190 0
159 191 0
161 192 0
160 191 0
155 190 0
153 190 0
156 192 0
155 190 0
159 192 0
159 192 0
156 190 0
156 190 0
152 189 0
160 192 0
156 191 0
156 189 0
155 190 0
163 192 0
152 188 0
158 191 0
156 189 0
141 186 0
149 189 0
152 189 0
146 186 0
151 187 0
145 185 0
151 189 0
151 189 0
154 189 0
139 183 0
142 183 0
131 178 0
136 180 0
145 183 0
135 178 0
137 182 0
132 179 0
129 176 0
149 188 0
130 178 0
133 180 0
127 176 0
116 173 0
125 175 0
145 184 0
119 170 0
121 172 0
127 176 0
120 171 0
108 163 0
116 168 0
122 170 0
109 161 0
93 156 0
97 157 0
92 152 0
101 158 0
88 154 0
93 147 0
95 150 0
83 142 0
80 136 0
79 131 0
74 136 0
86 140 0
65 122 0
77 128 0
62 122 0
70 122 0
58 123 25
48 119 31
59 139 40
54 136 31
46 144 57
38 143 47
39 150 54
42 157 65
37 148 44
40 150 62
41 155 65
38 150 59
39 149 59
41 150 47
37 143 47
42 144 51
48 133 40
53 122 31
59 118 25
41 107 0
55 100 18
62 112 0
61 112 0
48 104 0
63 110 0
81 122 0
63 115 0
63 114 0
76 126 0
91 131 0
85 131 0
82 128 0
73 128 0
96 141 0
93 132 0
104 144 0
95 136 0
102 144 0
92 137 0
100 143 0
91 134 0
101 144 0
107 148 0
103 144 0
106 141 0
117 152 0
106 148 0
111 140 0
119 150 0
109 149 0
110 147 0
103 144 0
116 146 0
124 155 0
116 153 0
104 142 0
117 152 0
116 150 0
126 154 0
120 148 0
122 151 0
120 151 0
121 152 0
111 143 0
122 151 0
128 153 0
108 136 0
120 150 0
115 148 0
121 148 0
134 156 0
123 149 0
123 149 0
125 152 0
132 152 0
122 145 0
119 139 0
123 140 0
126 142 0
116 138 0
119 142 0
114 132 0
125 142 0
119 141 0
117 137 0
116 132 0
107 125 0
115 126 0
119 129 0
121 130 0
113 121 0
123 134 0
116 129 0
115 122 0
117 122 0
113 121 0
113 118 0
108 110 0
101 98 0
83 80 0
92 90 0
96 92 0
109 103 0
103 103 0
100 93 0
114 100 0
104 98 0
102 104 0
120 112 0
108 105 0
111 103 0
119 110 0
121 113 0
119 115 0
115 112 0
116 113 0
121 117 0
120 117 0
118 113 0
126 114 0
126 117 0
122 114 0
126 119 0
132 125 0
126 116 0
126 116 0
123 119 0
125 118 0
123 120 0
135 125 0
131 127 0
134 125 0
137 127 0
136 129 0
127 121 0
133 124 0
137 126 0
135 127 0
135 128 0
136 128 0
136 129 0
139 129 0
140 131 0
135 128 0
137 128 0
141 134 0
142 135 0
143 131 0
144 134 0
136 129 0
140 132 0
143 133 0
144 133 0
135 127 0
139 132 0
141 132 0
141 134 0
139 130 0
145 135 0
145 137 0
142 134 0
138 131 0
144 137 0
145 136 0
143 136 0
139 134 0
144 135 0
145 138 0
143 133 0
143 133 0
147 137 0
144 134 0
145 137 0
142 134 0
149 141 0
145 136 0
144 137 0
140 133 0
138 128 0
148 140 0
150 141 0
146 139 0
147 137 0
145 137 0
144 136 0
147 138 0
147 140 0
147 139 0
146 140 0
149 141 0
149 139 0
149 139 0
147 139 0
148 140 0
151 144 0
148 140 0
153 145 0
147 140 0
148 141 0
150 142 0
148 141 0
149 141 0
151 144 0
150 143 0
150 142 0
150 144 0
150 143 0
150 143 0
150 144 0
152 144 0
201 224 254
201 224 254
201 224 254
201 224 254
202 224 254
202 224 254
202 224 254
202 224 254
202 224 254
202 225 254
202 225 254
202 225 254
202 225 254
202 225 254
203 225 254
203 225 254
203 225 254
203 225 254
203 225 254
203 225 254
203 225 254
203 225 254
203 225 254
203 225 254
203 225 254
203 225 254
203 225 254
203 225 254
203 225 254
203 225 254
203 225 254
203 225 254
203 225 254
203 225 254
203 225 254
203 225 254
204 225 254
204 225 254
204 225 254
204 225 254
203 225 254
204 225 254
204 225 254
204 225 254
204 225 254
203 225 254
203 225 254
203 225 254
203 225 254
203 225 254
203 225 254
203 225 254
203 225 254
203 225 254
203 225 254
203 225 254
203 225 254
203 225 254
203 225 254
203 225 254
203 225 254
203 225 254
203 225 254
203 225 254
203 225 254
203 225 254
203 225 254
202 225 254
202 225 254
202 225 254
202 225 254
202 224 254
202 224 254
202 224 254
202 224 254
202 224 254
201 224 254
201 224 254
201 224 254
201 224 254
201 224 254
201 224 254
200 224 254
200 224 254
200 223 254
200 223 254
199 223 254
199 223 254
199 223 254
199 223 254
198 223 254
198 222 254
198 222 254
197 222 254
197 222 254
197 222 254
196 221 254
196 221 254
195 221 254
195 221 254
194 220 254
194 220 254
193 220 254
192 219 254
191 219 254
190 218 254
189 218 254
188 217 254
184 214 240
173 203 183
165 192 62
161 190 0
163 192 0
164 193 0
165 193 0
164 193 0
163 192 0
156 190 0
160 191 0
160 190 0
159 191 0
161 191 0
163 193 0
156 190 0
161 193 0
158 192 0
158 191 0
161 193 0
151 189 0
157 190 0
158 191 0
155 190 0
154 190 0
158 192 0
156 190 0
150 188 0
150 188 0
152 188 0
155 192 0
152 189 0
155 190 0
150 189 0
147 186 0
149 186 0
149 187 0
142 183 0
146 187 0
146 186 0
149 185 0
141 184 0
145 186 0
148 188 0
142 184 0
126 178 0
137 181 0
149 186 0
132 178 0
138 183 0
126 176 0
131 178 0
131 178 0
131 177 0
122 175 0
127 174 0
126 173 0
114 171 0
118 169 0
124 173 0
123 171 0
117 169 0
114 166 0
103 161 0
113 168 0
116 163 0
102 161 0
101 158 0
108 160 0
94 152 0
88 144 0
109 157 0
83 142 0
76 140 0
96 144 0
70 135 0
84 138 0
70 131 0
74 126 0
67 126 0
64 123 0
79 126 0
76 124 0
60 113 0
72 121 0
70 121 0
57 110 0
63 114 0
62 111 0
58 103 0
51 97 0
36 94 0
41 94 0
53 109 0
64 103 0
46 100 0
50 95 0
54 104 0
60 105 0
60 106 0
56 107 0
63 106 0
54 104 0
73 116 0
78 123 0
69 117 0
72 119 0
86 127 0
79 130 0
76 128 0
83 130 0
80 127 0
89 135 0
68 127 0
91 139 0
79 126 0
90 134 0
90 145 0
82 134 0
86 138 0
105 144 0
94 141 0
109 150 0
95 137 0
106 144 0
107 150 0
110 144 0
105 149 0
112 151 0
102 144 0
111 146 0
106 145 0
115 149 0
105 148 0
108 142 0
117 149 0
116 151 0
118 151 0
124 154 0
114 148 0
123 155 0
123 153 0
104 141 0
123 151 0
122 156 0
114 143 0
123 151 0
126 156 0
127 155 0
125 150 0
122 150 0
133 157 0
132 155 0
113 143 0
126 149 0
118 142 0
123 145 0
121 147 0
123 147 0
119 142 0
122 145 0
134 147 0
121 138 0
122 140 0
129 144 0
112 131 0
112 132 0
118 132 0
112 125 0
113 129 0
107 121 0
117 131 0
118 128 0
120 132 0
116 127 0
110 118 0
111 116 0
105 114 0
113 116 0
112 118 0
112 118 0
111 117 0
98 93 0
87 81 0
99 90 0
106 96 0
108 97 0
104 99 0
107 100 0
106 96 0
108 102 0
119 108 0
116 107 0
118 113 0
115 104 0
117 112 0
114 108 0
121 117 0
116 111 0
122 117 0
120 112 0
117 109 0
125 114 0
128 119 0
121 114 0
129 119 0
134 123 0
130 121 0
126 121 0
124 119 0
119 116 0
128 123 0
126 118 0
135 126 0
134 126 0
130 123 0
131 123 0
128 122 0
133 126 0
140 130 0
141 132 0
139 128 0
132 125 0
134 127 0
129 126 0
139 132 0
141 133 0
139 128 0
140 132 0
138 127 0
136 126 0
141 132 0
137 127 0
140 132 0
143 131 0
141 133 0
140 132 0
140 130 0
136 130 0
140 131 0
144 137 0
140 133 0
141 136 0
143 136 0
141 134 0
141 134 0
141 133 0
143 135 0
142 132 0
139 131 0
142 132 0
145 136 0
145 135 0
142 135 0
144 136 0
145 136 0
147 136 0
146 137 0
144 136 0
147 139 0
145 137 0
145 139 0
146 139 0
147 139 0
141 132 0
147 139 0
144 135 0
143 133 0
147 137 0
146 138 0
148 141 0
149 143 0
147 137 0
148 141 0
148 139 0
151 143 0
149 140 0
147 139 0
147 140 0
146 139 0
147 141 0
151 143 0
149 141 0
148 142 0
151 144 0
149 141 0
149 141 0
152 144 0
149 141 0
147 138 0
151 143 0
150 141 0
200 223 254
200 223 254
200 224 254
201 224 254
201 224 254
201 224 254
201 224 254
201 224 254
201 224 254
201 224 254
201 224 254
201 224 254
202 224 254
202 224 254
202 224 254
202 224 254
202 224 254
202 224 254
202 225 254
202 225 254
202 225 254
202 225 254
202 225 254
202 225 254
202 225 254
202 225 254
202 225 254
203 225 254
203 225 254
203 225 254
203 225 254
203 225 254
203 225 254
203 225 254
203 225 254
203 225 254
203 225 254
203 225 254
203 225 254
203 225 254
203 225 254
203 225 254
203 225 254
203 225 254
203 225 254
203 225 254
203 225 254
203 225 254
203 225 254
203 225 254
203 225 254
203 225 254
203 225 254
203 225 254
203 225 254
203 225 254
202 225 254
202 225 254
202 225 254
202 225 254
202 225 254
202 225 254
202 224 254
202 224 254
202 224 254
202 224 254
202 224 254
202 224 254
201 224 254
201 224 254
201 224 254
201 224 254
201 224 254
201 224 254
201 224 254
201 224 254
200 224 254
200 224 254
200 223 254
200 223 254
200 223 254
199 223 254
199 223 254
199 223 254
199 223 254
199 223 254
198 222 254
198 222 254
198 222 254
197 222 254
197 222 254
197 222 254
196 221 254
196 221 254
196 221 254
195 221 254
195 221 254
194 220 254
193 220 254
193 220 254
192 219 254
191 219 254
190 218 254
190 218 254
188 217 254
187 217 254
182 212 236
166 197 139
164 193 44
162 191 0
158 190 0
162 192 0
160 191 0
160 190 0
163 191 0
157 190 0
160 191 0
161 193 0
159 191 0
163 191 0
155 189 0
162 192 0
159 191 0
163 193 0
154 189 0
157 190 0
159 191 0
161 192 0
152 189 0
158 190 0
159 191 0
158 191 0
157 192 0
158 191 0
155 190 0
151 188 0
155 191 0
153 190 0
152 187 0
151 189 0
146 188 0
148 188 0
152 189 0
153 189 0
145 186 0
139 180 0
142 184 0
142 186 0
144 185 0
147 185 0
137 179 0
137 183 0
141 181 0
134 179 0
138 182 0
143 182 0
129 177 0
144 183 0
137 180 0
128 177 0
137 181 0
124 175 0
134 178 0
142 181 0
125 174 0
135 176 0
119 171 0
119 169 0
121 172 0
109 168 0
122 174 0
121 170 0
120 167 0
115 163 0
97 154 0
104 162 0
90 150 0
93 150 0
104 155 0
101 152 0
100 153 0
81 143 0
83 143 0
84 143 0
87 146 0
73 135 0
89 144 0
83 140 0
81 131 0
64 126 0
78 138 0
68 126 0
60 120 0
64 118 0
57 114 0
67 121 0
50 102 0
73 123 0
63 111 0
61 115 0
47 107 0
63 116 0
73 122 0
59 118 0
56 110 0
79 124 0
55 103 0
60 108 0
63 121 0
61 109 0
65 120 0
90 132 0
72 124 0
72 119 0
82 128 0
72 126 0
93 139 0
83 129 0
84 131 0
93 139 0
74 136 0
84 140 0
87 129 0
99 143 0
92 135 0
97 141 0
95 136 0
101 142 0
90 134 0
104 144 0
101 147 0
102 142 0
112 152 0
108 152 0
108 146 0
117 156 0
103 143 0
107 149 0
116 153 0
120 153 0
105 147 0
115 152 0
96 139 0
120 154 0
125 160 0
121 151 0
112 151 0
120 153 0
117 151 0
121 153 0
125 154 0
123 154 0
118 147 0
117 150 0
122 152 0
111 144 0
117 146 0
127 154 0
108 139 0
128 155 0
119 149 0
114 142 0
118 139 0
121 149 0
122 144 0
123 142 0
102 131 0
128 148 0
126 145 0
116 138 0
121 138 0
115 133 0
130 144 0
104 126 0
121 141 0
116 130 0
114 133 0
117 129 0
113 129 0
114 129 0
119 129 0
117 126 0
117 125 0
116 128 0
114 125 0
101 108 0
101 105 0
122 128 0
107 111 0
104 107 0
107 109 0
100 99 0
91 89 0
86 80 0
88 81 0
103 98 0
105 100 0
93 90 0
110 108 0
110 99 0
112 106 0
109 105 0
110 104 0
112 107 0
117 106 0
109 105 0
112 107 0
120 111 0
125 117 0
125 117 0
110 105 0
123 112 0
118 110 0
125 119 0
124 115 0
126 120 0
121 114 0
119 113 0
124 115 0
124 118 0
125 121 0
129 120 0
134 124 0
133 126 0
126 117 0
133 125 0
134 125 0
135 125 0
131 123 0
134 124 0
138 129 0
122 115 0
134 124 0
136 129 0
126 120 0
137 125 0
141 131 0
136 127 0
140 131 0
137 126 0
135 129 0
137 126 0
139 128 0
142 132 0
138 130 0
139 132 0
137 125 0
140 130 0
140 132 0
137 130 0
143 134 0
143 135 0
142 135 0
138 129 0
141 133 0
144 136 0
140 129 0
140 132 0
142 131 0
143 134 0
143 135 0
140 130 0
141 132 0
145 136 0
145 136 0
141 134 0
147 137 0
147 140 0
144 135 0
142 135 0
147 140 0
143 134 0
148 138 0
145 136 0
144 134 0
146 135 0
144 135 0
146 136 0
146 138 0
151 142 0
146 139 0
149 142 0
149 141 0
144 137 0
149 140 0
150 143 0
147 140 0
148 139 0
149 142 0
148 140 0
150 142 0
148 141 0
149 141 0
149 142 0
148 141 0
147 139 0
153 147 0
151 143 0
147 139 0
151 143 0
199 223 254
199 223 254
199 223 254
200 223 254
200 223 254
200 223 254
200 223 254
200 223 254
200 224 254
200 224 254
200 224 254
201 224 254
201 224 254
201 224 254
201 224 254
201 224 254
201 224 254
201 224 254
201 224 254
201 224 254
201 224 254
201 224 254
202 224 254
202 224 254
202 224 254
202 224 254
202 224 254
202 224 254
202 224 254
202 224 254
202 224 254
202 224 254
202 224 254
202 224 254
202 224 254
202 224 254
202 224 254
202 224 254
202 224 254
202 224 254
202 224 254
202 224 254
202 225 254
202 224 254
202 224 254
202 224 254
202 224 254
202 224 254
202 224 254
202 224 254
202 224 254
202 224 254
202 224 254
202 224 254
202 224 254
202 224 254
202 224 254
201 224 254
201 224 254
201 224 254
201 224 254
201 224 254
201 224 254
201 224 254
201 224 254
201 224 254
201 224 254
201 224 254
201 224 254
201 224 254
200 224 254
200 224 254
200 223 254
200 223 254
200 223 254
200 223 254
199 223 254
199 223 254
199 223 254
199 223 254
199 223 254
198 223 254
198 222 254
198 222 254
198 222 254
197 222 254
197 222 254
197 222 254
196 221 254
196 221 254
196 221 254
195 221 254
195 221 254
194 220 254
194 220 254
193 220 254
193 220 254
192 219 254
191 219 254
191 219 254
190 218 254
189 217 254
188 217 254
186 216 254
181 210 222
165 197 134
159 190 44
161 191 0
158 190 0
161 191 0
161 191 0
160 190 0
163 192 0
161 192 0
164 193 0
162 191 0
161 191 0
158 191 0
159 192 0
154 190 0
159 191 0
161 191 0
155 189 0
154 187 0
159 192 0
153 189 0
153 188 0
154 191 0
159 191 0
153 188 0
153 190 0
151 188 0
159 192 0
153 189 0
154 191 0
154 191 0
159 191 0
151 189 0
154 191 0
155 190 0
152 188 0
138 184 0
156 190 0
153 188 0
144 185 0
145 185 0
150 187 0
149 186 0
141 185 0
146 185 0
142 183 0
151 187 0
136 179 0
133 180 0
142 184 0
146 186 0
144 183 0
137 180 0
141 182 0
135 180 0
141 183 0
127 174 0
136 177 0
125 176 0
125 174 0
115 170 0
128 176 0
129 175 0
126 173 0
126 171 0
115 169 0
111 167 0
111 165 0
112 166 0
114 162 0
99 158 0
102 157 0
115 165 0
91 151 0
95 155 0
97 156 0
101 156 0
85 151 0
94 149 0
90 148 0
83 142 0
93 146 0
82 135 0
89 145 0
63 128 0
79 135 0
76 130 0
81 132 0
60 119 0
76 129 0
66 125 0
87 130 0
61 117 0
70 122 0
60 119 0
68 120 0
71 122 0
62 116 0
75 122 0
59 118 0
71 122 0
58 116 0
77 127 0
79 128 0
92 133 0
70 125 0
75 127 0
74 127 0
74 128 0
88 134 0
88 135 0
87 137 0
87 137 0
82 133 0
89 135 0
87 136 0
93 140 0
88 136 0
88 140 0
95 139 0
102 147 0
84 136 0
109 147 0
102 147 0
101 138 0
99 142 0
104 145 0
103 143 0
99 147 0
101 144 0
102 145 0
116 151 0
114 151 0
102 148 0
122 159 0
101 147 0
113 150 0
118 150 0
118 151 0
116 154 0
106 146 0
126 153 0
110 148 0
118 151 0
132 157 0
116 151 0
127 149 0
110 142 0
116 146 0
125 151 0
122 153 0
127 157 0
112 149 0
126 153 0
125 150 0
120 143 0
119 142 0
117 144 0
123 151 0
126 152 0
116 140 0
111 140 0
118 141 0
114 142 0
123 144 0
119 142 0
118 141 0
122 140 0
110 129 0
120 140 0
119 134 0
118 133 0
122 141 0
116 129 0
115 127 0
119 130 0
119 133 0
114 126 0
116 124 0
120 131 0
98 111 0
112 123 0
110 120 0
103 112 0
105 108 0
99 110 0
106 108 0
95 97 0
95 95 0
82 77 0
89 80 0
89 83 0
96 88 0
103 95 0
100 94 0
108 97 0
109 101 0
111 104 0
111 103 0
108 102 0
117 106 0
113 105 0
115 107 0
116 109 0
115 108 0
119 110 0
122 112 0
130 121 0
129 115 0
128 117 0
127 116 0
123 110 0
125 118 0
128 120 0
130 122 0
118 113 0
127 119 0
128 121 0
127 121 0
133 127 0
127 119 0
129 120 0
131 124 0
137 129 0
129 120 0
129 124 0
133 121 0
139 129 0
134 125 0
135 123 0
136 127 0
136 127 0
132 122 0
140 129 0
137 128 0
139 129 0
138 127 0
138 128 0
136 126 0
135 123 0
140 129 0
139 132 0
140 129 0
137 130 0
139 131 0
138 130 0
143 132 0
143 133 0
143 135 0
141 131 0
142 130 0
142 134 0
147 139 0
142 130 0
141 133 0
140 130 0
146 135 0
142 131 0
144 134 0
146 137 0
146 135 0
145 133 0
141 132 0
145 135 0
142 132 0
142 133 0
146 136 0
144 135 0
145 136 0
148 140 0
143 133 0
147 139 0
149 140 0
147 139 0
148 140 0
145 136 0
150 140 0
147 138 0
144 134 0
146 138 0
147 138 0
150 142 0
148 139 0
148 141 0
149 143 0
146 139 0
151 143 0
153 146 0
149 138 0
151 142 0
151 143 0
151 142 0
150 144 0
146 139 0
144 137 0
198 222 254
198 222 254
198 222 254
198 223 254
199 223 254
199 223 254
199 223 254
199 223 254
199 223 254
199 223 254
200 223 254
200 223 254
200 223 254
200 223 254
200 223 254
200 223 254
200 224 254
200 224 254
200 224 254
201 224 254
201 224 254
201 224 254
201 224 254
201 224 254
201 224 254
201 224 254
201 224 254
201 224 254
201 224 254
201 224 254
201 224 254
201 224 254
201 224 254
201 224 254
201 224 254
201 224 254
201 224 254
201 224 254
201 224 254
201 224 254
201 224 254
201 224 254
201 224 254
201 224 254
201 224 254
201 224 254
201 224 254
201 224 254
201 224 254
201 224 254
201 224 254
201 224 254
201 224 254
201 224 254
201 224 254
201 224 254
201 224 254
201 224 254
201 224 254
200 224 254
200 224 254
200 224 254
200 224 254
200 223 254
200 223 254
200 223 254
200 223 254
200 223 254
200 223 254
199 223 254
199 223 254
199 223 254
199 223 254
199 223 254
199 223 254
198 223 254
198 222 254
198 222 254
198 222 254
198 222 254
197 222 254
197 222 254
197 222 254
197 222 254
196 221 254
196 221 254
196 221 254
195 221 254
195 221 254
194 220 254
194 220 254
194 220 254
193 220 254
193 219 254
192 219 254
191 219 254
191 219 254
190 218 254
189 218 254
188 217 254
187 217 254
185 215 252
175 206 197
165 196 105
161 191 0
161 191 0
162 191 0
163 192 0
161 191 0
156 188 0
160 191 0
161 191 0
162 191 0
164 193 0
163 192 0
159 190 0
157 191 0
156 189 0
157 188 0
160 191 0
157 190 0
160 192 0
160 191 0
160 191 0
155 190 0
150 187 0
156 190 0
155 191 0
154 190 0
158 191 0
156 191 0
151 190 0
157 192 0
160 192 0
151 190 0
156 190 0
154 189 0
156 191 0
145 187 0
146 186 0
153 188 0
145 185 0
154 190 0
149 188 0
149 187 0
149 186 0
136 182 0
156 189 0
140 183 0
139 181 0
147 186 0
144 183 0
148 187 0
131 177 0
143 183 0
140 183 0
140 182 0
143 186 0
130 178 0
129 176 0
135 180 0
131 177 0
118 173 0
132 175 0
133 177 0
120 169 0
131 177 0
130 174 0
115 165 0
104 163 0
120 171 0
117 168 0
125 172 0
109 164 0
100 160 0
113 162 0
110 162 0
106 161 0
115 161 0
101 160 0
98 153 0
107 157 0
91 148 0
91 153 0
90 151 0
98 149 0
88 145 0
88 142 0
102 153 0
80 138 0
86 139 0
91 143 0
72 140 0
73 129 0
74 136 0
82 143 0
80 136 0
70 126 0
77 130 0
68 129 0
84 132 0
75 135 0
74 137 0
82 137 0
65 121 0
69 132 0
85 136 0
92 141 0
82 135 0
87 139 0
93 143 0
82 131 0
86 135 0
71 135 0
77 131 0
81 140 0
90 138 0
83 133 0
88 143 0
90 137 0
93 145 0
78 132 0
89 142 0
95 143 0
86 139 0
83 137 0
105 145 0
97 144 0
110 151 0
92 140 0
111 149 0
107 147 0
118 153 0
104 146 0
115 158 0
109 146 0
109 145 0
109 149 0
108 148 0
118 155 0
102 139 0
100 145 0
122 158 0
116 148 0
118 153 0
123 151 0
118 152 0
125 158 0
121 154 0
120 156 0
123 156 0
124 155 0
122 155 0
119 151 0
124 153 0
124 152 0
118 147 0
122 150 0
125 153 0
119 146 0
129 153 0
120 146 0
125 156 0
126 151 0
131 153 0
129 156 0
125 144 0
133 159 0
124 143 0
121 143 0
126 151 0
128 150 0
124 146 0
113 141 0
119 139 0
129 146 0
126 139 0
118 131 0
122 137 0
125 139 0
111 124 0
118 133 0
112 126 0
113 123 0
118 128 0
108 121 0
118 128 0
110 117 0
106 111 0
111 115 0
101 99 0
103 107 0
96 99 0
100 102 0
91 96 0
82 84 0
83 80 0
85 75 0
86 80 0
95 87 0
103 87 0
107 92 0
103 95 0
105 96 0
105 100 0
111 101 0
111 101 0
118 108 0
114 106 0
115 108 0
119 110 0
117 107 0
119 110 0
116 110 0
115 104 0
124 110 0
122 111 0
125 115 0
130 116 0
119 108 0
128 117 0
123 112 0
126 118 0
124 116 0
136 126 0
128 117 0
129 119 0
129 121 0
133 122 0
135 125 0
137 125 0
133 124 0
134 126 0
138 127 0
125 114 0
129 119 0
133 125 0
141 130 0
134 125 0
135 124 0
132 124 0
136 127 0
134 125 0
142 132 0
136 129 0
132 119 0
142 132 0
134 121 0
137 125 0
140 131 0
143 132 0
138 126 0
144 136 0
141 130 0
140 128 0
138 130 0
140 133 0
143 134 0
141 129 0
140 133 0
139 129 0
141 133 0
144 137 0
146 137 0
145 135 0
143 133 0
146 138 0
144 132 0
146 136 0
145 133 0
147 137 0
141 132 0
141 132 0
145 137 0
147 136 0
146 136 0
148 138 0
146 138 0
146 136 0
147 138 0
148 139 0
142 131 0
150 141 0
147 139 0
146 136 0
144 135 0
147 140 0
149 139 0
148 139 0
145 137 0
147 139 0
147 138 0
149 141 0
148 139 0
151 143 0
147 138 0
148 141 0
147 140 0
136 130 0
143 137 0
192 217 228
196 221 254
197 222 254
197 222 254
197 222 254
198 222 254
198 222 254
198 222 254
198 222 254
198 223 254
199 223 254
199 223 254
199 223 254
199 223 254
199 223 254
199 223 254
199 223 254
199 223 254
199 223 254
200 223 254
200 223 254
200 223 254
200 223 254
200 223 254
200 223 254
200 223 254
200 223 254
200 223 254
200 223 254
200 223 254
200 223 254
200 224 254
200 224 254
200 224 254
200 224 254
200 224 254
200 224 254
200 224 254
200 224 254
200 224 254
200 224 254
200 224 254
200 224 254
200 224 254
200 224 254
200 224 254
200 224 254
200 224 254
200 224 254
200 223 254
200 223 254
200 223 254
200 223 254
200 223 254
200 223 254
200 223 254
200 223 254
200 223 254
200 223 254
200 223 254
199 223 254
199 223 254
199 223 254
199 223 254
199 223 254
199 223 254
199 223 254
199 223 254
198 223 254
198 223 254
198 222 254
198 222 254
198 222 254
198 222 254
197 222 254
197 222 254
197 222 254
197 222 254
197 222 254
196 221 254
196 221 254
196 221 254
195 221 254
195 221 254
195 221 254
195 220 254
194 220 254
194 220 254
193 220 254
193 220 254
192 219 254
192 219 254
191 219 254
191 218 254
190 218 254
189 218 254
188 217 254
187 216 254
186 216 254
179 210 222
171 200 152
162 192 62
161 190 0
165 192 0
159 190 0
158 189 0
159 190 0
160 191 0
160 191 0
162 191 0
159 191 0
161 191 0
162 191 0
162 191 0
157 190 0
159 191 0
160 191 0
159 190 0
158 190 0
158 191 0
158 191 0
159 192 0
155 190 0
158 192 0
159 192 0
165 195 0
154 191 0
160 193 0
159 191 0
159 191 0
159 192 0
159 192 0
152 190 0
151 189 0
153 189 0
142 187 0
146 187 0
149 187 0
142 186 0
142 185 0
159 191 0
154 190 0
150 189 0
145 186 0
140 185 0
153 188 0
151 188 0
144 186 0
144 183 0
139 183 0
145 185 0
148 186 0
144 184 0
136 180 0
138 183 0
138 185 0
136 179 0
138 182 0
140 182 0
127 176 0
135 181 0
136 178 0
124 175 0
128 175 0
125 175 0
127 176 0
129 175 0
119 170 0
121 173 0
122 172 0
117 169 0
108 163 0
119 169 0
106 163 0
111 163 0
103 162 0
98 162 0
104 158 0
102 161 0
106 161 0
94 152 0
109 158 0
94 153 0
100 153 0
98 156 0
99 154 0
108 155 0
95 151 0
92 145 0
87 146 0
73 139 0
96 149 0
98 152 0
96 146 0
99 148 0
77 139 0
80 140 0
97 146 0
80 142 0
73 130 0
85 137 0
76 129 0
76 133 0
78 132 0
75 133 0
78 133 0
69 134 0
94 143 0
81 138 0
95 142 0
81 134 0
101 144 0
94 142 0
98 140 0
89 137 0
89 140 0
102 146 0
101 148 0
80 138 0
93 143 0
90 147 0
94 142 0
100 143 0
96 150 0
103 144 0
99 142 0
104 150 0
99 143 0
117 153 0
101 149 0
101 147 0
101 145 0
111 151 0
104 143 0
118 156 0
110 151 0
104 144 0
106 143 0
124 157 0
124 158 0
107 152 0
124 157 0
118 153 0
113 154 0
124 156 0
119 154 0
117 154 0
120 154 0
119 155 0
119 150 0
122 156 0
126 158 0
128 159 0
119 151 0
126 156 0
126 152 0
117 153 0
111 143 0
126 156 0
131 154 0
118 152 0
111 144 0
130 154 0
126 147 0
138 158 0
125 149 0
122 146 0
117 141 0
126 151 0
126 148 0
129 150 0
118 140 0
127 138 0
121 138 0
119 139 0
116 141 0
125 145 0
128 141 0
123 138 0
116 136 0
114 134 0
110 123 0
126 135 0
109 122 0
114 127 0
119 125 0
108 119 0
109 121 0
112 118 0
109 118 0
115 120 0
111 112 0
102 109 0
108 111 0
101 104 0
97 96 0
90 89 0
98 97 0
75 70 0
74 72 0
83 71 0
83 73 0
89 82 0
94 87 0
108 97 0
101 89 0
111 98 0
114 103 0
108 102 0
121 111 0
115 105 0
111 105 0
113 105 0
117 111 0
121 110 0
123 115 0
124 113 0
125 113 0
120 111 0
124 112 0
131 119 0
127 117 0
130 120 0
127 118 0
130 121 0
126 114 0
128 117 0
131 121 0
130 118 0
125 115 0
133 120 0
136 122 0
133 125 0
134 121 0
133 123 0
131 122 0
132 124 0
128 118 0
135 123 0
130 117 0
137 125 0
132 120 0
140 132 0
137 124 0
135 124 0
142 130 0
136 125 0
135 123 0
133 125 0
139 129 0
142 133 0
144 135 0
140 133 0
141 131 0
142 133 0
136 125 0
141 129 0
138 128 0
141 133 0
143 133 0
140 130 0
140 127 0
141 127 0
141 133 0
143 132 0
144 136 0
143 132 0
145 136 0
140 130 0
139 127 0
144 135 0
141 132 0
144 136 0
145 135 0
140 127 0
145 135 0
141 131 0
145 134 0
142 132 0
147 139 0
144 134 0
146 135 0
145 135 0
148 140 0
146 138 0
148 137 0
148 137 0
150 142 0
147 137 0
152 141 0
148 139 0
148 140 0
148 139 0
149 141 0
145 135 0
140 134 0
134 127 0
138 132 0
134 129 0
136 135 0
174 197 0
175 200 108
184 209 183
191 216 229
196 221 254
196 221 254
196 222 254
197 222 254
197 222 254
197 222 254
197 222 254
198 222 254
198 222 254
198 222 254
198 222 254
198 222 254
198 222 254
198 222 254
198 223 254
199 223 254
199 223 254
199 223 254
199 223 254
199 223 254
199 223 254
199 223 254
199 223 254
199 223 254
199 223 254
199 223 254
199 223 254
199 223 254
199 223 254
199 223 254
199 223 254
199 223 254
199 223 254
199 223 254
199 223 254
199 223 254
199 223 254
199 223 254
199 223 254
199 223 254
199 223 254
199 223 254
199 223 254
199 223 254
199 223 254
199 223 254
199 223 254
199 223 254
199 223 254
199 223 254
199 223 254
199 223 254
199 223 254
199 223 254
199 223 254
199 223 254
198 223 254
198 222 254
198 222 254
198 222 254
198 222 254
198 222 254
198 222 254
197 222 254
197 222 254
197 222 254
197 222 254
197 222 254
197 222 254
196 222 254
196 221 254
196 221 254
196 221 254
196 221 254
195 221 254
195 221 254
195 221 254
194 220 254
194 220 254
194 220 254
193 220 254
193 220 254
192 219 254
192 219 254
191 219 254
191 219 254
190 218 254
189 218 254
189 217 254
188 217 254
187 217 254
186 216 254
180 211 229
173 204 192
167 196 114
162 191 0
161 191 0
161 191 0
160 190 0
160 189 0
159 191 0
161 191 0
159 190 0
163 191 0
159 191 0
159 191 0
162 191 0
163 192 0
161 192 0
162 192 0
163 192 0
159 190 0
161 192 0
155 189 0
156 189 0
157 192 0
160 193 0
155 190 0
165 193 0
151 189 0
157 191 0
159 190 0
155 189 0
156 189 0
155 189 0
155 189 0
155 190 0
154 190 0
150 188 0
159 192 0
152 188 0
157 191 0
149 187 0
151 188 0
149 187 0
146 186 0
149 189 0
149 187 0
146 189 0
144 185 0
144 184 0
148 186 0
147 187 0
142 184 0
147 187 0
140 180 0
145 187 0
141 184 0
143 185 0
140 182 0
140 184 0
145 186 0
137 180 0
143 182 0
128 176 0
139 180 0
129 177 0
130 175 0
125 176 0
128 178 0
131 175 0
123 173 0
128 175 0
126 173 0
138 180 0
124 172 0
125 170 0
134 179 0
112 165 0
111 166 0
127 175 0
107 166 0
107 159 0
117 167 0
106 163 0
103 158 0
110 163 0
116 163 0
79 150 0
108 160 0
109 159 0
100 157 0
88 149 0
95 151 0
96 152 0
94 150 0
97 147 0
89 146 0
70 133 0
94 145 0
89 143 0
79 139 0
94 148 0
82 138 0
95 145 0
101 143 0
101 148 0
95 150 0
98 148 0
96 145 0
94 144 0
88 142 0
84 137 0
86 142 0
94 144 0
93 140 0
89 140 0
102 142 0
84 138 0
93 145 0
79 138 0
89 141 0
89 143 0
105 149 0
96 148 0
98 150 0
101 142 0
112 158 0
96 145 0
102 148 0
97 142 0
99 144 0
101 150 0
94 143 0
113 151 0
101 153 0
107 145 0
109 149 0
115 158 0
108 153 0
115 152 0
124 160 0
112 150 0
109 148 0
120 152 0
112 153 0
129 161 0
114 152 0
116 152 0
115 160 0
115 150 0
116 149 0
119 153 0
124 156 0
115 149 0
125 159 0
121 152 0
120 153 0
113 147 0
126 155 0
128 153 0
129 156 0
121 152 0
126 155 0
128 157 0
125 154 0
122 152 0
119 144 0
133 160 0
127 152 0
120 147 0
123 147 0
120 147 0
113 136 0
118 149 0
115 138 0
122 146 0
124 152 0
117 140 0
124 148 0
125 151 0
126 144 0
124 144 0
119 135 0
123 139 0
113 137 0
117 134 0
123 138 0
117 126 0
114 132 0
115 131 0
119 129 0
122 132 0
101 113 0
114 122 0
110 118 0
112 124 0
106 113 0
118 118 0
102 105 0
99 103 0
104 108 0
88 92 0
95 93 0
83 84 0
93 88 0
92 93 0
86 80 0
83 74 0
90 83 0
94 84 0
90 82 0
102 92 0
106 97 0
109 99 0
115 102 0
107 96 0
111 100 0
118 107 0
119 110 0
119 109 0
122 108 0
120 110 0
123 113 0
124 110 0
119 108 0
122 116 0
123 114 0
120 114 0
132 120 0
130 120 0
127 120 0
127 113 0
128 118 0
127 117 0
131 120 0
127 116 0
136 128 0
135 122 0
129 117 0
132 117 0
128 117 0
127 116 0
136 126 0
132 123 0
135 119 0
130 118 0
134 125 0
133 122 0
138 127 0
134 124 0
135 124 0
141 132 0
138 124 0
139 129 0
137 128 0
143 131 0
141 130 0
138 127 0
144 135 0
141 132 0
145 134 0
138 126 0
140 128 0
143 132 0
143 134 0
139 129 0
142 131 0
143 128 0
142 131 0
144 133 0
143 131 0
141 128 0
140 129 0
145 134 0
144 134 0
141 130 0
144 133 0
149 137 0
142 132 0
145 135 0
145 136 0
143 131 0
144 135 0
143 131 0
146 138 0
150 141 0
147 136 0
144 133 0
145 133 0
143 135 0
149 139 0
144 135 0
150 141 0
149 140 0
148 139 0
144 134 0
145 138 0
137 129 0
138 131 0
136 128 0
129 122 0
123 122 0
142 151 0
164 181 0
170 189 0
171 196 0
173 197 0
174 197 0
173 197 0
179 203 122
187 212 204
193 218 240
195 221 254
195 221 254
196 221 254
196 221 254
196 221 254
196 221 254
197 222 254
197 222 254
197 222 254
197 222 254
197 222 254
197 222 254
197 222 254
198 222 254
198 222 254
198 222 254
198 222 254
198 222 254
198 222 254
198 222 254
198 222 254
198 222 254
198 222 254
198 222 254
198 222 254
198 222 254
198 222 254
198 223 254
198 223 254
198 223 254
198 223 254
198 223 254
198 223 254
198 223 254
198 223 254
198 223 254
198 222 254
198 222 254
198 222 254
198 222 254
198 222 254
198 222 254
198 222 254
198 222 254
198 222 254
198 222 254
198 222 254
198 222 254
198 222 254
198 222 254
198 222 254
197 222 254
197 222 254
197 222 254
197 222 254
197 222 254
197 222 254
197 222 254
197 222 254
197 222 254
196 221 254
196 221 254
196 221 254
196 221 254
195 221 254
195 221 254
195 221 254
195 221 254
195 220 254
194 220 254
194 220 254
194 220 254
193 220 254
193 220 254
193 219 254
192 219 254
192 219 254
191 219 254
191 218 254
190 218 254
190 218 254
189 218 254
188 217 254
188 217 254
186 216 254
186 216 254
182 213 241
175 206 202
167 197 124
161 191 36
161 191 0
161 191 0
163 191 0
162 191 0
163 192 0
159 189 0
161 191 0
159 189 0
163 192 0
162 192 0
164 192 0
156 189 0
159 191 0
163 192 0
156 190 0
153 188 0
157 190 0
162 192 0
159 193 0
154 190 0
160 191 0
160 192 0
155 189 0
158 192 0
160 192 0
152 189 0
159 191 0
158 191 0
158 191 0
153 189 0
156 191 0
155 190 0
154 190 0
152 189 0
160 193 0
153 189 0
153 191 0
156 190 0
145 188 0
156 190 0
150 187 0
159 191 0
144 185 0
151 187 0
158 192 0
146 186 0
144 185 0
156 191 0
150 190 0
143 182 0
148 184 0
148 188 0
147 186 0
140 184 0
147 187 0
139 182 0
137 182 0
142 184 0
132 179 0
138 181 0
132 176 0
133 178 0
131 178 0
141 182 0
134 178 0
141 181 0
123 171 0
137 180 0
121 172 0
123 173 0
126 173 0
134 178 0
114 168 0
125 172 0
116 169 0
121 170 0
114 167 0
115 170 0
114 168 0
102 158 0
118 168 0
104 158 0
117 170 0
116 162 0
105 159 0
106 159 0
102 158 0
95 152 0
98 156 0
73 140 0
98 153 0
93 153 0
104 156 0
98 147 0
105 157 0
85 147 0
101 160 0
101 155 0
89 146 0
95 152 0
98 147 0
91 146 0
98 148 0
94 152 0
94 149 0
86 144 0
82 141 0
85 142 0
86 142 0
90 147 0
87 149 0
88 138 0
96 141 0
97 149 0
103 151 0
99 149 0
98 149 0
98 145 0
97 145 0
89 141 0
99 147 0
105 153 0
99 152 0
112 152 0
110 157 0
101 148 0
101 150 0
109 152 0
109 156 0
96 141 0
96 141 0
103 148 0
92 143 0
111 156 0
109 149 0
111 151 0
116 154 0
110 151 0
106 148 0
126 155 0
114 153 0
123 159 0
117 155 0
123 154 0
117 154 0
110 149 0
115 150 0
114 153 0
115 153 0
128 160 0
115 148 0
116 156 0
124 153 0
117 145 0
114 151 0
121 153 0
131 163 0
127 155 0
133 159 0
122 151 0
133 165 0
142 169 0
131 155 0
118 147 0
119 151 0
124 150 0
127 155 0
125 151 0
134 159 0
126 153 0
118 143 0
123 148 0
130 149 0
118 143 0
115 136 0
115 141 0
125 143 0
132 151 0
120 144 0
116 137 0
121 141 0
127 144 0
130 146 0
114 137 0
122 139 0
111 131 0
119 130 0
124 138 0
126 141 0
122 136 0
106 118 0
102 112 0
120 128 0
118 127 0
110 114 0
117 125 0
103 115 0
106 111 0
105 106 0
108 110 0
106 111 0
102 109 0
101 101 0
90 94 0
97 94 0
87 82 0
88 85 0
91 88 0
77 67 0
88 73 0
88 73 0
104 87 0
107 92 0
114 100 0
111 97 0
113 97 0
115 104 0
103 95 0
120 103 0
126 110 0
116 104 0
120 112 0
127 114 0
124 113 0
120 107 0
124 112 0
122 110 0
123 114 0
120 109 0
131 117 0
125 112 0
131 118 0
129 119 0
129 119 0
134 121 0
127 115 0
130 117 0
128 115 0
132 119 0
130 119 0
132 121 0
136 125 0
129 117 0
141 127 0
135 125 0
137 124 0
133 121 0
138 125 0
134 122 0
135 122 0
136 124 0
129 117 0
136 123 0
138 125 0
135 122 0
137 124 0
136 122 0
138 126 0
139 128 0
141 131 0
137 126 0
143 131 0
141 129 0
137 127 0
142 130 0
138 124 0
141 130 0
135 122 0
144 131 0
145 132 0
140 129 0
141 131 0
141 130 0
143 131 0
138 127 0
146 134 0
145 135 0
144 133 0
142 132 0
142 135 0
146 134 0
143 130 0
147 140 0
145 134 0
143 133 0
150 140 0
148 137 0
148 139 0
149 140 0
146 137 0
143 133 0
144 134 0
139 130 0
132 122 0
134 124 0
130 122 0
121 117 0
154 166 0
163 179 0
168 186 0
170 189 0
169 190 0
171 189 0
174 197 0
170 196 0
173 197 0
173 198 0
176 198 0
173 196 0
174 197 25
176 200 98
177 206 174
190 216 226
194 220 253
195 220 254
195 221 254
195 221 254
195 221 254
195 221 254
196 221 254
196 221 254
196 221 254
196 221 254
196 221 254
196 221 254
197 222 254
197 222 254
197 222 254
197 222 254
197 222 254
197 222 254
197 222 254
197 222 254
197 222 254
197 222 254
197 222 254
197 222 254
197 222 254
197 222 254
197 222 254
197 222 254
197 222 254
197 222 254
197 222 254
197 222 254
197 222 254
197 222 254
197 222 254
197 222 254
197 222 254
197 222 254
197 222 254
197 222 254
197 222 254
197 222 254
197 222 254
197 222 254
197 222 254
197 222 254
197 222 254
196 221 254
196 221 254
196 221 254
196 221 254
196 221 254
196 221 254
196 221 254
195 221 254
195 221 254
195 221 254
195 221 254
195 221 254
195 220 254
194 220 254
194 220 254
194 220 254
194 220 254
193 220 254
193 220 254
193 219 254
192 219 254
192 219 254
191 219 254
191 219 254
191 218 254
190 218 254
190 218 254
189 218 254
188 217 254
188 217 254
187 217 254
186 216 254
185 216 254
181 211 229
174 204 185
166 195 105
161 191 0
162 191 0
162 191 0
161 191 0
160 191 0
163 192 0
163 192 0
164 192 0
160 189 0
159 190 0
161 191 0
161 192 0
162 192 0
162 192 0
161 191 0
155 189 0
153 189 0
162 192 0
163 192 0
161 192 0
157 190 0
156 189 0
161 191 0
158 190 0
158 191 0
161 192 0
153 189 0
159 192 0
157 190 0
159 191 0
162 192 0
156 190 0
158 192 0
157 191 0
153 189 0
155 191 0
154 191 0
157 191 0
157 191 0
159 192 0
152 188 0
150 187 0
147 187 0
150 188 0
153 190 0
158 190 0
156 189 0
141 183 0
151 186 0
147 186 0
145 185 0
144 186 0
146 185 0
148 187 0
143 185 0
156 191 0
137 181 0
144 185 0
139 181 0
145 185 0
147 185 0
145 183 0
136 180 0
133 181 0
139 181 0
134 180 0
145 183 0
138 178 0
147 186 0
128 178 0
137 180 0
134 179 0
128 175 0
120 169 0
119 171 0
115 171 0
123 174 0
120 169 0
135 176 0
107 164 0
119 169 0
113 166 0
120 169 0
115 166 0
118 168 0
114 164 0
104 163 0
114 165 0
109 160 0
117 166 0
106 157 0
111 160 0
107 163 0
109 159 0
111 161 0
108 162 0
99 156 0
95 152 0
101 159 0
95 154 0
102 155 0
92 149 0
98 152 0
89 151 0
92 151 0
98 155 0
77 143 0
91 149 0
101 153 0
112 159 0
107 153 0
103 154 0
89 146 0
93 145 0
103 151 0
85 146 0
97 152 0
95 144 0
86 145 0
88 144 0
82 134 0
93 149 0
107 154 0
102 151 0
95 142 0
112 156 0
104 152 0
101 149 0
101 151 0
114 154 0
100 147 0
105 148 0
116 156 0
108 149 0
105 149 0
111 152 0
109 154 0
117 153 0
107 148 0
114 151 0
109 151 0
117 153 0
121 158 0
107 151 0
107 151 0
123 161 0
117 155 0
109 150 0
122 158 0
119 157 0
123 160 0
116 155 0
128 160 0
121 154 0
124 158 0
117 151 0
125 155 0
126 159 0
122 159 0
120 154 0
131 158 0
124 154 0
117 147 0
124 153 0
121 152 0
124 154 0
110 144 0
126 151 0
121 153 0
124 146 0
129 155 0
124 149 0
135 160 0
126 151 0
130 152 0
129 152 0
137 161 0
130 153 0
124 149 0
127 151 0
125 148 0
120 143 0
132 147 0
125 143 0
130 150 0
126 142 0
126 146 0
124 142 0
117 141 0
119 133 0
119 130 0
117 128 0
122 132 0
119 131 0
120 132 0
112 133 0
116 129 0
120 128 0
118 128 0
116 123 0
114 127 0
110 115 0
108 113 0
107 114 0
109 116 0
111 115 0
91 91 0
101 101 0
99 97 0
101 102 0
100 98 0
89 91 0
91 88 0
80 79 0
89 87 0
82 74 0
90 75 0
92 75 0
94 85 0
102 85 0
112 96 0
112 98 0
114 99 0
112 99 0
111 96 0
116 101 0
107 94 0
120 108 0
124 113 0
123 109 0
124 110 0
122 109 0
131 116 0
126 113 0
129 115 0
122 112 0
123 109 0
129 115 0
127 113 0
128 116 0
134 122 0
128 117 0
128 118 0
133 122 0
123 110 0
131 116 0
129 112 0
127 114 0
137 125 0
135 121 0
132 120 0
133 118 0
135 122 0
133 121 0
138 127 0
135 120 0
139 129 0
135 123 0
132 122 0
142 132 0
139 128 0
140 127 0
141 129 0
138 128 0
141 128 0
139 127 0
142 129 0
140 128 0
142 132 0
139 125 0
140 126 0
143 131 0
141 129 0
141 130 0
142 131 0
140 129 0
139 126 0
139 126 0
144 131 0
143 131 0
147 137 0
144 135 0
146 136 0
145 134 0
147 135 0
145 135 0
145 133 0
145 134 0
142 132 0
146 135 0
143 134 0
140 130 0
138 129 0
136 126 0
139 132 0
126 118 0
116 108 0
130 132 0
153 160 0
161 174 0
168 188 0
171 189 0
169 187 0
171 189 0
168 188 0
172 193 0
169 189 0
172 197 0
173 197 0
173 197 0
170 195 0
174 197 0
173 197 0
174 197 0
172 196 0
171 196 0
173 197 0
172 198 80
179 204 137
187 213 211
192 218 244
193 220 254
194 220 254
194 220 254
194 220 254
195 220 254
195 221 254
195 221 254
195 221 254
195 221 254
195 221 254
195 221 254
195 221 254
196 221 254
196 221 254
196 221 254
196 221 254
196 221 254
196 221 254
196 221 254
196 221 254
196 221 254
196 221 254
196 221 254
196 221 254
196 221 254
196 221 254
196 221 254
196 221 254
196 221 254
196 221 254
196 221 254
196 221 254
196 221 254
196 221 254
196 221 254
196 221 254
196 221 254
196 221 254
196 221 254
195 221 254
195 221 254
195 221 254
195 221 254
195 221 254
195 221 254
195 221 254
195 221 254
194 220 254
194 220 254
194 220 254
194 220 254
194 220 254
193 220 254
193 220 254
193 220 254
193 220 254
193 219 254
192 219 254
192 219 254
192 219 254
191 219 254
191 219 254
191 218 254
190 218 254
190 218 254
189 218 254
189 217 254
188 217 254
188 217 254
187 216 254
186 216 254
185 216 254
181 211 230
174 205 190
170 200 148
164 193 67
162 191 0
164 192 0
161 191 0
162 191 0
162 192 0
164 192 0
158 189 0
160 191 0
163 192 0
160 192 0
160 190 0
163 191 0
160 191 0
159 191 0
159 191 0
162 192 0
162 191 0
160 191 0
155 190 0
164 193 0
158 192 0
158 189 0
161 192 0
161 192 0
159 192 0
161 191 0
160 192 0
161 193 0
155 190 0
160 192 0
158 191 0
157 191 0
155 190 0
156 191 0
155 188 0
156 190 0
155 190 0
155 191 0
162 193 0
157 192 0
153 190 0
151 189 0
152 190 0
151 188 0
153 189 0
163 193 0
152 189 0
153 189 0
156 189 0
148 187 0
154 190 0
146 187 0
151 188 0
153 189 0
144 185 0
149 188 0
144 186 0
149 186 0
151 187 0
152 188 0
137 181 0
139 180 0
136 180 0
141 183 0
141 181 0
141 182 0
144 185 0
132 177 0
137 182 0
139 183 0
133 182 0
131 175 0
143 184 0
126 178 0
121 173 0
142 181 0
127 177 0
126 175 0
120 168 0
129 175 0
134 179 0
126 175 0
128 172 0
117 172 0
123 170 0
124 169 0
93 162 0
118 168 0
127 173 0
113 165 0
113 164 0
104 159 0
107 163 0
123 167 0
111 163 0
118 164 0
102 156 0
94 155 0
96 151 0
108 161 0
112 166 0
102 155 0
87 149 0
95 153 0
111 163 0
93 149 0
101 154 0
100 155 0
99 146 0
98 152 0
100 155 0
89 145 0
115 160 0
102 152 0
113 164 0
95 145 0
99 147 0
98 150 0
106 154 0
102 154 0
111 158 0
107 155 0
112 157 0
88 143 0
115 158 0
110 154 0
96 153 0
100 150 0
108 159 0
105 151 0
103 149 0
111 157 0
107 158 0
104 150 0
110 154 0
116 158 0
116 157 0
115 160 0
98 146 0
110 151 0
110 153 0
111 155 0
116 158 0
125 162 0
126 162 0
114 152 0
125 159 0
108 158 0
118 153 0
129 163 0
126 158 0
118 159 0
117 155 0
119 154 0
111 147 0
125 158 0
125 160 0
131 161 0
123 155 0
128 163 0
135 162 0
132 162 0
111 149 0
125 157 0
129 155 0
126 157 0
122 156 0
134 160 0
133 159 0
127 156 0
126 150 0
135 162 0
131 158 0
131 157 0
126 151 0
123 147 0
134 157 0
126 150 0
136 160 0
124 153 0
117 146 0
124 148 0
128 152 0
120 141 0
129 148 0
127 144 0
121 142 0
129 141 0
116 138 0
121 142 0
126 143 0
111 136 0
123 144 0
128 145 0
119 136 0
125 135 0
126 140 0
125 137 0
116 133 0
119 137 0
111 130 0
114 128 0
126 134 0
115 126 0
117 126 0
116 117 0
109 115 0
116 120 0
117 121 0
108 107 0
108 119 0
110 111 0
110 109 0
103 103 0
95 89 0
95 92 0
112 109 0
101 98 0
86 82 0
80 75 0
91 83 0
85 74 0
73 59 0
95 79 0
95 79 0
98 86 0
96 81 0
104 87 0
107 92 0
111 97 0
113 96 0
116 103 0
112 99 0
115 102 0
114 102 0
118 104 0
120 109 0
124 113 0
132 116 0
128 112 0
126 113 0
122 109 0
130 114 0
126 113 0
127 111 0
128 114 0
134 121 0
134 120 0
132 120 0
129 118 0
131 115 0
130 116 0
134 122 0
135 121 0
137 125 0
138 127 0
130 116 0
134 121 0
134 120 0
129 115 0
136 123 0
138 125 0
136 124 0
137 125 0
133 124 0
137 123 0
135 121 0
140 126 0
133 118 0
137 123 0
139 125 0
140 127 0
138 127 0
141 129 0
139 128 0
140 128 0
143 129 0
142 130 0
141 129 0
142 129 0
144 129 0
144 132 0
143 132 0
144 132 0
141 129 0
141 126 0
140 128 0
141 130 0
140 129 0
146 135 0
138 126 0
141 130 0
138 129 0
135 126 0
134 124 0
120 113 0
131 129 0
135 137 0
153 163 0
166 183 0
168 185 0
168 186 0
169 188 0
168 187 0
169 186 0
168 185 0
166 183 0
172 191 0
169 189 0
169 189 0
173 197 0
170 197 0
174 197 0
173 198 0
170 195 0
174 197 0
175 198 0
174 197 0
172 196 0
174 198 0
174 197 0
174 197 0
172 197 0
173 197 0
178 201 105
181 206 163
186 212 204
190 216 235
192 219 254
193 220 254
193 220 254
193 220 254
193 220 254
194 220 254
194 220 254
194 220 254
194 220 254
194 220 254
194 220 254
194 220 254
194 220 254
194 220 254
195 220 254
195 220 254
195 221 254
195 221 254
195 221 254
195 221 254
195 221 254
195 221 254
195 221 254
195 221 254
195 221 254
195 221 254
195 221 254
195 220 254
195 220 254
195 220 254
194 220 254
194 220 254
194 220 254
194 220 254
194 220 254
194 220 254
194 220 254
194 220 254
194 220 254
194 220 254
193 220 254
193 220 254
193 220 254
193 220 254
193 220 254
193 219 254
192 219 254
192 219 254
192 219 254
192 219 254
191 219 254
191 219 254
191 219 254
190 218 254
190 218 254
190 218 254
189 218 254
189 218 254
188 217 254
188 217 254
187 217 254
187 216 254
186 216 254
185 215 253
182 213 240
177 207 208
172 202 167
167 196 108
160 190 0
163 191 0
163 192 0
163 191 0
163 192 0
161 190 0
164 192 0
159 190 0
163 192 0
162 191 0
166 193 0
163 192 0
163 192 0
162 191 0
159 191 0
165 193 0
160 190 0
162 192 0
162 192 0
157 190 0
163 193 0
158 190 0
160 190 0
160 192 0
161 192 0
159 191 0
160 192 0
163 192 0
159 191 0
160 192 0
160 192 0
160 191 0
152 188 0
155 190 0
161 192 0
160 192 0
153 190 0
156 191 0
158 191 0
157 191 0
151 189 0
152 190 0
160 192 0
158 192 0
155 190 0
153 190 0
154 189 0
158 192 0
152 188 0
158 190 0
148 188 0
148 187 0
154 188 0
150 187 0
153 189 0
154 189 0
147 186 0
149 186 0
148 188 0
146 185 0
141 183 0
147 185 0
147 185 0
143 185 0
133 177 0
145 184 0
138 184 0
145 185 0
142 183 0
134 179 0
136 179 0
140 183 0
138 182 0
135 180 0
129 177 0
129 179 0
134 180 0
137 179 0
123 174 0
129 176 0
133 179 0
129 176 0
132 177 0
126 175 0
118 171 0
125 175 0
131 176 0
126 172 0
131 178 0
130 173 0
113 164 0
119 171 0
124 171 0
126 169 0
124 173 0
119 167 0
101 159 0
119 171 0
121 171 0
124 172 0
106 161 0
110 161 0
112 162 0
104 161 0
128 169 0
99 153 0
112 159 0
102 159 0
99 153 0
107 163 0
108 157 0
113 163 0
108 156 0
102 156 0
108 156 0
98 154 0
113 161 0
102 150 0
103 157 0
110 155 0
102 154 0
109 156 0
90 146 0
118 162 0
95 148 0
108 159 0
102 154 0
111 158 0
102 152 0
103 153 0
110 155 0
119 161 0
117 159 0
110 158 0
95 150 0
119 160 0
106 151 0
124 162 0
120 163 0
113 157 0
107 156 0
110 155 0
116 160 0
124 164 0
113 154 0
120 156 0
111 155 0
122 163 0
107 156 0
121 162 0
121 156 0
124 162 0
120 163 0
121 156 0
119 156 0
127 162 0
131 161 0
128 161 0
129 162 0
132 165 0
124 158 0
124 159 0
119 153 0
121 152 0
119 155 0
127 160 0
137 164 0
127 158 0
116 153 0
127 158 0
121 151 0
130 157 0
128 156 0
127 154 0
129 162 0
126 152 0
116 153 0
125 155 0
128 157 0
128 153 0
122 152 0
127 152 0
123 154 0
126 150 0
134 160 0
126 151 0
130 154 0
129 151 0
122 148 0
132 153 0
122 149 0
127 154 0
135 158 0
128 148 0
127 149 0
136 153 0
126 147 0
117 142 0
124 142 0
127 142 0
118 134 0
128 141 0
112 133 0
119 134 0
126 133 0
125 136 0
130 140 0
111 126 0
115 127 0
114 128 0
117 126 0
119 118 0
119 128 0
115 123 0
112 117 0
112 113 0
114 118 0
111 109 0
106 113 0
102 96 0
103 99 0
101 102 0
92 88 0
102 96 0
88 87 0
94 88 0
97 93 0
86 79 0
80 72 0
75 66 0
86 71 0
90 76 0
99 82 0
106 91 0
107 95 0
100 85 0
107 91 0
118 104 0
118 103 0
116 102 0
120 104 0
118 101 0
126 112 0
126 108 0
125 109 0
120 106 0
118 104 0
127 112 0
130 117 0
125 111 0
129 112 0
131 114 0
126 112 0
130 115 0
126 114 0
127 115 0
124 110 0
132 117 0
128 117 0
130 116 0
124 110 0
130 115 0
134 120 0
135 119 0
137 124 0
135 121 0
133 118 0
135 122 0
137 122 0
135 119 0
139 125 0
140 129 0
139 126 0
141 127 0
137 124 0
140 127 0
136 124 0
141 128 0
139 126 0
138 124 0
140 127 0
142 131 0
141 129 0
141 126 0
144 133 0
143 132 0
144 131 0
141 128 0
140 128 0
142 129 0
139 127 0
135 124 0
139 125 0
137 124 0
123 114 0
132 123 0
130 126 0
136 138 0
144 153 0
162 176 0
167 184 0
164 182 0
167 184 0
169 187 0
170 187 0
170 188 0
169 185 0
167 186 0
167 184 0
169 186 0
172 190 0
169 187 0
171 190 0
167 185 0
174 197 0
174 197 0
175 198 0
172 197 0
175 198 0
176 198 0
173 197 0
174 197 0
176 198 0
174 197 0
174 197 0
174 198 0
174 198 0
172 197 0
172 197 0
174 198 0
173 197 0
173 197 0
174 199 84
181 206 157
183 209 183
189 215 228
189 217 241
192 219 254
192 219 254
192 219 254
192 219 254
192 219 254
193 219 254
193 220 254
193 220 254
193 220 254
193 220 254
193 220 254
193 220 254
193 220 254
193 220 254
193 220 254
193 220 254
193 220 254
193 220 254
193 220 254
193 220 254
193 220 254
193 220 254
193 220 254
193 220 254
193 220 254
193 220 254
193 220 254
193 219 254
193 219 254
192 219 254
192 219 254
192 219 254
192 219 254
192 219 254
192 219 254
192 219 254
192 219 254
191 219 254
191 219 254
191 219 254
191 219 254
190 218 254
190 218 254
190 218 254
190 218 254
189 218 254
189 217 254
188 217 254
188 217 254
188 217 254
187 217 254
187 216 254
186 216 254
185 216 254
183 213 243
180 210 226
174 205 192
171 200 155
164 192 62
160 189 0
163 191 0
161 191 0
162 191 0
162 191 0
163 192 0
163 192 0
163 191 0
161 191 0
162 192 0
161 191 0
163 192 0
162 192 0
161 191 0
164 192 0
161 192 0
160 191 0
160 190 0
161 192 0
167 194 0
163 192 0
158 190 0
161 191 0
164 193 0
156 191 0
160 191 0
163 193 0
163 191 0
157 192 0
159 192 0
159 190 0
162 192 0
163 193 0
157 191 0
158 191 0
156 190 0
161 192 0
156 190 0
157 190 0
151 188 0
159 191 0
157 190 0
154 189 0
156 190 0
149 185 0
154 189 0
157 190 0
155 191 0
155 191 0
152 189 0
150 187 0
155 190 0
150 188 0
148 187 0
153 188 0
147 187 0
145 186 0
155 191 0
145 187 0
150 186 0
150 187 0
147 185 0
146 185 0
143 184 0
142 185 0
141 182 0
147 186 0
142 183 0
152 187 0
145 185 0
147 186 0
138 183 0
141 183 0
135 182 0
133 180 0
133 178 0
144 185 0
140 184 0
132 179 0
135 180 0
135 178 0
139 182 0
137 181 0
131 177 0
129 175 0
124 174 0
136 178 0
134 176 0
119 173 0
131 179 0
132 175 0
124 173 0
127 172 0
125 171 0
130 173 0
120 171 0
125 172 0
114 165 0
118 168 0
119 167 0
110 163 0
123 172 0
127 170 0
115 166 0
106 164 0
109 162 0
113 164 0
114 164 0
108 158 0
108 162 0
118 162 0
116 164 0
106 158 0
101 160 0
121 165 0
109 160 0
105 156 0
115 161 0
119 162 0
118 168 0
115 164 0
104 154 0
115 163 0
100 157 0
115 165 0
100 154 0
100 155 0
108 156 0
94 153 0
115 159 0
102 148 0
112 156 0
113 158 0
118 161 0
110 161 0
110 153 0
106 157 0
108 158 0
108 157 0
119 162 0
106 160 0
115 162 0
108 155 0
119 160 0
105 153 0
113 162 0
126 158 0
116 159 0
111 156 0
113 152 0
116 157 0
121 164 0
118 159 0
121 158 0
118 159 0
118 158 0
109 152 0
120 158 0
120 161 0
118 158 0
111 155 0
122 160 0
117 157 0
113 148 0
126 162 0
126 160 0
117 155 0
131 159 0
123 157 0
122 156 0
133 160 0
133 162 0
121 153 0
129 158 0
123 158 0
130 161 0
119 152 0
130 159 0
126 157 0
132 162 0
130 153 0
130 158 0
124 153 0
132 161 0
135 159 0
127 155 0
130 157 0
129 155 0
122 150 0
127 149 0
130 159 0
121 148 0
124 145 0
124 148 0
126 145 0
128 146 0
119 141 0
134 156 0
135 154 0
126 148 0
127 149 0
124 139 0
123 133 0
121 138 0
117 138 0
123 145 0
127 141 0
127 140 0
119 135 0
129 146 0
125 138 0
126 136 0
101 116 0
119 129 0
116 127 0
124 134 0
122 129 0
115 128 0
119 125 0
109 116 0
108 115 0
114 113 0
119 117 0
113 117 0
111 108 0
120 123 0
106 103 0
107 103 0
102 101 0
100 94 0
99 93 0
97 92 0
96 91 0
90 85 0
89 75 0
96 90 0
97 88 0
86 75 0
90 79 0
99 85 0
86 74 0
93 78 0
97 83 0
108 91 0
110 96 0
110 92 0
116 99 0
117 101 0
118 104 0
119 102 0
118 103 0
125 109 0
124 106 0
122 104 0
121 108 0
124 106 0
127 108 0
124 109 0
132 118 0
132 118 0
131 116 0
129 114 0
133 119 0
135 120 0
130 118 0
131 114 0
132 117 0
131 116 0
133 118 0
131 118 0
132 118 0
139 123 0
133 118 0
137 124 0
135 119 0
135 122 0
135 120 0
140 125 0
136 124 0
136 120 0
140 126 0
135 120 0
134 120 0
133 119 0
137 124 0
134 123 0
135 123 0
132 117 0
137 123 0
136 124 0
137 124 0
132 121 0
123 111 0
123 112 0
125 115 0
125 118 0
125 125 0
141 142 0
158 164 0
160 175 0
165 177 0
167 180 0
165 180 0
167 183 0
166 180 0
168 186 0
168 183 0
169 188 0
169 185 0
168 185 0
168 184 0
170 188 0
166 182 0
170 188 0
169 186 0
169 185 0
166 184 0
167 187 0
173 197 0
173 198 0
174 198 0
175 198 0
173 197 0
171 196 0
171 196 0
174 197 0
174 197 0
174 198 0
171 197 0
176 198 0
176 199 0
173 197 0
176 198 0
173 197 0
175 198 0
173 197 0
175 198 0
173 197 0
174 197 0
174 197 0
172 196 0
174 198 76
177 202 127
181 206 161
183 210 194
185 212 213
188 216 240
190 218 254
191 218 254
191 218 254
191 219 254
191 219 254
191 219 254
191 219 254
191 219 254
191 219 254
191 219 254
191 219 254
191 219 254
191 219 254
191 219 254
191 219 254
191 219 254
191 219 254
191 219 254
191 219 254
191 219 254
191 219 254
191 219 254
191 219 254
191 218 254
191 218 254
190 218 254
190 218 254
190 218 254
190 218 254
190 218 254
189 218 254
189 218 254
189 218 254
189 217 254
188 217 254
188 217 254
188 217 254
187 217 254
187 216 254
186 216 254
186 216 254
186 216 254
184 214 247
179 209 219
176 206 199
173 203 171
168 197 127
165 194 91
164 192 0
164 191 0
162 191 0
164 192 0
161 190 0
164 192 0
164 192 0
162 192 0
164 192 0
161 190 0
162 192 0
164 192 0
162 191 0
162 192 0
163 193 0
164 192 0
163 192 0
159 189 0
166 193 0
166 193 0
162 191 0
164 192 0
161 191 0
162 192 0
159 191 0
155 189 0
165 193 0
162 193 0
163 192 0
157 189 0
157 191 0
160 191 0
164 193 0
160 191 0
163 193 0
160 191 0
158 191 0
164 193 0
156 193 0
160 192 0
161 192 0
153 191 0
162 193 0
162 193 0
165 194 0
162 193 0
159 191 0
161 193 0
153 190 0
154 191 0
157 192 0
148 188 0
157 190 0
160 194 0
152 189 0
156 190 0
152 188 0
151 186 0
151 187 0
152 189 0
142 184 0
156 191 0
149 189 0
146 188 0
157 191 0
149 186 0
149 188 0
141 185 0
156 190 0
147 188 0
145 186 0
144 185 0
143 184 0
145 185 0
141 182 0
148 187 0
143 183 0
139 180 0
139 180 0
140 184 0
136 178 0
139 182 0
143 182 0
145 183 0
138 180 0
145 182 0
131 180 0
125 177 0
133 175 0
132 177 0
130 177 0
128 175 0
132 177 0
127 177 0
126 175 0
125 174 0
126 175 0
119 171 0
111 166 0
128 174 0
111 164 0
129 173 0
129 176 0
113 167 0
114 168 0
124 174 0
111 165 0
124 173 0
117 164 0
111 161 0
123 171 0
117 170 0
113 167 0
118 167 0
118 169 0
106 161 0
118 167 0
104 160 0
112 165 0
111 163 0
112 163 0
109 162 0
109 157 0
95 157 0
111 161 0
102 160 0
104 155 0
104 160 0
114 163 0
100 157 0
115 162 0
99 156 0
103 158 0
106 160 0
99 147 0
107 153 0
108 160 0
117 157 0
115 160 0
118 162 0
108 156 0
105 154 0
118 159 0
121 164 0
111 156 0
129 164 0
117 160 0
105 153 0
107 153 0
110 158 0
120 167 0
120 161 0
118 160 0
130 166 0
129 168 0
123 162 0
121 160 0
119 161 0
113 155 0
117 156 0
123 161 0
136 172 0
107 146 0
124 163 0
124 158 0
122 160 0
126 164 0
126 164 0
123 156 0
118 155 0
125 158 0
140 168 0
125 161 0
136 164 0
137 167 0
125 157 0
132 166 0
136 162 0
123 158 0
123 154 0
134 163 0
142 169 0
131 153 0
127 155 0
127 157 0
136 169 0
128 157 0
139 164 0
128 155 0
129 157 0
130 158 0
133 156 0
122 150 0
131 157 0
130 150 0
127 152 0
135 155 0
122 147 0
127 150 0
126 146 0
134 160 0
130 155 0
123 143 0
126 154 0
124 144 0
129 148 0
129 150 0
127 145 0
115 141 0
131 147 0
126 145 0
120 135 0
134 151 0
134 148 0
120 134 0
130 143 0
129 141 0
125 139 0
115 125 0
133 139 0
127 134 0
120 127 0
121 125 0
129 135 0
125 131 0
110 119 0
126 133 0
116 119 0
124 125 0
112 118 0
114 110 0
111 112 0
109 107 0
113 109 0
119 119 0
118 113 0
115 110 0
98 87 0
106 100 0
99 93 0
99 90 0
105 98 0
100 91 0
97 89 0
104 92 0
106 98 0
90 81 0
95 81 0
97 84 0
87 73 0
89 75 0
94 81 0
90 71 0
98 82 0
112 94 0
104 88 0
114 99 0
111 95 0
116 100 0
126 109 0
119 108 0
122 106 0
126 111 0
125 107 0
128 111 0
131 114 0
129 112 0
127 110 0
133 118 0
126 109 0
128 110 0
128 113 0
129 113 0
133 118 0
133 119 0
131 114 0
134 119 0
134 120 0
130 113 0
138 123 0
137 122 0
132 118 0
136 120 0
132 116 0
133 119 0
131 116 0
129 115 0
129 116 0
129 116 0
128 112 0
132 119 0
126 113 0
117 107 0
118 105 0
126 118 0
134 129 0
131 133 0
148 155 0
150 159 0
160 171 0
168 180 0
164 177 0
166 181 0
166 180 0
167 177 0
165 181 0
165 177 0
164 178 0
163 176 0
168 182 0
166 181 0
171 188 0
167 181 0
169 186 0
166 183 0
166 181 0
168 184 0
166 181 0
170 184 0
167 186 0
168 182 0
169 187 0
170 187 0
172 197 0
171 197 0
174 197 0
174 197 0
172 196 0
172 197 0
172 197 0
173 197 0
172 197 0
173 197 0
174 197 0
175 198 0
170 196 0
174 197 0
172 196 0
171 196 0
171 195 0
172 197 0
171 196 0
173 197 0
173 197 0
173 197 0
174 197 0
173 196 0
174 197 0
172 196 0
172 197 0
173 197 0
174 197 0
172 197 51
175 201 119
178 203 141
179 205 165
181 208 189
183 210 200
186 214 230
186 214 232
188 216 248
189 217 254
189 218 254
189 218 254
189 218 254
189 218 254
189 218 254
189 218 254
189 218 254
189 217 254
189 217 254
189 217 254
189 217 254
189 217 254
188 217 254
188 217 254
188 217 254
188 217 254
188 217 254
188 217 254
187 217 254
187 217 254
187 216 254
186 216 254
186 216 254
184 214 244
182 212 233
182 211 225
177 206 195
178 208 207
172 201 159
170 198 124
169 197 116
165 192 44
165 192 0
164 192 0
164 192 0
164 192 0
165 193 0
165 192 0
165 192 0
162 191 0
164 192 0
163 191 0
162 191 0
162 191 0
166 193 0
163 191 0
163 191 0
163 192 0
164 192 0
162 191 0
163 192 0
162 191 0
160 189 0
163 192 0
166 193 0
157 190 0
158 189 0
164 192 0
161 192 0
159 190 0
160 190 0
160 190 0
161 192 0
160 191 0
162 193 0
163 194 0
160 192 0
156 191 0
161 192 0
159 191 0
157 191 0
159 191 0
155 190 0
159 193 0
164 194 0
159 191 0
160 191 0
161 192 0
160 193 0
158 190 0
155 191 0
161 192 0
155 188 0
159 190 0
156 191 0
158 191 0
159 191 0
156 189 0
157 192 0
151 190 0
148 186 0
154 188 0
145 185 0
149 188 0
157 190 0
148 186 0
147 187 0
148 188 0
151 189 0
153 188 0
145 186 0
146 185 0
146 186 0
146 186 0
144 182 0
153 189 0
149 186 0
148 186 0
147 185 0
137 181 0
146 186 0
145 185 0
148 186 0
148 184 0
145 185 0
140 182 0
138 182 0
148 186 0
147 185 0
144 184 0
138 180 0
142 182 0
127 176 0
140 179 0
135 181 0
139 182 0
140 183 0
134 179 0
137 182 0
126 173 0
129 177 0
136 180 0
126 176 0
131 177 0
124 173 0
124 174 0
127 174 0
118 169 0
126 172 0
124 174 0
114 166 0
117 168 0
127 175 0
128 172 0
132 173 0
117 167 0
125 170 0
118 167 0
120 170 0
114 167 0
112 166 0
110 167 0
113 164 0
105 160 0
122 169 0
117 166 0
117 167 0
114 160 0
118 167 0
115 165 0
105 157 0
110 156 0
122 165 0
120 165 0
116 166 0
116 162 0
109 156 0
123 165 0
122 166 0
111 162 0
107 161 0
110 159 0
111 159 0
117 163 0
106 159 0
119 159 0
117 161 0
110 159 0
117 162 0
112 163 0
118 163 0
109 157 0
119 161 0
122 167 0
127 167 0
123 160 0
123 165 0
123 170 0
122 163 0
119 160 0
113 157 0
122 163 0
121 160 0
122 164 0
122 158 0
132 169 0
124 165 0
120 158 0
131 167 0
119 163 0
120 162 0
122 159 0
123 161 0
127 161 0
123 158 0
128 162 0
120 156 0
131 162 0
128 158 0
130 162 0
127 163 0
132 165 0
128 161 0
130 163 0
130 164 0
124 158 0
131 164 0
142 165 0
123 157 0
123 156 0
126 150 0
127 153 0
138 163 0
126 153 0
127 155 0
134 163 0
130 160 0
128 158 0
133 162 0
128 152 0
138 159 0
136 163 0
124 149 0
134 155 0
131 151 0
129 156 0
127 148 0
123 146 0
132 153 0
124 151 0
132 152 0
131 148 0
124 149 0
132 150 0
136 157 0
130 147 0
130 153 0
132 152 0
135 150 0
131 151 0
122 139 0
133 145 0
123 141 0
126 140 0
132 142 0
137 149 0
126 142 0
126 141 0
127 136 0
125 138 0
125 135 0
135 143 0
117 124 0
121 129 0
114 126 0
116 122 0
123 124 0
123 127 0
118 120 0
123 125 0
116 112 0
117 121 0
122 121 0
118 118 0
116 116 0
111 106 0
114 112 0
110 105 0
115 109 0
106 101 0
111 107 0
109 105 0
105 99 0
104 95 0
105 93 0
111 105 0
104 96 0
111 105 0
111 100 0
106 98 0
104 95 0
102 90 0
100 90 0
102 90 0
95 83 0
106 92 0
92 77 0
102 86 0
105 90 0
106 91 0
107 93 0
113 96 0
114 98 0
120 100 0
108 91 0
117 100 0
109 96 0
120 104 0
117 99 0
120 104 0
124 107 0
116 101 0
119 105 0
117 101 0
123 107 0
119 99 0
113 97 0
125 109 0
121 105 0
128 114 0
111 95 0
121 106 0
125 112 0
122 111 0
120 112 0
126 118 0
128 126 0
136 134 0
134 136 0
145 149 0
155 159 0
157 164 0
163 172 0
162 171 0
163 173 0
160 171 0
162 169 0
161 170 0
161 174 0
165 174 0
166 179 0
167 179 0
161 173 0
162 175 0
164 178 0
170 185 0
162 174 0
165 178 0
165 177 0
165 178 0
168 185 0
166 181 0
165 179 0
170 186 0
166 181 0
167 185 0
166 182 0
167 184 0
169 185 0
171 188 0
167 182 0
174 197 0
172 196 0
172 197 0
172 197 0
172 197 0
174 197 0
172 197 0
174 198 0
174 197 0
174 197 0
175 198 0
172 197 0
173 197 0
171 196 0
174 198 0
175 197 0
173 197 0
174 198 0
172 197 0
173 197 0
172 196 0
172 197 0
173 197 0
173 197 0
173 197 0
171 196 0
172 195 0
172 197 0
172 196 0
173 197 0
172 196 0
172 196 0
172 196 0
172 196 0
172 196 0
170 195 0
170 194 0
169 195 0
172 196 36
173 198 84
171 197 67
174 199 102
176 202 139
177 203 152
176 203 150
177 204 155
175 203 157
175 202 155
176 203 159
176 203 163
178 206 187
177 204 169
176 205 176
174 202 157
176 204 165
175 203 159
172 199 130
173 200 137
171 199 122
169 196 84
167 194 67
168 194 36
165 192 0
166 193 0
165 192 0
165 193 0
166 193 0
165 192 0
166 193 0
164 192 0
166 193 0
165 192 0
163 191 0
163 191 0
165 193 0
165 192 0
163 192 0
163 192 0
163 192 0
161 191 0
166 193 0
164 192 0
162 191 0
164 193 0
165 193 0
166 193 0
164 193 0
165 193 0
163 192 0
167 193 0
161 191 0
161 190 0
158 189 0
165 193 0
164 192 0
165 193 0
163 192 0
161 191 0
161 192 0
165 193 0
164 193 0
161 192 0
166 194 0
158 191 0
163 193 0
159 191 0
162 193 0
162 192 0
158 191 0
163 194 0
164 194 0
158 192 0
155 190 0
156 190 0
158 192 0
156 191 0
153 189 0
160 191 0
157 190 0
151 189 0
156 190 0
154 190 0
158 192 0
158 192 0
157 192 0
159 191 0
161 192 0
160 191 0
152 188 0
159 191 0
158 192 0
153 189 0
157 192 0
155 191 0
155 190 0
144 186 0
149 186 0
153 190 0
158 191 0
144 184 0
156 190 0
145 186 0
149 188 0
142 185 0
146 185 0
155 190 0
148 187 0
149 187 0
150 188 0
146 187 0
155 190 0
149 187 0
139 178 0
146 183 0
148 184 0
146 186 0
137 181 0
135 179 0
138 183 0
133 179 0
140 181 0
137 181 0
141 182 0
143 182 0
128 179 0
134 181 0
132 179 0
136 180 0
138 180 0
134 178 0
136 178 0
134 179 0
136 179 0
134 178 0
123 170 0
113 171 0
138 180 0
120 169 0
128 177 0
126 173 0
123 171 0
127 173 0
122 173 0
126 177 0
130 171 0
122 169 0
116 168 0
128 178 0
129 172 0
118 168 0
126 170 0
114 166 0
121 168 0
115 165 0
126 170 0
126 169 0
110 160 0
113 163 0
120 168 0
109 163 0
118 164 0
107 162 0
115 165 0
116 166 0
116 165 0
117 169 0
120 166 0
130 169 0
105 158 0
110 163 0
119 162 0
126 170 0
104 158 0
111 163 0
117 162 0
112 156 0
116 163 0
113 164 0
106 160 0
128 166 0
124 161 0
108 159 0
123 165 0
118 163 0
119 167 0
129 169 0
119 164 0
113 163 0
123 162 0
119 164 0
126 161 0
117 160 0
116 162 0
113 154 0
126 167 0
127 165 0
126 166 0
131 172 0
127 162 0
117 160 0
123 164 0
132 166 0
125 162 0
141 172 0
129 166 0
127 160 0
134 168 0
131 164 0
131 165 0
126 158 0
126 160 0
136 167 0
134 161 0
129 161 0
131 164 0
130 163 0
122 153 0
130 160 0
135 164 0
124 157 0
141 166 0
130 160 0
129 157 0
133 164 0
134 158 0
129 156 0
134 158 0
133 158 0
127 155 0
123 148 0
136 161 0
135 160 0
130 159 0
130 153 0
139 161 0
135 156 0
123 153 0
126 153 0
134 156 0
136 153 0
136 153 0
122 147 0
122 147 0
135 151 0
133 152 0
141 157 0
137 155 0
131 151 0
122 140 0
130 148 0
120 140 0
132 143 0
128 141 0
129 141 0
126 136 0
131 149 0
125 138 0
112 129 0
119 134 0
131 147 0
127 139 0
123 136 0
126 139 0
130 130 0
128 129 0
124 130 0
118 126 0
127 130 0
125 128 0
124 126 0
126 124 0
119 115 0
123 124 0
112 116 0
127 126 0
115 114 0
112 114 0
120 115 0
115 109 0
122 121 0
114 110 0
123 116 0
113 106 0
112 103 0
123 117 0
113 103 0
110 103 0
116 107 0
122 116 0
107 96 0
114 106 0
110 100 0
122 115 0
117 107 0
121 111 0
120 115 0
131 123 0
120 112 0
128 121 0
121 114 0
117 106 0
111 102 0
123 116 0
125 117 0
126 121 0
120 114 0
122 112 0
120 110 0
118 111 0
125 118 0
120 114 0
116 106 0
129 123 0
127 121 0
128 122 0
137 136 0
138 135 0
142 141 0
144 144 0
145 145 0
151 154 0
153 154 0
155 161 0
162 169 0
154 158 0
153 156 0
154 158 0
159 164 0
156 161 0
161 170 0
159 168 0
157 163 0
163 172 0
158 165 0
164 174 0
161 171 0
162 173 0
163 174 0
163 171 0
161 171 0
158 164 0
165 175 0
164 176 0
163 175 0
164 174 0
165 180 0
166 178 0
165 181 0
166 180 0
166 180 0
165 177 0
166 182 0
168 184 0
166 180 0
169 186 0
166 180 0
169 185 0
167 184 0
169 186 0
165 179 0
174 197 0
175 198 0
172 197 0
173 197 0
175 198 0
173 197 0
174 197 0
171 197 0
173 197 0
174 197 0
171 195 0
176 198 0
176 198 0
174 197 0
173 197 0
172 196 0
172 196 0
173 197 0
174 197 0
171 196 0
173 197 0
175 197 0
172 196 0
172 197 0
173 197 0
173 197 0
169 195 0
172 196 0
172 196 0
172 196 0
172 196 0
173 197 0
172 196 0
171 196 0
171 195 0
172 196 0
170 195 0
171 196 0
171 195 0
170 195 0
171 196 0
170 195 0
167 194 0
170 195 0
169 194 0
168 194 0
168 194 0
167 194 0
169 194 0
168 194 0
167 194 0
168 194 0
168 194 0
167 194 0
166 193 0
166 193 0
167 193 0
167 194 0
166 192 0
166 193 0
164 191 0
165 193 0
165 192 0
166 193 0
165 192 0
165 192 0
162 190 0
165 192 0
165 193 0
164 192 0
164 192 0
165 192 0
165 192 0
164 192 0
164 192 0
167 193 0
165 192 0
165 192 0
163 192 0
165 193 0
165 192 0
165 191 0
160 191 0
166 193 0
163 192 0
160 191 0
166 193 0
165 193 0
166 193 0
164 192 0
164 192 0
161 191 0
163 192 0
165 193 0
162 191 0
162 192 0
163 193 0
161 193 0
162 192 0
163 192 0
163 192 0
163 193 0
163 192 0
164 193 0
161 191 0
161 192 0
164 192 0
162 193 0
160 192 0
162 193 0
164 193 0
160 192 0
154 191 0
158 190 0
159 192 0
163 193 0
158 191 0
151 189 0
156 190 0
158 190 0
157 191 0
156 190 0
155 191 0
154 190 0
157 191 0
161 191 0
158 191 0
155 189 0
155 190 0
151 189 0
150 188 0
149 187 0
153 191 0
152 190 0
151 186 0
151 187 0
151 188 0
148 187 0
157 189 0
150 187 0
147 187 0
151 188 0
148 188 0
155 189 0
151 188 0
137 181 0
155 189 0
141 185 0
143 186 0
146 185 0
158 189 0
135 181 0
142 184 0
143 183 0
142 184 0
143 182 0
138 182 0
145 185 0
137 181 0
133 178 0
137 181 0
146 183 0
140 184 0
144 183 0
144 183 0
141 182 0
137 180 0
131 177 0
139 180 0
138 178 0
126 174 0
133 173 0
134 177 0
137 179 0
122 173 0
122 173 0
135 178 0
131 174 0
133 177 0
120 169 0
136 178 0
123 167 0
122 173 0
121 173 0
125 172 0
129 173 0
116 167 0
124 171 0
126 170 0
125 175 0
122 168 0
120 168 0
116 164 0
122 168 0
117 167 0
114 166 0
121 169 0
123 169 0
127 170 0
122 171 0
118 170 0
113 166 0
116 163 0
113 163 0
104 163 0
116 165 0
119 168 0
108 159 0
124 165 0
117 165 0
106 161 0
113 165 0
118 166 0
117 165 0
118 165 0
131 168 0
116 164 0
117 160 0
122 167 0
121 167 0
106 159 0
109 158 0
121 163 0
135 173 0
125 163 0
125 164 0
116 158 0
128 168 0
126 166 0
125 168 0
117 166 0
125 166 0
125 165 0
136 170 0
124 160 0
124 165 0
131 168 0
126 163 0
119 162 0
129 164 0
117 160 0
116 154 0
120 160 0
126 159 0
120 160 0
126 161 0
130 162 0
121 159 0
141 171 0
126 160 0
132 163 0
135 164 0
136 163 0
142 171 0
125 158 0
133 162 0
130 164 0
128 159 0
134 160 0
133 161 0
127 154 0
133 161 0
137 165 0
132 155 0
131 160 0
131 162 0
140 164 0
129 158 0
138 165 0
136 161 0
120 154 0
130 156 0
136 163 0
136 156 0
128 152 0
131 153 0
136 159 0
141 163 0
137 156 0
131 154 0
131 150 0
135 160 0
132 153 0
124 150 0
124 150 0
133 150 0
138 158 0
130 151 0
133 150 0
132 152 0
131 148 0
130 147 0
127 146 0
131 145 0
128 145 0
127 139 0
128 147 0
127 144 0
126 138 0
122 135 0
121 134 0
130 143 0
127 140 0
138 143 0
126 136 0
128 134 0
120 129 0
132 138 0
123 131 0
124 130 0
135 142 0
117 115 0
131 133 0
124 128 0
118 118 0
117 114 0
128 130 0
114 111 0
121 119 0
135 136 0
117 113 0
123 118 0
116 110 0
117 110 0
124 118 0
115 107 0
123 117 0
117 108 0
121 118 0
110 101 0
116 107 0
113 104 0
125 118 0
115 108 0
117 110 0
115 107 0
130 122 0
116 108 0
127 124 0
118 109 0
130 126 0
127 122 0
134 130 0
130 122 0
139 135 0
137 132 0
134 127 0
139 134 0
142 136 0
135 131 0
142 137 0
140 139 0
147 145 0
150 149 0
146 145 0
143 143 0
145 143 0
154 156 0
154 158 0
151 153 0
154 157 0
151 154 0
151 149 0
158 164 0
155 162 0
158 163 0
152 156 0
159 165 0
153 154 0
153 161 0
160 169 0
160 168 0
161 167 0
160 165 0
161 168 0
161 169 0
165 175 0
160 169 0
163 174 0
163 174 0
163 174 0
162 171 0
158 168 0
164 175 0
166 179 0
163 175 0
163 175 0
162 171 0
164 177 0
165 180 0
168 183 0
163 177 0
167 183 0
167 180 0
165 179 0
168 184 0
168 184 0
166 182 0
165 180 0
168 184 0
170 196 0
171 197 0
173 197 0
174 197 0
175 198 0
175 198 0
173 197 0
171 196 0
174 197 0
172 197 0
171 196 0
174 197 0
173 197 0
173 196 0
174 197 0
174 197 0
174 196 0
173 197 0
173 197 0
172 196 0
175 198 0
169 195 0
173 197 0
172 196 0
172 196 0
172 196 0
171 196 0
173 197 0
173 197 0
171 196 0
171 196 0
172 196 0
172 196 0
172 196 0
167 194 0
171 196 0
172 196 0
170 195 0
170 195 0
170 195 0
170 195 0
171 195 0
171 195 0
167 194 0
168 193 0
169 195 0
169 194 0
170 195 0
170 195 0
169 195 0
168 194 0
167 193 0
167 193 0
167 194 0
167 194 0
168 194 0
167 193 0
168 194 0
165 192 0
166 193 0
167 194 0
166 193 0
166 193 0
166 193 0
165 192 0
165 193 0
168 194 0
164 191 0
164 192 0
165 192 0
165 192 0
166 193 0
165 192 0
163 192 0
164 192 0
165 192 0
167 194 0
164 192 0
163 191 0
165 192 0
163 192 0
165 193 0
164 192 0
161 190 0
163 192 0
167 194 0
164 192 0
163 192 0
165 193 0
161 192 0
161 192 0
164 193 0
162 192 0
164 193 0
166 194 0
165 193 0
156 190 0
167 193 0
166 194 0
161 191 0
156 190 0
165 193 0
161 192 0
164 193 0
164 194 0
159 192 0
154 189 0
165 194 0
163 193 0
157 190 0
159 192 0
156 191 0
163 193 0
165 193 0
159 193 0
164 193 0
158 190 0
161 192 0
152 190 0
156 189 0
160 192 0
156 191 0
162 192 0
149 187 0
155 190 0
156 190 0
154 190 0
159 191 0
147 188 0
161 193 0
157 191 0
158 189 0
149 187 0
155 191 0
149 187 0
141 184 0
144 187 0
153 188 0
156 191 0
150 189 0
154 189 0
152 187 0
150 188 0
158 191 0
147 185 0
145 186 0
148 185 0
151 187 0
145 184 0
147 186 0
147 185 0
148 187 0
149 186 0
150 188 0
146 185 0
139 181 0
146 188 0
141 184 0
135 179 0
140 183 0
128 175 0
145 184 0
136 178 0
134 177 0
141 180 0
142 185 0
133 178 0
147 184 0
144 183 0
137 179 0
130 179 0
128 178 0
128 172 0
131 177 0
133 177 0
134 179 0
131 176 0
134 175 0
129 174 0
122 169 0
140 179 0
130 176 0
134 175 0
123 173 0
133 176 0
128 175 0
122 173 0
113 169 0
131 176 0
119 171 0
116 166 0
128 175 0
114 167 0
126 168 0
127 167 0
128 172 0
130 174 0
131 174 0
114 169 0
127 169 0
129 171 0
120 169 0
116 165 0
114 158 0
116 164 0
115 163 0
115 167 0
117 166 0
118 163 0
121 167 0
122 162 0
127 170 0
124 164 0
112 165 0
129 171 0
126 169 0
130 170 0
124 165 0
126 171 0
116 163 0
122 166 0
127 169 0
118 160 0
121 166 0
124 168 0
123 165 0
126 162 0
134 172 0
128 167 0
118 158 0
119 159 0
132 167 0
123 165 0
136 174 0
122 163 0
116 159 0
127 165 0
122 161 0
123 159 0
140 170 0
135 175 0
117 158 0
131 165 0
141 170 0
135 169 0
132 167 0
134 166 0
130 166 0
133 166 0
128 163 0
126 156 0
130 163 0
135 168 0
132 166 0
123 156 0
131 165 0
130 164 0
130 161 0
121 158 0
136 165 0
121 158 0
132 161 0
132 163 0
138 166 0
130 159 0
140 163 0
140 166 0
135 161 0
138 161 0
134 158 0
136 163 0
137 161 0
137 165 0
130 155 0
132 159 0
135 159 0
126 153 0
132 159 0
134 157 0
134 159 0
138 159 0
130 152 0
131 154 0
141 160 0
132 155 0
129 152 0
137 158 0
130 150 0
132 147 0
136 151 0
144 158 0
135 151 0
132 148 0
135 153 0
128 143 0
132 152 0
132 149 0
127 142 0
131 146 0
130 142 0
138 143 0
119 134 0
133 146 0
138 154 0
135 146 0
140 148 0
130 138 0
129 138 0
123 129 0
134 145 0
134 137 0
127 125 0
129 128 0
124 129 0
123 129 0
123 122 0
132 131 0
131 134 0
123 122 0
120 122 0
122 122 0
121 120 0
121 118 0
127 123 0
124 121 0
125 123 0
121 116 0
118 111 0
123 118 0
119 115 0
131 124 0
129 125 0
117 111 0
131 126 0
126 120 0
130 123 0
122 113 0
125 120 0
123 116 0
133 127 0
131 128 0
139 136 0
134 131 0
132 127 0
129 125 0
128 123 0
137 132 0
138 137 0
137 130 0
137 134 0
138 135 0
146 144 0
143 142 0
151 153 0
142 138 0
147 148 0
150 151 0
147 147 0
147 148 0
151 155 0
148 149 0
151 153 0
146 148 0
152 155 0
153 155 0
155 160 0
150 153 0
157 162 0
160 168 0
159 166 0
157 163 0
160 170 0
160 164 0
155 159 0
160 165 0
159 168 0
160 167 0
160 168 0
158 167 0
166 176 0
165 175 0
166 177 0
163 172 0
166 180 0
162 173 0
166 180 0
162 173 0
162 173 0
165 178 0
166 179 0
166 180 0
168 180 0
165 179 0
162 175 0
169 182 0
165 176 0
165 179 0
165 179 0
166 181 0
167 181 0
175 198 0
172 196 0
174 197 0
175 198 0
176 198 0
174 197 0
173 197 0
174 197 0
174 197 0
174 197 0
174 197 0
174 197 0
175 198 0
173 197 0
172 197 0
175 198 0
174 197 0
174 197 0
171 195 0
173 197 0
172 196 0
172 197 0
172 196 0
172 196 0
173 197 0
173 196 0
172 196 0
172 196 0
172 196 0
172 196 0
171 196 0
171 196 0
171 195 0
170 195 0
172 196 0
171 196 0
171 196 0
170 195 0
170 195 0
169 194 0
169 195 0
169 195 0
170 195 0
170 195 0
168 194 0
169 194 0
170 195 0
169 195 0
170 195 0
167 194 0
168 194 0
166 193 0
168 194 0
168 194 0
169 194 0
168 194 0
164 192 0
166 193 0
166 193 0
166 193 0
167 193 0
165 192 0
164 192 0
167 193 0
165 193 0
166 193 0
166 193 0
165 192 0
165 193 0
166 193 0
165 192 0
167 194 0
166 193 0
166 193 0
165 193 0
166 193 0
163 191 0
165 192 0
164 192 0
163 193 0
166 193 0
165 193 0
164 192 0
161 192 0
161 192 0
165 193 0
166 193 0
165 194 0
166 193 0
165 194 0
162 192 0
160 191 0
155 189 0
166 193 0
161 191 0
165 193 0
162 191 0
165 193 0
162 191 0
162 193 0
158 192 0
168 194 0
165 194 0
159 191 0
156 191 0
160 193 0
161 193 0
163 192 0
156 191 0
163 193 0
158 192 0
160 192 0
158 190 0
163 193 0
167 194 0
164 193 0
160 192 0
159 192 0
156 190 0
158 191 0
154 189 0
149 188 0
157 192 0
161 193 0
156 191 0
154 189 0
156 190 0
153 190 0
152 189 0
149 188 0
158 191 0
152 190 0
145 187 0
154 190 0
159 190 0
156 191 0
153 188 0
145 185 0
153 188 0
153 190 0
149 186 0
142 184 0
155 190 0
155 187 0
153 188 0
146 187 0
158 192 0
148 186 0
143 184 0
137 180 0
145 186 0
146 186 0
140 181 0
141 182 0
151 189 0
140 183 0
140 180 0
144 185 0
143 183 0
151 184 0
141 180 0
139 181 0
132 178 0
131 178 0
142 184 0
144 184 0
146 186 0
127 176 0
136 178 0
131 178 0
139 180 0
143 182 0
128 173 0
137 179 0
130 178 0
134 178 0
134 175 0
134 180 0
135 176 0
124 172 0
128 175 0
131 178 0
120 170 0
127 173 0
126 170 0
139 177 0
127 176 0
125 173 0
126 172 0
115 166 0
138 177 0
126 170 0
119 169 0
127 172 0
127 170 0
126 172 0
123 170 0
117 168 0
121 167 0
130 176 0
127 168 0
129 173 0
120 171 0
128 171 0
118 168 0
132 171 0
116 166 0
121 172 0
117 166 0
133 171 0
124 169 0
124 166 0
130 167 0
131 171 0
137 175 0
120 162 0
122 167 0
121 162 0
131 172 0
126 167 0
125 170 0
124 172 0
120 164 0
122 168 0
120 163 0
115 159 0
135 170 0
130 170 0
126 162 0
123 169 0
131 170 0
134 170 0
126 168 0
137 174 0
129 169 0
127 160 0
138 172 0
141 171 0
125 163 0
122 164 0
120 157 0
132 167 0
128 166 0
120 159 0
124 164 0
134 164 0
138 173 0
130 164 0
130 169 0
144 176 0
134 170 0
133 158 0
127 165 0
142 167 0
132 168 0
143 170 0
136 170 0
132 163 0
139 166 0
136 164 0
141 165 0
136 165 0
129 160 0
133 165 0
130 162 0
127 159 0
124 159 0
143 169 0
130 153 0
138 167 0
135 163 0
136 163 0
142 165 0
141 162 0
130 159 0
141 166 0
130 154 0
139 162 0
137 156 0
134 162 0
139 159 0
125 150 0
134 163 0
136 159 0
132 155 0
139 158 0
130 154 0
136 157 0
135 156 0
131 152 0
136 151 0
134 152 0
137 153 0
131 148 0
138 155 0
138 155 0
138 150 0
130 147 0
141 154 0
138 149 0
132 144 0
129 140 0
138 149 0
134 145 0
134 146 0
127 144 0
126 134 0
142 147 0
127 135 0
136 143 0
128 136 0
135 137 0
131 134 0
132 135 0
132 136 0
127 131 0
132 136 0
130 134 0
125 125 0
130 129 0
117 115 0
124 129 0
133 135 0
126 122 0
124 122 0
122 124 0
133 129 0
119 116 0
134 130 0
118 115 0
129 124 0
130 127 0
129 126 0
128 122 0
126 120 0
132 127 0
133 129 0
132 125 0
119 112 0
136 131 0
124 114 0
131 127 0
133 127 0
134 127 0
135 130 0
136 129 0
143 138 0
136 131 0
139 137 0
142 136 0
143 139 0
147 145 0
137 135 0
138 135 0
144 143 0
152 151 0
141 140 0
149 149 0
149 149 0
145 144 0
148 149 0
152 155 0
158 162 0
137 137 0
155 159 0
151 153 0
153 157 0
155 158 0
152 155 0
158 165 0
156 161 0
161 169 0
154 157 0
153 156 0
157 161 0
162 171 0
158 166 0
157 166 0
161 168 0
159 165 0
165 177 0
159 168 0
162 174 0
165 174 0
164 177 0
163 174 0
162 173 0
161 172 0
164 175 0
165 179 0
164 176 0
169 182 0
163 173 0
165 180 0
168 182 0
164 179 0
166 181 0
166 178 0
170 185 0
169 186 0
173 197 0
172 196 0
173 197 0
172 197 0
174 197 0
174 198 0
173 197 0
172 197 0
172 196 0
172 197 0
173 197 0
172 196 0
172 196 0
172 196 0
173 197 0
173 197 0
174 197 0
172 196 0
173 196 0
174 197 0
173 197 0
173 197 0
171 196 0
173 196 0
175 198 0
173 197 0
174 197 0
173 197 0
172 196 0
170 195 0
172 196 0
173 197 0
170 194 0
171 196 0
169 194 0
171 196 0
170 195 0
169 194 0
171 195 0
171 195 0
169 194 0
170 195 0
168 194 0
169 194 0
169 195 0
168 194 0
168 194 0
169 195 0
172 196 0
166 192 0
167 193 0
167 194 0
168 194 0
168 194 0
167 194 0
167 194 0
168 194 0
167 194 0
167 194 0
166 193 0
167 194 0
167 193 0
166 193 0
163 192 0
165 193 0
168 194 0
166 193 0
167 193 0
167 194 0
163 192 0
165 191 0
169 194 0
166 193 0
163 192 0
164 192 0
165 193 0
167 194 0
162 191 0
167 194 0
167 193 0
166 193 0
166 193 0
166 193 0
163 192 0
165 192 0
167 195 0
166 193 0
163 193 0
165 193 0
163 193 0
158 191 0
164 193 0
162 192 0
165 194 0
156 190 0
162 192 0
162 191 0
158 191 0
159 192 0
162 192 0
165 192 0
162 192 0
163 193 0
162 193 0
151 188 0
155 191 0
161 192 0
161 192 0
158 191 0
162 192 0
162 193 0
158 191 0
159 191 0
159 191 0
159 191 0
150 188 0
165 193 0
162 192 0
161 193 0
158 191 0
156 191 0
162 192 0
161 193 0
153 189 0
152 190 0
151 187 0
156 189 0
156 190 0
152 189 0
150 187 0
156 190 0
156 189 0
152 190 0
149 188 0
153 190 0
149 188 0
153 189 0
158 192 0
149 187 0
148 185 0
158 191 0
153 188 0
149 186 0
146 185 0
150 187 0
144 185 0
148 187 0
144 184 0
145 183 0
150 186 0
151 186 0
150 187 0
147 185 0
151 188 0
155 188 0
148 186 0
155 189 0
139 180 0
138 182 0
145 182 0
141 183 0
143 182 0
141 182 0
148 185 0
126 176 0
139 181 0
134 180 0
136 180 0
126 174 0
146 183 0
132 177 0
131 180 0
142 184 0
129 178 0
132 176 0
130 175 0
124 171 0
124 170 0
140 178 0
132 174 0
131 180 0
121 171 0
134 178 0
130 175 0
127 172 0
131 175 0
132 175 0
128 172 0
133 176 0
122 171 0
130 172 0
128 171 0
118 170 0
127 171 0
127 174 0
129 173 0
135 174 0
122 170 0
123 171 0
126 171 0
127 167 0
132 172 0
122 172 0
124 173 0
120 168 0
121 166 0
117 165 0
120 166 0
127 173 0
136 174 0
124 166 0
122 173 0
122 165 0
127 170 0
127 169 0
128 168 0
131 170 0
128 168 0
112 163 0
117 163 0
133 173 0
114 163 0
115 163 0
123 166 0
124 168 0
133 174 0
125 171 0
123 168 0
130 170 0
127 164 0
141 172 0
126 166 0
129 167 0
134 172 0
134 170 0
135 168 0
132 166 0
129 164 0
136 168 0
124 164 0
115 159 0
129 168 0
125 166 0
131 168 0
128 168 0
132 165 0
138 171 0
132 167 0
131 166 0
135 167 0
137 168 0
133 166 0
123 159 0
135 166 0
135 168 0
133 167 0
140 169 0
145 170 0
130 162 0
143 170 0
140 167 0
141 171 0
136 160 0
145 169 0
136 163 0
138 168 0
129 160 0
143 165 0
135 161 0
138 164 0
132 161 0
137 165 0
138 163 0
119 153 0
137 163 0
139 165 0
142 168 0
133 159 0
131 157 0
120 151 0
135 158 0
143 167 0
136 157 0
135 160 0
141 165 0
134 156 0
137 158 0
132 156 0
131 151 0
131 152 0
136 159 0
135 158 0
127 152 0
138 155 0
135 154 0
126 143 0
139 153 0
136 154 0
134 151 0
135 153 0
137 151 0
140 151 0
136 147 0
136 150 0
137 146 0
126 139 0
128 138 0
127 140 0
127 139 0
134 142 0
130 136 0
142 151 0
131 136 0
137 142 0
135 138 0
130 137 0
129 135 0
134 136 0
140 145 0
136 136 0
121 125 0
139 140 0
129 126 0
125 127 0
132 135 0
123 122 0
135 134 0
135 133 0
137 136 0
129 127 0
131 123 0
124 118 0
124 121 0
127 122 0
132 131 0
132 132 0
131 126 0
127 123 0
130 123 0
130 126 0
125 118 0
130 124 0
132 127 0
139 136 0
132 129 0
131 127 0
130 131 0
143 140 0
144 144 0
135 132 0
138 134 0
145 143 0
147 147 0
141 141 0
146 144 0
150 152 0
144 145 0
147 148 0
148 147 0
148 149 0
148 149 0
145 147 0
150 153 0
148 149 0
153 154 0
148 150 0
150 151 0
154 157 0
154 160 0
150 153 0
154 158 0
155 160 0
159 165 0
161 168 0
157 162 0
158 165 0
158 165 0
161 168 0
159 165 0
162 173 0
162 169 0
161 168 0
163 174 0
165 176 0
158 167 0
163 173 0
159 168 0
166 175 0
165 177 0
163 173 0
166 178 0
168 181 0
163 176 0
166 180 0
166 177 0
165 179 0
166 180 0
163 177 0
163 177 0
165 179 0
173 197 0
176 198 0
172 196 0
174 197 0
174 197 0
175 198 0
174 197 0
174 197 0
171 195 0
174 197 0
174 197 0
171 197 0
172 197 0
174 197 0
173 197 0
174 197 0
173 197 0
174 197 0
172 196 0
173 197 0
171 195 0
172 196 0
170 195 0
171 196 0
172 196 0
172 196 0
172 196 0
170 195 0
172 196 0
172 196 0
171 196 0
170 195 0
172 196 0
171 195 0
171 195 0
171 196 0
172 196 0
169 195 0
169 194 0
169 195 0
169 195 0
170 195 0
169 194 0
170 195 0
168 194 0
170 195 0
169 194 0
168 194 0
169 194 0
169 194 0
168 194 0
167 194 0
166 193 0
167 193 0
165 193 0
167 193 0
165 192 0
167 193 0
166 193 0
167 193 0
168 193 0
167 194 0
166 193 0
167 194 0
161 190 0
168 194 0
167 194 0
168 193 0
164 192 0
167 194 0
165 192 0
164 192 0
165 192 0
166 194 0
164 192 0
167 194 0
164 193 0
167 194 0
168 194 0
165 193 0
163 192 0
167 193 0
165 193 0
165 193 0
163 192 0
164 192 0
157 191 0
164 193 0
164 192 0
163 193 0
164 192 0
162 192 0
164 192 0
163 193 0
162 193 0
162 192 0
164 193 0
161 192 0
163 194 0
163 193 0
159 192 0
157 190 0
155 189 0
166 194 0
156 189 0
160 190 0
164 194 0
163 194 0
162 192 0
156 190 0
165 194 0
159 190 0
154 190 0
158 191 0
160 193 0
158 191 0
161 194 0
160 193 0
155 191 0
158 191 0
157 190 0
158 191 0
148 188 0
154 190 0
147 187 0
156 189 0
154 190 0
147 186 0
152 188 0
153 189 0
158 192 0
157 189 0
157 190 0
156 190 0
146 187 0
160 192 0
150 187 0
157 190 0
151 189 0
144 184 0
146 184 0
149 186 0
145 186 0
138 182 0
145 185 0
150 188 0
149 189 0
140 185 0
147 185 0
148 187 0
154 188 0
146 186 0
144 182 0
143 184 0
144 184 0
143 182 0
146 184 0
147 185 0
134 180 0
136 181 0
140 181 0
138 179 0
129 176 0
143 183 0
138 181 0
141 182 0
139 181 0
131 179 0
139 181 0
123 174 0
143 181 0
129 175 0
143 181 0
124 173 0
137 179 0
133 179 0
130 176 0
135 176 0
146 183 0
129 176 0
136 175 0
146 183 0
133 179 0
126 174 0
128 174 0
133 177 0
123 172 0
123 172 0
127 175 0
130 177 0
117 170 0
123 170 0
120 171 0
135 177 0
127 176 0
134 174 0
126 171 0
126 173 0
119 167 0
114 165 0
123 169 0
129 173 0
134 174 0
125 171 0
123 172 0
123 168 0
125 171 0
130 170 0
125 169 0
124 170 0
121 165 0
132 175 0
127 170 0
127 169 0
128 172 0
135 172 0
125 167 0
134 173 0
121 170 0
116 164 0
122 170 0
125 165 0
130 170 0
115 166 0
134 173 0
126 167 0
119 166 0
117 165 0
121 166 0
130 167 0
126 167 0
134 171 0
125 166 0
137 171 0
132 168 0
125 166 0
132 167 0
131 170 0
119 159 0
139 169 0
132 171 0
133 170 0
137 170 0
126 164 0
130 166 0
127 161 0
134 170 0
124 162 0
135 168 0
140 169 0
130 163 0
131 163 0
123 158 0
130 168 0
133 164 0
128 163 0
132 171 0
132 163 0
132 165 0
132 163 0
139 167 0
141 167 0
135 165 0
144 168 0
135 165 0
142 169 0
129 164 0
136 164 0
131 161 0
136 167 0
127 155 0
134 163 0
141 172 0
136 162 0
131 157 0
130 152 0
133 161 0
141 165 0
129 154 0
140 161 0
134 161 0
137 160 0
140 167 0
135 157 0
139 157 0
139 162 0
139 160 0
128 149 0
136 158 0
137 156 0
129 150 0
144 165 0
135 156 0
135 154 0
145 164 0
131 147 0
140 157 0
139 153 0
142 156 0
137 151 0
133 148 0
129 145 0
134 149 0
125 141 0
134 148 0
130 144 0
136 148 0
130 146 0
136 152 0
139 150 0
144 152 0
137 144 0
126 136 0
133 138 0
137 144 0
135 143 0
132 143 0
134 139 0
131 137 0
126 133 0
135 141 0
137 138 0
131 133 0
130 137 0
134 136 0
126 128 0
128 132 0
134 137 0
127 124 0
139 138 0
123 121 0
132 132 0
137 140 0
133 129 0
140 140 0
137 136 0
125 124 0
126 122 0
138 136 0
135 134 0
135 130 0
133 129 0
134 128 0
136 132 0
137 134 0
134 128 0
131 128 0
137 134 0
140 138 0
139 139 0
135 132 0
139 134 0
141 140 0
148 147 0
144 145 0
146 145 0
145 143 0
145 144 0
143 142 0
151 152 0
153 156 0
145 146 0
142 143 0
149 151 0
155 158 0
153 156 0
155 161 0
148 148 0
149 153 0
155 157 0
154 155 0
147 147 0
154 160 0
156 161 0
156 161 0
159 167 0
157 164 0
157 163 0
158 166 0
157 167 0
159 168 0
160 169 0
158 165 0
158 167 0
161 170 0
159 168 0
162 174 0
162 172 0
165 175 0
163 170 0
167 182 0
166 177 0
160 170 0
168 182 0
166 178 0
165 179 0
164 176 0
164 177 0
166 179 0
165 179 0
173 197 0
174 197 0
175 198 0
171 195 0
173 197 0
175 198 0
174 197 0
174 197 0
174 197 0
174 197 0
171 195 0
173 197 0
173 197 0
173 197 0
172 196 0
173 196 0
173 197 0
173 196 0
170 195 0
172 196 0
172 196 0
173 197 0
173 197 0
174 197 0
171 196 0
172 196 0
172 196 0
172 196 0
172 196 0
172 196 0
172 196 0
171 196 0
170 195 0
172 196 0
170 195 0
170 195 0
170 195 0
169 195 0
170 195 0
171 196 0
171 195 0
170 195 0
169 195 0
170 195 0
168 194 0
168 194 0
166 193 0
168 194 0
168 194 0
169 194 0
168 194 0
167 194 0
168 194 0
167 194 0
169 195 0
166 193 0
170 195 0
166 192 0
167 194 0
167 194 0
165 193 0
164 192 0
168 194 0
166 193 0
166 193 0
167 194 0
168 194 0
166 193 0
167 193 0
166 193 0
168 194 0
167 193 0
169 195 0
166 194 0
164 193 0
165 192 0
165 191 0
162 193 0
166 194 0
164 192 0
162 191 0
164 192 0
169 194 0
164 193 0
166 193 0
162 193 0
165 192 0
164 192 0
160 191 0
167 194 0
165 193 0
164 194 0
162 193 0
163 192 0
165 193 0
165 194 0
160 192 0
163 192 0
166 194 0
163 193 0
158 192 0
159 192 0
157 191 0
158 191 0
158 192 0
155 188 0
157 191 0
160 192 0
161 193 0
154 190 0
165 193 0
159 193 0
161 192 0
161 193 0
163 194 0
157 191 0
158 190 0
161 193 0
159 191 0
157 192 0
152 189 0
161 194 0
154 189 0
153 190 0
162 192 0
154 188 0
156 189 0
161 193 0
152 190 0
159 191 0
153 189 0
151 187 0
153 189 0
154 189 0
151 188 0
156 190 0
154 189 0
156 190 0
151 188 0
155 189 0
150 186 0
149 187 0
152 187 0
156 190 0
148 188 0
146 185 0
148 187 0
152 187 0
145 184 0
150 185 0
139 181 0
155 190 0
151 186 0
146 185 0
151 187 0
153 188 0
149 186 0
145 181 0
138 182 0
140 183 0
137 182 0
138 183 0
144 183 0
146 183 0
138 179 0
143 183 0
141 183 0
144 182 0
136 179 0
137 179 0
142 182 0
132 179 0
133 179 0
143 183 0
136 180 0
137 181 0
132 176 0
144 183 0
126 176 0
133 178 0
135 179 0
129 177 0
142 183 0
123 175 0
121 170 0
125 170 0
124 174 0
123 170 0
136 176 0
124 172 0
129 170 0
133 178 0
140 179 0
125 170 0
125 171 0
130 172 0
132 175 0
137 179 0
126 170 0
135 177 0
129 171 0
124 171 0
130 174 0
133 176 0
125 168 0
125 167 0
122 167 0
125 172 0
137 177 0
142 177 0
130 172 0
127 173 0
122 171 0
117 166 0
118 166 0
136 175 0
125 173 0
125 168 0
127 170 0
116 163 0
131 169 0
131 172 0
127 170 0
139 175 0
133 172 0
119 163 0
138 175 0
130 171 0
135 174 0
128 165 0
136 175 0
131 170 0
129 169 0
138 171 0
134 169 0
127 165 0
133 167 0
130 167 0
133 172 0
130 168 0
123 163 0
135 174 0
137 167 0
131 167 0
132 172 0
138 170 0
136 172 0
143 170 0
125 162 0
130 166 0
144 173 0
135 167 0
139 174 0
139 168 0
132 167 0
140 174 0
135 166 0
131 163 0
133 163 0
139 167 0
134 161 0
126 161 0
140 166 0
139 166 0
141 169 0
138 167 0
130 158 0
135 164 0
130 161 0
138 170 0
143 172 0
138 164 0
138 165 0
140 168 0
141 168 0
137 162 0
130 155 0
143 168 0
135 159 0
140 164 0
132 160 0
138 161 0
139 162 0
140 160 0
135 157 0
138 164 0
135 155 0
131 151 0
143 158 0
140 162 0
139 158 0
142 158 0
133 154 0
131 153 0
134 155 0
143 159 0
134 152 0
138 155 0
137 156 0
136 154 0
141 158 0
144 156 0
138 156 0
145 160 0
137 151 0
144 159 0
146 163 0
135 150 0
143 154 0
144 157 0
136 146 0
133 147 0
136 148 0
136 147 0
135 140 0
137 148 0
140 147 0
137 151 0
137 140 0
133 141 0
134 137 0
140 147 0
138 143 0
135 141 0
129 129 0
134 136 0
136 136 0
138 140 0
132 134 0
131 130 0
136 141 0
122 123 0
135 136 0
137 137 0
140 141 0
142 141 0
138 139 0
126 120 0
133 129 0
139 137 0
133 133 0
136 136 0
142 142 0
140 138 0
138 135 0
143 138 0
140 139 0
138 136 0
143 139 0
136 135 0
142 141 0
141 137 0
152 152 0
141 138 0
144 142 0
143 141 0
142 142 0
145 145 0
149 149 0
147 146 0
149 151 0
147 147 0
148 149 0
146 146 0
146 145 0
149 151 0
152 154 0
149 151 0
154 159 0
150 150 0
156 162 0
154 155 0
157 160 0
155 159 0
155 160 0
152 157 0
156 158 0
156 162 0
158 164 0
156 163 0
158 169 0
159 167 0
159 166 0
158 166 0
160 169 0
159 166 0
164 175 0
164 173 0
164 176 0
161 172 0
163 174 0
161 169 0
161 173 0
163 173 0
162 177 0
164 178 0
166 179 0
163 176 0
165 178 0
165 180 0
171 196 0
173 196 0
173 197 0
173 197 0
174 197 0
173 197 0
173 197 0
173 197 0
173 197 0
174 197 0
174 197 0
171 196 0
172 195 0
173 197 0
173 197 0
173 196 0
172 196 0
174 197 0
173 197 0
173 196 0
172 196 0
172 196 0
172 196 0
172 196 0
171 196 0
172 196 0
172 196 0
173 196 0
172 196 0
172 196 0
171 196 0
170 195 0
171 195 0
170 195 0
170 195 0
171 195 0
169 195 0
169 195 0
169 195 0
169 195 0
170 195 0
169 194 0
169 194 0
169 194 0
169 195 0
167 194 0
169 194 0
167 194 0
169 195 0
169 194 0
167 194 0
169 194 0
168 194 0
168 194 0
168 194 0
169 194 0
168 194 0
167 193 0
166 193 0
166 194 0
166 193 0
168 194 0
165 193 0
168 194 0
169 195 0
166 194 0
168 194 0
165 192 0
165 193 0
167 194 0
164 192 0
167 194 0
166 193 0
166 193 0
168 194 0
168 194 0
166 193 0
167 194 0
165 193 0
168 194 0
163 191 0
164 193 0
159 191 0
165 193 0
164 193 0
163 193 0
163 193 0
162 193 0
166 193 0
160 192 0
164 194 0
165 193 0
162 192 0
163 194 0
163 193 0
160 192 0
164 194 0
161 193 0
162 191 0
158 191 0
154 190 0
165 194 0
164 193 0
163 193 0
160 192 0
164 193 0
163 193 0
161 193 0
159 192 0
161 192 0
161 193 0
158 192 0
158 191 0
160 193 0
162 193 0
159 192 0
155 190 0
157 191 0
158 191 0
156 191 0
152 187 0
163 193 0
160 192 0
158 190 0
157 192 0
156 190 0
160 192 0
154 191 0
158 191 0
158 192 0
148 190 0
157 191 0
152 190 0
159 191 0
155 190 0
153 188 0
148 185 0
150 188 0
143 186 0
154 187 0
149 187 0
150 188 0
160 191 0
152 185 0
152 186 0
158 189 0
151 187 0
154 188 0
144 183 0
150 187 0
144 186 0
152 188 0
131 180 0
149 187 0
145 185 0
138 183 0
131 177 0
148 185 0
143 184 0
144 185 0
142 182 0
142 184 0
150 187 0
136 182 0
145 185 0
145 185 0
132 179 0
134 181 0
136 180 0
142 183 0
129 177 0
145 182 0
137 177 0
143 180 0
133 180 0
140 178 0
121 174 0
121 169 0
134 175 0
131 173 0
145 184 0
128 176 0
126 173 0
141 184 0
138 180 0
129 172 0
137 180 0
135 175 0
127 176 0
134 176 0
132 176 0
129 175 0
130 174 0
128 176 0
117 168 0
125 166 0
124 173 0
127 169 0
130 175 0
125 171 0
138 177 0
133 174 0
130 176 0
122 170 0
124 171 0
131 172 0
137 175 0
126 168 0
132 173 0
134 175 0
135 172 0
127 170 0
130 171 0
129 170 0
123 166 0
121 168 0
124 171 0
133 170 0
116 164 0
117 163 0
132 174 0
132 171 0
125 169 0
116 166 0
125 170 0
124 168 0
141 175 0
138 171 0
125 168 0
142 177 0
132 173 0
134 173 0
131 172 0
130 175 0
124 164 0
125 169 0
136 173 0
132 168 0
134 174 0
132 169 0
135 170 0
129 165 0
134 166 0
124 165 0
136 170 0
134 174 0
131 169 0
130 165 0
135 172 0
130 164 0
144 174 0
137 168 0
143 172 0
135 166 0
137 170 0
132 166 0
143 171 0
141 170 0
133 162 0
128 158 0
133 165 0
133 164 0
135 166 0
140 166 0
137 168 0
134 165 0
140 165 0
138 167 0
136 166 0
134 164 0
137 166 0
137 162 0
133 163 0
139 167 0
139 166 0
145 170 0
141 165 0
134 157 0
138 165 0
137 162 0
144 166 0
134 157 0
140 168 0
138 163 0
137 158 0
133 162 0
136 159 0
140 161 0
143 160 0
145 166 0
142 163 0
140 158 0
136 153 0
134 153 0
141 162 0
136 152 0
137 158 0
136 157 0
139 155 0
139 153 0
139 159 0
133 149 0
142 157 0
133 148 0
140 153 0
143 159 0
149 160 0
139 152 0
139 153 0
134 146 0
147 160 0
137 150 0
131 143 0
133 149 0
134 148 0
144 152 0
134 142 0
137 144 0
130 143 0
133 140 0
136 139 0
135 142 0
137 144 0
132 134 0
138 145 0
138 145 0
142 148 0
143 146 0
135 135 0
138 140 0
137 139 0
137 137 0
138 141 0
143 141 0
141 143 0
134 135 0
141 141 0
137 135 0
140 139 0
133 133 0
144 144 0
132 127 0
144 147 0
136 133 0
142 140 0
138 134 0
139 138 0
136 135 0
141 139 0
139 138 0
141 136 0
132 130 0
145 142 0
144 143 0
141 137 0
137 136 0
144 146 0
150 152 0
140 140 0
145 142 0
144 148 0
148 149 0
149 152 0
148 150 0
149 151 0
148 152 0
146 146 0
147 146 0
153 155 0
152 154 0
157 162 0
150 153 0
151 154 0
150 153 0
156 161 0
158 163 0
160 168 0
159 163 0
157 163 0
160 170 0
156 161 0
163 173 0
157 165 0
156 163 0
162 170 0
160 168 0
160 167 0
162 172 0
161 169 0
163 175 0
163 172 0
163 176 0
164 174 0
163 174 0
164 175 0
164 176 0
165 175 0
166 179 0
164 178 0
162 175 0
174 197 0
173 197 0
173 197 0
173 197 0
174 197 0
174 197 0
175 198 0
172 196 0
173 197 0
174 197 0
172 196 0
172 196 0
173 196 0
171 196 0
172 196 0
172 196 0
173 197 0
172 196 0
172 196 0
171 196 0
173 197 0
172 196 0
172 195 0
171 196 0
171 196 0
172 196 0
172 196 0
173 196 0
172 196 0
172 196 0
171 196 0
172 196 0
169 195 0
171 196 0
171 196 0
171 195 0
171 196 0
170 195 0
170 195 0
171 196 0
170 195 0
167 193 0
168 194 0
168 194 0
169 195 0
170 195 0
171 196 0
169 194 0
168 194 0
169 195 0
168 194 0
169 194 0
167 194 0
167 194 0
169 195 0
167 194 0
168 194 0
167 194 0
165 192 0
167 194 0
168 194 0
166 192 0
168 194 0
169 195 0
167 194 0
169 194 0
166 193 0
165 193 0
167 194 0
165 193 0
162 192 0
167 193 0
167 195 0
165 194 0
162 192 0
167 194 0
163 192 0
162 191 0
165 193 0
168 194 0
168 194 0
165 194 0
165 193 0
166 194 0
162 192 0
166 193 0
168 194 0
166 195 0
165 194 0
171 196 0
161 191 0
163 194 0
161 192 0
164 193 0
157 192 0
160 192 0
161 192 0
162 193 0
164 193 0
160 192 0
162 194 0
158 190 0
149 190 0
158 192 0
164 192 0
159 192 0
162 193 0
154 190 0
161 192 0
159 192 0
154 191 0
165 194 0
159 192 0
157 193 0
159 191 0
159 192 0
154 190 0
158 191 0
153 190 0
161 193 0
159 192 0
154 190 0
160 192 0
161 191 0
149 188 0
154 190 0
156 190 0
154 190 0
153 187 0
146 187 0
162 192 0
158 190 0
157 191 0
155 186 0
151 187 0
161 193 0
149 188 0
144 185 0
154 189 0
155 189 0
157 190 0
145 184 0
154 190 0
155 190 0
146 187 0
145 185 0
147 186 0
151 188 0
143 186 0
153 188 0
146 185 0
136 181 0
152 187 0
144 184 0
145 185 0
146 184 0
143 183 0
144 184 0
147 184 0
145 185 0
151 184 0
147 183 0
142 184 0
132 181 0
141 181 0
147 184 0
138 179 0
139 180 0
144 185 0
139 178 0
141 181 0
143 183 0
133 177 0
138 180 0
141 182 0
143 180 0
129 176 0
133 179 0
140 182 0
144 182 0
137 179 0
131 177 0
129 176 0
125 171 0
133 175 0
128 176 0
143 181 0
140 179 0
135 176 0
131 175 0
141 182 0
123 171 0
136 178 0
135 178 0
132 177 0
130 176 0
129 171 0
136 175 0
129 176 0
126 171 0
142 181 0
128 172 0
129 172 0
128 170 0
137 180 0
129 174 0
141 176 0
131 175 0
141 178 0
133 175 0
129 173 0
130 173 0
126 170 0
141 179 0
132 176 0
129 171 0
139 177 0
136 175 0
134 174 0
130 171 0
143 178 0
139 177 0
132 170 0
130 170 0
131 171 0
132 171 0
140 172 0
139 174 0
132 170 0
129 171 0
140 173 0
135 168 0
149 180 0
136 173 0
128 169 0
133 170 0
136 171 0
130 169 0
134 171 0
137 175 0
135 169 0
136 167 0
132 170 0
133 167 0
134 170 0
123 163 0
137 173 0
132 165 0
142 173 0
135 169 0
137 174 0
140 174 0
130 167 0
145 175 0
131 162 0
130 160 0
122 164 0
137 167 0
138 174 0
136 167 0
135 167 0
134 166 0
136 168 0
137 169 0
135 166 0
134 164 0
134 161 0
144 168 0
140 169 0
132 159 0
136 168 0
146 170 0
133 164 0
140 166 0
148 172 0
142 170 0
143 167 0
138 163 0
145 168 0
136 163 0
137 162 0
139 167 0
132 162 0
137 166 0
142 166 0
143 166 0
139 165 0
134 160 0
143 166 0
140 163 0
141 162 0
129 154 0
133 159 0
140 161 0
146 163 0
134 155 0
146 162 0
136 155 0
146 160 0
135 158 0
138 155 0
136 155 0
137 152 0
146 161 0
136 152 0
140 152 0
141 157 0
147 161 0
137 146 0
138 149 0
137 146 0
134 146 0
140 148 0
145 157 0
141 151 0
143 156 0
137 145 0
141 149 0
144 156 0
137 146 0
138 149 0
147 156 0
134 140 0
139 149 0
134 145 0
137 141 0
141 147 0
141 144 0
138 142 0
140 148 0
144 149 0
137 140 0
141 143 0
141 146 0
130 136 0
137 139 0
140 143 0
141 142 0
139 137 0
139 139 0
139 141 0
138 136 0
142 143 0
137 136 0
147 148 0
142 142 0
145 147 0
137 136 0
143 141 0
144 141 0
142 138 0
142 142 0
137 132 0
140 138 0
146 145 0
144 143 0
151 152 0
147 146 0
140 139 0
146 148 0
149 149 0
148 148 0
146 147 0
156 159 0
142 141 0
154 158 0
149 152 0
149 152 0
152 157 0
153 159 0
146 147 0
154 159 0
154 159 0
152 155 0
154 158 0
157 158 0
155 158 0
156 162 0
152 159 0
157 165 0
159 167 0
153 155 0
158 166 0
162 171 0
157 164 0
159 168 0
160 168 0
159 168 0
158 167 0
163 173 0
166 175 0
164 174 0
165 174 0
161 172 0
164 175 0
164 176 0
161 171 0
164 174 0
163 176 0
163 174 0
175 197 0
174 197 0
173 197 0
174 197 0
173 197 0
174 197 0
170 195 0
172 196 0
175 197 0
174 197 0
174 197 0
173 196 0
174 197 0
172 196 0
172 196 0
174 197 0
172 196 0
173 197 0
173 196 0
172 196 0
173 197 0
172 196 0
173 196 0
171 196 0
170 195 0
174 197 0
172 196 0
169 194 0
171 196 0
171 196 0
170 195 0
171 195 0
170 195 0
170 195 0
169 195 0
171 196 0
170 195 0
169 195 0
170 195 0
170 195 0
169 195 0
168 194 0
170 195 0
169 195 0
170 195 0
170 195 0
168 194 0
170 195 0
168 194 0
169 195 0
169 195 0
169 195 0
166 193 0
170 195 0
169 194 0
167 194 0
166 194 0
167 194 0
167 194 0
166 194 0
168 194 0
166 194 0
165 192 0
166 193 0
166 193 0
168 194 0
167 194 0
165 193 0
165 193 0
165 193 0
165 193 0
166 194 0
166 194 0
167 194 0
161 192 0
168 194 0
165 193 0
167 194 0
165 192 0
165 193 0
165 194 0
168 194 0
169 195 0
164 193 0
169 195 0
164 194 0
162 192 0
168 195 0
163 193 0
163 193 0
162 193 0
162 193 0
160 191 0
163 193 0
162 192 0
158 190 0
167 194 0
165 194 0
162 192 0
162 192 0
158 193 0
163 194 0
157 191 0
164 194 0
165 194 0
164 193 0
163 193 0
159 192 0
159 191 0
153 189 0
163 193 0
160 191 0
163 193 0
163 193 0
160 192 0
152 190 0
160 193 0
162 192 0
158 191 0
157 190 0
159 193 0
159 191 0
156 189 0
159 189 0
161 193 0
159 189 0
153 188 0
157 190 0
150 186 0
151 189 0
158 190 0
153 189 0
145 186 0
158 190 0
154 189 0
155 188 0
153 187 0
147 187 0
153 189 0
158 190 0
148 185 0
153 189 0
159 191 0
149 187 0
143 184 0
156 190 0
154 189 0
148 186 0
153 189 0
156 188 0
154 188 0
143 185 0
149 187 0
146 186 0
144 185 0
146 185 0
149 186 0
144 184 0
157 190 0
152 187 0
143 185 0
145 183 0
145 185 0
146 185 0
147 185 0
137 179 0
144 184 0
136 179 0
138 179 0
144 182 0
139 180 0
147 186 0
135 177 0
139 180 0
125 175 0
138 179 0
150 185 0
133 177 0
137 180 0
139 181 0
137 179 0
144 183 0
133 175 0
140 178 0
135 180 0
120 172 0
140 181 0
138 180 0
131 176 0
133 179 0
133 178 0
135 178 0
133 179 0
141 178 0
126 173 0
141 178 0
131 175 0
136 175 0
137 177 0
139 180 0
129 174 0
136 175 0
132 174 0
123 170 0
133 177 0
137 179 0
126 171 0
128 171 0
135 174 0
146 181 0
139 176 0
130 175 0
132 177 0
125 169 0
132 174 0
130 170 0
143 178 0
138 176 0
128 175 0
131 169 0
130 173 0
138 174 0
140 176 0
134 176 0
139 177 0
133 169 0
129 169 0
137 174 0
137 172 0
130 173 0
146 182 0
134 170 0
131 168 0
144 178 0
127 167 0
138 172 0
131 171 0
135 171 0
139 175 0
134 170 0
132 170 0
136 174 0
129 165 0
135 169 0
140 174 0
134 165 0
139 171 0
135 171 0
141 171 0
146 177 0
132 170 0
135 172 0
139 171 0
142 170 0
134 168 0
140 171 0
133 169 0
141 171 0
139 171 0
136 169 0
132 166 0
140 170 0
148 176 0
146 172 0
138 167 0
135 167 0
141 169 0
144 170 0
143 171 0
134 165 0
140 169 0
145 170 0
138 165 0
139 166 0
130 161 0
138 166 0
142 169 0
144 164 0
141 165 0
137 166 0
137 167 0
138 163 0
140 165 0
139 164 0
143 165 0
147 166 0
143 161 0
132 159 0
140 158 0
141 165 0
145 167 0
138 160 0
139 158 0
136 159 0
137 157 0
132 157 0
135 155 0
147 165 0
134 158 0
139 160 0
137 157 0
141 159 0
141 158 0
145 164 0
143 160 0
152 170 0
137 156 0
139 155 0
144 157 0
136 153 0
142 157 0
144 157 0
143 158 0
142 158 0
147 160 0
145 156 0
138 148 0
148 159 0
132 144 0
134 146 0
140 148 0
142 144 0
145 152 0
140 148 0
141 151 0
136 142 0
136 143 0
135 141 0
142 147 0
138 144 0
147 149 0
131 137 0
141 146 0
137 143 0
141 146 0
145 151 0
143 148 0
145 149 0
139 140 0
142 142 0
143 147 0
139 142 0
139 139 0
137 136 0
137 139 0
142 142 0
149 148 0
141 140 0
146 152 0
144 145 0
140 139 0
140 142 0
144 146 0
141 140 0
146 144 0
142 141 0
142 140 0
151 153 0
147 148 0
149 151 0
143 143 0
147 148 0
141 140 0
148 149 0
144 145 0
142 140 0
147 147 0
146 146 0
160 164 0
151 153 0
152 157 0
158 163 0
149 155 0
152 155 0
155 160 0
156 162 0
153 158 0
152 155 0
155 158 0
160 169 0
159 164 0
158 166 0
154 160 0
160 169 0
165 174 0
159 168 0
156 164 0
157 164 0
164 175 0
163 169 0
161 169 0
163 175 0
162 173 0
161 171 0
166 175 0
169 179 0
161 169 0
163 171 0
161 174 0
166 179 0
173 197 0
173 197 0
174 197 0
174 197 0
171 196 0
173 197 0
172 196 0
174 197 0
174 197 0
173 197 0
172 196 0
172 196 0
175 198 0
174 197 0
173 197 0
172 196 0
172 196 0
171 195 0
171 196 0
172 196 0
173 197 0
172 196 0
172 196 0
172 196 0
171 195 0
171 195 0
169 195 0
173 196 0
171 196 0
171 195 0
170 195 0
171 195 0
171 195 0
171 195 0
171 195 0
170 195 0
173 197 0
168 194 0
169 195 0
170 195 0
170 195 0
170 195 0
167 194 0
167 193 0
168 194 0
169 195 0
169 195 0
170 195 0
167 194 0
170 195 0
168 195 0
166 193 0
169 195 0
169 194 0
168 194 0
165 193 0
169 195 0
167 194 0
166 193 0
167 194 0
168 194 0
167 194 0
167 194 0
166 194 0
168 194 0
168 194 0
168 194 0
167 194 0
169 195 0
167 193 0
165 192 0
167 194 0
168 195 0
164 192 0
167 193 0
166 194 0
167 194 0
166 194 0
167 195 0
164 193 0
167 193 0
168 194 0
161 193 0
168 195 0
164 192 0
161 193 0
162 193 0
166 193 0
163 193 0
162 193 0
166 195 0
162 193 0
163 194 0
161 193 0
161 193 0
165 194 0
161 192 0
161 191 0
158 190 0
157 191 0
164 193 0
161 192 0
165 193 0
160 192 0
162 191 0
162 193 0
162 193 0
159 192 0
159 191 0
159 191 0
163 194 0
162 193 0
158 190 0
158 191 0
159 190 0
160 193 0
162 193 0
162 194 0
155 190 0
163 193 0
156 191 0
153 187 0
154 188 0
156 189 0
158 190 0
159 191 0
158 191 0
163 193 0
150 188 0
156 189 0
158 192 0
154 189 0
162 192 0
159 191 0
154 190 0
153 190 0
154 189 0
143 187 0
150 186 0
156 189 0
147 186 0
153 188 0
153 188 0
145 186 0
147 186 0
153 189 0
154 187 0
149 186 0
143 184 0
142 183 0
150 187 0
143 184 0
147 187 0
143 183 0
155 190 0
145 184 0
144 184 0
149 184 0
142 183 0
137 183 0
148 187 0
150 186 0
143 183 0
154 188 0
144 182 0
155 185 0
134 176 0
150 187 0
151 188 0
139 180 0
143 182 0
136 179 0
140 184 0
142 182 0
135 178 0
137 181 0
140 179 0
131 178 0
145 184 0
133 178 0
145 183 0
143 182 0
131 175 0
147 183 0
134 180 0
138 179 0
135 177 0
142 183 0
136 178 0
139 178 0
130 176 0
129 176 0
137 178 0
143 183 0
126 174 0
128 174 0
131 174 0
140 181 0
137 177 0
137 178 0
129 170 0
135 175 0
130 172 0
132 176 0
134 174 0
127 172 0
138 173 0
135 174 0
133 171 0
126 171 0
133 176 0
134 177 0
132 176 0
137 174 0
131 171 0
141 180 0
139 177 0
137 174 0
127 169 0
138 177 0
140 177 0
131 174 0
130 173 0
140 175 0
127 167 0
135 170 0
124 166 0
132 174 0
130 168 0
134 172 0
141 178 0
135 173 0
139 173 0
131 172 0
138 173 0
140 174 0
135 169 0
137 173 0
131 169 0
142 178 0
132 166 0
135 170 0
132 171 0
131 168 0
143 176 0
129 169 0
138 172 0
134 169 0
135 171 0
120 164 0
138 170 0
140 171 0
146 176 0
137 171 0
142 174 0
137 168 0
142 175 0
141 168 0
135 168 0
141 174 0
132 168 0
142 172 0
131 167 0
136 165 0
130 166 0
138 168 0
134 165 0
136 168 0
139 167 0
138 170 0
135 169 0
135 167 0
140 169 0
140 172 0
141 171 0
144 171 0
144 169 0
143 169 0
137 164 0
140 163 0
138 155 0
139 164 0
142 170 0
139 164 0
144 170 0
144 167 0
143 166 0
137 162 0
144 166 0
138 160 0
146 164 0
141 161 0
126 151 0
144 158 0
131 155 0
137 157 0
143 165 0
128 156 0
146 164 0
132 155 0
139 160 0
140 160 0
147 164 0
139 157 0
143 162 0
147 160 0
142 154 0
140 160 0
137 153 0
148 165 0
135 156 0
137 156 0
144 162 0
142 157 0
143 154 0
145 156 0
149 161 0
144 155 0
138 152 0
140 151 0
136 151 0
142 155 0
138 153 0
143 154 0
138 145 0
146 154 0
134 135 0
142 149 0
138 145 0
138 146 0
139 146 0
142 148 0
142 148 0
139 146 0
133 136 0
136 144 0
144 146 0
143 148 0
141 143 0
145 147 0
147 152 0
144 148 0
142 145 0
140 142 0
137 140 0
154 158 0
145 148 0
148 150 0
146 151 0
147 151 0
147 149 0
146 147 0
149 153 0
150 152 0
149 150 0
145 146 0
147 145 0
147 147 0
145 145 0
147 147 0
147 148 0
148 148 0
154 159 0
151 155 0
145 148 0
150 152 0
151 151 0
152 157 0
148 148 0
150 154 0
156 158 0
154 159 0
153 161 0
152 153 0
149 150 0
151 155 0
156 164 0
153 160 0
157 164 0
157 164 0
155 161 0
158 164 0
154 158 0
153 157 0
159 167 0
158 165 0
162 173 0
157 164 0
161 172 0
159 168 0
162 171 0
163 172 0
163 173 0
160 170 0
161 168 0
163 171 0
165 174 0
162 171 0
163 174 0
160 170 0
174 197 0
174 197 0
173 197 0
174 197 0
173 197 0
172 196 0
173 197 0
171 196 0
173 196 0
173 196 0
172 196 0
175 198 0
173 197 0
173 197 0
173 197 0
172 196 0
171 196 0
172 196 0
173 197 0
171 196 0
173 196 0
170 194 0
171 196 0
171 195 0
172 196 0
170 195 0
171 196 0
171 196 0
172 196 0
169 193 0
170 195 0
171 196 0
170 195 0
170 195 0
171 196 0
170 194 0
172 196 0
169 195 0
167 193 0
171 195 0
171 196 0
169 195 0
169 195 0
169 194 0
171 196 0
168 194 0
167 193 0
168 194 0
169 195 0
169 195 0
170 195 0
169 194 0
165 193 0
169 194 0
168 194 0
167 194 0
171 195 0
170 195 0
164 193 0
165 193 0
166 193 0
167 194 0
168 194 0
166 193 0
169 194 0
165 193 0
167 194 0
165 193 0
170 195 0
162 191 0
166 193 0
168 194 0
168 195 0
166 194 0
166 194 0
168 195 0
161 192 0
163 193 0
167 194 0
166 195 0
165 193 0
167 194 0
167 194 0
161 192 0
167 194 0
164 194 0
165 193 0
168 196 0
162 193 0
166 194 0
167 194 0
160 191 0
163 193 0
162 191 0
162 193 0
165 194 0
162 193 0
157 190 0
157 190 0
160 193 0
160 192 0
161 191 0
162 193 0
165 194 0
161 192 0
158 191 0
166 195 0
156 190 0
160 191 0
153 190 0
158 191 0
160 192 0
159 191 0
155 189 0
158 189 0
159 192 0
159 192 0
160 192 0
157 191 0
161 192 0
161 191 0
162 193 0
161 192 0
161 193 0
154 188 0
157 191 0
156 190 0
155 189 0
154 190 0
158 190 0
161 191 0
155 189 0
151 186 0
158 191 0
152 188 0
150 188 0
157 191 0
155 191 0
156 190 0
151 189 0
150 188 0
152 188 0
153 189 0
150 186 0
154 188 0
153 187 0
146 184 0
148 185 0
142 183 0
148 187 0
145 185 0
147 184 0
148 186 0
149 186 0
146 186 0
148 183 0
149 186 0
146 186 0
144 184 0
142 183 0
145 184 0
140 182 0
151 187 0
150 185 0
148 187 0
150 185 0
140 181 0
140 182 0
146 184 0
148 186 0
140 178 0
135 183 0
152 188 0
145 184 0
135 178 0
138 183 0
149 184 0
141 182 0
149 184 0
136 180 0
141 181 0
134 176 0
137 176 0
141 181 0
140 180 0
134 177 0
134 180 0
145 182 0
153 186 0
132 176 0
128 176 0
131 179 0
131 177 0
134 176 0
135 178 0
133 175 0
133 174 0
142 180 0
133 177 0
144 177 0
124 172 0
128 171 0
136 179 0
135 177 0
136 177 0
137 176 0
143 181 0
140 176 0
129 172 0
136 179 0
139 178 0
140 177 0
135 172 0
138 176 0
130 168 0
135 174 0
138 177 0
138 178 0
135 172 0
137 172 0
135 175 0
141 176 0
120 167 0
133 172 0
128 169 0
132 171 0
128 168 0
128 168 0
137 176 0
128 173 0
135 172 0
140 177 0
142 178 0
134 168 0
132 174 0
134 173 0
132 169 0
139 172 0
130 169 0
138 170 0
130 169 0
136 173 0
132 168 0
142 174 0
140 178 0
143 176 0
141 174 0
140 174 0
139 172 0
139 170 0
134 168 0
139 174 0
144 173 0
135 169 0
140 174 0
140 170 0
142 173 0
144 173 0
140 171 0
140 171 0
141 169 0
135 170 0
135 172 0
135 168 0
142 173 0
149 173 0
140 169 0
143 173 0
145 175 0
148 173 0
141 170 0
138 169 0
145 168 0
144 174 0
140 166 0
139 165 0
140 165 0
134 163 0
151 177 0
143 167 0
141 164 0
134 164 0
141 169 0
145 168 0
139 167 0
140 167 0
140 165 0
141 166 0
144 165 0
145 165 0
142 166 0
146 168 0
148 167 0
141 163 0
153 170 0
148 166 0
145 166 0
141 162 0
141 159 0
136 158 0
142 162 0
141 157 0
140 160 0
144 162 0
147 167 0
142 157 0
139 157 0
146 163 0
142 158 0
139 156 0
146 161 0
140 158 0
142 161 0
140 154 0
140 151 0
139 154 0
150 162 0
145 155 0
146 156 0
145 160 0
144 155 0
137 149 0
140 149 0
139 150 0
137 143 0
142 153 0
147 155 0
141 152 0
139 149 0
147 160 0
150 158 0
142 152 0
140 146 0
149 153 0
140 147 0
149 153 0
145 149 0
145 148 0
145 151 0
144 145 0
148 152 0
145 146 0
148 151 0
143 145 0
140 139 0
143 146 0
135 137 0
146 152 0
147 152 0
141 142 0
145 149 0
146 151 0
145 147 0
141 143 0
144 143 0
138 139 0
149 153 0
145 145 0
153 155 0
146 148 0
148 150 0
145 144 0
153 159 0
149 152 0
155 158 0
148 148 0
157 162 0
155 159 0
157 162 0
150 152 0
148 150 0
152 155 0
151 157 0
154 158 0
152 155 0
153 156 0
152 156 0
158 165 0
162 170 0
155 160 0
157 162 0
157 160 0
157 164 0
164 171 0
160 168 0
162 169 0
159 167 0
159 166 0
164 175 0
158 163 0
160 167 0
164 176 0
162 173 0
158 167 0
165 176 0
158 169 0
161 169 0
161 172 0
158 169 0
162 174 0
172 197 0
173 197 0
173 197 0
174 197 0
173 196 0
172 196 0
173 197 0
175 198 0
173 196 0
172 196 0
174 197 0
172 196 0
172 195 0
172 196 0
173 196 0
171 195 0
170 194 0
172 196 0
172 196 0
171 196 0
174 197 0
172 196 0
171 195 0
172 196 0
171 195 0
169 195 0
171 196 0
170 195 0
171 196 0
171 196 0
171 196 0
171 196 0
169 194 0
171 196 0
171 196 0
170 195 0
171 195 0
168 194 0
169 195 0
168 194 0
170 195 0
170 195 0
170 195 0
170 195 0
167 193 0
169 195 0
170 195 0
169 195 0
167 194 0
169 194 0
168 194 0
166 193 0
169 194 0
167 192 0
169 194 0
170 195 0
167 194 0
167 194 0
167 195 0
168 194 0
169 194 0
165 193 0
169 195 0
168 194 0
163 192 0
168 194 0
167 193 0
170 196 0
168 194 0
165 192 0
164 193 0
163 192 0
166 193 0
160 191 0
164 193 0
166 192 0
164 192 0
166 194 0
165 193 0
164 193 0
163 191 0
165 193 0
164 193 0
161 192 0
163 193 0
167 195 0
163 193 0
164 192 0
162 192 0
166 194 0
160 191 0
162 193 0
164 193 0
162 193 0
162 193 0
158 190 0
164 194 0
159 191 0
159 192 0
161 193 0
168 195 0
162 194 0
163 192 0
162 193 0
165 194 0
162 192 0
164 194 0
162 193 0
156 189 0
161 192 0
160 193 0
157 191 0
157 192 0
159 192 0
161 193 0
157 191 0
162 192 0
153 189 0
158 191 0
159 191 0
158 190 0
155 190 0
155 189 0
164 192 0
164 194 0
159 191 0
153 189 0
157 191 0
155 189 0
154 190 0
153 190 0
159 192 0
156 190 0
153 188 0
155 190 0
151 190 0
158 190 0
153 190 0
152 188 0
153 188 0
154 190 0
146 188 0
146 186 0
151 189 0
156 190 0
157 191 0
156 190 0
148 186 0
147 185 0
142 185 0
142 183 0
148 187 0
140 183 0
153 189 0
135 181 0
148 186 0
148 185 0
139 182 0
149 186 0
145 181 0
152 188 0
136 180 0
144 185 0
149 186 0
142 184 0
145 184 0
145 186 0
142 182 0
148 185 0
141 184 0
133 177 0
140 180 0
140 179 0
143 181 0
148 185 0
144 183 0
134 178 0
141 179 0
131 178 0
141 180 0
144 183 0
140 182 0
134 178 0
136 181 0
143 182 0
135 178 0
140 178 0
139 177 0
136 178 0
139 179 0
140 179 0
138 179 0
144 183 0
132 178 0
139 180 0
137 176 0
141 181 0
145 180 0
127 173 0
127 169 0
127 173 0
141 177 0
132 176 0
139 180 0
140 179 0
135 178 0
134 176 0
142 179 0
129 174 0
139 177 0
126 173 0
133 175 0
134 176 0
139 173 0
131 171 0
123 172 0
144 182 0
136 175 0
135 177 0
148 180 0
136 171 0
126 173 0
136 175 0
136 175 0
126 168 0
129 174 0
131 171 0
135 173 0
137 173 0
145 178 0
142 176 0
128 167 0
139 175 0
142 180 0
139 177 0
139 175 0
142 178 0
139 173 0
135 170 0
136 169 0
133 170 0
135 170 0
137 171 0
140 169 0
141 174 0
125 169 0
142 171 0
141 172 0
134 164 0
132 171 0
130 165 0
138 174 0
146 177 0
137 171 0
145 170 0
149 178 0
133 167 0
140 174 0
142 171 0
146 178 0
147 176 0
142 173 0
140 175 0
135 166 0
136 167 0
145 176 0
143 171 0
150 175 0
145 170 0
139 168 0
145 174 0
143 172 0
139 170 0
140 171 0
145 166 0
135 164 0
140 168 0
138 167 0
143 170 0
139 162 0
139 163 0
145 173 0
139 167 0
146 167 0
140 167 0
141 168 0
148 169 0
146 172 0
148 170 0
145 171 0
136 165 0
138 158 0
138 161 0
140 167 0
140 162 0
141 163 0
140 162 0
147 167 0
148 164 0
140 159 0
142 166 0
145 165 0
138 157 0
132 158 0
137 159 0
142 158 0
145 164 0
144 159 0
142 160 0
141 159 0
146 164 0
137 154 0
147 161 0
138 153 0
141 159 0
142 155 0
144 158 0
137 151 0
147 160 0
143 160 0
148 160 0
139 152 0
143 155 0
142 154 0
138 149 0
149 161 0
140 151 0
138 153 0
143 151 0
142 148 0
143 152 0
140 148 0
142 151 0
144 150 0
141 147 0
148 150 0
149 154 0
146 150 0
138 146 0
142 146 0
150 154 0
143 148 0
142 145 0
147 150 0
139 143 0
141 141 0
143 148 0
138 141 0
148 154 0
144 149 0
145 147 0
149 153 0
144 146 0
141 142 0
146 147 0
145 148 0
145 150 0
151 155 0
155 157 0
149 151 0
146 148 0
149 152 0
153 160 0
150 156 0
148 152 0
153 160 0
150 155 0
149 151 0
153 157 0
153 155 0
155 157 0
153 157 0
152 158 0
151 153 0
150 151 0
154 156 0
161 169 0
155 159 0
156 162 0
151 156 0
157 162 0
156 164 0
165 174 0
161 169 0
153 158 0
153 157 0
157 160 0
158 165 0
156 160 0
161 166 0
160 167 0
162 170 0
158 166 0
162 170 0
158 165 0
160 168 0
160 170 0
162 172 0
163 173 0
161 170 0
173 197 0
174 197 0
173 197 0
173 197 0
173 196 0
172 196 0
173 197 0
174 197 0
173 197 0
173 196 0
173 197 0
173 196 0
172 196 0
171 195 0
172 196 0
173 196 0
173 197 0
173 197 0
171 196 0
172 196 0
172 196 0
171 196 0
173 197 0
171 196 0
171 195 0
170 194 0
172 196 0
171 196 0
169 194 0
170 195 0
170 195 0
172 196 0
170 195 0
171 195 0
170 195 0
171 196 0
171 196 0
171 195 0
169 195 0
171 196 0
169 195 0
171 196 0
171 196 0
170 195 0
169 195 0
168 194 0
168 194 0
169 194 0
169 195 0
170 195 0
169 195 0
166 192 0
169 195 0
167 193 0
169 194 0
168 194 0
167 194 0
166 193 0
169 194 0
168 194 0
165 193 0
168 193 0
166 194 0
170 195 0
165 193 0
168 195 0
168 194 0
167 193 0
169 195 0
165 194 0
168 194 0
163 192 0
163 192 0
164 193 0
169 195 0
166 194 0
165 193 0
166 194 0
166 194 0
163 193 0
166 193 0
166 194 0
166 195 0
169 195 0
165 194 0
167 194 0
160 192 0
166 194 0
163 193 0
164 193 0
164 193 0
162 192 0
169 194 0
169 195 0
167 193 0
161 193 0
161 193 0
161 193 0
159 192 0
163 193 0
165 195 0
162 193 0
165 193 0
162 192 0
162 193 0
159 192 0
160 192 0
158 191 0
154 191 0
162 193 0
163 193 0
162 194 0
159 192 0
158 192 0
161 193 0
163 193 0
161 193 0
158 190 0
162 192 0
153 190 0
156 191 0
155 190 0
153 188 0
148 186 0
154 188 0
159 193 0
155 189 0
157 190 0
163 193 0
158 192 0
153 189 0
153 188 0
162 192 0
156 190 0
155 189 0
145 186 0
155 189 0
154 190 0
155 189 0
158 192 0
145 186 0
152 187 0
147 187 0
155 190 0
153 189 0
158 190 0
150 186 0
147 185 0
155 189 0
152 188 0
154 190 0
161 191 0
144 184 0
146 186 0
146 186 0
145 186 0
152 188 0
141 182 0
137 180 0
148 187 0
146 185 0
152 187 0
137 180 0
150 185 0
147 184 0
144 183 0
148 187 0
147 185 0
148 184 0
143 183 0
145 182 0
144 183 0
147 186 0
147 185 0
139 181 0
145 184 0
139 182 0
153 186 0
142 181 0
142 180 0
139 181 0
149 184 0
138 181 0
146 181 0
145 182 0
138 183 0
147 181 0
142 178 0
136 177 0
143 178 0
138 177 0
141 181 0
147 181 0
142 182 0
138 177 0
141 180 0
137 176 0
135 174 0
136 176 0
133 176 0
128 173 0
140 178 0
132 173 0
134 176 0
133 175 0
148 183 0
146 185 0
133 178 0
145 180 0
128 170 0
139 177 0
136 179 0
131 174 0
128 174 0
134 173 0
137 175 0
139 181 0
134 175 0
132 173 0
150 181 0
139 179 0
136 173 0
140 177 0
139 174 0
133 171 0
137 172 0
131 172 0
135 174 0
137 173 0
134 173 0
131 171 0
146 177 0
138 172 0
137 175 0
133 169 0
137 174 0
138 174 0
136 173 0
147 178 0
141 176 0
140 175 0
137 173 0
138 172 0
142 173 0
139 173 0
140 172 0
147 175 0
136 171 0
133 169 0
152 180 0
135 171 0
137 169 0
134 166 0
145 177 0
144 175 0
134 166 0
135 169 0
138 169 0
144 173 0
143 174 0
148 178 0
132 172 0
138 174 0
150 177 0
139 166 0
141 169 0
145 174 0
134 167 0
143 174 0
139 166 0
145 176 0
143 171 0
147 172 0
143 173 0
150 173 0
143 169 0
142 168 0
135 167 0
142 165 0
146 172 0
143 171 0
140 167 0
131 155 0
147 174 0
142 171 0
141 165 0
149 167 0
142 166 0
142 171 0
139 164 0
144 165 0
142 164 0
147 171 0
144 170 0
143 163 0
143 164 0
145 165 0
141 164 0
135 160 0
146 167 0
148 165 0
146 162 0
140 160 0
137 162 0
143 162 0
147 164 0
142 162 0
146 164 0
148 165 0
144 159 0
137 157 0
140 154 0
135 153 0
145 159 0
147 162 0
146 162 0
143 159 0
145 164 0
145 159 0
147 164 0
138 150 0
141 152 0
145 162 0
148 164 0
150 161 0
138 151 0
144 153 0
139 148 0
142 153 0
144 153 0
141 152 0
146 154 0
140 148 0
145 157 0
143 149 0
143 147 0
147 156 0
147 152 0
144 148 0
142 148 0
139 144 0
142 147 0
143 148 0
146 149 0
146 153 0
152 158 0
153 158 0
151 158 0
146 150 0
152 156 0
146 150 0
148 155 0
146 146 0
144 147 0
148 152 0
148 149 0
154 157 0
151 156 0
154 159 0
146 147 0
152 155 0
152 156 0
148 154 0
151 159 0
144 148 0
151 155 0
153 156 0
145 146 0
152 157 0
151 154 0
150 153 0
158 165 0
153 157 0
154 158 0
155 162 0
157 162 0
155 158 0
150 153 0
154 159 0
151 153 0
153 159 0
160 166 0
159 166 0
159 166 0
159 167 0
158 164 0
160 168 0
157 166 0
160 168 0
159 169 0
157 163 0
159 169 0
162 170 0
158 164 0
159 166 0
166 175 0
163 174 0
165 177 0
160 170 0
165 177 0
173 197 0
173 197 0
172 196 0
174 197 0
174 197 0
173 196 0
173 196 0
172 196 0
172 196 0
173 196 0
172 196 0
174 197 0
173 196 0
172 196 0
170 194 0
171 196 0
171 195 0
171 195 0
171 196 0
173 197 0
171 196 0
172 196 0
172 196 0
172 196 0
172 196 0
170 194 0
172 196 0
171 196 0
170 195 0
171 195 0
171 196 0
171 196 0
170 195 0
171 195 0
170 194 0
169 194 0
170 195 0
170 195 0
171 195 0
168 194 0
171 196 0
169 194 0
170 195 0
167 193 0
171 195 0
168 194 0
169 195 0
168 194 0
167 194 0
171 196 0
171 196 0
166 193 0
168 194 0
170 195 0
167 194 0
170 195 0
168 195 0
164 192 0
168 194 0
169 195 0
167 194 0
164 193 0
168 195 0
166 194 0
168 194 0
165 193 0
165 194 0
168 194 0
167 193 0
167 195 0
169 195 0
167 194 0
163 192 0
165 192 0
165 194 0
166 193 0
166 194 0
167 194 0
166 193 0
170 195 0
169 195 0
167 194 0
166 194 0
162 192 0
166 194 0
161 191 0
162 194 0
163 193 0
166 195 0
164 194 0
162 191 0
164 193 0
160 192 0
161 192 0
164 194 0
159 192 0
158 191 0
163 193 0
164 192 0
157 190 0
160 192 0
158 190 0
163 193 0
157 193 0
161 192 0
162 192 0
159 190 0
163 193 0
159 193 0
154 190 0
162 192 0
158 191 0
164 193 0
161 192 0
158 192 0
155 189 0
160 192 0
157 191 0
160 192 0
159 190 0
160 191 0
160 192 0
162 192 0
161 193 0
165 193 0
155 189 0
152 189 0
161 192 0
155 190 0
157 190 0
157 191 0
156 189 0
152 188 0
161 191 0
153 189 0
154 189 0
158 191 0
157 189 0
148 186 0
152 188 0
153 189 0
155 189 0
153 189 0
158 191 0
153 190 0
140 183 0
147 188 0
146 185 0
150 186 0
151 188 0
152 187 0
151 187 0
144 184 0
147 187 0
151 185 0
146 186 0
150 185 0
142 186 0
149 185 0
144 185 0
147 185 0
150 187 0
147 184 0
153 187 0
142 182 0
144 182 0
148 184 0
149 185 0
145 183 0
144 182 0
150 185 0
146 185 0
142 183 0
141 179 0
135 180 0
139 182 0
146 184 0
144 183 0
138 180 0
139 180 0
140 178 0
145 182 0
143 182 0
140 179 0
141 182 0
147 184 0
151 186 0
138 179 0
148 185 0
137 176 0
139 179 0
140 178 0
139 178 0
143 179 0
137 180 0
143 178 0
143 180 0
140 180 0
140 182 0
144 182 0
138 178 0
144 180 0
137 175 0
142 178 0
135 176 0
129 175 0
132 176 0
135 175 0
140 179 0
143 181 0
140 178 0
139 179 0
139 176 0
138 178 0
125 172 0
132 176 0
140 177 0
129 171 0
140 176 0
136 176 0
139 177 0
133 174 0
143 179 0
135 175 0
148 180 0
132 169 0
131 168 0
138 176 0
134 173 0
133 171 0
142 178 0
137 173 0
143 179 0
135 173 0
133 170 0
137 174 0
132 171 0
137 176 0
141 175 0
141 174 0
140 175 0
141 177 0
144 174 0
136 171 0
139 175 0
136 173 0
141 177 0
139 170 0
144 174 0
138 174 0
133 172 0
136 172 0
138 172 0
141 176 0
143 175 0
134 172 0
146 177 0
136 167 0
138 170 0
147 173 0
140 172 0
142 171 0
138 170 0
137 170 0
142 171 0
141 171 0
145 175 0
137 169 0
145 173 0
140 175 0
142 170 0
147 179 0
140 168 0
151 179 0
148 175 0
140 170 0
136 165 0
142 169 0
142 171 0
135 164 0
139 165 0
147 173 0
133 160 0
138 166 0
138 169 0
141 168 0
143 165 0
140 168 0
140 166 0
145 171 0
146 171 0
145 168 0
138 161 0
136 162 0
146 171 0
145 168 0
147 169 0
145 168 0
146 165 0
139 159 0
145 167 0
148 165 0
140 163 0
145 164 0
145 165 0
141 161 0
143 159 0
144 166 0
151 173 0
151 172 0
137 154 0
143 159 0
143 159 0
138 161 0
144 159 0
140 158 0
144 159 0
153 165 0
146 156 0
146 160 0
149 164 0
154 169 0
144 155 0
146 160 0
147 160 0
143 159 0
143 157 0
141 151 0
150 160 0
144 159 0
154 164 0
152 164 0
141 153 0
147 159 0
148 155 0
145 156 0
143 152 0
145 153 0
148 159 0
139 145 0
146 152 0
145 150 0
151 162 0
148 156 0
145 153 0
149 156 0
144 147 0
151 158 0
147 154 0
144 148 0
146 149 0
148 152 0
144 150 0
155 161 0
140 140 0
151 157 0
151 155 0
153 157 0
154 158 0
147 150 0
148 152 0
150 154 0
150 155 0
152 157 0
150 153 0
149 153 0
151 158 0
152 156 0
150 153 0
145 149 0
146 150 0
157 162 0
152 159 0
153 160 0
153 158 0
158 162 0
152 158 0
155 163 0
152 155 0
151 153 0
159 164 0
155 163 0
159 165 0
159 164 0
157 165 0
158 164 0
159 164 0
160 169 0
157 163 0
161 169 0
163 173 0
157 164 0
157 163 0
162 172 0
160 168 0
160 169 0
162 172 0
159 166 0
158 166 0
161 169 0
173 196 0
174 197 0
173 196 0
174 197 0
173 197 0
172 196 0
175 198 0
173 196 0
172 196 0
173 196 0
173 197 0
172 196 0
172 196 0
172 196 0
172 196 0
171 195 0
171 196 0
172 196 0
173 196 0
172 196 0
171 195 0
173 197 0
169 194 0
172 196 0
170 195 0
172 196 0
170 195 0
171 196 0
171 196 0
173 196 0
171 196 0
170 195 0
170 195 0
171 195 0
171 196 0
169 195 0
171 196 0
173 197 0
171 196 0
171 196 0
170 195 0
170 195 0
170 196 0
171 196 0
171 196 0
168 194 0
170 195 0
168 193 0
167 194 0
170 196 0
168 194 0
168 194 0
169 195 0
168 194 0
169 195 0
166 193 0
169 195 0
166 193 0
166 194 0
168 195 0
168 195 0
166 194 0
165 193 0
168 195 0
168 195 0
167 194 0
170 195 0
168 195 0
163 192 0
168 195 0
167 194 0
165 193 0
170 195 0
165 193 0
166 196 0
164 194 0
164 193 0
162 193 0
161 192 0
165 194 0
163 192 0
163 193 0
165 194 0
161 192 0
161 193 0
164 193 0
167 194 0
162 192 0
168 195 0
164 193 0
162 192 0
167 195 0
162 193 0
163 193 0
162 194 0
163 193 0
162 193 0
164 193 0
162 194 0
158 192 0
160 192 0
162 193 0
165 195 0
154 189 0
162 193 0
167 195 0
159 193 0
162 193 0
166 194 0
159 192 0
159 192 0
157 192 0
159 192 0
162 193 0
164 193 0
157 190 0
161 192 0
164 194 0
161 192 0
166 194 0
158 190 0
153 188 0
162 193 0
151 187 0
154 190 0
154 189 0
154 189 0
160 191 0
156 191 0
157 189 0
151 188 0
151 189 0
159 191 0
157 192 0
149 187 0
155 190 0
156 189 0
145 185 0
159 192 0
152 187 0
152 187 0
153 187 0
155 189 0
151 186 0
145 185 0
150 187 0
158 190 0
145 184 0
151 187 0
152 186 0
150 188 0
147 186 0
150 185 0
156 190 0
156 190 0
146 184 0
150 187 0
148 184 0
150 185 0
142 185 0
151 186 0
143 184 0
145 186 0
145 183 0
148 186 0
143 181 0
149 183 0
149 187 0
148 184 0
145 184 0
151 186 0
147 186 0
139 180 0
148 183 0
143 183 0
143 182 0
136 180 0
149 184 0
145 183 0
139 182 0
140 182 0
150 185 0
136 178 0
132 178 0
147 182 0
146 182 0
145 183 0
141 181 0
140 178 0
138 178 0
147 183 0
146 182 0
140 180 0
135 177 0
139 181 0
143 180 0
145 182 0
131 177 0
136 180 0
130 173 0
132 178 0
142 178 0
147 183 0
142 179 0
139 176 0
136 179 0
139 180 0
137 177 0
143 183 0
141 176 0
140 178 0
144 180 0
127 175 0
138 180 0
138 178 0
140 177 0
137 179 0
133 175 0
138 176 0
135 172 0
144 178 0
143 180 0
142 179 0
144 176 0
136 174 0
146 179 0
132 173 0
138 175 0
145 180 0
136 175 0
141 179 0
142 179 0
137 175 0
140 173 0
142 176 0
138 170 0
136 171 0
140 175 0
139 174 0
137 177 0
140 174 0
140 175 0
135 169 0
140 174 0
144 176 0
139 173 0
144 172 0
143 174 0
142 172 0
145 178 0
147 176 0
137 174 0
136 171 0
136 171 0
147 177 0
139 173 0
145 172 0
140 174 0
151 175 0
140 176 0
145 174 0
138 171 0
141 169 0
143 171 0
146 175 0
147 177 0
142 174 0
146 176 0
145 171 0
138 167 0
144 173 0
145 172 0
138 170 0
141 174 0
141 168 0
135 169 0
149 176 0
141 168 0
142 171 0
142 170 0
151 179 0
145 169 0
146 170 0
138 165 0
141 168 0
144 169 0
153 174 0
150 174 0
138 164 0
151 174 0
141 166 0
140 165 0
147 172 0
149 175 0
140 164 0
143 167 0
146 170 0
138 162 0
143 167 0
142 165 0
139 161 0
140 165 0
143 164 0
136 161 0
146 166 0
149 168 0
149 167 0
152 168 0
138 159 0
144 163 0
152 168 0
148 170 0
141 159 0
142 160 0
135 153 0
146 161 0
147 163 0
141 158 0
143 160 0
135 151 0
149 166 0
150 165 0
141 154 0
152 163 0
148 160 0
148 160 0
142 156 0
147 160 0
148 157 0
140 154 0
141 154 0
151 161 0
150 163 0
143 153 0
154 164 0
150 160 0
151 162 0
146 155 0
152 162 0
150 160 0
148 155 0
156 165 0
144 153 0
144 154 0
145 154 0
146 153 0
145 153 0
150 158 0
151 159 0
147 150 0
155 161 0
155 163 0
153 158 0
146 151 0
152 156 0
147 154 0
151 157 0
152 157 0
154 158 0
153 161 0
152 157 0
150 155 0
157 163 0
152 160 0
157 163 0
150 154 0
147 152 0
150 156 0
149 153 0
153 157 0
154 158 0
155 161 0
146 147 0
155 159 0
153 158 0
161 168 0
152 159 0
159 164 0
148 154 0
156 164 0
160 165 0
154 160 0
156 159 0
154 159 0
151 154 0
161 169 0
159 166 0
153 158 0
161 171 0
159 168 0
159 167 0
158 163 0
159 168 0
157 164 0
157 163 0
160 169 0
164 176 0
160 169 0
163 175 0
157 169 0
173 196 0
174 197 0
174 197 0
173 197 0
173 197 0
174 197 0
171 195 0
172 196 0
171 196 0
172 196 0
171 196 0
173 197 0
173 196 0
172 196 0
172 196 0
173 196 0
172 196 0
172 196 0
173 196 0
170 195 0
172 196 0
170 195 0
171 196 0
171 195 0
171 196 0
171 196 0
170 196 0
172 196 0
171 196 0
168 194 0
167 194 0
171 195 0
174 197 0
172 196 0
168 194 0
167 194 0
169 195 0
169 195 0
168 194 0
170 195 0
170 195 0
173 197 0
170 195 0
170 195 0
168 194 0
171 196 0
172 196 0
170 195 0
171 195 0
166 194 0
168 194 0
167 194 0
167 194 0
169 195 0
167 194 0
169 195 0
170 196 0
169 195 0
170 195 0
169 195 0
170 196 0
168 195 0
166 194 0
169 196 0
168 194 0
169 195 0
165 194 0
170 195 0
166 193 0
164 192 0
167 193 0
163 193 0
171 196 0
165 194 0
168 195 0
166 193 0
165 194 0
163 193 0
162 193 0
163 193 0
168 195 0
167 195 0
164 193 0
163 193 0
165 194 0
160 190 0
167 194 0
160 193 0
162 192 0
163 194 0
158 192 0
161 192 0
165 192 0
164 194 0
165 193 0
165 192 0
166 195 0
163 193 0
164 193 0
162 191 0
166 193 0
160 192 0
165 194 0
165 194 0
161 192 0
162 192 0
162 193 0
159 191 0
167 194 0
163 193 0
162 192 0
159 191 0
156 191 0
162 194 0
162 193 0
152 188 0
157 191 0
162 193 0
151 188 0
163 193 0
158 192 0
161 192 0
155 190 0
160 191 0
164 193 0
158 190 0
155 189 0
158 190 0
158 190 0
158 191 0
154 186 0
155 189 0
151 187 0
160 191 0
154 189 0
156 189 0
158 190 0
153 189 0
151 189 0
153 186 0
154 189 0
145 186 0
155 190 0
152 188 0
142 185 0
154 189 0
160 189 0
152 188 0
146 185 0
148 186 0
148 187 0
160 191 0
148 185 0
154 187 0
152 187 0
152 188 0
155 188 0
152 187 0
143 182 0
156 188 0
144 184 0
131 178 0
144 185 0
149 184 0
148 188 0
136 180 0
148 185 0
146 183 0
138 182 0
144 182 0
140 183 0
142 183 0
150 186 0
142 182 0
145 184 0
148 183 0
148 185 0
141 180 0
155 187 0
149 187 0
142 183 0
143 179 0
147 183 0
145 182 0
127 173 0
137 179 0
146 183 0
138 179 0
137 177 0
140 177 0
138 179 0
141 178 0
142 182 0
138 176 0
139 176 0
131 176 0
141 178 0
146 183 0
148 182 0
137 179 0
136 179 0
140 178 0
145 183 0
127 176 0
135 173 0
136 177 0
140 176 0
144 182 0
139 176 0
142 181 0
139 179 0
140 180 0
143 182 0
146 183 0
136 175 0
135 181 0
141 177 0
135 173 0
137 176 0
147 178 0
138 174 0
147 181 0
147 181 0
142 177 0
142 177 0
144 180 0
139 178 0
133 171 0
144 179 0
142 177 0
136 173 0
143 175 0
145 177 0
142 177 0
131 168 0
132 171 0
146 180 0
141 173 0
154 183 0
142 178 0
135 172 0
138 177 0
143 177 0
146 180 0
146 180 0
143 178 0
138 174 0
139 176 0
141 176 0
145 176 0
135 172 0
138 170 0
146 175 0
136 173 0
142 176 0
138 172 0
143 176 0
155 181 0
143 174 0
142 175 0
137 169 0
147 176 0
153 180 0
138 168 0
138 171 0
146 175 0
149 174 0
139 172 0
147 171 0
140 171 0
144 174 0
151 174 0
141 171 0
145 170 0
147 175 0
148 176 0
148 174 0
143 174 0
140 169 0
145 174 0
149 177 0
140 166 0
148 175 0
150 173 0
140 164 0
140 171 0
148 171 0
149 174 0
143 169 0
142 170 0
143 166 0
146 167 0
142 167 0
148 170 0
152 172 0
149 170 0
146 173 0
151 171 0
150 173 0
143 166 0
144 167 0
141 163 0
145 166 0
142 166 0
153 171 0
147 169 0
144 164 0
142 160 0
146 168 0
144 164 0
146 163 0
147 165 0
151 164 0
145 163 0
144 160 0
145 163 0
151 166 0
144 164 0
151 166 0
144 163 0
139 153 0
143 155 0
139 153 0
144 160 0
139 148 0
148 162 0
145 159 0
146 158 0
148 162 0
141 159 0
149 159 0
147 164 0
148 164 0
152 169 0
149 164 0
140 154 0
146 159 0
143 154 0
151 162 0
145 155 0
139 150 0
151 162 0
140 149 0
152 158 0
150 160 0
144 150 0
147 158 0
150 161 0
148 155 0
152 160 0
147 153 0
149 154 0
147 154 0
150 156 0
147 151 0
154 161 0
147 152 0
155 164 0
145 149 0
147 151 0
150 156 0
146 153 0
150 155 0
152 156 0
157 164 0
152 158 0
149 153 0
154 158 0
152 156 0
153 158 0
152 155 0
150 157 0
154 160 0
154 159 0
148 151 0
149 152 0
156 161 0
160 167 0
154 160 0
157 166 0
159 167 0
152 156 0
156 162 0
160 171 0
156 163 0
154 164 0
159 168 0
159 167 0
153 161 0
164 177 0
157 167 0
161 170 0
162 171 0
162 172 0
159 167 0
162 169 0
159 167 0
162 169 0
158 167 0
158 166 0
171 195 0
173 196 0
173 197 0
174 197 0
174 197 0
171 195 0
172 196 0
172 196 0
174 197 0
172 197 0
173 197 0
174 197 0
171 195 0
172 196 0
173 196 0
173 196 0
171 196 0
171 195 0
173 196 0
172 196 0
170 194 0
170 195 0
170 195 0
172 196 0
171 196 0
171 196 0
172 196 0
172 196 0
170 195 0
169 194 0
171 196 0
172 196 0
170 195 0
171 196 0
172 196 0
172 196 0
171 195 0
171 195 0
170 196 0
170 195 0
170 196 0
166 193 0
169 195 0
170 195 0
169 195 0
168 194 0
170 195 0
169 195 0
167 194 0
172 196 0
169 195 0
167 194 0
165 193 0
165 194 0
167 194 0
171 196 0
169 195 0
167 193 0
169 194 0
165 194 0
164 193 0
169 195 0
167 194 0
164 193 0
169 194 0
165 194 0
166 194 0
170 195 0
164 194 0
168 195 0
165 193 0
163 193 0
167 195 0
163 193 0
168 195 0
168 194 0
170 195 0
168 194 0
163 193 0
159 192 0
161 192 0
165 195 0
164 194 0
164 194 0
165 192 0
163 193 0
162 194 0
160 192 0
166 194 0
159 192 0
161 193 0
164 193 0
166 194 0
163 193 0
161 193 0
159 192 0
158 193 0
167 195 0
165 194 0
165 194 0
161 192 0
158 192 0
166 194 0
162 191 0
161 193 0
162 192 0
162 193 0
158 192 0
160 192 0
160 192 0
162 192 0
158 192 0
161 191 0
161 193 0
162 193 0
160 193 0
158 190 0
157 190 0
162 192 0
159 190 0
156 190 0
162 192 0
162 193 0
157 190 0
154 187 0
155 190 0
155 191 0
152 188 0
156 190 0
158 192 0
155 187 0
156 190 0
158 190 0
155 190 0
154 188 0
150 187 0
159 192 0
150 187 0
157 189 0
147 184 0
161 192 0
161 192 0
148 185 0
143 183 0
151 187 0
142 184 0
146 184 0
152 186 0
150 187 0
158 190 0
156 188 0
150 186 0
149 186 0
152 187 0
148 186 0
152 187 0
149 186 0
147 186 0
149 185 0
151 186 0
155 187 0
138 181 0
144 186 0
152 186 0
142 181 0
147 184 0
147 186 0
134 180 0
149 186 0
146 183 0
150 187 0
151 186 0
152 185 0
142 181 0
146 183 0
147 183 0
140 180 0
149 183 0
141 184 0
144 184 0
140 179 0
138 180 0
139 179 0
143 184 0
146 182 0
144 184 0
138 179 0
151 181 0
133 177 0
143 180 0
150 181 0
149 183 0
137 180 0
140 178 0
149 183 0
145 182 0
142 180 0
147 182 0
139 180 0
138 178 0
131 178 0
144 180 0
139 178 0
129 178 0
147 181 0
152 185 0
145 184 0
140 178 0
144 180 0
139 182 0
135 177 0
134 175 0
138 178 0
143 177 0
138 176 0
142 180 0
141 180 0
139 179 0
140 181 0
134 175 0
146 181 0
144 178 0
130 174 0
138 177 0
133 175 0
133 174 0
145 179 0
145 176 0
134 175 0
144 180 0
148 178 0
142 177 0
150 180 0
131 168 0
135 172 0
148 178 0
141 175 0
142 174 0
142 172 0
134 174 0
141 175 0
155 179 0
153 184 0
138 171 0
142 173 0
146 177 0
135 171 0
142 177 0
154 184 0
138 175 0
150 179 0
141 174 0
138 170 0
138 170 0
141 174 0
140 174 0
145 177 0
143 175 0
144 175 0
142 175 0
136 169 0
139 169 0
144 178 0
135 168 0
146 178 0
147 174 0
145 176 0
147 177 0
142 173 0
144 173 0
147 171 0
150 178 0
141 169 0
139 171 0
140 172 0
148 175 0
150 178 0
148 177 0
138 172 0
149 177 0
149 173 0
149 173 0
146 171 0
149 175 0
138 165 0
138 169 0
140 170 0
146 174 0
148 171 0
147 171 0
139 168 0
148 172 0
148 170 0
149 170 0
150 174 0
147 170 0
147 169 0
147 168 0
150 170 0
145 171 0
152 172 0
148 171 0
145 167 0
144 164 0
149 174 0
145 171 0
146 165 0
146 165 0
147 162 0
147 166 0
144 168 0
146 162 0
146 163 0
154 172 0
146 163 0
146 166 0
153 167 0
147 163 0
152 168 0
148 167 0
147 164 0
142 161 0
150 165 0
141 156 0
148 164 0
139 159 0
149 162 0
149 162 0
150 164 0
152 164 0
149 163 0
150 165 0
146 155 0
145 160 0
148 158 0
152 164 0
143 156 0
147 156 0
149 156 0
148 158 0
147 157 0
151 161 0
151 160 0
149 159 0
144 156 0
146 153 0
148 155 0
151 161 0
150 157 0
152 160 0
152 158 0
150 156 0
146 157 0
150 157 0
147 153 0
149 156 0
155 161 0
145 149 0
160 170 0
151 156 0
155 161 0
149 154 0
155 161 0
150 160 0
149 156 0
152 157 0
148 157 0
150 158 0
156 163 0
151 157 0
156 164 0
155 159 0
152 160 0
157 163 0
156 163 0
155 160 0
155 159 0
159 163 0
154 160 0
151 156 0
158 164 0
157 165 0
156 163 0
159 167 0
158 164 0
157 165 0
158 163 0
162 167 0
156 162 0
159 167 0
158 165 0
162 172 0
159 166 0
163 173 0
161 167 0
159 168 0
161 169 0
157 167 0
162 171 0
149 157 0
173 196 0
174 197 0
173 197 0
174 197 0
173 197 0
173 196 0
172 196 0
173 196 0
172 196 0
172 196 0
173 197 0
172 196 0
171 196 0
173 197 0
173 196 0
172 196 0
172 196 0
171 196 0
170 195 0
173 197 0
172 196 0
171 196 0
170 195 0
172 196 0
170 196 0
172 196 0
168 193 0
169 195 0
173 196 0
170 195 0
171 196 0
171 196 0
171 196 0
169 195 0
172 196 0
169 195 0
170 196 0
170 195 0
167 194 0
170 195 0
169 195 0
168 194 0
167 193 0
169 194 0
169 195 0
167 194 0
165 193 0
168 194 0
167 193 0
168 194 0
168 195 0
167 194 0
168 193 0
169 195 0
165 194 0
168 195 0
169 194 0
169 194 0
170 195 0
168 195 0
168 195 0
171 195 0
170 195 0
161 193 0
167 194 0
171 196 0
166 193 0
167 194 0
166 194 0
167 194 0
166 194 0
168 195 0
167 195 0
167 195 0
168 194 0
166 194 0
163 191 0
165 194 0
159 192 0
167 195 0
167 195 0
161 192 0
160 193 0
166 194 0
163 193 0
171 196 0
161 192 0
163 193 0
160 192 0
163 194 0
164 192 0
165 194 0
165 195 0
164 195 0
163 193 0
163 193 0
163 192 0
158 192 0
159 192 0
161 190 0
160 191 0
161 192 0
161 192 0
168 195 0
161 192 0
162 192 0
159 190 0
166 195 0
161 192 0
162 192 0
158 189 0
156 190 0
157 189 0
152 189 0
162 192 0
159 193 0
157 191 0
161 191 0
161 193 0
161 193 0
156 192 0
155 190 0
152 188 0
161 191 0
161 192 0
159 190 0
158 191 0
147 184 0
160 192 0
159 191 0
158 191 0
154 190 0
156 190 0
153 187 0
157 188 0
154 189 0
155 190 0
152 188 0
152 189 0
161 193 0
155 190 0
157 191 0
153 189 0
149 186 0
155 189 0
151 187 0
159 190 0
152 188 0
156 189 0
154 188 0
154 189 0
149 186 0
146 184 0
156 191 0
150 184 0
153 187 0
146 184 0
153 188 0
151 189 0
151 187 0
155 186 0
147 186 0
152 186 0
144 182 0
147 186 0
143 184 0
148 184 0
145 184 0
148 184 0
148 186 0
148 185 0
146 185 0
143 182 0
146 185 0
147 183 0
139 178 0
144 182 0
147 183 0
146 183 0
143 182 0
146 185 0
141 178 0
143 185 0
150 186 0
137 182 0
139 179 0
154 186 0
137 177 0
147 181 0
149 184 0
147 180 0
148 181 0
146 181 0
136 175 0
135 177 0
144 181 0
138 177 0
145 182 0
143 180 0
144 178 0
153 184 0
141 179 0
140 179 0
136 177 0
139 180 0
144 181 0
135 177 0
142 177 0
140 177 0
143 180 0
133 173 0
135 177 0
141 178 0
145 181 0
140 179 0
142 177 0
136 177 0
146 182 0
145 182 0
139 177 0
137 176 0
138 177 0
140 179 0
131 173 0
142 176 0
141 178 0
147 180 0
140 177 0
147 180 0
137 172 0
141 179 0
146 178 0
147 182 0
135 177 0
145 179 0
138 174 0
146 178 0
142 177 0
145 179 0
142 178 0
138 178 0
142 176 0
136 175 0
147 176 0
141 176 0
144 175 0
148 178 0
149 176 0
138 174 0
150 182 0
142 174 0
144 177 0
152 181 0
141 177 0
145 176 0
149 178 0
140 168 0
144 176 0
142 173 0
145 177 0
142 177 0
151 177 0
142 173 0
138 175 0
145 173 0
149 177 0
147 175 0
143 174 0
137 171 0
142 169 0
147 176 0
136 165 0
148 174 0
146 173 0
150 176 0
149 177 0
145 174 0
145 171 0
151 176 0
143 171 0
155 181 0
146 171 0
136 165 0
147 172 0
150 174 0
147 177 0
141 169 0
147 169 0
148 172 0
149 172 0
149 173 0
149 175 0
147 170 0
148 174 0
140 169 0
143 168 0
143 161 0
149 173 0
142 167 0
147 169 0
150 173 0
145 170 0
155 178 0
154 172 0
145 165 0
144 165 0
146 172 0
151 168 0
151 169 0
142 165 0
145 166 0
146 163 0
142 163 0
148 172 0
150 169 0
138 165 0
145 164 0
148 167 0
141 158 0
144 161 0
147 162 0
145 156 0
150 169 0
138 154 0
156 169 0
156 164 0
145 158 0
149 165 0
139 153 0
147 162 0
146 161 0
155 170 0
156 166 0
147 160 0
150 163 0
145 161 0
150 163 0
148 163 0
146 159 0
153 166 0
147 157 0
145 151 0
149 160 0
151 158 0
149 159 0
150 162 0
151 158 0
152 161 0
147 158 0
144 152 0
150 161 0
155 167 0
150 157 0
153 161 0
150 155 0
149 159 0
150 155 0
150 154 0
152 160 0
152 162 0
155 166 0
147 155 0
157 163 0
148 155 0
157 163 0
152 159 0
151 159 0
152 159 0
151 157 0
153 160 0
151 156 0
150 155 0
151 157 0
151 158 0
153 156 0
154 161 0
151 154 0
158 162 0
154 162 0
155 160 0
154 163 0
155 161 0
153 160 0
156 164 0
154 162 0
157 164 0
157 167 0
162 170 0
157 166 0
160 169 0
157 163 0
158 166 0
157 165 0
162 172 0
157 166 0
165 175 0
159 165 0
163 174 0
162 173 0
160 171 0
173 196 0
172 196 0
173 197 0
174 197 0
173 197 0
173 197 0
173 197 0
173 196 0
172 196 0
172 196 0
171 196 0
171 196 0
170 196 0
172 196 0
173 197 0
171 196 0
172 196 0
172 195 0
172 196 0
171 195 0
171 195 0
172 196 0
172 196 0
170 195 0
172 196 0
170 195 0
171 196 0
171 195 0
170 196 0
170 196 0
170 196 0
171 196 0
171 196 0
169 194 0
168 194 0
171 195 0
169 195 0
170 195 0
168 194 0
167 193 0
170 195 0
170 195 0
166 193 0
167 194 0
171 196 0
169 194 0
165 193 0
167 194 0
171 196 0
166 193 0
165 193 0
167 195 0
167 194 0
167 194 0
171 196 0
163 192 0
167 195 0
169 194 0
170 195 0
166 194 0
167 195 0
167 195 0
166 194 0
166 194 0
167 193 0
170 195 0
167 194 0
167 194 0
166 194 0
168 194 0
167 194 0
167 195 0
164 194 0
168 195 0
168 194 0
167 194 0
164 193 0
169 196 0
162 194 0
168 195 0
167 194 0
163 193 0
167 195 0
164 193 0
161 191 0
162 192 0
158 193 0
165 194 0
162 193 0
158 192 0
159 191 0
157 191 0
161 193 0
165 194 0
157 191 0
163 194 0
158 192 0
167 195 0
159 192 0
155 190 0
163 193 0
162 193 0
165 194 0
161 192 0
161 193 0
154 190 0
164 194 0
162 192 0
161 192 0
162 193 0
159 192 0
156 190 0
159 190 0
161 191 0
155 190 0
156 190 0
157 192 0
157 191 0
163 192 0
162 193 0
161 193 0
160 192 0
154 189 0
159 189 0
147 186 0
152 187 0
160 192 0
160 189 0
150 189 0
156 189 0
156 189 0
155 191 0
153 190 0
158 189 0
155 190 0
149 184 0
152 190 0
162 191 0
154 189 0
154 187 0
158 190 0
155 192 0
160 191 0
152 190 0
150 185 0
151 187 0
157 188 0
153 189 0
152 187 0
143 184 0
153 186 0
147 185 0
160 191 0
151 186 0
152 188 0
161 191 0
157 190 0
145 184 0
148 186 0
151 186 0
146 184 0
150 185 0
150 185 0
150 186 0
150 183 0
146 183 0
144 184 0
144 182 0
146 184 0
150 186 0
139 183 0
156 186 0
152 187 0
142 184 0
152 184 0
143 181 0
155 188 0
138 178 0
159 190 0
154 189 0
146 182 0
141 181 0
142 181 0
147 185 0
145 185 0
147 182 0
148 183 0
147 185 0
141 178 0
148 183 0
135 175 0
143 179 0
141 179 0
136 176 0
145 182 0
147 183 0
140 178 0
145 181 0
129 174 0
143 180 0
143 180 0
145 182 0
150 185 0
147 182 0
134 178 0
145 182 0
145 183 0
141 179 0
138 182 0
142 179 0
149 179 0
139 180 0
138 177 0
145 181 0
146 179 0
139 181 0
148 181 0
143 181 0
136 176 0
139 177 0
142 178 0
142 179 0
153 184 0
146 181 0
149 180 0
138 173 0
142 178 0
140 175 0
148 184 0
146 180 0
138 178 0
146 181 0
136 173 0
138 174 0
133 171 0
143 175 0
133 174 0
147 180 0
140 176 0
146 178 0
145 179 0
141 177 0
137 175 0
140 175 0
148 182 0
145 177 0
143 174 0
141 172 0
132 165 0
147 176 0
143 174 0
142 176 0
137 172 0
137 170 0
145 181 0
141 176 0
143 175 0
142 175 0
154 182 0
150 180 0
142 176 0
150 178 0
144 173 0
147 175 0
145 177 0
147 174 0
141 172 0
141 170 0
151 179 0
137 171 0
144 178 0
152 177 0
133 169 0
152 179 0
145 175 0
142 170 0
146 173 0
145 171 0
145 175 0
153 178 0
136 167 0
146 172 0
152 177 0
149 173 0
145 172 0
144 173 0
142 166 0
144 171 0
140 169 0
141 166 0
149 175 0
146 173 0
150 170 0
145 166 0
148 169 0
141 167 0
144 170 0
146 170 0
151 171 0
147 172 0
151 174 0
149 169 0
140 163 0
153 169 0
149 168 0
145 170 0
145 168 0
150 173 0
142 163 0
152 176 0
153 170 0
142 163 0
147 166 0
143 165 0
152 173 0
151 170 0
146 165 0
147 165 0
150 169 0
148 167 0
149 168 0
144 161 0
150 164 0
148 164 0
144 159 0
151 167 0
148 167 0
153 166 0
148 162 0
146 159 0
146 164 0
148 162 0
146 158 0
140 157 0
149 166 0
150 164 0
146 161 0
150 160 0
153 165 0
148 161 0
153 165 0
141 157 0
150 161 0
148 158 0
149 158 0
151 162 0
152 163 0
155 169 0
150 161 0
153 161 0
145 154 0
152 163 0
150 163 0
153 162 0
151 159 0
149 157 0
146 154 0
157 168 0
149 159 0
148 153 0
160 168 0
153 164 0
155 164 0
155 163 0
148 154 0
153 159 0
160 167 0
153 160 0
151 157 0
153 161 0
158 164 0
152 157 0
157 166 0
152 160 0
154 157 0
155 163 0
162 170 0
158 168 0
156 165 0
157 165 0
156 161 0
161 170 0
155 164 0
153 162 0
152 163 0
163 171 0
157 162 0
157 162 0
158 166 0
157 169 0
158 167 0
161 168 0
159 168 0
158 164 0
161 169 0
156 166 0
161 169 0
165 175 0
159 170 0
156 166 0
173 197 0
173 197 0
172 196 0
172 197 0
172 196 0
172 195 0
172 196 0
173 197 0
172 196 0
172 196 0
172 196 0
172 196 0
173 196 0
171 196 0
171 196 0
172 196 0
172 196 0
171 196 0
171 196 0
170 195 0
172 196 0
170 195 0
173 197 0
172 197 0
169 195 0
172 196 0
171 196 0
170 195 0
169 195 0
171 196 0
171 196 0
172 196 0
169 195 0
172 196 0
172 195 0
173 196 0
169 195 0
172 196 0
170 195 0
167 193 0
169 195 0
167 194 0
170 195 0
171 196 0
171 196 0
170 196 0
168 194 0
168 194 0
166 195 0
170 195 0
168 194 0
170 195 0
169 195 0
166 194 0
166 194 0
168 195 0
165 193 0
167 194 0
164 194 0
162 192 0
173 197 0
168 194 0
169 195 0
166 194 0
167 195 0
168 195 0
168 194 0
165 194 0
166 194 0
166 193 0
163 193 0
163 192 0
170 196 0
169 195 0
170 195 0
163 193 0
164 193 0
169 196 0
167 193 0
166 193 0
160 192 0
166 194 0
165 193 0
164 194 0
164 193 0
165 193 0
163 193 0
165 192 0
166 194 0
162 193 0
162 194 0
163 194 0
167 193 0
156 191 0
163 193 0
160 192 0
161 193 0
163 194 0
159 192 0
159 192 0
167 194 0
162 192 0
165 194 0
163 194 0
160 192 0
163 192 0
161 192 0
161 191 0
168 194 0
159 191 0
158 191 0
159 190 0
154 188 0
161 192 0
155 189 0
152 189 0
163 192 0
161 192 0
163 194 0
158 190 0
160 190 0
161 192 0
163 193 0
155 190 0
160 191 0
160 192 0
156 189 0
158 190 0
149 185 0
155 190 0
152 188 0
156 190 0
154 189 0
156 190 0
162 192 0
159 190 0
151 188 0
154 189 0
159 190 0
154 188 0
150 187 0
159 191 0
154 190 0
157 190 0
154 189 0
157 189 0
147 184 0
158 189 0
151 188 0
157 189 0
155 190 0
152 188 0
150 188 0
155 190 0
154 189 0
151 187 0
150 185 0
142 183 0
154 188 0
150 185 0
149 188 0
150 185 0
151 186 0
158 189 0
147 185 0
151 185 0
153 187 0
144 180 0
153 186 0
156 187 0
141 184 0
141 182 0
147 183 0
147 184 0
143 183 0
149 184 0
136 181 0
145 185 0
142 183 0
149 185 0
146 184 0
151 183 0
147 183 0
138 179 0
144 181 0
151 183 0
138 178 0
149 185 0
148 183 0
149 186 0
145 182 0
141 179 0
146 183 0
143 184 0
147 182 0
145 185 0
145 182 0
139 180 0
146 180 0
150 184 0
133 174 0
144 182 0
146 182 0
148 185 0
142 179 0
143 179 0
144 181 0
145 182 0
138 176 0
142 179 0
145 183 0
144 181 0
140 178 0
144 180 0
143 182 0
148 181 0
142 180 0
148 181 0
149 181 0
146 182 0
141 178 0
137 176 0
143 177 0
144 177 0
136 175 0
142 180 0
144 179 0
141 177 0
141 177 0
133 178 0
138 177 0
139 176 0
138 175 0
152 181 0
133 171 0
141 176 0
139 177 0
148 180 0
133 175 0
143 175 0
144 179 0
135 173 0
145 178 0
148 182 0
146 176 0
141 177 0
148 182 0
145 174 0
143 174 0
143 175 0
134 171 0
138 175 0
143 177 0
149 181 0
146 178 0
148 180 0
145 175 0
143 175 0
149 178 0
142 173 0
152 180 0
140 174 0
144 176 0
140 172 0
146 178 0
146 174 0
149 178 0
132 167 0
143 174 0
142 176 0
157 184 0
154 179 0
139 170 0
149 180 0
146 176 0
138 166 0
141 173 0
150 178 0
142 168 0
148 178 0
142 169 0
148 175 0
142 169 0
152 173 0
151 174 0
148 174 0
139 170 0
148 173 0
146 169 0
148 173 0
149 173 0
153 179 0
141 168 0
146 172 0
140 164 0
141 170 0
143 167 0
145 169 0
147 172 0
148 167 0
140 163 0
145 164 0
158 178 0
146 168 0
151 171 0
153 172 0
151 175 0
144 164 0
140 165 0
141 164 0
151 171 0
144 166 0
141 164 0
145 168 0
150 170 0
152 169 0
148 167 0
150 168 0
145 162 0
150 165 0
146 162 0
146 162 0
154 170 0
150 170 0
150 165 0
153 172 0
151 170 0
149 162 0
141 158 0
148 167 0
149 168 0
150 162 0
155 168 0
146 160 0
153 164 0
150 166 0
154 171 0
154 165 0
145 164 0
143 156 0
141 156 0
151 164 0
151 163 0
151 159 0
150 160 0
151 164 0
159 171 0
148 159 0
146 155 0
148 157 0
148 156 0
148 162 0
154 166 0
150 157 0
156 167 0
149 159 0
153 166 0
146 153 0
155 164 0
152 163 0
149 158 0
156 162 0
154 163 0
156 164 0
150 160 0
154 159 0
158 167 0
154 161 0
152 159 0
154 164 0
154 163 0
156 164 0
159 169 0
153 163 0
162 170 0
150 156 0
153 161 0
161 170 0
157 165 0
150 157 0
155 165 0
161 171 0
155 162 0
160 169 0
161 168 0
154 158 0
157 166 0
155 164 0
160 169 0
152 160 0
159 164 0
157 162 0
157 164 0
161 171 0
164 177 0
161 169 0
157 164 0
161 171 0
160 169 0
159 170 0
173 197 0
173 197 0
173 197 0
172 196 0
174 197 0
172 196 0
172 196 0
171 196 0
173 196 0
173 196 0
173 196 0
171 196 0
170 195 0
173 196 0
172 196 0
172 196 0
170 196 0
171 196 0
171 196 0
171 196 0
173 196 0
170 195 0
167 193 0
171 196 0
169 194 0
169 194 0
172 196 0
172 196 0
169 195 0
172 196 0
169 194 0
169 194 0
170 196 0
171 196 0
171 196 0
173 196 0
172 196 0
168 195 0
170 195 0
168 194 0
171 196 0
169 195 0
168 195 0
170 195 0
172 196 0
166 194 0
171 196 0
169 195 0
169 194 0
169 195 0
169 195 0
168 194 0
168 194 0
168 194 0
166 194 0
167 194 0
165 194 0
168 195 0
167 194 0
166 194 0
165 193 0
167 194 0
168 194 0
168 195 0
170 196 0
161 193 0
166 193 0
170 195 0
167 194 0
167 194 0
166 194 0
165 194 0
164 193 0
162 192 0
167 194 0
162 194 0
162 193 0
168 195 0
168 195 0
162 193 0
170 195 0
170 196 0
163 192 0
166 194 0
166 195 0
166 194 0
161 191 0
166 192 0
163 193 0
166 194 0
158 192 0
162 193 0
164 194 0
163 194 0
162 193 0
165 194 0
166 194 0
164 195 0
163 192 0
163 194 0
166 194 0
164 194 0
158 192 0
166 194 0
158 191 0
162 192 0
158 190 0
167 195 0
160 191 0
161 192 0
162 193 0
160 191 0
162 193 0
163 193 0
161 192 0
160 190 0
157 190 0
152 188 0
157 192 0
158 190 0
160 191 0
157 190 0
164 194 0
156 190 0
164 193 0
162 193 0
162 193 0
159 193 0
164 192 0
156 191 0
157 190 0
159 191 0
161 190 0
158 190 0
157 189 0
159 190 0
160 191 0
156 189 0
147 185 0
156 191 0
151 187 0
153 188 0
155 189 0
156 189 0
156 190 0
152 187 0
157 189 0
152 189 0
146 183 0
161 191 0
156 189 0
151 186 0
145 184 0
156 189 0
151 187 0
145 184 0
154 187 0
155 189 0
156 188 0
150 186 0
148 182 0
151 186 0
156 190 0
152 188 0
145 183 0
150 187 0
143 184 0
140 181 0
147 184 0
140 182 0
137 181 0
151 187 0
141 180 0
147 183 0
143 182 0
154 187 0
147 185 0
140 182 0
146 184 0
141 182 0
153 187 0
147 184 0
148 185 0
144 183 0
142 185 0
144 183 0
143 179 0
143 180 0
136 177 0
136 181 0
153 186 0
146 184 0
142 180 0
144 183 0
150 183 0
142 182 0
128 175 0
146 181 0
141 180 0
144 181 0
147 181 0
141 178 0
147 182 0
148 180 0
148 181 0
141 179 0
139 179 0
137 176 0
141 179 0
142 178 0
137 176 0
146 180 0
147 181 0
137 173 0
139 181 0
137 179 0
147 184 0
152 187 0
143 182 0
139 179 0
131 172 0
147 182 0
134 175 0
140 178 0
144 180 0
143 178 0
140 175 0
140 177 0
137 175 0
148 179 0
144 183 0
152 182 0
146 179 0
149 184 0
140 177 0
146 178 0
147 178 0
146 179 0
144 178 0
138 174 0
146 178 0
135 174 0
148 179 0
151 184 0
133 173 0
147 178 0
153 182 0
153 181 0
145 180 0
145 177 0
140 176 0
141 173 0
140 175 0
142 177 0
152 180 0
144 178 0
149 179 0
141 172 0
135 173 0
146 173 0
139 172 0
150 177 0
151 182 0
140 171 0
149 179 0
140 176 0
150 179 0
149 178 0
146 177 0
155 182 0
140 173 0
150 174 0
153 178 0
147 176 0
147 175 0
149 175 0
151 178 0
149 177 0
149 176 0
147 176 0
143 170 0
153 177 0
146 175 0
149 175 0
151 178 0
146 175 0
151 172 0
147 174 0
150 174 0
150 174 0
147 169 0
147 173 0
147 174 0
146 172 0
149 174 0
153 174 0
149 173 0
140 166 0
142 168 0
145 172 0
146 172 0
149 175 0
151 172 0
153 172 0
142 165 0
139 165 0
146 169 0
150 170 0
149 173 0
152 174 0
145 167 0
148 170 0
152 171 0
150 170 0
149 167 0
149 170 0
145 166 0
149 174 0
149 171 0
148 169 0
154 174 0
144 166 0
146 164 0
150 169 0
156 170 0
144 161 0
145 166 0
144 162 0
151 168 0
148 164 0
146 161 0
153 164 0
150 168 0
146 162 0
149 165 0
153 172 0
155 169 0
151 165 0
148 159 0
151 163 0
149 166 0
144 155 0
152 168 0
150 166 0
150 164 0
156 169 0
150 163 0
140 151 0
147 160 0
145 155 0
152 161 0
148 161 0
150 153 0
149 162 0
150 159 0
155 165 0
150 157 0
155 163 0
156 164 0
156 165 0
155 163 0
154 165 0
154 165 0
150 157 0
151 161 0
150 158 0
156 168 0
150 162 0
154 163 0
152 159 0
158 164 0
157 166 0
153 163 0
153 159 0
152 158 0
153 163 0
154 166 0
156 162 0
160 170 0
159 166 0
158 168 0
156 166 0
160 170 0
154 162 0
160 171 0
159 168 0
153 162 0
156 163 0
156 164 0
160 169 0
160 168 0
155 164 0
162 174 0
159 167 0
155 165 0
154 160 0
159 165 0
162 172 0
155 162 0
158 164 0
173 197 0
171 195 0
174 197 0
174 197 0
173 197 0
172 196 0
172 196 0
173 197 0
172 196 0
172 196 0
170 195 0
172 196 0
171 196 0
170 196 0
173 196 0
170 195 0
171 196 0
172 196 0
171 196 0
168 195 0
173 197 0
171 195 0
169 195 0
170 194 0
173 197 0
172 196 0
171 196 0
171 196 0
171 196 0
169 196 0
172 196 0
170 195 0
171 196 0
170 195 0
170 196 0
170 195 0
172 196 0
169 194 0
170 195 0
168 194 0
170 196 0
171 196 0
169 195 0
168 194 0
168 194 0
172 196 0
165 194 0
166 193 0
171 196 0
170 194 0
169 195 0
168 194 0
169 195 0
170 196 0
163 193 0
168 195 0
165 194 0
166 193 0
167 195 0
164 194 0
170 196 0
163 192 0
166 194 0
162 193 0
167 194 0
166 195 0
172 196 0
167 193 0
169 196 0
168 193 0
169 196 0
164 192 0
163 194 0
161 192 0
168 194 0
168 195 0
168 195 0
164 194 0
166 193 0
169 195 0
164 193 0
167 192 0
168 195 0
168 195 0
164 193 0
165 194 0
165 194 0
163 193 0
165 194 0
164 193 0
161 192 0
158 191 0
163 192 0
163 194 0
157 190 0
163 193 0
162 192 0
160 192 0
158 190 0
163 194 0
156 190 0
159 192 0
160 193 0
159 192 0
166 192 0
157 189 0
157 192 0
158 191 0
153 189 0
153 188 0
162 192 0
155 191 0
159 192 0
157 190 0
162 193 0
159 191 0
155 189 0
162 191 0
156 189 0
154 190 0
157 192 0
161 190 0
156 189 0
158 190 0
157 191 0
154 191 0
155 191 0
156 191 0
156 190 0
154 188 0
153 187 0
156 189 0
153 186 0
159 190 0
151 189 0
159 189 0
154 189 0
162 192 0
153 189 0
147 186 0
152 188 0
154 188 0
150 186 0
156 190 0
153 188 0
154 189 0
156 191 0
157 189 0
152 190 0
154 188 0
156 188 0
156 189 0
155 190 0
146 184 0
142 182 0
147 185 0
146 185 0
150 186 0
155 187 0
145 184 0
146 183 0
148 184 0
154 190 0
151 186 0
148 184 0
145 184 0
149 186 0
152 187 0
144 184 0
152 186 0
143 183 0
151 189 0
150 188 0
152 186 0
152 188 0
150 184 0
148 184 0
149 185 0
154 187 0
144 184 0
145 183 0
151 186 0
150 186 0
148 184 0
143 181 0
138 181 0
146 184 0
152 186 0
141 182 0
141 179 0
138 181 0
146 180 0
143 180 0
147 186 0
146 180 0
152 185 0
144 184 0
149 184 0
143 182 0
148 183 0
150 185 0
145 181 0
142 179 0
139 178 0
147 183 0
140 180 0
153 185 0
139 177 0
145 183 0
141 180 0
141 180 0
139 179 0
140 181 0
146 182 0
143 179 0
143 182 0
134 175 0
145 184 0
138 179 0
145 183 0
135 177 0
145 178 0
148 183 0
139 179 0
145 181 0
144 179 0
145 179 0
146 179 0
140 175 0
143 178 0
151 181 0
151 179 0
143 179 0
150 183 0
142 176 0
144 177 0
138 179 0
142 179 0
146 179 0
140 180 0
149 183 0
145 178 0
146 178 0
156 185 0
142 179 0
148 179 0
144 178 0
144 180 0
144 177 0
143 176 0
149 181 0
147 181 0
142 174 0
148 178 0
143 178 0
139 175 0
141 176 0
140 173 0
151 179 0
145 178 0
143 177 0
142 175 0
149 177 0
138 177 0
145 177 0
140 175 0
146 176 0
147 175 0
151 179 0
148 175 0
146 175 0
145 173 0
147 174 0
144 177 0
143 170 0
144 175 0
140 167 0
140 166 0
147 174 0
147 177 0
150 176 0
147 174 0
145 173 0
147 171 0
148 176 0
142 170 0
149 177 0
154 180 0
146 175 0
149 174 0
148 169 0
149 173 0
148 170 0
151 174 0
150 177 0
150 174 0
146 169 0
154 179 0
146 166 0
147 175 0
146 173 0
150 176 0
141 163 0
146 170 0
148 168 0
147 172 0
149 171 0
142 166 0
141 160 0
144 172 0
141 164 0
155 173 0
153 174 0
151 176 0
147 170 0
151 169 0
145 166 0
149 170 0
155 172 0
145 165 0
148 165 0
148 166 0
147 169 0
158 177 0
144 165 0
140 158 0
151 167 0
153 170 0
150 168 0
142 161 0
145 161 0
154 169 0
152 165 0
149 167 0
151 169 0
155 173 0
155 167 0
146 161 0
142 154 0
154 168 0
153 168 0
152 163 0
150 167 0
153 169 0
154 166 0
153 166 0
149 164 0
158 172 0
154 166 0
148 165 0
153 166 0
145 152 0
153 166 0
153 167 0
152 164 0
147 158 0
154 165 0
151 164 0
153 162 0
154 166 0
153 164 0
154 161 0
155 165 0
152 161 0
154 164 0
152 159 0
153 160 0
160 170 0
152 159 0
156 164 0
150 158 0
156 167 0
153 158 0
154 164 0
156 164 0
158 164 0
158 169 0
155 165 0
154 162 0
156 164 0
160 169 0
158 169 0
155 162 0
158 167 0
164 173 0
154 161 0
157 162 0
163 176 0
156 163 0
164 174 0
154 160 0
153 164 0
160 169 0
161 169 0
158 166 0
161 171 0
157 166 0
158 167 0
157 164 0
161 170 0
173 197 0
172 196 0
171 194 0
173 197 0
174 197 0
171 196 0
172 196 0
172 196 0
172 196 0
169 195 0
173 196 0
170 194 0
172 196 0
174 197 0
171 196 0
171 196 0
171 197 0
169 195 0
172 196 0
172 195 0
173 197 0
174 197 0
167 192 0
172 196 0
172 196 0
169 195 0
167 194 0
171 196 0
171 196 0
171 196 0
170 196 0
170 196 0
170 195 0
171 196 0
172 196 0
169 195 0
171 195 0
169 194 0
170 196 0
171 196 0
169 195 0
169 195 0
170 196 0
167 194 0
171 196 0
166 195 0
166 194 0
166 193 0
168 194 0
171 196 0
167 194 0
167 194 0
166 194 0
167 194 0
168 195 0
169 195 0
168 195 0
168 195 0
172 196 0
167 194 0
169 195 0
166 194 0
166 193 0
162 193 0
165 193 0
165 194 0
161 193 0
169 196 0
161 192 0
165 194 0
164 193 0
165 193 0
166 195 0
159 192 0
168 194 0
168 195 0
160 192 0
163 192 0
166 193 0
160 192 0
164 194 0
166 194 0
163 193 0
167 194 0
165 194 0
172 196 0
161 194 0
165 194 0
166 194 0
165 195 0
165 193 0
165 194 0
154 191 0
163 192 0
160 192 0
166 194 0
161 191 0
164 193 0
160 192 0
164 193 0
161 192 0
162 193 0
156 192 0
162 191 0
162 193 0
160 191 0
164 194 0
164 193 0
157 188 0
159 191 0
165 192 0
162 191 0
162 193 0
163 194 0
160 192 0
157 191 0
161 192 0
156 190 0
165 193 0
157 189 0
155 190 0
157 190 0
157 189 0
161 191 0
161 192 0
156 190 0
159 191 0
157 190 0
161 192 0
158 191 0
159 190 0
150 187 0
156 190 0
157 188 0
151 187 0
156 189 0
147 187 0
146 185 0
160 190 0
162 191 0
161 193 0
154 188 0
155 190 0
155 188 0
151 189 0
156 188 0
162 191 0
160 192 0
152 187 0
154 188 0
146 184 0
147 184 0
153 190 0
156 189 0
152 188 0
153 186 0
149 187 0
148 185 0
153 187 0
158 189 0
152 186 0
156 187 0
152 187 0
141 182 0
157 189 0
152 189 0
145 183 0
147 186 0
154 188 0
154 187 0
144 185 0
148 184 0
151 186 0
141 183 0
153 186 0
155 188 0
143 183 0
147 183 0
141 182 0
135 178 0
145 184 0
139 180 0
145 183 0
140 182 0
153 188 0
148 183 0
135 179 0
143 180 0
144 179 0
143 181 0
142 183 0
149 185 0
145 178 0
145 179 0
149 186 0
152 184 0
148 184 0
146 182 0
155 188 0
138 178 0
148 184 0
142 178 0
143 183 0
142 179 0
148 182 0
143 179 0
138 178 0
149 183 0
146 182 0
140 182 0
146 180 0
153 185 0
153 184 0
145 182 0
141 180 0
150 183 0
146 180 0
146 182 0
148 184 0
143 179 0
143 180 0
144 182 0
143 181 0
149 184 0
147 182 0
149 181 0
144 178 0
139 174 0
143 182 0
151 185 0
146 180 0
148 181 0
150 178 0
147 180 0
145 181 0
147 180 0
142 179 0
141 173 0
153 185 0
148 179 0
144 180 0
148 179 0
137 172 0
142 177 0
143 179 0
146 177 0
151 181 0
148 180 0
137 173 0
137 175 0
141 177 0
146 175 0
140 177 0
151 177 0
142 175 0
151 182 0
151 180 0
147 178 0
151 179 0
149 181 0
152 179 0
145 180 0
150 177 0
148 177 0
144 179 0
150 180 0
145 174 0
151 179 0
155 181 0
149 174 0
146 172 0
149 173 0
146 176 0
154 181 0
147 176 0
150 180 0
142 174 0
144 173 0
143 169 0
149 174 0
143 172 0
142 167 0
149 177 0
153 178 0
156 178 0
148 180 0
147 176 0
152 175 0
145 168 0
154 179 0
146 172 0
153 180 0
154 172 0
145 172 0
150 173 0
148 174 0
150 171 0
153 174 0
150 172 0
151 173 0
146 169 0
146 171 0
151 173 0
143 169 0
154 176 0
142 166 0
148 172 0
144 169 0
149 171 0
155 174 0
149 174 0
144 168 0
145 166 0
150 174 0
146 167 0
150 172 0
155 176 0
152 172 0
145 169 0
147 164 0
150 170 0
138 161 0
155 173 0
154 175 0
158 175 0
146 164 0
143 163 0
147 163 0
148 168 0
146 166 0
150 169 0
151 166 0
155 174 0
152 166 0
145 161 0
150 162 0
154 174 0
146 160 0
146 160 0
152 166 0
150 169 0
146 165 0
150 160 0
154 167 0
147 163 0
150 165 0
155 168 0
157 167 0
152 162 0
155 169 0
156 164 0
150 163 0
150 162 0
149 165 0
151 165 0
149 162 0
148 161 0
156 165 0
155 163 0
156 168 0
153 162 0
147 163 0
153 165 0
149 162 0
149 161 0
158 168 0
153 161 0
152 160 0
159 168 0
157 166 0
154 164 0
153 165 0
153 162 0
155 165 0
150 156 0
151 159 0
156 163 0
154 163 0
157 167 0
154 165 0
158 168 0
158 166 0
159 172 0
159 167 0
153 163 0
154 162 0
158 166 0
160 167 0
158 165 0
157 169 0
158 166 0
156 163 0
156 164 0
158 166 0
152 159 0
157 165 0
159 168 0
158 170 0
161 168 0
161 171 0
172 196 0
171 196 0
171 196 0
173 196 0
173 196 0
173 196 0
170 195 0
172 196 0
172 197 0
173 197 0
174 197 0
171 195 0
173 196 0
172 196 0
171 196 0
170 195 0
170 195 0
169 195 0
172 196 0
170 195 0
170 195 0
172 196 0
170 195 0
171 196 0
170 195 0
170 195 0
171 196 0
170 194 0
171 195 0
171 196 0
171 196 0
170 195 0
171 196 0
172 196 0
170 195 0
169 194 0
171 196 0
170 195 0
172 196 0
169 195 0
173 196 0
169 195 0
168 195 0
171 196 0
162 192 0
170 195 0
171 195 0
165 193 0
170 195 0
163 193 0
166 194 0
167 193 0
165 194 0
170 196 0
168 194 0
170 196 0
166 194 0
167 195 0
166 194 0
166 195 0
166 195 0
164 193 0
170 196 0
165 194 0
164 193 0
166 194 0
167 195 0
160 192 0
170 196 0
161 193 0
166 195 0
169 195 0
166 194 0
163 193 0
169 196 0
170 196 0
162 192 0
166 194 0
160 193 0
162 192 0
167 193 0
167 195 0
161 192 0
165 193 0
170 195 0
164 193 0
162 193 0
162 193 0
163 194 0
164 195 0
162 192 0
166 195 0
165 193 0
162 194 0
161 192 0
166 194 0
164 194 0
160 192 0
162 193 0
159 192 0
156 190 0
163 192 0
160 190 0
159 193 0
161 193 0
165 194 0
164 194 0
167 195 0
157 192 0
161 193 0
163 193 0
159 192 0
157 190 0
155 188 0
154 188 0
159 191 0
164 192 0
157 190 0
156 190 0
161 193 0
162 192 0
156 190 0
161 192 0
156 189 0
160 191 0
155 190 0
163 193 0
159 192 0
155 189 0
155 188 0
158 190 0
153 187 0
152 188 0
159 190 0
158 190 0
154 189 0
156 189 0
160 190 0
157 191 0
157 190 0
156 188 0
160 191 0
158 191 0
149 186 0
157 190 0
158 190 0
153 187 0
153 187 0
153 188 0
154 188 0
155 189 0
152 187 0
154 190 0
149 185 0
154 188 0
152 187 0
149 185 0
150 185 0
152 186 0
143 183 0
144 183 0
138 178 0
153 188 0
149 187 0
150 182 0
151 185 0
151 188 0
150 186 0
150 186 0
147 183 0
148 183 0
151 184 0
150 185 0
154 188 0
144 182 0
145 184 0
154 187 0
148 183 0
147 181 0
147 185 0
145 184 0
148 183 0
149 186 0
148 186 0
144 183 0
148 186 0
152 186 0
141 183 0
149 184 0
142 180 0
148 182 0
151 187 0
136 177 0
150 186 0
147 184 0
139 182 0
151 184 0
150 185 0
145 180 0
145 184 0
141 181 0
143 181 0
143 182 0
146 184 0
153 185 0
147 182 0
143 177 0
141 180 0
138 178 0
151 184 0
145 177 0
144 180 0
149 183 0
148 181 0
148 182 0
144 180 0
153 186 0
143 180 0
141 176 0
135 177 0
140 178 0
140 174 0
136 177 0
152 184 0
140 180 0
149 182 0
144 181 0
147 181 0
139 179 0
148 181 0
142 178 0
138 177 0
154 183 0
135 172 0
150 181 0
148 182 0
151 182 0
144 177 0
139 174 0
146 175 0
150 183 0
142 177 0
148 181 0
151 182 0
145 178 0
149 183 0
141 172 0
138 172 0
143 178 0
148 180 0
153 180 0
152 181 0
143 177 0
149 180 0
148 179 0
145 176 0
148 179 0
135 171 0
154 182 0
154 184 0
146 180 0
143 176 0
149 178 0
147 177 0
155 181 0
151 180 0
152 180 0
150 180 0
146 174 0
150 181 0
151 179 0
155 182 0
141 172 0
155 179 0
139 169 0
151 182 0
150 176 0
144 174 0
152 178 0
145 176 0
154 184 0
140 169 0
147 175 0
144 172 0
150 176 0
155 174 0
143 176 0
152 179 0
150 178 0
143 174 0
146 172 0
149 176 0
150 175 0
152 175 0
148 173 0
145 171 0
150 175 0
156 179 0
142 166 0
149 174 0
144 168 0
157 177 0
148 172 0
146 171 0
145 171 0
156 178 0
148 173 0
148 172 0
147 167 0
153 173 0
149 172 0
155 175 0
148 167 0
155 174 0
149 173 0
156 172 0
142 164 0
148 167 0
147 168 0
157 177 0
143 164 0
150 169 0
152 170 0
145 164 0
145 168 0
150 172 0
152 171 0
154 173 0
150 168 0
153 168 0
152 168 0
162 180 0
146 160 0
149 168 0
146 164 0
152 169 0
138 155 0
156 169 0
153 167 0
149 166 0
154 167 0
150 163 0
152 164 0
149 158 0
153 167 0
152 169 0
151 169 0
151 161 0
154 167 0
158 170 0
151 164 0
152 163 0
153 164 0
150 161 0
149 161 0
154 165 0
151 165 0
154 168 0
152 157 0
153 163 0
154 166 0
154 165 0
149 161 0
151 160 0
158 171 0
151 162 0
155 168 0
154 163 0
149 158 0
162 172 0
156 167 0
158 165 0
157 166 0
158 169 0
156 167 0
160 175 0
155 164 0
160 169 0
153 163 0
153 161 0
153 164 0
161 170 0
156 164 0
157 168 0
158 169 0
158 168 0
159 166 0
158 167 0
166 178 0
157 165 0
156 162 0
156 166 0
161 171 0
159 170 0
153 160 0
160 168 0
157 170 0
158 166 0
157 169 0
158 168 0
171 196 0
172 196 0
173 197 0
169 195 0
170 196 0
172 196 0
173 196 0
171 196 0
171 196 0
173 197 0
171 195 0
173 197 0
169 196 0
173 197 0
167 195 0
170 195 0
172 196 0
170 196 0
171 196 0
170 195 0
171 195 0
172 196 0
170 194 0
170 196 0
171 196 0
171 195 0
170 195 0
170 195 0
169 195 0
170 195 0
171 196 0
172 197 0
173 197 0
169 194 0
171 196 0
169 194 0
169 193 0
171 196 0
170 196 0
169 195 0
168 194 0
169 195 0
169 196 0
168 194 0
168 195 0
168 194 0
167 193 0
169 195 0
167 195 0
167 195 0
165 194 0
169 195 0
169 196 0
173 197 0
170 195 0
167 195 0
168 195 0
167 194 0
172 196 0
166 194 0
168 194 0
168 195 0
164 193 0
161 192 0
163 193 0
164 193 0
166 195 0
160 192 0
164 193 0
164 195 0
164 193 0
166 195 0
160 191 0
166 193 0
166 194 0
162 192 0
165 193 0
165 194 0
165 194 0
163 193 0
166 193 0
163 192 0
163 194 0
165 194 0
167 193 0
162 192 0
163 193 0
161 192 0
162 192 0
164 193 0
167 194 0
160 192 0
161 191 0
161 192 0
161 192 0
158 190 0
162 191 0
162 191 0
158 192 0
160 193 0
162 193 0
160 192 0
162 193 0
162 193 0
162 192 0
159 191 0
160 192 0
167 195 0
167 194 0
159 192 0
158 191 0
161 193 0
159 190 0
162 193 0
163 193 0
163 193 0
159 191 0
161 190 0
161 193 0
166 194 0
159 191 0
154 188 0
162 193 0
158 191 0
160 191 0
160 191 0
158 189 0
159 191 0
154 188 0
156 189 0
150 186 0
159 189 0
158 190 0
157 190 0
157 191 0
156 188 0
159 192 0
157 189 0
154 188 0
160 190 0
157 191 0
160 191 0
153 188 0
157 189 0
158 188 0
152 186 0
157 189 0
157 190 0
151 187 0
153 187 0
156 188 0
157 189 0
155 187 0
151 186 0
154 188 0
151 188 0
154 189 0
154 189 0
150 186 0
155 187 0
148 187 0
152 187 0
148 184 0
152 189 0
143 183 0
156 188 0
154 189 0
147 184 0
147 184 0
147 184 0
144 183 0
149 185 0
152 188 0
143 183 0
154 188 0
154 186 0
147 182 0
156 188 0
144 182 0
148 186 0
149 186 0
147 182 0
150 183 0
142 181 0
143 183 0
147 181 0
149 182 0
151 184 0
156 189 0
146 182 0
147 184 0
143 181 0
146 183 0
146 181 0
150 187 0
157 186 0
153 186 0
143 181 0
157 186 0
146 182 0
146 180 0
144 181 0
150 186 0
155 186 0
148 183 0
148 184 0
144 181 0
147 181 0
141 175 0
144 181 0
139 177 0
142 179 0
147 183 0
136 178 0
138 177 0
143 178 0
144 181 0
151 183 0
144 178 0
149 183 0
143 175 0
151 187 0
147 182 0
149 182 0
139 176 0
145 182 0
151 184 0
144 179 0
147 178 0
145 179 0
143 178 0
142 179 0
151 184 0
150 182 0
144 178 0
150 179 0
142 180 0
152 184 0
146 176 0
144 178 0
131 171 0
149 182 0
140 176 0
146 178 0
142 175 0
150 181 0
152 182 0
144 177 0
153 180 0
144 173 0
148 179 0
142 181 0
148 178 0
147 179 0
151 181 0
146 176 0
153 179 0
149 178 0
150 179 0
150 179 0
154 179 0
148 176 0
153 180 0
150 178 0
149 179 0
155 184 0
148 175 0
152 185 0
150 178 0
147 174 0
151 178 0
148 178 0
141 171 0
147 175 0
144 175 0
150 179 0
150 177 0
145 173 0
141 176 0
138 171 0
146 177 0
144 173 0
140 169 0
145 174 0
155 180 0
146 177 0
143 172 0
146 171 0
153 177 0
143 171 0
148 176 0
147 171 0
142 167 0
149 171 0
157 178 0
152 173 0
149 175 0
147 176 0
151 177 0
150 174 0
148 172 0
147 173 0
148 172 0
140 168 0
152 179 0
148 171 0
150 173 0
147 173 0
154 175 0
144 167 0
155 177 0
150 173 0
141 168 0
149 169 0
149 170 0
146 167 0
146 169 0
153 172 0
149 169 0
154 175 0
152 175 0
156 176 0
150 172 0
153 175 0
149 165 0
150 170 0
146 166 0
154 174 0
151 174 0
155 169 0
154 170 0
156 170 0
147 167 0
149 163 0
156 172 0
152 171 0
145 163 0
146 162 0
154 169 0
143 154 0
153 168 0
149 165 0
151 164 0
144 159 0
145 158 0
151 167 0
153 168 0
152 165 0
153 168 0
154 171 0
157 173 0
151 163 0
151 163 0
151 166 0
153 171 0
153 169 0
153 166 0
152 164 0
145 157 0
161 174 0
153 169 0
150 160 0
155 168 0
150 160 0
154 166 0
153 164 0
153 163 0
151 163 0
156 166 0
160 173 0
157 169 0
157 168 0
152 164 0
154 166 0
156 166 0
160 171 0
153 163 0
150 159 0
154 164 0
157 167 0
159 168 0
159 168 0
159 167 0
157 167 0
154 162 0
158 168 0
157 169 0
156 164 0
159 166 0
153 161 0
160 169 0
155 162 0
156 167 0
156 167 0
160 168 0
162 173 0
163 176 0
161 169 0
163 175 0
157 167 0
171 195 0
173 196 0
172 196 0
174 197 0
174 197 0
171 195 0
173 197 0
172 196 0
171 196 0
171 196 0
171 196 0
170 195 0
173 197 0
172 196 0
170 196 0
172 196 0
172 195 0
168 194 0
168 194 0
169 194 0
171 195 0
171 195 0
170 195 0
170 195 0
169 195 0
169 195 0
170 195 0
169 195 0
172 195 0
171 196 0
171 196 0
169 194 0
171 196 0
168 195 0
172 196 0
170 195 0
166 194 0
166 192 0
167 194 0
170 195 0
172 196 0
165 194 0
168 195 0
170 195 0
168 195 0
169 195 0
170 196 0
169 195 0
163 194 0
167 195 0
168 194 0
165 194 0
171 196 0
168 195 0
168 195 0
173 197 0
168 195 0
166 194 0
170 194 0
167 194 0
168 195 0
166 194 0
165 194 0
166 194 0
167 193 0
166 194 0
168 195 0
169 195 0
168 194 0
169 195 0
167 194 0
162 193 0
163 192 0
164 194 0
166 193 0
163 192 0
164 194 0
169 195 0
160 192 0
169 194 0
166 194 0
163 193 0
159 191 0
166 194 0
160 192 0
164 193 0
163 193 0
169 194 0
162 193 0
162 193 0
167 195 0
163 192 0
161 192 0
164 194 0
165 194 0
163 192 0
161 191 0
158 192 0
166 194 0
162 192 0
159 193 0
167 193 0
162 192 0
163 190 0
164 192 0
158 190 0
162 193 0
163 193 0
160 191 0
157 191 0
161 193 0
162 192 0
155 188 0
157 189 0
163 193 0
164 194 0
160 192 0
156 191 0
150 188 0
153 189 0
159 191 0
154 190 0
152 187 0
163 192 0
156 191 0
160 191 0
156 189 0
158 191 0
161 192 0
159 189 0
154 189 0
162 192 0
156 189 0
159 192 0
157 192 0
162 192 0
156 192 0
159 192 0
158 191 0
162 192 0
167 193 0
157 190 0
146 186 0
159 191 0
155 189 0
151 187 0
152 185 0
155 187 0
152 187 0
154 188 0
153 187 0
148 185 0
161 190 0
149 185 0
156 187 0
149 185 0
153 187 0
147 185 0
155 190 0
151 185 0
157 190 0
149 183 0
140 183 0
147 186 0
150 185 0
145 184 0
149 186 0
141 181 0
154 187 0
155 187 0
144 184 0
150 185 0
152 186 0
152 186 0
156 188 0
145 184 0
153 188 0
155 190 0
148 184 0
148 185 0
146 188 0
150 185 0
155 189 0
148 184 0
144 182 0
151 188 0
150 185 0
147 184 0
141 179 0
148 185 0
154 189 0
135 178 0
144 180 0
147 184 0
149 185 0
144 181 0
149 182 0
144 184 0
143 181 0
147 181 0
147 180 0
145 183 0
148 184 0
141 178 0
145 182 0
141 178 0
143 182 0
148 183 0
145 181 0
154 186 0
147 184 0
144 182 0
145 179 0
149 183 0
148 182 0
147 187 0
146 183 0
146 182 0
143 181 0
149 183 0
142 179 0
149 185 0
151 181 0
149 181 0
146 180 0
152 186 0
139 179 0
150 180 0
153 185 0
148 182 0
141 176 0
154 187 0
144 180 0
146 179 0
151 181 0
152 186 0
142 179 0
146 182 0
147 180 0
151 184 0
158 186 0
147 178 0
140 171 0
149 183 0
146 180 0
153 180 0
143 178 0
150 179 0
144 179 0
145 175 0
150 181 0
144 179 0
144 178 0
151 179 0
146 178 0
147 180 0
144 174 0
142 176 0
137 170 0
144 176 0
147 173 0
154 184 0
152 177 0
146 179 0
147 177 0
148 177 0
143 176 0
153 182 0
142 175 0
146 177 0
138 172 0
154 180 0
138 168 0
150 181 0
145 175 0
150 179 0
147 176 0
153 179 0
153 177 0
145 173 0
146 174 0
148 176 0
144 173 0
149 174 0
149 174 0
149 177 0
144 173 0
145 173 0
158 185 0
144 171 0
149 176 0
152 173 0
156 180 0
145 170 0
151 176 0
150 176 0
141 166 0
153 177 0
152 178 0
150 174 0
147 176 0
153 177 0
149 173 0
149 175 0
157 175 0
145 171 0
140 164 0
153 178 0
149 171 0
152 174 0
147 173 0
141 167 0
154 173 0
153 171 0
154 176 0
141 167 0
154 173 0
159 176 0
154 170 0
145 165 0
149 167 0
153 174 0
149 168 0
155 173 0
151 172 0
157 176 0
147 166 0
151 173 0
152 173 0
152 172 0
149 167 0
150 168 0
148 172 0
150 173 0
152 168 0
155 175 0
147 167 0
152 170 0
153 173 0
148 167 0
151 169 0
154 168 0
152 169 0
151 168 0
153 171 0
159 170 0
151 168 0
154 167 0
155 169 0
145 160 0
156 171 0
150 167 0
151 161 0
147 161 0
157 169 0
156 168 0
151 166 0
151 161 0
148 159 0
153 166 0
153 161 0
154 169 0
152 165 0
157 167 0
154 166 0
157 169 0
156 168 0
154 168 0
158 170 0
157 166 0
152 164 0
157 170 0
155 169 0
152 162 0
156 165 0
154 163 0
162 172 0
157 165 0
154 163 0
151 158 0
159 172 0
155 162 0
150 159 0
158 167 0
160 169 0
154 163 0
155 162 0
160 171 0
160 170 0
160 170 0
156 166 0
158 167 0
155 162 0
152 163 0
158 166 0
161 173 0
162 171 0
163 177 0
160 172 0
158 165 0
171 195 0
173 197 0
171 196 0
172 196 0
172 196 0
174 197 0
173 197 0
169 194 0
173 197 0
174 197 0
172 196 0
170 195 0
170 195 0
172 195 0
173 197 0
171 196 0
171 195 0
172 196 0
171 196 0
171 196 0
171 196 0
171 195 0
170 196 0
172 195 0
170 195 0
170 195 0
170 195 0
172 197 0
171 196 0
172 197 0
172 196 0
172 196 0
171 196 0
171 196 0
171 196 0
171 196 0
169 195 0
172 196 0
161 192 0
168 195 0
166 194 0
169 195 0
168 195 0
169 195 0
167 194 0
170 195 0
169 196 0
171 196 0
167 194 0
167 193 0
166 194 0
166 194 0
169 195 0
166 194 0
166 194 0
162 194 0
170 196 0
166 195 0
169 195 0
165 195 0
165 194 0
169 194 0
167 194 0
170 195 0
163 194 0
162 191 0
164 194 0
163 193 0
167 195 0
164 194 0
170 195 0
169 195 0
161 192 0
165 194 0
168 195 0
165 194 0
165 193 0
165 194 0
165 192 0
169 196 0
161 193 0
165 193 0
164 194 0
163 195 0
161 193 0
170 196 0
162 193 0
166 194 0
167 195 0
168 195 0
164 192 0
170 196 0
164 195 0
163 193 0
164 194 0
164 193 0
158 190 0
158 190 0
164 193 0
165 193 0
159 192 0
163 194 0
166 194 0
158 191 0
164 194 0
161 192 0
162 193 0
158 191 0
155 190 0
161 191 0
157 191 0
163 192 0
159 191 0
158 191 0
157 190 0
158 191 0
156 190 0
153 190 0
157 191 0
161 191 0
159 191 0
160 192 0
159 192 0
161 192 0
152 189 0
154 189 0
153 188 0
160 192 0
156 190 0
149 187 0
161 190 0
162 192 0
151 187 0
157 188 0
156 190 0
159 190 0
155 190 0
155 189 0
158 191 0
160 190 0
158 189 0
147 185 0
155 188 0
148 188 0
148 186 0
157 191 0
145 183 0
155 190 0
160 192 0
153 185 0
150 185 0
159 190 0
152 189 0
154 186 0
154 188 0
154 187 0
144 184 0
155 186 0
158 190 0
151 187 0
149 188 0
155 189 0
150 186 0
149 187 0
147 183 0
153 188 0
149 184 0
151 187 0
148 186 0
150 187 0
149 184 0
152 186 0
153 187 0
154 189 0
149 182 0
152 187 0
149 185 0
138 181 0
150 185 0
151 185 0
141 180 0
152 188 0
156 188 0
144 182 0
161 192 0
146 179 0
148 185 0
151 186 0
146 181 0
141 182 0
155 188 0
147 186 0
146 185 0
149 186 0
147 183 0
149 185 0
149 184 0
141 178 0
154 187 0
148 184 0
139 181 0
151 185 0
148 182 0
146 180 0
145 183 0
142 180 0
142 182 0
149 184 0
142 178 0
141 178 0
141 175 0
150 182 0
152 184 0
146 181 0
151 186 0
153 184 0
143 180 0
146 179 0
146 183 0
143 177 0
148 181 0
150 184 0
151 182 0
144 182 0
151 181 0
145 182 0
148 182 0
151 184 0
145 178 0
149 181 0
151 184 0
143 175 0
148 180 0
146 180 0
144 182 0
148 183 0
146 180 0
144 179 0
147 180 0
150 182 0
149 181 0
148 180 0
145 178 0
149 180 0
146 180 0
147 181 0
136 173 0
151 181 0
146 179 0
149 183 0
145 179 0
152 183 0
143 174 0
145 179 0
149 178 0
152 183 0
150 180 0
147 180 0
145 177 0
143 179 0
150 180 0
148 179 0
148 176 0
142 175 0
147 177 0
149 178 0
146 175 0
150 179 0
153 178 0
149 180 0
148 178 0
152 178 0
149 178 0
140 170 0
155 180 0
153 182 0
144 171 0
148 177 0
155 183 0
148 179 0
148 174 0
139 172 0
145 173 0
147 176 0
148 175 0
148 174 0
154 178 0
153 179 0
146 176 0
149 175 0
155 182 0
148 177 0
153 176 0
145 172 0
148 175 0
151 177 0
148 174 0
152 174 0
154 178 0
150 177 0
150 174 0
150 173 0
156 177 0
154 176 0
151 174 0
152 176 0
151 175 0
152 178 0
149 167 0
151 174 0
150 174 0
149 172 0
149 175 0
155 176 0
154 176 0
149 171 0
149 168 0
152 172 0
148 167 0
152 178 0
149 174 0
147 171 0
155 174 0
154 171 0
150 168 0
152 172 0
152 175 0
154 173 0
147 168 0
155 173 0
154 175 0
145 168 0
151 169 0
154 168 0
143 165 0
149 167 0
157 174 0
150 169 0
153 173 0
151 168 0
155 170 0
159 177 0
149 164 0
150 165 0
147 165 0
154 168 0
156 175 0
149 165 0
156 171 0
155 170 0
144 161 0
157 174 0
150 165 0
153 173 0
154 168 0
155 168 0
154 167 0
155 169 0
150 165 0
155 171 0
156 170 0
154 165 0
155 167 0
159 168 0
156 170 0
157 167 0
153 164 0
156 169 0
157 169 0
153 165 0
150 161 0
154 165 0
152 166 0
159 169 0
155 166 0
156 169 0
159 170 0
155 163 0
159 172 0
156 169 0
146 153 0
153 164 0
155 163 0
150 159 0
154 164 0
160 172 0
156 163 0
159 169 0
154 163 0
153 165 0
159 168 0
155 163 0
163 173 0
160 168 0
158 167 0
161 170 0
158 168 0
160 170 0
161 172 0
157 167 0
173 196 0
172 196 0
172 196 0
173 197 0
172 196 0
171 196 0
173 197 0
173 196 0
172 196 0
170 195 0
170 195 0
173 197 0
171 196 0
169 195 0
169 195 0
170 195 0
171 195 0
174 197 0
172 196 0
172 196 0
171 196 0
167 195 0
171 196 0
169 195 0
171 196 0
171 196 0
172 196 0
170 195 0
168 194 0
164 193 0
171 196 0
169 196 0
167 195 0
172 196 0
170 195 0
167 194 0
169 195 0
166 194 0
164 193 0
170 195 0
166 195 0
167 195 0
170 196 0
170 196 0
170 194 0
168 195 0
167 194 0
168 195 0
167 193 0
171 195 0
168 195 0
166 193 0
171 196 0
168 194 0
170 195 0
166 194 0
168 195 0
168 194 0
171 196 0
168 195 0
167 195 0
171 196 0
169 196 0
162 194 0
164 193 0
164 194 0
167 194 0
169 195 0
171 196 0
167 195 0
169 195 0
165 195 0
162 192 0
164 194 0
165 193 0
164 194 0
165 194 0
169 195 0
157 192 0
163 192 0
163 194 0
168 194 0
159 191 0
158 192 0
163 194 0
164 193 0
168 195 0
161 192 0
164 194 0
161 192 0
163 193 0
166 193 0
165 194 0
157 191 0
166 193 0
161 192 0
161 193 0
163 192 0
164 193 0
160 191 0
166 193 0
162 191 0
161 192 0
158 191 0
162 193 0
161 192 0
162 191 0
163 192 0
163 193 0
160 192 0
163 193 0
163 191 0
163 192 0
165 194 0
157 191 0
162 193 0
159 192 0
161 190 0
160 191 0
161 192 0
159 191 0
162 192 0
150 186 0
162 193 0
159 190 0
159 192 0
156 192 0
151 188 0
162 192 0
155 191 0
156 190 0
164 193 0
156 188 0
157 189 0
159 190 0
152 187 0
153 188 0
156 190 0
153 189 0
156 189 0
159 190 0
153 188 0
150 185 0
158 190 0
160 192 0
149 186 0
157 190 0
153 186 0
154 187 0
156 189 0
149 187 0
154 190 0
156 188 0
142 185 0
159 191 0
149 184 0
149 185 0
146 184 0
153 187 0
155 187 0
153 186 0
154 188 0
149 186 0
154 189 0
154 187 0
152 185 0
149 186 0
152 188 0
154 189 0
152 188 0
146 184 0
156 189 0
143 182 0
146 184 0
157 186 0
151 187 0
154 187 0
151 186 0
148 184 0
158 189 0
144 184 0
151 186 0
145 185 0
152 187 0
148 186 0
145 184 0
152 185 0
147 184 0
144 183 0
151 184 0
150 185 0
148 183 0
145 184 0
147 183 0
158 185 0
152 185 0
146 182 0
145 182 0
145 181 0
146 183 0
153 186 0
149 184 0
143 182 0
154 186 0
150 183 0
146 180 0
148 183 0
150 184 0
144 179 0
143 182 0
146 181 0
151 182 0
145 182 0
143 181 0
143 182 0
146 179 0
140 177 0
148 182 0
145 181 0
146 180 0
139 177 0
153 183 0
142 179 0
141 180 0
149 182 0
141 179 0
137 180 0
151 183 0
148 182 0
144 182 0
147 182 0
154 185 0
152 183 0
152 181 0
145 182 0
155 188 0
146 178 0
147 184 0
151 180 0
149 180 0
143 179 0
151 180 0
141 178 0
148 181 0
146 179 0
154 180 0
148 181 0
144 179 0
139 174 0
148 179 0
149 180 0
149 181 0
147 184 0
146 179 0
147 179 0
137 175 0
144 176 0
151 179 0
154 186 0
143 177 0
151 181 0
149 181 0
149 179 0
142 176 0
150 178 0
147 177 0
151 180 0
152 180 0
149 178 0
150 180 0
148 175 0
154 179 0
153 178 0
150 179 0
145 174 0
152 180 0
156 180 0
149 176 0
150 176 0
159 181 0
156 181 0
153 179 0
145 177 0
148 178 0
145 179 0
144 175 0
152 176 0
146 173 0
143 169 0
155 179 0
153 178 0
154 183 0
153 177 0
151 173 0
146 171 0
158 181 0
146 171 0
152 178 0
154 176 0
155 178 0
151 175 0
154 178 0
152 177 0
153 173 0
155 179 0
153 181 0
155 177 0
151 175 0
149 176 0
154 177 0
147 172 0
147 169 0
151 172 0
138 166 0
153 174 0
156 181 0
157 173 0
151 173 0
154 176 0
143 167 0
150 173 0
151 170 0
154 172 0
153 173 0
154 174 0
145 168 0
152 173 0
154 177 0
154 177 0
152 168 0
154 172 0
154 170 0
147 171 0
152 168 0
147 164 0
145 166 0
149 169 0
153 173 0
157 173 0
156 170 0
152 170 0
149 168 0
148 165 0
153 168 0
154 170 0
149 169 0
150 167 0
156 169 0
155 169 0
150 168 0
153 169 0
156 174 0
157 171 0
150 162 0
153 167 0
149 162 0
158 174 0
148 160 0
155 167 0
162 176 0
157 172 0
155 165 0
153 167 0
153 166 0
158 169 0
155 166 0
155 167 0
160 171 0
149 159 0
154 164 0
158 171 0
152 164 0
156 167 0
153 165 0
155 167 0
154 164 0
155 169 0
155 166 0
157 169 0
156 167 0
155 167 0
161 171 0
154 169 0
155 165 0
162 171 0
157 166 0
155 167 0
157 171 0
158 166 0
162 175 0
156 169 0
158 165 0
160 170 0
162 177 0
157 169 0
156 167 0
155 167 0
161 172 0
157 167 0
163 174 0
172 196 0
171 196 0
172 196 0
173 196 0
170 195 0
173 196 0
171 195 0
172 196 0
172 196 0
173 197 0
168 195 0
171 196 0
169 195 0
170 196 0
172 196 0
172 196 0
171 196 0
172 196 0
171 196 0
173 197 0
172 196 0
172 196 0
167 194 0
168 195 0
167 194 0
173 197 0
172 196 0
172 196 0
168 195 0
171 195 0
168 196 0
171 195 0
170 196 0
168 196 0
169 195 0
171 196 0
169 195 0
167 195 0
172 197 0
166 194 0
165 194 0
171 196 0
170 195 0
168 195 0
167 193 0
171 196 0
172 196 0
171 196 0
169 196 0
168 195 0
169 196 0
163 193 0
170 196 0
164 194 0
169 196 0
170 195 0
168 195 0
166 194 0
165 193 0
169 193 0
169 195 0
168 196 0
168 195 0
170 195 0
165 192 0
163 193 0
166 194 0
167 195 0
166 195 0
166 195 0
167 195 0
169 195 0
163 193 0
165 192 0
162 193 0
166 194 0
164 193 0
163 193 0
166 193 0
167 193 0
162 193 0
159 191 0
169 196 0
165 194 0
161 192 0
162 193 0
166 194 0
168 194 0
163 193 0
162 193 0
161 193 0
162 194 0
166 194 0
167 195 0
164 192 0
156 190 0
156 191 0
163 194 0
164 193 0
162 189 0
159 189 0
154 190 0
159 191 0
166 195 0
163 192 0
158 191 0
164 193 0
164 193 0
159 191 0
161 192 0
162 191 0
160 193 0
160 191 0
166 194 0
160 191 0
158 190 0
159 191 0
154 187 0
162 192 0
158 192 0
160 190 0
153 189 0
156 191 0
164 193 0
157 191 0
159 192 0
161 192 0
157 191 0
161 192 0
160 191 0
156 191 0
154 189 0
164 193 0
161 190 0
157 188 0
153 187 0
156 188 0
162 190 0
155 189 0
164 192 0
154 185 0
155 189 0
157 191 0
158 190 0
160 191 0
154 188 0
150 187 0
157 189 0
157 190 0
162 190 0
156 190 0
146 184 0
152 186 0
156 189 0
156 188 0
151 186 0
154 188 0
152 189 0
155 188 0
160 190 0
152 189 0
154 189 0
155 187 0
151 184 0
147 184 0
142 183 0
155 189 0
148 184 0
155 187 0
146 182 0
153 187 0
149 187 0
148 186 0
154 188 0
148 187 0
153 187 0
146 186 0
146 184 0
145 184 0
152 185 0
145 183 0
141 181 0
150 184 0
151 186 0
150 185 0
151 186 0
154 187 0
152 185 0
146 183 0
150 187 0
154 187 0
151 186 0
149 187 0
150 184 0
147 183 0
146 181 0
149 186 0
149 184 0
151 186 0
146 184 0
150 185 0
147 184 0
148 182 0
142 183 0
140 180 0
142 181 0
148 181 0
147 182 0
147 181 0
148 183 0
150 185 0
137 178 0
150 184 0
149 180 0
159 187 0
144 180 0
152 185 0
150 183 0
150 183 0
162 188 0
147 182 0
148 180 0
151 185 0
141 176 0
150 184 0
153 182 0
149 183 0
152 183 0
142 178 0
152 183 0
151 182 0
149 182 0
145 180 0
149 182 0
152 182 0
147 180 0
148 182 0
145 179 0
147 181 0
140 177 0
150 182 0
147 180 0
151 184 0
146 179 0
143 173 0
152 179 0
150 183 0
149 181 0
148 183 0
148 181 0
148 178 0
145 182 0
145 179 0
144 176 0
150 179 0
145 178 0
146 178 0
145 176 0
146 178 0
154 183 0
152 182 0
152 181 0
150 177 0
149 180 0
147 180 0
156 184 0
148 177 0
149 180 0
153 180 0
146 177 0
150 178 0
150 177 0
153 182 0
156 183 0
156 183 0
152 182 0
152 179 0
151 180 0
150 178 0
143 173 0
152 179 0
151 181 0
154 177 0
149 180 0
156 179 0
152 181 0
155 181 0
150 179 0
151 178 0
157 180 0
155 178 0
155 178 0
153 178 0
156 180 0
156 178 0
151 177 0
151 175 0
152 175 0
151 174 0
151 174 0
150 176 0
143 171 0
151 173 0
145 170 0
150 175 0
153 175 0
149 175 0
147 172 0
156 178 0
146 169 0
152 176 0
147 171 0
154 172 0
153 176 0
156 178 0
151 173 0
153 172 0
150 173 0
153 176 0
151 176 0
153 176 0
159 181 0
157 176 0
149 170 0
151 172 0
154 175 0
151 171 0
153 171 0
149 173 0
161 178 0
150 173 0
154 171 0
154 174 0
153 169 0
151 169 0
158 176 0
154 173 0
155 173 0
156 174 0
156 174 0
156 169 0
151 169 0
153 173 0
155 176 0
154 174 0
149 169 0
153 168 0
158 175 0
154 171 0
158 174 0
155 172 0
154 171 0
150 169 0
157 171 0
158 173 0
154 172 0
150 164 0
156 170 0
152 168 0
151 166 0
157 173 0
158 172 0
155 168 0
159 173 0
154 170 0
160 171 0
154 166 0
152 164 0
153 168 0
158 169 0
158 173 0
152 167 0
155 168 0
160 175 0
152 161 0
154 165 0
160 173 0
155 167 0
155 170 0
156 167 0
159 169 0
158 170 0
156 170 0
160 172 0
160 174 0
159 170 0
159 168 0
162 172 0
159 172 0
154 166 0
153 163 0
160 176 0
159 170 0
162 174 0
161 172 0
158 170 0
159 171 0
163 174 0
156 164 0
158 170 0
173 197 0
170 196 0
172 196 0
172 196 0
170 195 0
172 197 0
172 197 0
172 196 0
171 195 0
168 195 0
170 195 0
172 196 0
173 196 0
168 195 0
169 196 0
170 196 0
168 195 0
168 194 0
172 196 0
169 195 0
169 195 0
172 196 0
172 196 0
171 196 0
167 194 0
169 195 0
171 196 0
168 194 0
170 196 0
171 195 0
169 194 0
168 194 0
169 196 0
167 194 0
173 196 0
170 196 0
169 194 0
167 194 0
171 196 0
167 194 0
168 194 0
166 195 0
168 195 0
165 194 0
166 194 0
169 195 0
169 195 0
167 194 0
168 194 0
167 195 0
166 194 0
167 194 0
166 193 0
167 194 0
171 196 0
170 196 0
167 194 0
167 195 0
170 195 0
161 192 0
171 196 0
163 193 0
167 194 0
161 191 0
166 193 0
165 195 0
162 191 0
169 196 0
163 194 0
165 194 0
167 194 0
167 194 0
160 192 0
167 195 0
164 194 0
162 192 0
165 195 0
161 191 0
160 191 0
167 194 0
168 195 0
165 194 0
164 192 0
163 193 0
166 194 0
162 193 0
160 191 0
164 193 0
163 193 0
168 196 0
161 192 0
167 194 0
160 193 0
161 192 0
159 192 0
164 193 0
163 192 0
162 192 0
161 193 0
163 193 0
160 192 0
157 191 0
163 193 0
160 191 0
154 189 0
160 192 0
162 191 0
163 193 0
163 192 0
157 190 0
162 193 0
163 192 0
162 193 0
161 191 0
159 190 0
157 190 0
162 193 0
164 194 0
161 191 0
157 189 0
153 188 0
154 189 0
161 191 0
154 189 0
157 191 0
161 190 0
160 191 0
154 189 0
160 192 0
153 189 0
154 188 0
158 192 0
150 188 0
153 191 0
150 189 0
154 187 0
157 190 0
154 188 0
154 188 0
159 189 0
150 186 0
157 191 0
156 190 0
159 190 0
153 188 0
158 191 0
151 188 0
153 187 0
151 187 0
155 187 0
154 190 0
149 185 0
155 188 0
150 186 0
153 187 0
152 188 0
154 186 0
158 191 0
151 186 0
144 184 0
152 188 0
148 185 0
155 189 0
153 188 0
152 186 0
143 185 0
155 190 0
147 187 0
148 183 0
154 189 0
152 186 0
156 187 0
151 188 0
151 186 0
151 188 0
153 186 0
153 186 0
151 186 0
154 187 0
157 186 0
146 184 0
145 183 0
157 187 0
142 179 0
151 183 0
156 189 0
155 188 0
144 182 0
150 184 0
149 183 0
150 184 0
149 184 0
152 184 0
147 186 0
147 184 0
155 186 0
151 185 0
147 183 0
149 183 0
146 184 0
158 189 0
152 186 0
144 181 0
156 187 0
149 185 0
155 186 0
152 184 0
150 184 0
142 181 0
150 184 0
150 183 0
148 183 0
144 182 0
147 179 0
139 178 0
150 182 0
147 184 0
152 185 0
149 182 0
148 179 0
149 183 0
157 186 0
147 184 0
149 181 0
144 181 0
149 184 0
146 179 0
157 187 0
144 182 0
152 184 0
154 185 0
143 177 0
149 182 0
149 180 0
155 185 0
144 179 0
150 180 0
147 180 0
145 178 0
152 182 0
145 176 0
152 183 0
147 179 0
150 180 0
141 178 0
154 182 0
144 178 0
151 182 0
155 184 0
157 184 0
141 178 0
145 180 0
151 180 0
147 177 0
147 177 0
147 180 0
146 179 0
150 178 0
148 182 0
152 182 0
153 180 0
152 182 0
153 182 0
152 182 0
141 177 0
148 181 0
147 178 0
151 179 0
143 175 0
152 181 0
152 178 0
145 176 0
155 180 0
151 177 0
151 178 0
144 173 0
155 181 0
158 183 0
149 178 0
155 180 0
151 178 0
150 179 0
151 176 0
153 176 0
149 177 0
140 171 0
155 181 0
141 170 0
152 177 0
148 174 0
155 181 0
157 180 0
148 179 0
152 178 0
152 178 0
151 176 0
150 174 0
147 174 0
147 175 0
160 182 0
155 180 0
150 174 0
155 182 0
152 179 0
155 179 0
152 177 0
159 181 0
150 171 0
146 170 0
151 173 0
155 176 0
155 178 0
156 177 0
148 169 0
155 176 0
149 171 0
149 174 0
143 172 0
149 169 0
154 173 0
151 171 0
153 173 0
155 177 0
153 175 0
150 171 0
158 177 0
154 174 0
152 173 0
149 174 0
153 176 0
146 169 0
155 175 0
144 165 0
157 175 0
152 171 0
153 174 0
154 177 0
154 172 0
157 175 0
152 170 0
153 168 0
149 172 0
158 177 0
151 169 0
154 172 0
156 173 0
158 174 0
153 167 0
149 166 0
154 172 0
154 171 0
159 170 0
154 168 0
161 176 0
146 163 0
154 169 0
154 171 0
155 171 0
152 164 0
148 162 0
159 174 0
153 170 0
154 171 0
158 171 0
155 170 0
158 168 0
155 167 0
156 169 0
156 167 0
158 172 0
161 176 0
156 166 0
148 163 0
155 171 0
154 169 0
164 173 0
158 168 0
159 171 0
160 176 0
159 173 0
158 169 0
155 165 0
152 165 0
156 167 0
157 168 0
154 165 0
158 173 0
157 168 0
158 170 0
161 174 0
154 161 0
163 172 0
157 165 0
154 167 0
163 173 0
158 167 0
160 173 0
159 172 0
157 168 0
163 175 0
173 197 0
171 196 0
173 197 0
172 196 0
172 197 0
172 196 0
171 196 0
171 196 0
171 195 0
170 196 0
173 196 0
172 196 0
172 196 0
170 195 0
172 196 0
173 197 0
172 197 0
172 196 0
171 196 0
169 195 0
172 196 0
173 197 0
170 195 0
173 197 0
168 194 0
169 195 0
172 196 0
170 195 0
169 195 0
171 195 0
172 196 0
171 196 0
174 197 0
170 195 0
169 195 0
171 196 0
171 196 0
169 196 0
169 195 0
167 194 0
167 194 0
171 196 0
171 196 0
169 196 0
166 194 0
169 196 0
169 196 0
169 195 0
168 194 0
167 195 0
169 195 0
166 194 0
167 195 0
171 196 0
169 194 0
169 195 0
165 193 0
168 194 0
166 194 0
168 194 0
168 195 0
168 195 0
163 193 0
168 194 0
166 195 0
167 194 0
164 193 0
166 195 0
166 194 0
168 194 0
164 193 0
162 191 0
165 194 0
166 194 0
163 194 0
167 194 0
164 194 0
165 194 0
165 193 0
158 189 0
164 194 0
166 195 0
164 193 0
163 193 0
164 193 0
167 194 0
163 193 0
159 193 0
164 192 0
164 192 0
163 192 0
162 192 0
162 192 0
161 193 0
162 192 0
161 192 0
164 194 0
159 191 0
165 194 0
164 194 0
169 195 0
167 194 0
159 191 0
163 193 0
162 193 0
166 194 0
167 194 0
161 191 0
160 191 0
167 195 0
167 195 0
155 189 0
167 194 0
157 191 0
164 193 0
164 192 0
156 190 0
159 191 0
161 192 0
169 196 0
157 191 0
158 190 0
154 189 0
152 189 0
149 186 0
155 188 0
154 189 0
154 189 0
156 189 0
159 187 0
164 193 0
152 189 0
161 192 0
160 193 0
158 189 0
161 191 0
163 190 0
155 188 0
154 189 0
161 191 0
155 185 0
155 189 0
152 187 0
151 187 0
157 189 0
154 188 0
159 189 0
156 188 0
161 191 0
143 184 0
155 188 0
152 187 0
155 188 0
149 184 0
146 186 0
144 182 0
155 190 0
159 191 0
152 187 0
157 188 0
153 188 0
156 188 0
157 189 0
151 185 0
150 185 0
151 185 0
157 188 0
154 188 0
149 187 0
160 189 0
147 184 0
152 189 0
154 188 0
151 184 0
146 185 0
154 189 0
154 187 0
150 184 0
155 187 0
141 181 0
155 188 0
151 187 0
150 186 0
152 185 0
151 185 0
155 186 0
148 184 0
151 185 0
156 187 0
155 187 0
152 186 0
147 184 0
150 185 0
145 179 0
150 184 0
143 182 0
147 183 0
145 184 0
137 180 0
144 179 0
146 180 0
152 187 0
146 183 0
151 186 0
149 182 0
155 186 0
143 181 0
150 185 0
143 179 0
146 180 0
143 181 0
156 186 0
146 181 0
151 186 0
152 187 0
152 183 0
145 183 0
145 183 0
147 182 0
151 184 0
150 182 0
152 186 0
145 177 0
148 183 0
149 182 0
146 181 0
149 181 0
145 182 0
147 183 0
149 180 0
150 183 0
147 179 0
141 175 0
146 179 0
147 182 0
152 180 0
141 178 0
156 185 0
147 179 0
147 178 0
145 175 0
144 181 0
152 182 0
152 182 0
158 184 0
147 179 0
148 177 0
147 177 0
144 181 0
145 177 0
151 181 0
156 182 0
156 184 0
147 181 0
151 182 0
154 182 0
149 183 0
153 181 0
146 178 0
147 181 0
150 178 0
144 178 0
140 174 0
142 177 0
144 181 0
146 179 0
140 176 0
152 181 0
150 178 0
151 179 0
148 178 0
153 181 0
146 182 0
151 180 0
146 176 0
152 181 0
152 183 0
159 184 0
148 175 0
153 184 0
145 174 0
152 180 0
152 179 0
159 183 0
152 178 0
152 177 0
148 176 0
140 167 0
145 173 0
151 178 0
156 182 0
153 178 0
153 177 0
154 178 0
151 180 0
155 179 0
151 176 0
152 178 0
144 172 0
148 179 0
155 180 0
151 179 0
154 178 0
153 179 0
152 178 0
158 178 0
155 180 0
157 178 0
151 173 0
149 177 0
150 175 0
147 173 0
156 180 0
152 178 0
153 174 0
152 176 0
149 171 0
151 176 0
151 177 0
142 165 0
155 176 0
153 174 0
156 176 0
153 176 0
156 177 0
146 166 0
148 169 0
157 176 0
154 171 0
155 177 0
147 169 0
145 171 0
154 173 0
151 172 0
156 175 0
153 171 0
151 173 0
157 174 0
154 173 0
157 179 0
154 172 0
153 172 0
146 167 0
151 171 0
152 169 0
152 169 0
155 170 0
153 169 0
151 171 0
157 174 0
155 168 0
154 171 0
157 173 0
157 176 0
156 172 0
156 172 0
148 165 0
158 172 0
150 166 0
157 174 0
156 170 0
154 173 0
155 172 0
155 168 0
155 169 0
150 164 0
160 175 0
157 171 0
155 173 0
157 173 0
158 172 0
155 169 0
154 166 0
157 169 0
153 167 0
157 171 0
148 161 0
154 167 0
152 162 0
157 169 0
157 170 0
156 169 0
159 174 0
155 168 0
159 172 0
155 165 0
159 170 0
161 170 0
161 174 0
159 173 0
159 171 0
158 170 0
158 172 0
160 170 0
160 172 0
156 167 0
159 173 0
158 172 0
161 174 0
160 172 0
171 195 0
171 196 0
174 197 0
173 197 0
172 196 0
169 196 0
171 196 0
171 196 0
173 197 0
172 196 0
167 194 0
172 196 0
169 195 0
173 196 0
172 196 0
170 195 0
172 196 0
173 197 0
170 196 0
172 196 0
172 195 0
171 196 0
170 195 0
172 196 0
171 195 0
168 195 0
171 196 0
170 195 0
167 194 0
169 195 0
170 195 0
170 195 0
169 195 0
171 196 0
171 196 0
168 195 0
170 195 0
169 194 0
168 194 0
170 196 0
169 194 0
169 194 0
167 194 0
171 195 0
169 195 0
171 195 0
168 194 0
167 195 0
167 195 0
167 194 0
169 194 0
167 194 0
170 197 0
169 195 0
170 195 0
166 193 0
166 194 0
164 193 0
163 192 0
165 194 0
170 195 0
166 194 0
159 193 0
166 193 0
162 192 0
169 194 0
162 194 0
166 194 0
167 195 0
166 193 0
161 192 0
166 194 0
167 196 0
167 195 0
165 193 0
162 191 0
164 194 0
165 192 0
160 192 0
163 193 0
161 191 0
164 193 0
160 192 0
164 194 0
161 192 0
158 191 0
169 195 0
160 191 0
164 192 0
167 195 0
164 193 0
162 193 0
161 193 0
165 195 0
165 194 0
163 193 0
164 192 0
156 191 0
162 192 0
165 193 0
160 191 0
166 193 0
157 190 0
159 192 0
167 195 0
162 192 0
160 192 0
161 192 0
164 194 0
156 190 0
160 192 0
158 190 0
159 192 0
157 190 0
159 189 0
165 193 0
158 190 0
163 192 0
156 189 0
159 190 0
155 190 0
158 192 0
157 189 0
158 189 0
152 191 0
162 192 0
161 191 0
160 191 0
161 191 0
150 186 0
155 189 0
155 189 0
157 190 0
161 193 0
155 190 0
161 192 0
162 192 0
162 193 0
157 189 0
148 187 0
159 190 0
154 187 0
162 192 0
159 189 0
157 191 0
159 190 0
158 190 0
155 189 0
160 193 0
162 192 0
150 186 0
150 184 0
156 189 0
152 186 0
151 186 0
153 186 0
156 187 0
163 192 0
158 189 0
147 185 0
149 184 0
146 185 0
149 188 0
154 186 0
153 187 0
158 189 0
149 185 0
148 185 0
151 189 0
151 185 0
150 185 0
155 187 0
147 185 0
151 185 0
156 188 0
148 184 0
152 186 0
143 183 0
154 188 0
151 186 0
148 184 0
151 185 0
150 187 0
140 176 0
145 180 0
147 185 0
155 189 0
149 185 0
147 182 0
146 186 0
150 185 0
154 187 0
154 186 0
147 180 0
148 183 0
151 185 0
155 187 0
151 184 0
154 187 0
146 184 0
148 186 0
149 182 0
155 187 0
146 183 0
151 186 0
149 183 0
150 186 0
148 182 0
153 185 0
149 185 0
148 185 0
148 185 0
150 183 0
146 182 0
153 187 0
154 186 0
149 183 0
145 179 0
148 181 0
153 185 0
147 184 0
148 183 0
155 186 0
153 185 0
147 182 0
148 184 0
136 175 0
141 178 0
154 184 0
141 176 0
151 185 0
151 182 0
147 187 0
152 184 0
152 183 0
151 184 0
140 176 0
151 183 0
151 184 0
147 180 0
150 182 0
144 179 0
149 182 0
150 180 0
149 181 0
149 182 0
153 183 0
140 178 0
150 181 0
153 184 0
147 179 0
156 182 0
148 182 0
150 178 0
157 185 0
154 183 0
149 176 0
149 180 0
145 178 0
151 181 0
143 177 0
153 183 0
156 183 0
153 182 0
147 176 0
148 179 0
151 180 0
157 185 0
152 176 0
153 180 0
148 181 0
155 181 0
149 175 0
149 181 0
156 182 0
141 172 0
152 178 0
152 181 0
152 179 0
147 179 0
155 182 0
149 176 0
150 176 0
148 175 0
148 178 0
146 176 0
146 177 0
159 182 0
155 182 0
148 177 0
153 176 0
151 177 0
152 177 0
144 172 0
154 179 0
147 176 0
151 173 0
152 179 0
153 177 0
146 171 0
152 178 0
148 175 0
151 177 0
152 178 0
156 179 0
150 170 0
153 176 0
152 182 0
150 173 0
152 174 0
148 172 0
147 170 0
154 181 0
154 174 0
157 180 0
155 177 0
153 178 0
154 176 0
157 179 0
155 177 0
150 171 0
154 175 0
154 176 0
152 172 0
149 176 0
152 169 0
157 178 0
153 177 0
150 172 0
148 171 0
157 176 0
150 175 0
149 171 0
158 179 0
150 175 0
149 169 0
153 170 0
159 180 0
160 178 0
152 173 0
159 176 0
156 174 0
153 170 0
155 176 0
149 169 0
157 175 0
154 171 0
154 171 0
152 169 0
160 175 0
152 172 0
156 173 0
153 169 0
154 171 0
160 179 0
150 167 0
154 172 0
155 174 0
154 169 0
152 170 0
160 174 0
157 173 0
157 172 0
158 170 0
157 175 0
156 173 0
156 174 0
156 167 0
156 170 0
156 171 0
156 170 0
163 176 0
158 173 0
159 170 0
150 165 0
158 172 0
161 176 0
158 172 0
152 167 0
161 174 0
156 165 0
161 171 0
156 169 0
157 168 0
157 169 0
159 169 0
154 171 0
161 172 0
160 175 0
158 170 0
160 175 0
164 179 0
152 162 0
162 176 0
160 172 0
160 173 0
159 169 0
161 174 0
160 171 0
162 173 0
173 197 0
174 197 0
173 197 0
172 196 0
172 196 0
173 197 0
172 196 0
171 196 0
173 196 0
173 196 0
171 196 0
172 196 0
172 197 0
171 196 0
168 195 0
170 196 0
170 196 0
165 194 0
171 196 0
168 194 0
171 196 0
167 195 0
173 197 0
169 194 0
172 196 0
169 195 0
170 196 0
171 195 0
168 195 0
172 197 0
171 196 0
171 196 0
172 196 0
168 195 0
168 194 0
166 194 0
166 194 0
167 194 0
166 194 0
168 194 0
168 196 0
167 194 0
168 194 0
169 195 0
158 189 0
170 196 0
166 193 0
167 195 0
165 192 0
166 194 0
172 196 0
168 195 0
160 191 0
163 194 0
168 195 0
158 191 0
169 195 0
168 193 0
164 194 0
165 194 0
166 192 0
167 195 0
170 195 0
166 193 0
167 194 0
166 194 0
168 195 0
162 192 0
167 195 0
162 194 0
164 193 0
166 194 0
167 195 0
164 194 0
169 195 0
167 194 0
164 194 0
163 193 0
165 195 0
170 195 0
160 192 0
165 194 0
161 191 0
165 194 0
167 195 0
165 193 0
167 194 0
161 192 0
164 194 0
161 193 0
169 195 0
165 192 0
166 195 0
164 193 0
165 193 0
158 191 0
168 195 0
160 192 0
163 193 0
165 194 0
160 191 0
159 191 0
155 191 0
161 191 0
164 194 0
157 190 0
162 192 0
164 192 0
165 195 0
160 192 0
167 194 0
152 188 0
163 191 0
161 191 0
163 193 0
163 193 0
163 192 0
156 190 0
158 190 0
160 190 0
155 187 0
158 190 0
155 189 0
161 191 0
159 192 0
161 191 0
150 188 0
162 190 0
158 191 0
161 192 0
160 191 0
161 189 0
155 189 0
166 192 0
152 190 0
159 190 0
158 190 0
151 186 0
160 190 0
158 189 0
156 189 0
161 190 0
156 190 0
159 189 0
164 190 0
157 188 0
157 190 0
165 192 0
156 189 0
150 186 0
155 189 0
158 188 0
147 185 0
156 187 0
147 185 0
153 187 0
162 192 0
159 188 0
147 186 0
157 187 0
153 186 0
145 185 0
154 189 0
159 190 0
152 186 0
150 185 0
155 188 0
151 185 0
150 186 0
153 187 0
159 190 0
159 191 0
155 188 0
156 190 0
159 191 0
144 183 0
148 185 0
142 180 0
157 190 0
161 190 0
157 186 0
151 184 0
148 184 0
145 182 0
153 186 0
149 186 0
147 184 0
148 185 0
152 186 0
157 187 0
151 184 0
149 184 0
157 187 0
146 186 0
150 183 0
158 190 0
146 180 0
150 184 0
145 183 0
156 185 0
144 181 0
150 185 0
155 185 0
149 184 0
151 188 0
147 182 0
148 184 0
152 183 0
150 183 0
147 184 0
152 184 0
151 184 0
155 188 0
143 180 0
154 186 0
153 184 0
151 184 0
154 186 0
152 185 0
155 187 0
157 185 0
147 181 0
157 186 0
152 186 0
135 176 0
145 180 0
145 181 0
149 182 0
143 180 0
149 182 0
152 183 0
144 180 0
152 182 0
155 184 0
149 182 0
151 184 0
149 184 0
142 182 0
149 182 0
149 182 0
152 182 0
150 183 0
147 181 0
145 181 0
147 179 0
150 179 0
152 181 0
144 177 0
144 176 0
155 181 0
149 181 0
151 183 0
152 184 0
148 182 0
148 181 0
144 179 0
141 176 0
151 184 0
147 181 0
156 186 0
147 179 0
151 185 0
150 179 0
152 181 0
154 184 0
159 187 0
151 180 0
154 182 0
153 183 0
160 185 0
153 178 0
156 183 0
147 175 0
152 183 0
146 174 0
154 180 0
148 177 0
151 174 0
148 179 0
151 182 0
152 181 0
148 179 0
148 174 0
154 183 0
153 180 0
154 182 0
152 180 0
150 177 0
149 178 0
148 174 0
150 176 0
153 181 0
156 181 0
153 180 0
148 174 0
148 175 0
154 179 0
154 178 0
151 179 0
150 181 0
155 182 0
157 180 0
157 181 0
150 174 0
150 171 0
155 178 0
155 177 0
147 175 0
146 170 0
154 180 0
153 172 0
153 179 0
152 173 0
152 178 0
156 175 0
145 172 0
156 178 0
156 177 0
146 172 0
157 179 0
151 177 0
151 175 0
150 172 0
157 179 0
153 179 0
158 177 0
152 175 0
155 175 0
151 174 0
156 178 0
152 174 0
156 177 0
153 170 0
143 166 0
151 171 0
156 175 0
148 171 0
154 174 0
153 174 0
149 168 0
154 170 0
154 170 0
149 170 0
155 177 0
155 173 0
152 171 0
158 178 0
152 168 0
154 175 0
157 174 0
160 178 0
153 171 0
159 174 0
158 175 0
161 176 0
156 175 0
162 178 0
157 176 0
156 174 0
158 178 0
150 169 0
156 175 0
147 167 0
146 164 0
154 171 0
149 164 0
153 174 0
160 173 0
161 174 0
157 170 0
157 172 0
152 167 0
161 176 0
157 169 0
156 172 0
158 172 0
154 167 0
160 172 0
158 171 0
159 172 0
156 170 0
157 171 0
156 167 0
161 174 0
158 173 0
161 173 0
156 171 0
158 171 0
158 169 0
155 170 0
160 172 0
151 163 0
160 175 0
163 177 0
158 173 0
161 174 0
158 170 0
159 170 0
159 170 0
157 171 0
170 196 0
171 195 0
172 196 0
173 197 0
173 196 0
170 195 0
174 197 0
170 196 0
171 196 0
171 196 0
171 196 0
172 196 0
172 196 0
169 196 0
170 195 0
173 197 0
172 196 0
169 195 0
170 195 0
170 196 0
171 196 0
166 194 0
169 195 0
171 196 0
171 196 0
168 194 0
170 196 0
168 195 0
171 197 0
169 195 0
169 195 0
168 194 0
168 194 0
172 196 0
168 195 0
167 195 0
169 194 0
167 195 0
169 195 0
166 192 0
172 197 0
168 194 0
168 195 0
167 194 0
167 194 0
168 195 0
166 194 0
164 193 0
167 195 0
167 193 0
163 193 0
165 193 0
169 195 0
166 194 0
166 193 0
162 193 0
167 195 0
164 193 0
167 195 0
168 195 0
161 192 0
167 195 0
168 195 0
164 192 0
170 196 0
168 195 0
166 193 0
171 196 0
164 192 0
167 195 0
165 193 0
163 192 0
167 193 0
162 192 0
163 193 0
161 192 0
167 195 0
167 194 0
162 193 0
167 195 0
162 192 0
162 191 0
163 193 0
163 193 0
162 192 0
163 192 0
161 191 0
165 195 0
161 192 0
160 193 0
168 195 0
164 193 0
169 196 0
158 190 0
166 194 0
165 194 0
163 194 0
165 195 0
164 193 0
164 194 0
163 193 0
160 191 0
153 188 0
165 194 0
157 191 0
163 193 0
166 194 0
164 193 0
162 193 0
160 192 0
159 190 0
163 192 0
155 189 0
163 192 0
160 193 0
162 191 0
158 191 0
151 187 0
159 190 0
152 189 0
160 191 0
162 192 0
155 189 0
161 191 0
158 189 0
156 190 0
165 193 0
148 187 0
153 189 0
159 189 0
161 191 0
150 188 0
160 193 0
151 186 0
159 189 0
154 187 0
155 189 0
157 189 0
160 192 0
160 190 0
156 192 0
150 187 0
159 191 0
163 191 0
159 192 0
157 191 0
154 189 0
159 190 0
160 193 0
152 188 0
158 187 0
159 191 0
157 189 0
150 186 0
156 189 0
155 189 0
156 188 0
153 189 0
157 188 0
148 186 0
158 188 0
149 185 0
158 188 0
148 185 0
156 186 0
155 188 0
153 188 0
150 186 0
157 186 0
155 188 0
158 190 0
153 185 0
157 189 0
150 186 0
163 192 0
155 188 0
154 188 0
150 182 0
156 188 0
152 185 0
155 186 0
150 186 0
151 187 0
158 190 0
158 188 0
153 186 0
157 189 0
148 183 0
148 182 0
150 185 0
148 184 0
148 182 0
149 186 0
152 185 0
149 184 0
147 184 0
153 186 0
150 186 0
157 187 0
149 183 0
154 184 0
154 185 0
154 186 0
149 184 0
153 186 0
150 184 0
154 188 0
157 190 0
152 185 0
158 186 0
156 189 0
144 180 0
143 180 0
157 186 0
147 181 0
154 183 0
144 182 0
158 186 0
154 184 0
148 181 0
146 179 0
150 183 0
153 185 0
151 186 0
148 180 0
154 185 0
144 174 0
145 178 0
157 187 0
142 175 0
146 180 0
150 182 0
148 182 0
147 183 0
142 179 0
154 182 0
153 182 0
150 183 0
148 180 0
144 178 0
152 181 0
149 180 0
148 181 0
145 175 0
150 184 0
152 181 0
154 186 0
150 183 0
153 185 0
146 178 0
153 179 0
150 179 0
152 180 0
148 179 0
149 180 0
151 182 0
157 182 0
150 179 0
148 181 0
153 182 0
151 182 0
148 180 0
146 180 0
156 182 0
153 182 0
147 182 0
153 179 0
150 181 0
150 178 0
154 185 0
143 176 0
150 179 0
153 183 0
156 182 0
152 180 0
157 182 0
145 175 0
150 178 0
151 177 0
150 179 0
148 177 0
152 181 0
146 179 0
145 179 0
155 180 0
149 175 0
155 181 0
153 181 0
153 178 0
152 178 0
152 182 0
153 179 0
151 177 0
144 173 0
154 178 0
152 181 0
161 183 0
149 177 0
152 179 0
154 180 0
152 177 0
157 178 0
149 171 0
149 173 0
153 179 0
155 181 0
151 177 0
154 176 0
151 176 0
151 179 0
159 182 0
155 178 0
154 177 0
150 178 0
145 173 0
152 173 0
148 172 0
144 172 0
154 177 0
152 179 0
157 176 0
148 172 0
159 180 0
151 171 0
150 177 0
148 173 0
162 181 0
152 175 0
153 173 0
149 172 0
154 175 0
150 170 0
153 175 0
153 172 0
153 175 0
154 177 0
152 178 0
154 174 0
154 173 0
155 174 0
156 179 0
150 170 0
161 177 0
154 174 0
156 176 0
159 176 0
152 174 0
154 173 0
156 174 0
160 178 0
161 179 0
157 173 0
157 179 0
155 170 0
157 172 0
149 165 0
153 172 0
163 180 0
157 176 0
158 174 0
161 177 0
148 166 0
156 170 0
151 170 0
154 169 0
160 180 0
155 170 0
156 171 0
155 172 0
162 176 0
162 174 0
153 166 0
157 174 0
157 173 0
153 168 0
156 172 0
158 174 0
160 174 0
161 176 0
153 166 0
152 169 0
158 172 0
153 166 0
155 169 0
153 171 0
158 172 0
154 171 0
160 175 0
160 175 0
152 167 0
158 172 0
165 179 0
161 175 0
157 166 0
159 172 0
159 169 0
162 176 0
164 176 0
158 172 0
162 174 0
172 197 0
171 196 0
170 195 0
171 196 0
171 197 0
173 196 0
172 196 0
172 195 0
172 196 0
174 198 0
173 197 0
173 197 0
170 195 0
172 197 0
169 195 0
171 196 0
170 195 0
171 195 0
170 194 0
171 196 0
171 195 0
172 196 0
171 196 0
168 195 0
171 196 0
168 195 0
170 196 0
169 195 0
172 196 0
168 194 0
169 195 0
171 195 0
168 195 0
170 195 0
168 195 0
167 194 0
167 195 0
163 192 0
163 193 0
167 193 0
164 193 0
169 195 0
165 193 0
168 196 0
164 194 0
170 196 0
166 195 0
166 194 0
168 195 0
163 193 0
169 195 0
167 194 0
167 194 0
163 191 0
172 197 0
168 196 0
166 193 0
167 195 0
168 194 0
168 196 0
163 194 0
165 194 0
168 194 0
171 196 0
164 194 0
169 195 0
168 196 0
162 193 0
169 196 0
165 195 0
171 196 0
169 196 0
164 193 0
163 193 0
162 191 0
164 194 0
164 193 0
168 194 0
166 194 0
166 194 0
167 194 0
163 191 0
164 193 0
165 194 0
168 194 0
166 195 0
166 193 0
165 194 0
169 195 0
163 191 0
162 193 0
169 195 0
160 191 0
168 193 0
169 196 0
167 193 0
164 194 0
163 193 0
161 192 0
158 192 0
157 190 0
159 192 0
162 192 0
160 192 0
159 190 0
155 188 0
167 195 0
160 192 0
156 190 0
161 193 0
157 190 0
164 194 0
162 192 0
161 191 0
160 191 0
164 192 0
163 192 0
158 192 0
165 194 0
157 190 0
161 192 0
157 189 0
159 191 0
154 189 0
160 191 0
161 190 0
158 187 0
160 192 0
163 194 0
157 191 0
158 189 0
161 192 0
160 192 0
163 193 0
155 188 0
157 190 0
162 191 0
156 189 0
158 190 0
164 194 0
155 190 0
162 192 0
159 191 0
153 185 0
165 192 0
161 192 0
152 185 0
162 192 0
151 187 0
153 188 0
153 188 0
155 188 0
149 187 0
154 188 0
156 191 0
155 189 0
151 186 0
155 188 0
156 186 0
151 186 0
151 186 0
141 184 0
155 189 0
155 189 0
159 189 0
151 187 0
147 185 0
158 190 0
156 188 0
149 185 0
152 187 0
144 185 0
148 184 0
158 187 0
148 185 0
149 184 0
146 182 0
149 185 0
160 189 0
151 185 0
157 189 0
153 187 0
151 186 0
151 186 0
148 187 0
148 187 0
148 180 0
149 184 0
150 186 0
157 188 0
152 184 0
156 187 0
147 184 0
144 184 0
151 185 0
156 189 0
153 186 0
149 185 0
152 186 0
147 184 0
149 185 0
151 184 0
149 185 0
152 188 0
147 182 0
139 180 0
149 184 0
148 182 0
145 179 0
153 184 0
148 185 0
149 183 0
153 186 0
150 185 0
150 182 0
148 182 0
150 181 0
145 180 0
149 181 0
148 180 0
152 184 0
156 185 0
156 187 0
154 186 0
148 183 0
149 179 0
153 183 0
151 184 0
147 180 0
148 185 0
146 180 0
149 186 0
155 184 0
148 181 0
146 180 0
149 181 0
139 177 0
154 185 0
153 183 0
152 180 0
151 180 0
145 180 0
153 184 0
156 185 0
151 186 0
153 182 0
153 183 0
151 183 0
142 176 0
155 183 0
153 183 0
153 184 0
154 182 0
139 177 0
144 178 0
149 184 0
147 180 0
155 184 0
154 184 0
153 182 0
148 181 0
153 181 0
149 181 0
148 178 0
146 180 0
154 184 0
157 183 0
150 180 0
153 182 0
156 186 0
148 179 0
156 183 0
149 179 0
155 185 0
147 179 0
152 183 0
143 175 0
152 179 0
158 188 0
151 177 0
150 174 0
148 178 0
150 177 0
152 179 0
151 180 0
152 179 0
153 179 0
147 181 0
153 181 0
148 175 0
153 179 0
149 177 0
156 182 0
152 177 0
157 184 0
154 181 0
162 187 0
151 174 0
150 177 0
150 176 0
150 180 0
150 175 0
155 182 0
148 179 0
158 182 0
147 178 0
157 178 0
151 177 0
152 174 0
159 178 0
147 172 0
144 172 0
153 178 0
153 175 0
151 176 0
159 179 0
155 178 0
155 177 0
153 176 0
157 177 0
148 169 0
141 168 0
148 169 0
151 176 0
148 171 0
153 176 0
154 175 0
152 177 0
150 175 0
151 173 0
151 174 0
158 179 0
152 169 0
154 174 0
155 178 0
154 173 0
154 175 0
155 172 0
157 177 0
150 172 0
146 172 0
153 173 0
154 172 0
159 181 0
155 173 0
152 176 0
153 174 0
158 173 0
150 170 0
155 173 0
151 171 0
154 175 0
154 171 0
154 172 0
159 176 0
156 169 0
162 181 0
153 172 0
153 169 0
157 170 0
155 172 0
154 174 0
150 170 0
155 175 0
155 170 0
155 169 0
156 166 0
158 175 0
151 167 0
156 172 0
150 169 0
161 175 0
158 175 0
156 173 0
155 170 0
156 174 0
156 167 0
154 169 0
159 172 0
153 168 0
154 167 0
158 172 0
152 165 0
156 169 0
156 169 0
157 174 0
159 174 0
159 175 0
159 173 0
163 176 0
156 168 0
160 172 0
160 173 0
157 171 0
160 171 0
158 167 0
158 170 0
162 176 0
160 173 0
161 174 0
173 197 0
170 196 0
171 195 0
173 197 0
171 195 0
168 195 0
171 196 0
173 197 0
169 195 0
171 194 0
169 196 0
169 195 0
169 196 0
171 196 0
171 196 0
170 195 0
172 196 0
171 196 0
171 195 0
168 194 0
169 195 0
166 193 0
169 195 0
173 197 0
170 196 0
169 195 0
171 195 0
166 195 0
171 195 0
165 194 0
165 193 0
171 196 0
165 194 0
169 195 0
170 195 0
165 193 0
164 194 0
170 196 0
164 194 0
172 196 0
169 195 0
170 196 0
170 196 0
169 195 0
165 192 0
166 193 0
165 194 0
163 193 0
171 195 0
168 195 0
168 195 0
162 192 0
170 195 0
164 193 0
163 194 0
162 193 0
168 195 0
171 196 0
166 193 0
168 194 0
167 195 0
169 196 0
170 195 0
163 194 0
160 191 0
166 195 0
166 194 0
166 195 0
166 195 0
169 195 0
166 194 0
161 192 0
164 193 0
163 191 0
168 195 0
164 194 0
171 196 0
165 194 0
162 192 0
165 194 0
165 194 0
166 194 0
167 194 0
166 195 0
169 196 0
163 195 0
162 192 0
166 194 0
163 192 0
166 193 0
163 193 0
163 193 0
156 190 0
161 192 0
165 194 0
160 192 0
167 195 0
166 194 0
162 192 0
157 191 0
163 194 0
157 190 0
160 190 0
161 192 0
163 192 0
162 194 0
161 193 0
160 191 0
163 193 0
163 193 0
161 192 0
156 190 0
162 193 0
165 194 0
167 194 0
162 193 0
161 192 0
160 192 0
161 190 0
158 190 0
161 191 0
161 192 0
159 191 0
162 193 0
163 193 0
162 193 0
161 192 0
156 190 0
163 193 0
156 190 0
160 190 0
158 190 0
149 186 0
155 190 0
168 195 0
152 188 0
157 189 0
153 188 0
156 190 0
153 188 0
155 187 0
156 190 0
156 188 0
161 192 0
153 186 0
154 188 0
157 191 0
150 187 0
158 191 0
160 191 0
158 188 0
154 189 0
159 190 0
158 188 0
157 189 0
153 187 0
157 190 0
154 183 0
157 189 0
152 187 0
156 188 0
156 189 0
155 187 0
154 186 0
153 187 0
152 186 0
153 189 0
156 189 0
156 186 0
142 180 0
147 185 0
156 190 0
140 179 0
158 190 0
155 189 0
154 187 0
157 188 0
153 188 0
161 190 0
148 183 0
141 181 0
149 186 0
148 184 0
157 188 0
155 184 0
154 186 0
153 184 0
152 186 0
149 185 0
160 190 0
153 185 0
150 185 0
145 182 0
145 183 0
155 187 0
152 185 0
151 184 0
147 183 0
158 189 0
152 185 0
151 185 0
154 188 0
146 182 0
151 184 0
147 183 0
155 187 0
151 187 0
156 187 0
154 186 0
147 181 0
146 182 0
141 180 0
152 184 0
153 185 0
153 188 0
134 179 0
149 184 0
146 182 0
150 181 0
151 184 0
152 187 0
149 183 0
145 181 0
152 183 0
148 182 0
152 185 0
155 186 0
155 186 0
155 183 0
153 186 0
148 181 0
148 183 0
153 182 0
144 177 0
156 188 0
145 181 0
149 183 0
143 180 0
151 181 0
148 181 0
153 181 0
155 184 0
151 184 0
147 179 0
147 177 0
156 186 0
153 182 0
151 183 0
147 178 0
150 181 0
147 179 0
152 184 0
155 186 0
147 179 0
157 187 0
161 188 0
146 179 0
146 182 0
151 180 0
152 183 0
152 181 0
148 179 0
155 182 0
152 179 0
145 177 0
152 180 0
149 180 0
158 185 0
151 178 0
145 177 0
147 177 0
147 177 0
153 179 0
159 184 0
154 180 0
157 187 0
154 182 0
147 177 0
149 181 0
143 172 0
149 177 0
159 185 0
156 181 0
153 179 0
155 182 0
148 179 0
151 180 0
149 180 0
150 178 0
153 181 0
146 178 0
155 183 0
151 180 0
152 176 0
148 177 0
147 173 0
152 182 0
154 181 0
157 183 0
151 177 0
155 181 0
157 179 0
158 180 0
143 173 0
151 175 0
155 178 0
153 182 0
150 173 0
147 172 0
156 182 0
156 179 0
153 178 0
153 179 0
155 178 0
153 174 0
152 178 0
159 181 0
155 176 0
145 170 0
159 180 0
152 176 0
151 175 0
156 175 0
150 177 0
152 175 0
154 177 0
157 178 0
155 175 0
154 177 0
156 179 0
155 178 0
146 170 0
165 184 0
155 179 0
157 175 0
150 168 0
149 170 0
151 174 0
154 176 0
153 175 0
152 176 0
151 173 0
157 174 0
154 175 0
156 173 0
154 171 0
152 174 0
153 172 0
159 179 0
154 173 0
158 177 0
152 171 0
153 174 0
150 169 0
154 172 0
154 172 0
155 172 0
155 169 0
151 167 0
156 176 0
156 172 0
155 171 0
159 174 0
161 177 0
152 167 0
157 173 0
157 174 0
151 173 0
158 172 0
162 174 0
155 172 0
161 175 0
157 171 0
154 170 0
159 173 0
159 176 0
155 171 0
161 177 0
155 174 0
155 169 0
159 174 0
161 174 0
157 172 0
161 179 0
161 176 0
157 172 0
157 173 0
157 176 0
161 175 0
158 172 0
157 170 0
162 180 0
160 173 0
157 175 0
161 175 0
157 170 0
162 171 0
163 177 0
159 174 0
157 171 0
171 196 0
171 195 0
172 196 0
170 195 0
169 195 0
170 195 0
170 195 0
172 196 0
172 197 0
171 195 0
170 194 0
171 195 0
171 195 0
169 194 0
171 195 0
169 195 0
169 194 0
167 194 0
170 196 0
169 195 0
171 196 0
169 196 0
171 195 0
173 197 0
169 196 0
167 195 0
171 196 0
169 195 0
169 194 0
169 195 0
169 195 0
170 196 0
167 194 0
171 196 0
170 195 0
163 193 0
168 194 0
168 196 0
168 194 0
164 194 0
170 195 0
166 193 0
169 194 0
170 195 0
166 193 0
166 195 0
165 194 0
167 195 0
167 195 0
169 196 0
168 195 0
166 194 0
169 195 0
167 194 0
171 196 0
164 194 0
166 194 0
166 194 0
169 196 0
168 195 0
166 194 0
163 194 0
164 194 0
167 193 0
167 194 0
166 194 0
163 193 0
166 193 0
165 194 0
166 194 0
166 194 0
165 194 0
166 194 0
164 194 0
166 194 0
164 194 0
166 194 0
167 195 0
167 194 0
169 195 0
158 192 0
167 195 0
163 192 0
167 194 0
161 191 0
164 193 0
166 194 0
166 194 0
158 189 0
166 194 0
166 194 0
160 192 0
165 193 0
163 193 0
164 194 0
161 192 0
166 194 0
164 193 0
160 191 0
163 192 0
162 191 0
166 192 0
166 194 0
168 194 0
161 192 0
163 191 0
163 190 0
158 192 0
160 192 0
156 190 0
162 191 0
163 193 0
158 190 0
159 191 0
157 189 0
160 191 0
156 190 0
160 191 0
157 191 0
160 190 0
157 189 0
155 187 0
158 191 0
159 192 0
157 191 0
159 190 0
154 188 0
156 190 0
163 190 0
163 193 0
162 192 0
161 192 0
157 188 0
162 192 0
154 189 0
158 190 0
153 188 0
154 189 0
156 188 0
161 191 0
165 193 0
159 189 0
161 191 0
159 186 0
157 189 0
152 186 0
156 189 0
153 186 0
163 192 0
156 190 0
157 189 0
156 188 0
157 189 0
154 186 0
157 186 0
162 192 0
149 185 0
157 188 0
159 190 0
161 190 0
156 188 0
157 186 0
158 189 0
154 188 0
158 188 0
156 190 0
151 187 0
157 189 0
147 184 0
160 191 0
156 190 0
158 188 0
151 186 0
158 188 0
154 186 0
156 187 0
152 186 0
148 186 0
154 188 0
153 183 0
154 189 0
149 183 0
160 187 0
151 187 0
157 186 0
152 186 0
155 188 0
143 182 0
148 184 0
148 183 0
152 186 0
154 186 0
148 186 0
154 188 0
155 186 0
151 185 0
154 184 0
147 183 0
145 182 0
148 183 0
154 186 0
155 187 0
151 185 0
155 188 0
143 181 0
157 185 0
148 184 0
150 187 0
146 186 0
150 183 0
147 180 0
149 183 0
147 182 0
149 185 0
146 179 0
151 184 0
138 177 0
147 182 0
155 186 0
147 184 0
152 184 0
151 185 0
155 189 0
150 183 0
157 187 0
145 181 0
147 183 0
151 186 0
154 186 0
150 182 0
152 183 0
152 184 0
154 187 0
152 184 0
143 181 0
144 178 0
146 181 0
149 183 0
148 185 0
148 183 0
156 185 0
144 178 0
145 179 0
152 185 0
156 184 0
151 183 0
153 184 0
153 183 0
141 177 0
146 180 0
154 185 0
150 183 0
156 185 0
155 182 0
149 181 0
146 179 0
141 174 0
150 181 0
154 186 0
153 184 0
153 183 0
144 176 0
146 177 0
149 178 0
152 181 0
152 181 0
144 175 0
151 181 0
150 180 0
152 182 0
157 186 0
157 182 0
154 184 0
155 183 0
155 186 0
147 177 0
148 180 0
151 182 0
152 179 0
154 182 0
150 181 0
151 180 0
160 186 0
149 176 0
156 184 0
151 178 0
156 181 0
151 180 0
157 182 0
156 182 0
150 175 0
157 182 0
151 178 0
147 174 0
152 179 0
149 178 0
149 175 0
158 183 0
153 180 0
151 178 0
151 177 0
157 179 0
151 178 0
153 176 0
154 180 0
159 183 0
153 178 0
162 182 0
150 182 0
155 184 0
158 180 0
150 178 0
159 184 0
158 178 0
159 183 0
152 175 0
158 180 0
155 179 0
152 176 0
155 180 0
156 182 0
157 176 0
152 176 0
157 179 0
148 173 0
154 177 0
147 174 0
152 176 0
157 180 0
152 176 0
151 176 0
145 165 0
149 173 0
153 172 0
153 174 0
153 175 0
149 172 0
150 171 0
152 174 0
156 178 0
151 171 0
157 176 0
160 179 0
150 171 0
157 178 0
154 174 0
155 173 0
157 176 0
152 170 0
153 171 0
158 177 0
157 175 0
161 179 0
154 173 0
152 171 0
159 177 0
158 176 0
159 175 0
151 164 0
148 168 0
158 171 0
154 171 0
151 167 0
158 175 0
155 167 0
156 177 0
153 167 0
157 177 0
155 170 0
150 167 0
157 171 0
151 165 0
161 176 0
149 171 0
158 173 0
158 174 0
153 169 0
153 172 0
159 171 0
160 175 0
162 172 0
158 174 0
152 167 0
160 173 0
160 174 0
157 171 0
165 180 0
162 173 0
158 169 0
155 171 0
160 176 0
160 173 0
154 167 0
162 173 0
157 173 0
158 170 0
161 172 0
158 172 0
164 179 0
159 175 0
170 196 0
172 197 0
168 195 0
171 195 0
171 196 0
169 196 0
171 196 0
171 196 0
171 196 0
167 194 0
170 195 0
173 197 0
168 194 0
170 195 0
173 197 0
165 194 0
170 195 0
168 194 0
174 197 0
167 193 0
172 197 0
166 194 0
173 197 0
172 196 0
169 195 0
166 194 0
167 194 0
170 195 0
173 197 0
171 195 0
165 194 0
167 194 0
168 195 0
171 196 0
166 194 0
169 195 0
170 194 0
170 196 0
168 195 0
166 192 0
167 194 0
167 194 0
165 194 0
167 194 0
171 197 0
167 193 0
167 195 0
171 196 0
168 194 0
170 194 0
161 191 0
167 194 0
166 194 0
167 195 0
171 196 0
164 193 0
169 195 0
167 193 0
164 194 0
166 193 0
164 192 0
167 194 0
166 195 0
160 191 0
172 196 0
168 195 0
167 193 0
161 192 0
164 194 0
173 197 0
164 194 0
164 193 0
162 192 0
160 193 0
164 193 0
161 193 0
168 195 0
164 192 0
163 193 0
162 192 0
165 194 0
167 195 0
161 192 0
164 193 0
162 192 0
164 194 0
164 192 0
167 194 0
160 192 0
162 192 0
166 194 0
163 192 0
166 193 0
161 193 0
163 192 0
165 193 0
163 193 0
163 193 0
165 194 0
162 192 0
156 189 0
163 191 0
159 191 0
157 192 0
164 193 0
163 193 0
160 192 0
165 193 0
159 191 0
157 190 0
161 193 0
159 191 0
154 189 0
163 195 0
161 191 0
160 193 0
161 193 0
160 191 0
157 189 0
162 191 0
163 193 0
160 191 0
161 191 0
163 192 0
160 191 0
160 191 0
161 192 0
158 190 0
158 189 0
158 189 0
157 190 0
155 189 0
159 191 0
166 193 0
152 188 0
158 190 0
163 193 0
161 191 0
152 188 0
152 186 0
157 187 0
158 189 0
155 189 0
145 186 0
157 189 0
158 189 0
152 188 0
164 192 0
160 190 0
149 186 0
155 188 0
157 189 0
155 188 0
156 188 0
157 189 0
157 190 0
153 186 0
159 190 0
158 190 0
157 189 0
150 188 0
155 190 0
155 186 0
151 186 0
160 190 0
149 187 0
157 189 0
160 189 0
150 187 0
151 186 0
153 188 0
154 188 0
153 188 0
156 186 0
157 188 0
159 190 0
155 186 0
152 184 0
151 187 0
154 188 0
144 182 0
142 182 0
165 194 0
154 188 0
152 186 0
150 184 0
151 188 0
155 188 0
152 186 0
159 188 0
150 185 0
155 187 0
155 187 0
155 185 0
146 186 0
152 187 0
160 188 0
157 187 0
155 189 0
153 185 0
153 187 0
148 186 0
150 185 0
148 184 0
154 186 0
143 177 0
153 188 0
150 187 0
151 186 0
151 186 0
151 184 0
150 181 0
146 183 0
153 184 0
151 186 0
155 185 0
148 184 0
155 185 0
144 182 0
147 184 0
150 183 0
158 186 0
144 181 0
152 186 0
153 186 0
153 185 0
149 181 0
151 184 0
146 181 0
153 185 0
154 188 0
145 178 0
144 176 0
152 185 0
148 180 0
153 183 0
148 185 0
148 182 0
152 181 0
143 181 0
152 186 0
144 181 0
154 183 0
153 182 0
157 186 0
153 184 0
152 183 0
155 186 0
146 181 0
142 182 0
149 183 0
148 179 0
150 181 0
150 180 0
151 182 0
150 183 0
156 186 0
156 187 0
151 183 0
151 182 0
147 178 0
144 175 0
153 183 0
152 180 0
157 183 0
158 185 0
148 179 0
157 185 0
148 179 0
155 183 0
154 183 0
150 180 0
152 179 0
153 178 0
149 178 0
151 179 0
157 185 0
148 179 0
154 178 0
148 175 0
151 177 0
151 181 0
154 183 0
149 177 0
155 181 0
157 182 0
153 179 0
150 177 0
160 187 0
151 179 0
153 182 0
164 187 0
156 185 0
154 184 0
154 180 0
150 177 0
156 180 0
152 179 0
154 182 0
149 180 0
154 180 0
152 179 0
160 183 0
153 176 0
151 179 0
145 172 0
157 181 0
145 171 0
160 186 0
157 183 0
152 179 0
140 170 0
154 178 0
158 181 0
158 180 0
148 173 0
155 179 0
152 178 0
157 179 0
153 176 0
152 176 0
160 183 0
154 175 0
155 179 0
153 178 0
156 178 0
150 173 0
155 177 0
150 175 0
160 182 0
157 178 0
159 181 0
151 172 0
155 175 0
157 178 0
149 173 0
157 177 0
150 172 0
154 173 0
160 179 0
152 175 0
157 176 0
153 173 0
161 176 0
150 173 0
152 168 0
153 172 0
154 174 0
151 171 0
157 178 0
154 173 0
153 172 0
154 175 0
158 175 0
158 182 0
160 179 0
157 173 0
161 179 0
152 169 0
152 170 0
152 172 0
155 176 0
156 169 0
155 173 0
151 172 0
157 172 0
158 176 0
149 169 0
155 171 0
153 171 0
151 166 0
157 173 0
153 170 0
152 172 0
152 172 0
159 175 0
155 171 0
152 171 0
160 176 0
159 176 0
160 177 0
154 168 0
153 169 0
160 173 0
161 175 0
161 173 0
159 175 0
159 171 0
157 170 0
159 175 0
156 173 0
158 171 0
155 168 0
160 175 0
159 171 0
158 175 0
162 175 0
160 170 0
160 172 0
155 171 0
174 197 0
169 195 0
173 197 0
170 196 0
171 196 0
172 197 0
173 196 0
172 197 0
173 197 0
170 195 0
173 197 0
171 195 0
172 196 0
173 197 0
170 195 0
170 195 0
169 195 0
165 192 0
172 195 0
170 194 0
171 196 0
168 196 0
169 194 0
170 196 0
171 196 0
170 196 0
168 195 0
171 196 0
172 196 0
165 194 0
171 195 0
171 196 0
171 197 0
163 192 0
172 197 0
169 196 0
166 194 0
167 195 0
170 196 0
168 195 0
169 195 0
167 195 0
168 194 0
170 196 0
165 194 0
166 194 0
166 195 0
169 195 0
165 193 0
169 196 0
164 192 0
165 194 0
158 192 0
167 195 0
166 195 0
166 193 0
166 194 0
166 194 0
167 195 0
161 193 0
165 194 0
163 192 0
168 195 0
167 194 0
164 193 0
167 194 0
162 192 0
163 194 0
164 194 0
167 194 0
168 195 0
166 194 0
166 194 0
165 194 0
166 195 0
167 195 0
162 192 0
171 196 0
165 193 0
166 194 0
163 193 0
164 194 0
165 193 0
164 193 0
161 192 0
161 191 0
164 194 0
163 190 0
156 191 0
162 190 0
165 193 0
164 193 0
159 192 0
162 192 0
168 195 0
165 194 0
165 193 0
165 194 0
162 192 0
165 195 0
167 194 0
167 194 0
164 193 0
163 193 0
164 193 0
160 191 0
164 194 0
164 191 0
159 191 0
163 192 0
157 191 0
159 191 0
162 191 0
165 192 0
158 191 0
163 193 0
163 191 0
155 189 0
162 192 0
161 192 0
160 191 0
156 189 0
158 190 0
158 190 0
161 192 0
160 189 0
161 192 0
155 188 0
161 191 0
159 191 0
163 192 0
162 192 0
160 191 0
156 189 0
156 189 0
156 191 0
162 192 0
153 186 0
162 190 0
155 188 0
146 184 0
155 188 0
149 188 0
160 192 0
164 190 0
157 190 0
155 187 0
154 189 0
156 188 0
152 186 0
157 187 0
156 190 0
159 189 0
161 190 0
152 188 0
156 188 0
157 190 0
152 187 0
159 191 0
153 187 0
157 190 0
156 187 0
157 189 0
160 191 0
151 184 0
153 189 0
160 192 0
141 184 0
154 188 0
156 187 0
150 185 0
151 186 0
150 184 0
154 186 0
152 188 0
156 185 0
155 188 0
155 186 0
150 186 0
149 185 0
153 185 0
153 183 0
155 188 0
156 188 0
156 187 0
149 185 0
155 188 0
148 182 0
162 190 0
149 186 0
154 186 0
154 188 0
147 182 0
155 187 0
151 187 0
154 186 0
150 185 0
157 186 0
154 189 0
155 187 0
159 189 0
149 183 0
151 184 0
155 188 0
151 183 0
156 189 0
152 186 0
151 183 0
151 183 0
158 189 0
150 187 0
157 186 0
157 186 0
152 185 0
149 183 0
148 183 0
154 186 0
147 183 0
143 181 0
148 182 0
149 181 0
142 180 0
154 185 0
154 186 0
147 181 0
153 186 0
152 185 0
155 186 0
147 182 0
152 184 0
152 184 0
149 181 0
148 183 0
149 182 0
148 180 0
147 183 0
150 180 0
153 185 0
144 178 0
153 182 0
150 183 0
153 184 0
150 184 0
148 181 0
149 182 0
150 184 0
150 183 0
156 187 0
152 181 0
139 178 0
156 183 0
149 181 0
153 182 0
156 187 0
153 182 0
154 187 0
150 181 0
153 183 0
153 182 0
154 184 0
156 185 0
144 179 0
153 182 0
149 180 0
154 180 0
153 183 0
153 183 0
142 172 0
155 179 0
150 181 0
153 181 0
153 183 0
150 179 0
151 181 0
151 179 0
153 179 0
147 179 0
155 180 0
150 178 0
157 184 0
156 181 0
160 184 0
151 181 0
148 177 0
153 182 0
151 181 0
156 181 0
154 180 0
147 181 0
148 178 0
155 180 0
158 184 0
150 178 0
152 177 0
151 178 0
158 184 0
151 178 0
151 184 0
153 180 0
155 179 0
148 179 0
152 178 0
156 181 0
148 172 0
156 180 0
152 177 0
151 174 0
153 179 0
152 176 0
155 179 0
158 180 0
155 181 0
156 176 0
150 178 0
154 180 0
149 175 0
146 171 0
155 175 0
158 180 0
156 179 0
146 174 0
153 174 0
154 178 0
152 177 0
155 178 0
151 176 0
153 176 0
146 174 0
151 176 0
156 180 0
153 178 0
156 175 0
155 179 0
151 177 0
152 174 0
152 170 0
149 168 0
155 180 0
153 174 0
155 175 0
156 177 0
157 180 0
159 179 0
158 181 0
152 173 0
154 175 0
161 180 0
160 181 0
152 170 0
157 173 0
161 183 0
149 170 0
160 177 0
159 176 0
162 175 0
158 176 0
157 175 0
158 178 0
150 169 0
153 172 0
156 173 0
160 179 0
156 175 0
158 177 0
155 174 0
158 175 0
155 176 0
161 175 0
158 175 0
154 171 0
156 173 0
158 175 0
161 177 0
160 175 0
157 172 0
158 174 0
153 171 0
160 177 0
153 170 0
158 176 0
158 176 0
158 172 0
162 177 0
162 179 0
156 169 0
156 175 0
157 175 0
163 178 0
163 174 0
160 173 0
159 172 0
162 177 0
157 174 0
157 171 0
161 178 0
162 178 0
157 171 0
160 174 0
156 168 0
162 177 0
171 196 0
169 194 0
171 196 0
170 195 0
169 196 0
166 193 0
169 195 0
168 195 0
170 195 0
167 195 0
172 196 0
174 197 0
172 197 0
171 195 0
168 195 0
175 198 0
168 194 0
173 197 0
171 196 0
169 196 0
169 195 0
170 195 0
170 194 0
168 195 0
169 195 0
168 196 0
167 195 0
173 197 0
170 196 0
168 194 0
169 195 0
171 196 0
168 195 0
169 195 0
170 195 0
169 195 0
169 195 0
168 195 0
166 195 0
167 195 0
172 196 0
160 191 0
165 194 0
170 196 0
170 195 0
165 194 0
168 196 0
169 196 0
170 196 0
167 195 0
163 194 0
171 196 0
169 195 0
162 192 0
164 194 0
163 193 0
168 195 0
170 195 0
160 191 0
166 193 0
168 194 0
166 194 0
171 195 0
167 194 0
162 192 0
164 193 0
166 194 0
171 197 0
166 193 0
164 193 0
164 193 0
166 194 0
167 192 0
158 190 0
168 195 0
163 192 0
169 194 0
159 192 0
163 193 0
166 194 0
160 191 0
163 193 0
167 195 0
165 193 0
162 192 0
166 194 0
165 194 0
159 191 0
160 193 0
161 191 0
164 193 0
160 192 0
163 193 0
165 194 0
160 192 0
161 191 0
163 192 0
163 192 0
167 195 0
153 189 0
165 193 0
166 194 0
159 192 0
161 192 0
168 194 0
159 191 0
161 192 0
161 191 0
153 189 0
156 190 0
162 193 0
161 192 0
157 192 0
156 190 0
157 189 0
154 189 0
165 193 0
160 190 0
157 190 0
161 193 0
155 191 0
163 193 0
160 192 0
159 189 0
164 193 0
162 193 0
164 194 0
156 189 0
157 189 0
161 193 0
161 192 0
150 187 0
158 190 0
158 188 0
153 188 0
161 191 0
160 189 0
164 193 0
157 188 0
154 188 0
161 191 0
157 192 0
152 188 0
158 188 0
152 190 0
150 185 0
153 187 0
161 191 0
157 190 0
161 191 0
159 192 0
160 191 0
156 192 0
148 185 0
154 188 0
157 188 0
154 185 0
160 191 0
145 185 0
149 187 0
161 190 0
156 188 0
155 186 0
153 188 0
160 188 0
149 185 0
156 189 0
152 186 0
150 187 0
158 189 0
142 184 0
159 188 0
156 190 0
153 186 0
159 191 0
156 190 0
153 188 0
159 189 0
146 182 0
155 187 0
148 184 0
149 184 0
157 188 0
149 186 0
155 187 0
147 184 0
152 187 0
154 189 0
157 188 0
155 187 0
150 185 0
150 185 0
153 185 0
156 188 0
159 187 0
156 188 0
147 184 0
150 184 0
152 184 0
147 183 0
152 187 0
152 187 0
144 182 0
154 186 0
153 185 0
148 184 0
151 184 0
152 188 0
159 187 0
146 183 0
154 187 0
146 183 0
150 185 0
156 187 0
150 183 0
146 183 0
147 181 0
155 187 0
151 184 0
149 183 0
154 185 0
157 189 0
155 184 0
158 185 0
151 181 0
152 186 0
152 184 0
154 184 0
145 180 0
141 176 0
148 184 0
150 181 0
148 182 0
153 188 0
148 182 0
150 181 0
149 180 0
152 183 0
156 186 0
151 184 0
159 186 0
156 183 0
149 183 0
152 183 0
152 183 0
155 183 0
155 184 0
157 185 0
155 186 0
152 182 0
153 182 0
150 183 0
146 178 0
153 184 0
151 181 0
152 179 0
154 183 0
150 179 0
152 185 0
159 186 0
147 182 0
155 188 0
151 177 0
157 187 0
150 179 0
150 183 0
155 183 0
150 179 0
146 175 0
160 186 0
146 177 0
155 183 0
148 178 0
147 175 0
152 182 0
157 182 0
154 181 0
156 180 0
160 187 0
157 181 0
149 180 0
160 187 0
160 183 0
151 176 0
154 181 0
153 179 0
159 180 0
154 180 0
156 183 0
158 183 0
155 183 0
149 179 0
150 177 0
157 179 0
143 173 0
149 177 0
153 179 0
150 179 0
154 183 0
153 178 0
156 181 0
153 178 0
148 176 0
161 180 0
158 183 0
163 187 0
162 186 0
150 176 0
149 180 0
157 179 0
152 182 0
155 184 0
153 180 0
146 174 0
155 180 0
153 174 0
154 177 0
154 176 0
163 183 0
144 174 0
151 175 0
154 177 0
153 181 0
151 176 0
156 178 0
156 178 0
151 172 0
161 182 0
147 172 0
149 170 0
159 181 0
155 177 0
153 173 0
154 177 0
145 174 0
149 177 0
158 180 0
153 173 0
159 181 0
150 172 0
150 173 0
154 175 0
157 176 0
158 177 0
152 174 0
164 183 0
155 178 0
157 179 0
157 176 0
151 172 0
159 174 0
152 174 0
156 175 0
157 176 0
156 174 0
155 171 0
159 176 0
154 172 0
150 172 0
155 176 0
154 172 0
156 175 0
154 173 0
150 171 0
155 172 0
154 171 0
163 180 0
157 173 0
158 177 0
156 175 0
164 181 0
156 173 0
153 170 0
157 174 0
156 171 0
159 177 0
158 176 0
158 173 0
158 171 0
152 167 0
155 169 0
154 170 0
158 169 0
158 174 0
157 174 0
155 174 0
152 166 0
159 175 0
158 173 0
154 171 0
160 174 0
160 173 0
156 173 0
156 169 0
156 169 0
162 178 0
158 170 0
158 172 0
162 177 0
157 171 0
172 196 0
170 196 0
174 197 0
170 196 0
170 196 0
170 195 0
172 197 0
170 195 0
170 196 0
172 196 0
171 196 0
170 196 0
168 195 0
171 196 0
171 196 0
170 196 0
169 194 0
171 196 0
169 195 0
169 195 0
168 195 0
166 195 0
168 194 0
170 195 0
169 194 0
171 196 0
169 196 0
167 194 0
168 195 0
172 196 0
170 195 0
166 194 0
169 194 0
171 195 0
169 195 0
170 195 0
164 194 0
168 195 0
165 194 0
168 196 0
166 194 0
166 193 0
169 194 0
167 195 0
163 192 0
169 195 0
167 194 0
172 197 0
166 194 0
163 193 0
160 191 0
166 194 0
166 194 0
167 195 0
168 193 0
168 195 0
159 192 0
166 193 0
166 194 0
165 193 0
166 194 0
169 195 0
166 194 0
160 192 0
166 193 0
170 195 0
167 194 0
163 193 0
167 194 0
168 195 0
168 195 0
166 194 0
166 195 0
167 195 0
164 193 0
165 194 0
164 194 0
164 193 0
158 191 0
168 195 0
163 193 0
157 190 0
168 194 0
165 194 0
166 194 0
167 194 0
166 192 0
161 192 0
156 189 0
163 193 0
167 195 0
167 195 0
159 192 0
162 193 0
166 193 0
163 194 0
159 192 0
162 193 0
158 190 0
164 192 0
164 194 0
164 193 0
162 192 0
163 192 0
158 191 0
154 190 0
162 191 0
166 192 0
162 192 0
162 191 0
168 194 0
159 192 0
158 192 0
157 190 0
159 189 0
164 193 0
159 191 0
157 190 0
165 191 0
161 191 0
164 192 0
156 190 0
159 190 0
157 191 0
159 190 0
158 188 0
154 189 0
155 189 0
156 190 0
166 194 0
160 190 0
158 192 0
162 191 0
163 193 0
161 189 0
153 188 0
156 188 0
162 192 0
161 191 0
148 187 0
156 190 0
157 189 0
162 192 0
152 187 0
158 190 0
155 187 0
155 186 0
157 189 0
158 188 0
157 189 0
153 188 0
163 192 0
157 189 0
155 187 0
158 188 0
152 187 0
153 187 0
151 186 0
161 191 0
159 190 0
156 186 0
160 192 0
148 186 0
155 189 0
157 188 0
148 184 0
149 184 0
146 183 0
148 184 0
152 187 0
156 187 0
156 186 0
155 186 0
158 189 0
156 190 0
157 189 0
150 185 0
150 184 0
149 185 0
153 186 0
158 188 0
149 185 0
157 189 0
153 187 0
156 188 0
155 186 0
151 186 0
154 187 0
150 185 0
154 185 0
157 190 0
151 185 0
155 187 0
155 189 0
149 183 0
154 187 0
160 189 0
155 184 0
156 188 0
152 185 0
156 188 0
150 182 0
146 181 0
148 183 0
145 183 0
156 186 0
150 184 0
150 183 0
156 188 0
152 186 0
151 186 0
152 185 0
154 185 0
155 186 0
150 183 0
152 183 0
152 184 0
153 184 0
146 182 0
155 187 0
159 186 0
158 187 0
153 185 0
154 184 0
139 179 0
151 183 0
154 186 0
156 186 0
150 181 0
152 184 0
153 184 0
152 185 0
153 185 0
149 180 0
146 182 0
147 183 0
158 188 0
154 184 0
158 187 0
153 185 0
151 183 0
151 179 0
154 184 0
148 182 0
151 182 0
159 187 0
156 183 0
150 180 0
152 181 0
152 185 0
147 177 0
153 185 0
151 182 0
154 183 0
149 179 0
147 181 0
146 176 0
156 184 0
150 182 0
149 183 0
151 181 0
157 183 0
144 181 0
157 185 0
151 183 0
158 186 0
151 185 0
153 182 0
160 187 0
155 183 0
152 181 0
154 181 0
144 177 0
149 179 0
155 184 0
145 180 0
152 182 0
151 179 0
155 182 0
149 177 0
152 182 0
157 182 0
154 179 0
147 177 0
155 182 0
153 177 0
151 178 0
151 182 0
154 180 0
153 179 0
150 183 0
160 183 0
149 179 0
149 178 0
152 179 0
154 176 0
153 179 0
150 182 0
153 181 0
151 180 0
152 179 0
159 183 0
151 178 0
153 180 0
161 184 0
150 178 0
154 180 0
157 181 0
153 179 0
152 175 0
156 180 0
153 175 0
151 178 0
151 180 0
163 184 0
155 182 0
154 173 0
151 178 0
159 179 0
154 181 0
153 175 0
160 183 0
150 176 0
158 179 0
157 183 0
152 178 0
159 180 0
150 177 0
161 182 0
157 182 0
146 174 0
162 185 0
151 175 0
156 179 0
153 173 0
158 178 0
159 179 0
152 174 0
150 169 0
158 176 0
151 173 0
147 169 0
154 177 0
158 180 0
153 176 0
155 176 0
157 177 0
158 174 0
154 177 0
156 178 0
160 181 0
156 176 0
155 176 0
155 174 0
156 178 0
159 176 0
152 174 0
160 179 0
156 176 0
160 180 0
161 179 0
160 177 0
157 175 0
159 175 0
156 173 0
156 175 0
159 173 0
152 169 0
156 174 0
157 175 0
155 177 0
162 177 0
159 179 0
156 173 0
157 173 0
155 176 0
161 178 0
158 177 0
156 172 0
156 171 0
157 173 0
155 170 0
151 171 0
159 175 0
160 175 0
163 179 0
160 174 0
159 173 0
161 175 0
160 173 0
160 175 0
162 178 0
157 174 0
160 175 0
160 177 0
160 172 0
162 177 0
162 176 0
161 176 0
158 173 0
172 196 0
170 195 0
169 196 0
172 196 0
171 196 0
171 197 0
170 195 0
166 193 0
170 196 0
169 194 0
170 195 0
166 193 0
171 196 0
171 196 0
167 194 0
169 195 0
169 195 0
171 196 0
170 195 0
169 195 0
168 194 0
171 195 0
169 194 0
171 196 0
165 193 0
160 193 0
167 194 0
167 193 0
164 194 0
167 194 0
169 196 0
167 195 0
169 196 0
168 195 0
172 196 0
167 195 0
165 193 0
171 195 0
170 196 0
166 194 0
167 193 0
170 195 0
170 195 0
170 195 0
167 194 0
168 194 0
165 192 0
168 195 0
165 194 0
168 193 0
168 195 0
166 194 0
169 195 0
169 195 0
171 197 0
170 196 0
164 194 0
167 194 0
161 192 0
167 195 0
167 195 0
167 194 0
165 194 0
165 194 0
167 194 0
160 192 0
166 194 0
167 195 0
163 193 0
165 194 0
164 192 0
164 194 0
170 195 0
160 191 0
168 194 0
165 194 0
164 194 0
169 195 0
166 195 0
156 190 0
165 193 0
165 192 0
159 191 0
159 193 0
163 194 0
166 195 0
165 194 0
155 191 0
162 193 0
162 191 0
165 194 0
161 192 0
161 192 0
164 193 0
162 191 0
157 190 0
164 194 0
166 193 0
162 192 0
161 192 0
165 193 0
165 194 0
164 193 0
156 187 0
165 193 0
169 194 0
158 190 0
163 193 0
165 194 0
158 191 0
163 192 0
163 191 0
166 192 0
160 192 0
157 190 0
158 191 0
161 191 0
156 190 0
165 193 0
157 189 0
158 191 0
158 190 0
161 191 0
160 191 0
163 193 0
158 190 0
160 191 0
162 192 0
162 192 0
165 193 0
153 188 0
163 193 0
161 190 0
160 189 0
155 189 0
155 188 0
158 189 0
156 188 0
164 194 0
156 188 0
154 188 0
154 189 0
163 193 0
157 188 0
156 190 0
153 186 0
162 191 0
161 191 0
157 190 0
157 190 0
156 187 0
159 190 0
159 191 0
161 192 0
156 188 0
157 188 0
161 192 0
162 192 0
150 185 0
165 193 0
160 190 0
156 190 0
157 190 0
156 191 0
154 187 0
154 186 0
159 188 0
164 194 0
159 191 0
163 191 0
160 190 0
157 190 0
157 190 0
160 191 0
149 183 0
154 187 0
149 187 0
158 188 0
145 182 0
154 188 0
153 187 0
150 186 0
151 185 0
159 190 0
150 187 0
152 187 0
155 189 0
150 187 0
154 187 0
150 185 0
146 184 0
151 187 0
156 187 0
152 188 0
158 190 0
152 184 0
161 189 0
158 188 0
155 188 0
155 188 0
154 184 0
149 183 0
151 184 0
152 185 0
148 185 0
150 182 0
151 182 0
145 180 0
156 189 0
147 183 0
150 183 0
152 185 0
162 190 0
152 182 0
154 184 0
157 186 0
154 186 0
150 184 0
146 183 0
150 184 0
155 187 0
151 184 0
152 185 0
156 187 0
154 184 0
152 182 0
155 184 0
148 184 0
157 186 0
150 183 0
147 181 0
154 185 0
155 188 0
148 181 0
153 186 0
150 182 0
156 186 0
152 184 0
154 186 0
151 186 0
146 182 0
150 183 0
150 183 0
157 186 0
155 186 0
157 185 0
157 183 0
154 184 0
153 183 0
157 186 0
152 185 0
146 181 0
151 183 0
143 177 0
155 181 0
150 182 0
149 183 0
146 179 0
153 185 0
149 181 0
153 181 0
151 180 0
157 187 0
155 186 0
155 184 0
158 186 0
151 184 0
156 183 0
156 184 0
158 184 0
160 185 0
154 184 0
152 181 0
152 182 0
156 184 0
160 187 0
146 178 0
155 181 0
150 178 0
156 183 0
150 178 0
154 180 0
160 185 0
154 179 0
154 178 0
146 180 0
155 182 0
162 185 0
151 178 0
151 177 0
154 180 0
162 185 0
153 180 0
154 181 0
153 182 0
155 180 0
159 182 0
151 181 0
155 181 0
157 183 0
159 181 0
152 177 0
150 177 0
150 175 0
151 177 0
159 184 0
147 173 0
155 179 0
155 180 0
148 175 0
149 173 0
152 181 0
158 180 0
151 178 0
154 180 0
149 175 0
153 177 0
155 178 0
148 170 0
158 183 0
157 180 0
157 181 0
157 180 0
153 177 0
161 183 0
157 182 0
150 174 0
155 177 0
154 179 0
155 179 0
156 176 0
156 176 0
158 177 0
157 176 0
148 172 0
157 182 0
157 180 0
154 178 0
156 177 0
151 175 0
153 174 0
157 177 0
159 178 0
155 176 0
155 176 0
156 179 0
153 173 0
154 176 0
151 175 0
158 179 0
152 173 0
157 177 0
154 178 0
159 177 0
155 175 0
157 174 0
159 179 0
152 171 0
161 180 0
155 176 0
156 176 0
158 177 0
154 179 0
157 172 0
160 177 0
154 175 0
158 176 0
158 177 0
156 177 0
158 180 0
159 175 0
156 173 0
151 170 0
155 175 0
155 173 0
161 178 0
157 177 0
156 177 0
157 172 0
156 173 0
159 176 0
162 179 0
159 175 0
154 173 0
157 171 0
160 175 0
158 176 0
157 174 0
157 174 0
159 177 0
161 176 0
158 172 0
160 173 0
157 173 0
159 176 0
153 168 0
159 173 0
157 172 0
158 172 0
157 171 0
168 195 0
168 195 0
172 197 0
170 195 0
170 196 0
170 196 0
171 196 0
172 196 0
172 196 0
171 196 0
170 195 0
172 196 0
170 196 0
170 195 0
163 193 0
169 195 0
173 197 0
170 195 0
172 197 0
168 194 0
171 196 0
169 195 0
165 193 0
170 195 0
166 194 0
172 196 0
167 194 0
169 195 0
164 193 0
171 196 0
171 196 0
168 194 0
170 195 0
169 196 0
169 196 0
172 197 0
168 194 0
168 194 0
165 194 0
164 193 0
167 194 0
166 194 0
169 195 0
168 195 0
169 195 0
163 192 0
165 194 0
169 195 0
167 194 0
168 195 0
161 193 0
166 194 0
165 193 0
164 192 0
169 194 0
171 195 0
166 193 0
160 192 0
166 194 0
164 194 0
167 195 0
167 193 0
169 196 0
171 197 0
166 194 0
163 192 0
168 196 0
161 192 0
166 194 0
165 194 0
163 192 0
162 193 0
170 195 0
165 193 0
163 192 0
161 192 0
161 191 0
165 194 0
160 191 0
159 190 0
166 193 0
159 192 0
163 193 0
163 192 0
163 193 0
159 190 0
161 192 0
155 188 0
154 189 0
163 194 0
165 194 0
164 194 0
160 191 0
165 194 0
160 190 0
159 191 0
167 193 0
160 192 0
159 192 0
159 190 0
163 193 0
158 190 0
158 191 0
164 192 0
164 193 0
163 193 0
162 192 0
163 192 0
163 194 0
161 191 0
161 191 0
161 191 0
162 192 0
159 191 0
160 191 0
158 192 0
164 192 0
167 195 0
163 193 0
165 193 0
162 193 0
156 188 0
157 189 0
154 189 0
160 193 0
160 190 0
162 191 0
161 191 0
152 189 0
162 192 0
165 193 0
157 190 0
155 189 0
161 192 0
157 189 0
156 191 0
151 188 0
158 190 0
151 187 0
164 192 0
160 190 0
162 190 0
162 190 0
157 188 0
159 190 0
157 189 0
155 187 0
160 190 0
160 190 0
153 190 0
147 185 0
156 188 0
159 191 0
156 190 0
158 188 0
162 191 0
151 187 0
163 191 0
154 188 0
159 191 0
162 190 0
147 182 0
149 185 0
154 188 0
159 189 0
153 186 0
151 184 0
162 189 0
150 182 0
155 187 0
155 189 0
156 184 0
155 187 0
155 188 0
151 188 0
158 189 0
157 188 0
155 186 0
157 187 0
156 189 0
157 186 0
147 185 0
152 186 0
155 188 0
157 189 0
155 188 0
153 186 0
151 185 0
149 184 0
157 189 0
153 188 0
157 187 0
152 184 0
153 185 0
153 186 0
158 189 0
147 183 0
147 182 0
154 187 0
149 183 0
155 187 0
159 191 0
145 182 0
152 185 0
160 188 0
154 186 0
158 188 0
150 182 0
151 185 0
153 185 0
154 187 0
156 187 0
161 189 0
147 181 0
153 183 0
153 184 0
153 183 0
146 182 0
155 186 0
152 183 0
151 183 0
155 184 0
158 189 0
158 187 0
150 182 0
145 180 0
150 182 0
149 181 0
148 182 0
154 186 0
156 186 0
155 185 0
148 183 0
153 188 0
148 178 0
150 181 0
158 186 0
155 186 0
159 187 0
152 183 0
157 187 0
154 181 0
153 184 0
153 186 0
157 185 0
148 180 0
153 183 0
156 184 0
147 181 0
157 186 0
151 183 0
153 185 0
149 181 0
151 179 0
154 185 0
154 184 0
154 182 0
147 177 0
151 184 0
151 181 0
149 178 0
158 186 0
156 184 0
147 179 0
153 183 0
156 185 0
160 186 0
154 181 0
146 178 0
151 179 0
152 180 0
149 180 0
155 183 0
156 181 0
152 186 0
152 182 0
146 179 0
158 185 0
155 180 0
153 182 0
153 182 0
153 180 0
156 182 0
152 180 0
147 177 0
149 179 0
155 183 0
157 182 0
156 182 0
149 179 0
156 181 0
159 185 0
155 180 0
153 182 0
153 180 0
151 182 0
153 180 0
153 182 0
150 178 0
159 184 0
154 179 0
156 184 0
148 175 0
154 179 0
160 184 0
156 182 0
155 180 0
148 176 0
156 182 0
150 176 0
160 187 0
154 179 0
155 178 0
157 181 0
154 178 0
153 177 0
155 179 0
156 180 0
153 180 0
150 179 0
158 179 0
155 177 0
153 177 0
155 181 0
152 180 0
153 176 0
155 178 0
156 179 0
158 180 0
154 176 0
153 174 0
160 180 0
152 175 0
152 177 0
157 181 0
160 184 0
157 177 0
157 179 0
161 182 0
161 180 0
162 180 0
157 180 0
152 174 0
157 177 0
161 183 0
151 175 0
152 169 0
158 178 0
153 176 0
156 176 0
160 181 0
159 178 0
152 175 0
161 182 0
149 173 0
153 175 0
152 169 0
154 176 0
156 177 0
154 173 0
159 177 0
157 174 0
157 177 0
158 175 0
161 179 0
161 176 0
157 175 0
157 176 0
161 181 0
162 179 0
155 170 0
158 178 0
158 177 0
156 175 0
160 176 0
161 176 0
156 179 0
157 175 0
159 175 0
157 177 0
151 170 0
151 173 0
155 171 0
157 169 0
158 176 0
162 177 0
154 172 0
160 177 0
157 178 0
158 175 0
157 172 0
161 174 0
157 179 0
159 172 0
164 180 0
153 170 0
160 176 0
159 174 0
163 176 0
163 179 0
170 195 0
173 197 0
172 196 0
169 195 0
171 196 0
169 195 0
170 196 0
169 195 0
169 195 0
170 195 0
171 196 0
170 195 0
173 197 0
171 196 0
170 195 0
170 196 0
171 196 0
169 196 0
170 196 0
168 195 0
166 193 0
168 195 0
168 195 0
166 192 0
169 195 0
170 196 0
169 195 0
167 194 0
165 193 0
165 193 0
168 194 0
161 192 0
168 195 0
170 196 0
170 196 0
168 194 0
169 195 0
165 195 0
170 195 0
170 196 0
164 192 0
168 194 0
169 195 0
167 194 0
168 195 0
165 194 0
169 195 0
167 194 0
166 194 0
169 195 0
164 194 0
166 194 0
162 193 0
163 192 0
164 192 0
165 193 0
167 195 0
164 192 0
166 194 0
159 192 0
163 192 0
167 194 0
165 193 0
164 194 0
165 195 0
167 194 0
164 194 0
164 193 0
161 194 0
164 193 0
164 193 0
166 194 0
160 190 0
168 195 0
167 195 0
164 194 0
166 195 0
165 193 0
162 192 0
162 191 0
163 193 0
169 195 0
161 192 0
165 195 0
166 194 0
165 194 0
163 191 0
162 192 0
163 193 0
159 193 0
163 192 0
159 190 0
168 194 0
161 191 0
164 193 0
166 194 0
158 190 0
160 191 0
162 193 0
166 193 0
161 192 0
156 190 0
166 193 0
165 193 0
160 189 0
160 191 0
159 191 0
165 194 0
162 192 0
158 189 0
159 191 0
162 193 0
154 190 0
159 190 0
163 191 0
165 193 0
160 190 0
162 191 0
154 189 0
156 190 0
160 190 0
160 190 0
167 195 0
165 193 0
160 191 0
157 192 0
153 186 0
163 192 0
160 191 0
160 190 0
153 188 0
164 192 0
148 187 0
152 189 0
158 189 0
158 186 0
157 190 0
164 193 0
160 190 0
161 192 0
161 192 0
159 192 0
158 190 0
153 188 0
157 189 0
154 189 0
158 190 0
163 191 0
159 190 0
160 192 0
155 186 0
161 190 0
153 187 0
159 191 0
154 188 0
157 187 0
155 189 0
153 188 0
149 186 0
157 189 0
153 186 0
158 189 0
157 189 0
152 186 0
147 186 0
156 189 0
158 190 0
156 190 0
157 188 0
155 190 0
152 185 0
155 187 0
157 189 0
157 189 0
147 186 0
159 190 0
152 186 0
155 188 0
153 184 0
157 189 0
145 183 0
160 191 0
154 187 0
153 188 0
155 185 0
150 185 0
148 183 0
158 190 0
156 186 0
154 187 0
157 188 0
149 184 0
155 187 0
158 190 0
153 188 0
155 187 0
156 187 0
149 184 0
160 190 0
151 185 0
153 187 0
140 180 0
146 183 0
152 186 0
155 187 0
151 185 0
151 185 0
150 186 0
153 187 0
158 189 0
154 184 0
146 180 0
155 187 0
158 186 0
154 185 0
152 187 0
155 186 0
156 187 0
151 187 0
152 188 0
153 186 0
154 185 0
156 189 0
155 186 0
152 186 0
150 182 0
152 185 0
151 185 0
157 185 0
154 184 0
156 186 0
144 178 0
147 181 0
153 186 0
155 187 0
153 185 0
153 186 0
156 188 0
156 183 0
148 182 0
154 184 0
153 187 0
153 186 0
148 181 0
156 182 0
155 185 0
154 182 0
150 183 0
154 184 0
150 182 0
154 182 0
151 182 0
153 181 0
148 182 0
150 181 0
153 183 0
155 184 0
150 181 0
145 181 0
154 182 0
150 183 0
150 182 0
154 185 0
148 184 0
144 179 0
157 184 0
158 187 0
154 184 0
152 183 0
149 181 0
160 187 0
150 179 0
150 178 0
154 184 0
153 181 0
150 176 0
149 180 0
156 181 0
159 186 0
151 179 0
146 178 0
155 181 0
150 178 0
158 184 0
151 179 0
152 182 0
159 183 0
155 182 0
158 180 0
152 180 0
151 180 0
147 179 0
159 182 0
155 180 0
152 179 0
150 180 0
155 183 0
160 184 0
151 180 0
157 181 0
155 179 0
155 183 0
157 183 0
155 182 0
152 177 0
151 181 0
153 179 0
155 179 0
159 181 0
157 183 0
157 182 0
157 182 0
156 179 0
154 178 0
152 179 0
159 183 0
151 177 0
156 178 0
154 180 0
161 184 0
156 179 0
147 177 0
158 182 0
147 176 0
160 181 0
151 170 0
155 178 0
157 183 0
159 183 0
159 181 0
168 186 0
155 179 0
159 184 0
148 174 0
156 181 0
155 180 0
151 175 0
154 175 0
159 183 0
158 182 0
155 179 0
155 175 0
152 178 0
153 178 0
160 178 0
153 180 0
159 179 0
155 180 0
153 172 0
156 178 0
156 177 0
156 177 0
155 176 0
160 180 0
157 176 0
161 181 0
156 176 0
159 178 0
153 177 0
159 177 0
154 172 0
156 175 0
158 180 0
157 178 0
162 181 0
158 177 0
156 176 0
157 178 0
155 176 0
159 176 0
160 180 0
158 176 0
152 172 0
154 174 0
158 177 0
159 178 0
155 172 0
156 173 0
162 178 0
159 174 0
158 173 0
158 175 0
156 173 0
159 179 0
165 180 0
156 172 0
160 177 0
160 178 0
161 178 0
159 177 0
157 178 0
157 175 0
158 173 0
155 171 0
158 173 0
163 177 0
162 178 0
155 168 0
158 175 0
164 180 0
170 195 0
167 195 0
172 197 0
167 194 0
167 194 0
168 194 0
172 196 0
168 195 0
165 193 0
170 196 0
174 197 0
167 194 0
172 196 0
170 195 0
165 194 0
170 196 0
172 196 0
169 195 0
169 196 0
171 195 0
171 196 0
165 194 0
170 195 0
169 195 0
167 194 0
170 196 0
169 196 0
167 194 0
170 195 0
170 195 0
164 193 0
166 193 0
168 195 0
168 194 0
164 193 0
167 194 0
169 195 0
173 197 0
170 195 0
170 196 0
168 195 0
166 194 0
170 196 0
165 194 0
164 192 0
166 195 0
160 191 0
168 194 0
169 194 0
162 193 0
166 193 0
168 195 0
161 192 0
169 195 0
166 195 0
166 195 0
168 196 0
167 194 0
171 196 0
163 192 0
168 195 0
166 194 0
166 194 0
165 194 0
164 194 0
160 191 0
165 193 0
163 192 0
162 193 0
164 193 0
164 194 0
163 193 0
167 195 0
164 193 0
169 196 0
162 192 0
166 193 0
166 195 0
168 194 0
162 192 0
165 193 0
167 195 0
159 189 0
164 193 0
164 192 0
164 193 0
169 194 0
162 193 0
164 194 0
163 193 0
164 192 0
157 190 0
167 195 0
159 189 0
163 192 0
162 193 0
166 193 0
164 194 0
160 192 0
160 192 0
167 194 0
164 193 0
164 192 0
163 192 0
154 187 0
160 191 0
158 191 0
163 192 0
163 193 0
157 189 0
161 191 0
157 191 0
157 191 0
162 192 0
161 192 0
154 186 0
167 194 0
164 191 0
157 189 0
162 192 0
165 192 0
162 192 0
157 190 0
162 192 0
160 189 0
161 192 0
165 192 0
153 187 0
163 191 0
163 190 0
158 190 0
163 191 0
159 190 0
157 189 0
155 188 0
157 189 0
154 187 0
161 192 0
160 191 0
163 190 0
152 187 0
161 193 0
157 189 0
158 190 0
161 189 0
163 192 0
154 188 0
163 190 0
151 187 0
153 187 0
156 189 0
160 190 0
158 188 0
155 188 0
159 192 0
153 188 0
160 191 0
156 189 0
155 189 0
153 186 0
158 190 0
150 186 0
154 186 0
161 191 0
159 188 0
151 186 0
155 188 0
147 183 0
157 188 0
158 187 0
159 188 0
154 188 0
159 191 0
154 186 0
154 187 0
153 184 0
146 184 0
162 191 0
158 189 0
158 189 0
154 187 0
156 187 0
152 183 0
157 187 0
155 189 0
157 189 0
163 190 0
151 184 0
155 186 0
154 186 0
152 187 0
155 188 0
157 187 0
151 185 0
152 186 0
153 185 0
155 189 0
159 187 0
153 186 0
146 183 0
147 181 0
156 188 0
154 187 0
151 182 0
152 186 0
154 188 0
151 186 0
157 187 0
152 185 0
150 185 0
152 185 0
157 185 0
145 182 0
150 184 0
152 183 0
163 190 0
149 182 0
152 184 0
154 183 0
154 182 0
153 186 0
154 185 0
150 185 0
150 181 0
158 186 0
154 185 0
155 186 0
161 187 0
152 182 0
154 184 0
148 182 0
151 183 0
158 185 0
156 184 0
141 178 0
151 184 0
147 177 0
149 183 0
157 184 0
153 181 0
155 185 0
153 185 0
152 181 0
155 183 0
150 182 0
146 180 0
150 184 0
150 183 0
146 178 0
153 184 0
153 183 0
156 184 0
151 183 0
148 179 0
155 183 0
154 185 0
157 182 0
157 186 0
160 187 0
156 183 0
154 181 0
161 187 0
149 181 0
155 185 0
152 180 0
151 181 0
159 183 0
148 181 0
154 183 0
150 179 0
162 188 0
156 184 0
159 185 0
154 185 0
151 182 0
148 179 0
151 182 0
156 185 0
156 182 0
158 185 0
151 181 0
153 181 0
150 180 0
149 178 0
156 184 0
149 177 0
154 181 0
155 182 0
158 186 0
154 181 0
153 182 0
162 187 0
157 181 0
160 184 0
151 179 0
157 183 0
150 176 0
155 181 0
159 184 0
156 181 0
151 178 0
160 185 0
154 178 0
148 179 0
157 180 0
150 177 0
147 177 0
157 182 0
154 179 0
153 178 0
153 179 0
153 177 0
157 180 0
158 181 0
154 182 0
154 179 0
158 183 0
153 180 0
155 180 0
152 176 0
152 181 0
153 180 0
149 170 0
153 181 0
152 179 0
159 185 0
159 184 0
155 175 0
156 180 0
159 181 0
158 180 0
154 179 0
161 184 0
150 175 0
156 180 0
157 181 0
159 184 0
154 176 0
153 177 0
154 176 0
155 179 0
151 174 0
157 180 0
153 175 0
162 183 0
151 174 0
155 176 0
157 179 0
145 172 0
161 178 0
152 171 0
153 176 0
166 185 0
156 178 0
154 174 0
158 178 0
155 176 0
159 181 0
158 181 0
155 173 0
157 177 0
160 179 0
157 178 0
161 179 0
160 176 0
157 177 0
160 179 0
157 173 0
155 177 0
163 182 0
160 179 0
158 179 0
155 172 0
153 176 0
161 178 0
159 178 0
155 174 0
157 175 0
164 181 0
155 171 0
156 172 0
158 174 0
159 177 0
157 178 0
164 179 0
160 175 0
158 175 0
162 178 0
161 182 0
163 180 0
158 176 0
159 177 0
154 173 0
159 177 0
163 179 0
159 174 0
155 171 0
156 172 0
158 174 0
158 176 0
171 196 0
170 195 0
174 197 0
169 196 0
165 194 0
169 195 0
171 196 0
172 197 0
167 193 0
171 196 0
170 196 0
171 195 0
169 195 0
171 196 0
171 196 0
166 194 0
167 194 0
171 195 0
166 194 0
168 195 0
170 196 0
169 194 0
168 195 0
168 196 0
169 196 0
167 194 0
167 194 0
167 195 0
171 196 0
168 195 0
170 196 0
167 194 0
167 193 0
169 196 0
169 195 0
170 196 0
164 195 0
169 196 0
163 194 0
169 195 0
169 195 0
164 193 0
169 194 0
166 194 0
164 193 0
161 192 0
167 194 0
168 195 0
166 193 0
165 194 0
168 195 0
165 193 0
165 194 0
165 194 0
168 194 0
171 196 0
165 194 0
164 192 0
168 195 0
169 196 0
162 193 0
163 194 0
169 195 0
169 196 0
162 191 0
166 195 0
166 195 0
168 195 0
169 195 0
167 194 0
164 193 0
164 194 0
164 193 0
161 191 0
164 193 0
164 193 0
159 191 0
164 193 0
161 192 0
161 194 0
168 194 0
155 190 0
166 193 0
165 195 0
162 191 0
161 192 0
164 194 0
165 193 0
161 192 0
161 191 0
164 193 0
163 191 0
160 192 0
159 190 0
158 192 0
160 191 0
157 191 0
163 192 0
164 192 0
168 195 0
163 192 0
159 192 0
157 191 0
161 192 0
164 192 0
163 191 0
160 192 0
159 192 0
165 194 0
164 192 0
162 193 0
158 189 0
162 192 0
163 192 0
167 193 0
157 190 0
167 194 0
163 191 0
160 190 0
161 192 0
163 192 0
155 190 0
154 189 0
154 187 0
161 192 0
161 190 0
160 192 0
162 192 0
155 188 0
160 190 0
159 190 0
154 190 0
164 191 0
156 188 0
154 188 0
157 189 0
161 191 0
154 187 0
161 190 0
156 188 0
163 191 0
152 189 0
163 191 0
158 191 0
160 190 0
164 193 0
161 190 0
158 187 0
154 188 0
163 191 0
158 191 0
160 190 0
156 189 0
157 189 0
156 188 0
158 191 0
160 189 0
162 191 0
153 187 0
163 192 0
155 187 0
157 188 0
157 189 0
153 187 0
160 191 0
156 189 0
154 187 0
158 189 0
165 193 0
154 191 0
157 188 0
161 190 0
162 188 0
149 185 0
154 187 0
149 187 0
147 186 0
143 183 0
156 187 0
148 184 0
157 191 0
154 188 0
153 185 0
153 187 0
156 188 0
153 186 0
153 187 0
156 188 0
147 183 0
154 186 0
158 188 0
154 186 0
158 189 0
156 189 0
158 189 0
147 184 0
158 190 0
153 182 0
158 188 0
154 187 0
149 185 0
148 180 0
158 189 0
149 185 0
156 187 0
157 188 0
147 186 0
154 186 0
156 188 0
151 183 0
151 184 0
152 184 0
152 186 0
151 182 0
152 185 0
154 189 0
150 184 0
152 184 0
152 183 0
158 187 0
160 190 0
150 184 0
154 186 0
150 187 0
153 185 0
153 185 0
154 185 0
162 191 0
150 182 0
145 182 0
147 180 0
148 181 0
147 179 0
150 179 0
155 187 0
151 184 0
156 187 0
150 183 0
156 187 0
148 182 0
151 183 0
151 182 0
151 183 0
152 181 0
152 182 0
156 184 0
152 186 0
147 182 0
152 185 0
155 184 0
155 185 0
147 183 0
152 180 0
157 185 0
151 180 0
148 178 0
157 186 0
150 181 0
155 183 0
151 184 0
152 182 0
157 185 0
150 184 0
158 184 0
159 185 0
154 185 0
151 182 0
149 180 0
150 180 0
141 177 0
153 184 0
150 184 0
150 181 0
163 188 0
156 182 0
149 177 0
154 184 0
152 180 0
153 179 0
151 180 0
151 180 0
146 181 0
154 181 0
154 182 0
155 183 0
158 186 0
153 180 0
157 184 0
151 182 0
151 178 0
152 178 0
155 183 0
156 183 0
157 182 0
152 180 0
150 178 0
152 180 0
158 183 0
152 180 0
161 184 0
150 179 0
155 183 0
157 182 0
156 182 0
156 183 0
155 180 0
154 179 0
149 172 0
157 182 0
157 180 0
151 176 0
157 184 0
155 180 0
151 176 0
155 181 0
155 182 0
157 179 0
161 184 0
151 176 0
160 182 0
160 184 0
158 183 0
158 181 0
153 178 0
160 181 0
151 176 0
161 183 0
153 180 0
154 177 0
152 176 0
154 180 0
153 178 0
159 181 0
156 178 0
152 177 0
153 179 0
155 179 0
155 177 0
156 176 0
148 172 0
157 179 0
159 182 0
155 178 0
158 179 0
153 176 0
161 182 0
153 176 0
159 181 0
155 176 0
152 179 0
155 175 0
151 177 0
157 179 0
160 181 0
160 177 0
157 177 0
157 181 0
159 178 0
157 176 0
151 172 0
160 181 0
162 177 0
155 176 0
159 178 0
163 178 0
158 177 0
155 173 0
159 180 0
156 177 0
162 180 0
156 179 0
159 179 0
158 177 0
155 173 0
161 179 0
154 174 0
156 177 0
158 176 0
155 174 0
157 175 0
159 176 0
161 180 0
157 176 0
158 175 0
161 181 0
159 178 0
151 169 0
161 182 0
156 173 0
158 173 0
161 176 0
157 171 0
156 169 0
160 178 0
159 176 0
159 177 0
158 174 0
161 178 0
157 171 0
162 177 0
165 193 0
167 194 0
169 196 0
174 197 0
171 196 0
173 197 0
168 196 0
171 196 0
171 195 0
168 194 0
169 195 0
171 196 0
169 195 0
167 195 0
168 194 0
170 195 0
172 197 0
170 195 0
168 196 0
173 197 0
167 194 0
171 196 0
170 195 0
170 195 0
169 195 0
168 195 0
167 194 0
169 195 0
170 196 0
166 193 0
167 195 0
170 196 0
169 196 0
165 193 0
164 193 0
166 194 0
172 197 0
168 195 0
170 196 0
170 195 0
163 193 0
166 194 0
169 195 0
165 195 0
168 195 0
164 194 0
164 194 0
165 193 0
166 193 0
167 195 0
168 196 0
168 195 0
167 196 0
169 195 0
167 195 0
167 194 0
167 194 0
164 194 0
165 194 0
168 194 0
162 192 0
168 195 0
165 192 0
168 195 0
163 194 0
169 194 0
164 192 0
171 195 0
167 194 0
162 192 0
164 194 0
163 193 0
167 195 0
165 195 0
166 193 0
164 193 0
160 191 0
166 194 0
166 194 0
161 192 0
170 194 0
161 192 0
163 193 0
163 193 0
161 192 0
157 190 0
161 191 0
162 192 0
163 191 0
159 191 0
168 195 0
163 192 0
159 190 0
162 192 0
163 192 0
163 193 0
159 192 0
156 191 0
163 191 0
155 189 0
165 192 0
159 191 0
157 189 0
165 193 0
163 192 0
161 191 0
159 190 0
165 192 0
160 192 0
167 194 0
168 195 0
163 193 0
162 193 0
158 189 0
162 192 0
162 191 0
164 192 0
164 193 0
160 191 0
156 189 0
162 191 0
159 191 0
157 191 0
158 191 0
166 195 0
162 192 0
167 194 0
159 191 0
153 188 0
161 191 0
162 189 0
161 191 0
158 189 0
162 192 0
163 191 0
162 193 0
148 184 0
159 189 0
158 190 0
160 190 0
150 187 0
158 189 0
159 190 0
161 191 0
156 189 0
162 192 0
156 187 0
152 188 0
161 190 0
150 187 0
160 191 0
157 189 0
157 190 0
154 188 0
155 189 0
156 186 0
153 188 0
153 188 0
154 187 0
149 184 0
152 188 0
159 192 0
168 194 0
155 188 0
154 189 0
154 185 0
158 190 0
152 187 0
155 190 0
157 190 0
157 189 0
153 186 0
149 185 0
159 190 0
153 186 0
155 188 0
153 186 0
157 187 0
148 184 0
158 190 0
157 188 0
150 186 0
153 186 0
157 188 0
158 187 0
153 185 0
151 186 0
155 188 0
157 187 0
152 186 0
158 187 0
157 189 0
155 187 0
155 188 0
153 186 0
149 184 0
160 188 0
155 188 0
156 191 0
157 188 0
154 186 0
156 185 0
152 185 0
153 186 0
147 182 0
159 188 0
151 185 0
154 184 0
153 182 0
156 186 0
156 188 0
151 186 0
156 186 0
155 185 0
152 184 0
157 187 0
147 183 0
153 184 0
156 184 0
156 185 0
149 183 0
151 186 0
156 185 0
154 182 0
149 180 0
156 184 0
154 184 0
153 185 0
157 185 0
153 186 0
151 187 0
152 180 0
154 185 0
156 185 0
146 182 0
160 187 0
157 188 0
140 178 0
154 187 0
149 181 0
156 186 0
159 188 0
155 186 0
152 181 0
155 183 0
149 184 0
164 192 0
157 187 0
155 184 0
150 184 0
157 186 0
156 187 0
151 183 0
157 186 0
160 188 0
151 182 0
155 187 0
159 187 0
154 187 0
154 183 0
148 178 0
155 186 0
151 183 0
157 187 0
151 182 0
151 181 0
156 182 0
150 181 0
148 181 0
151 180 0
155 184 0
152 178 0
151 179 0
157 182 0
162 187 0
152 184 0
145 179 0
151 179 0
146 177 0
153 182 0
157 187 0
150 180 0
155 181 0
156 184 0
148 178 0
154 182 0
152 180 0
149 177 0
161 184 0
161 187 0
155 183 0
150 178 0
147 177 0
151 175 0
160 186 0
158 183 0
161 182 0
154 183 0
159 186 0
153 180 0
155 184 0
150 181 0
152 184 0
157 179 0
158 182 0
151 177 0
158 184 0
156 183 0
155 182 0
155 180 0
154 179 0
152 175 0
154 180 0
156 182 0
156 181 0
158 183 0
150 177 0
158 180 0
157 181 0
152 176 0
157 178 0
150 174 0
159 180 0
157 181 0
152 178 0
161 182 0
154 179 0
153 181 0
157 182 0
154 179 0
153 176 0
161 180 0
160 181 0
157 177 0
159 183 0
158 180 0
159 179 0
159 180 0
153 175 0
155 179 0
157 180 0
153 176 0
154 176 0
161 184 0
159 181 0
158 182 0
155 175 0
163 184 0
155 179 0
155 175 0
157 177 0
155 175 0
160 180 0
154 176 0
159 179 0
160 179 0
150 173 0
158 178 0
152 176 0
156 177 0
150 174 0
156 176 0
157 178 0
155 178 0
157 177 0
154 176 0
157 178 0
162 178 0
157 176 0
155 175 0
153 173 0
156 174 0
157 178 0
157 177 0
153 172 0
153 174 0
158 178 0
155 175 0
161 182 0
163 180 0
163 180 0
159 179 0
157 174 0
160 178 0
157 175 0
159 176 0
157 173 0
161 178 0
160 177 0
158 180 0
156 175 0
162 181 0
157 176 0
162 180 0
155 170 0
165 182 0
162 181 0
158 174 0
161 178 0
162 179 0
