P3
400 225
255
163 199 254
163 199 254
163 199 254
162 199 254
162 199 254
162 199 254
162 199 254
162 199 254
162 199 254
162 199 254
162 199 254
162 199 254
162 199 254
162 199 254
161 199 254
161 199 254
161 199 254
161 199 254
161 198 254
161 198 254
161 198 254
161 198 254
161 198 254
161 198 254
161 198 254
160 198 254
160 198 254
160 198 254
160 198 254
160 198 254
160 198 254
160 198 254
160 198 254
160 198 254
160 198 254
160 198 254
159 197 254
159 197 254
159 197 254
159 197 254
159 197 254
159 197 254
159 197 254
159 197 254
159 197 254
159 197 254
158 197 254
158 197 254
158 197 254
158 197 254
158 197 254
158 197 254
158 196 254
158 196 254
158 196 254
157 196 254
157 196 254
157 196 254
157 196 254
157 196 254
157 196 254
157 196 254
157 196 254
157 196 254
157 196 254
156 196 254
156 196 254
156 196 254
156 195 254
156 195 254
156 195 254
156 195 254
156 195 254
156 195 254
155 195 254
155 195 254
155 195 254
155 195 254
155 195 254
155 195 254
155 195 254
155 195 254
155 195 254
154 194 254
154 194 254
154 194 254
154 194 254
154 194 254
154 194 254
154 194 254
154 194 254
154 194 254
154 194 254
153 194 254
153 194 254
153 194 254
153 194 254
153 194 254
153 194 254
153 193 254
153 193 254
153 193 254
152 193 254
152 193 254
152 193 254
152 193 254
152 193 254
152 193 254
152 193 254
152 193 254
152 193 254
151 193 254
151 193 254
151 193 254
151 192 254
151 192 254
151 192 254
151 192 254
151 192 254
151 192 254
151 192 254
150 192 254
150 192 254
150 192 254
150 192 254
150 192 254
150 192 254
150 192 254
150 192 254
150 192 254
150 192 254
149 191 254
149 191 254
149 191 254
149 191 254
149 191 254
149 191 254
149 191 254
149 191 254
149 191 254
149 191 254
149 191 254
148 191 254
148 191 254
148 191 254
148 191 254
148 191 254
148 191 254
148 191 254
148 191 254
148 190 254
148 190 254
148 190 254
148 190 254
148 190 254
147 190 254
147 190 254
147 190 254
147 190 254
147 190 254
147 190 254
147 190 254
147 190 254
147 190 254
147 190 254
147 190 254
147 190 254
147 190 254
147 190 254
147 190 254
147 190 254
146 190 254
146 190 254
146 190 254
146 190 254
146 190 254
146 190 254
146 190 254
146 190 254
146 189 254
146 189 254
146 189 254
146 189 254
146 189 254
146 189 254
146 189 254
146 189 254
146 189 254
146 189 254
146 189 254
146 189 254
146 189 254
146 189 254
146 189 254
146 189 254
146 189 254
146 189 254
146 189 254
146 189 254
146 189 254
146 189 254
146 189 254
146 189 254
146 189 254
146 189 254
146 189 254
146 189 254
146 189 254
146 189 254
146 189 254
146 189 254
146 189 254
146 189 254
146 189 254
146 189 254
146 189 254
146 189 254
146 189 254
146 189 254
146 189 254
146 189 254
146 190 254
146 190 254
146 190 254
146 190 254
146 190 254
146 190 254
146 190 254
146 190 254
147 190 254
147 190 254
147 190 254
147 190 254
147 190 254
147 190 254
147 190 254
147 190 254
147 190 254
147 190 254
147 190 254
147 190 254
147 190 254
147 190 254
147 190 254
147 190 254
148 190 254
148 190 254
148 190 254
148 190 254
148 190 254
148 191 254
148 191 254
148 191 254
148 191 254
148 191 254
148 191 254
148 191 254
148 191 254
149 191 254
149 191 254
149 191 254
149 191 254
149 191 254
149 191 254
149 191 254
149 191 254
149 191 254
149 191 254
149 191 254
150 192 254
150 192 254
150 192 254
150 192 254
150 192 254
150 192 254
150 192 254
150 192 254
150 192 254
150 192 254
151 192 254
151 192 254
151 192 254
151 192 254
151 192 254
151 192 254
151 192 254
151 193 254
151 193 254
151 193 254
152 193 254
152 193 254
152 193 254
152 193 254
152 193 254
152 193 254
152 193 254
152 193 254
152 193 254
153 193 254
153 193 254
153 193 254
153 194 254
153 194 254
153 194 254
153 194 254
153 194 254
153 194 254
154 194 254
154 194 254
154 194 254
154 194 254
154 194 254
154 194 254
154 194 254
154 194 254
154 194 254
154 194 254
155 195 254
155 195 254
155 195 254
155 195 254
155 195 254
155 195 254
155 195 254
155 195 254
155 195 254
156 195 254
156 195 254
156 195 254
156 195 254
156 195 254
156 195 254
156 196 254
156 196 254
156 196 254
157 196 254
157 196 254
157 196 254
157 196 254
157 196 254
157 196 254
157 196 254
157 196 254
157 196 254
157 196 254
158 196 254
158 196 254
158 196 254
158 197 254
158 197 254
158 197 254
158 197 254
158 197 254
158 197 254
159 197 254
159 197 254
159 197 254
159 197 254
159 197 254
159 197 254
159 197 254
159 197 254
159 197 254
159 197 254
160 198 254
160 198 254
160 198 254
160 198 254
160 198 254
160 198 254
160 198 254
160 198 254
160 198 254
160 198 254
160 198 254
161 198 254
161 198 254
161 198 254
161 198 254
161 198 254
161 198 254
161 198 254
161 199 254
161 199 254
161 199 254
162 199 254
162 199 254
162 199 254
162 199 254
162 199 254
162 199 254
162 199 254
162 199 254
162 199 254
162 199 254
162 199 254
162 199 254
163 199 254
163 199 254
163 199 254
163 200 254
163 200 254
163 199 254
163 199 254
163 199 254
163 199 254
162 199 254
162 199 254
162 199 254
162 199 254
162 199 254
162 199 254
162 199 254
162 199 254
162 199 254
162 199 254
162 199 254
161 199 254
161 199 254
161 199 254
161 199 254
161 198 254
161 198 254
161 198 254
161 198 254
161 198 254
161 198 254
161 198 254
160 198 254
160 198 254
160 198 254
160 198 254
160 198 254
160 198 254
160 198 254
160 198 254
160 198 254
160 198 254
159 197 254
159 197 254
159 197 254
159 197 254
159 197 254
159 197 254
159 197 254
159 197 254
159 197 254
159 197 254
158 197 254
158 197 254
158 197 254
158 197 254
158 197 254
158 197 254
158 196 254
158 196 254
158 196 254
158 196 254
157 196 254
157 196 254
157 196 254
157 196 254
157 196 254
157 196 254
157 196 254
157 196 254
157 196 254
156 196 254
156 196 254
156 196 254
156 195 254
156 195 254
156 195 254
156 195 254
156 195 254
156 195 254
155 195 254
155 195 254
155 195 254
155 195 254
155 195 254
155 195 254
155 195 254
155 195 254
155 195 254
154 194 254
154 194 254
154 194 254
154 194 254
154 194 254
154 194 254
154 194 254
154 194 254
154 194 254
154 194 254
153 194 254
153 194 254
153 194 254
153 194 254
153 194 254
153 194 254
153 193 254
153 193 254
153 193 254
152 193 254
152 193 254
152 193 254
152 193 254
152 193 254
152 193 254
152 193 254
152 193 254
152 193 254
151 193 254
151 193 254
151 193 254
151 192 254
151 192 254
151 192 254
151 192 254
151 192 254
151 192 254
151 192 254
150 192 254
150 192 254
150 192 254
150 192 254
150 192 254
150 192 254
150 192 254
150 192 254
150 192 254
150 192 254
149 191 254
149 191 254
149 191 254
149 191 254
149 191 254
149 191 254
149 191 254
149 191 254
149 191 254
149 191 254
149 191 254
149 191 254
148 191 254
148 191 254
148 191 254
148 191 254
148 191 254
148 191 254
148 191 254
148 191 254
148 190 254
148 190 254
148 190 254
148 190 254
148 190 254
147 190 254
147 190 254
147 190 254
147 190 254
147 190 254
147 190 254
147 190 254
147 190 254
147 190 254
147 190 254
147 190 254
147 190 254
147 190 254
147 190 254
147 190 254
147 190 254
147 190 254
146 190 254
146 190 254
146 190 254
146 190 254
146 190 254
146 190 254
146 190 254
146 190 254
146 190 254
146 190 254
146 189 254
146 189 254
146 189 254
146 189 254
146 189 254
146 189 254
146 189 254
146 189 254
146 189 254
146 189 254
146 189 254
146 189 254
146 189 254
146 189 254
146 189 254
146 189 254
146 189 254
146 189 254
146 189 254
146 189 254
146 189 254
146 189 254
146 189 254
146 189 254
146 189 254
146 189 254
146 189 254
146 189 254
146 189 254
146 190 254
146 190 254
146 190 254
146 190 254
146 190 254
146 190 254
146 190 254
146 190 254
146 190 254
146 190 254
147 190 254
147 190 254
147 190 254
147 190 254
147 190 254
147 190 254
147 190 254
147 190 254
147 190 254
147 190 254
147 190 254
147 190 254
147 190 254
147 190 254
147 190 254
147 190 254
147 190 254
147 190 254
148 190 254
148 190 254
148 190 254
148 190 254
148 190 254
148 191 254
148 191 254
148 191 254
148 191 254
148 191 254
148 191 254
148 191 254
148 191 254
149 191 254
149 191 254
149 191 254
149 191 254
149 191 254
149 191 254
149 191 254
149 191 254
149 191 254
149 191 254
149 191 254
149 191 254
150 192 254
150 192 254
150 192 254
150 192 254
150 192 254
150 192 254
150 192 254
150 192 254
150 192 254
150 192 254
151 192 254
151 192 254
151 192 254
151 192 254
151 192 254
151 192 254
151 192 254
151 193 254
151 193 254
151 193 254
152 193 254
152 193 254
152 193 254
152 193 254
152 193 254
152 193 254
152 193 254
152 193 254
152 193 254
153 193 254
153 193 254
153 193 254
153 194 254
153 194 254
153 194 254
153 194 254
153 194 254
153 194 254
154 194 254
154 194 254
154 194 254
154 194 254
154 194 254
154 194 254
154 194 254
154 194 254
154 194 254
154 194 254
155 195 254
155 195 254
155 195 254
155 195 254
155 195 254
155 195 254
155 195 254
155 195 254
155 195 254
156 195 254
156 195 254
156 195 254
156 195 254
156 195 254
156 195 254
156 196 254
156 196 254
156 196 254
157 196 254
157 196 254
157 196 254
157 196 254
157 196 254
157 196 254
157 196 254
157 196 254
157 196 254
158 196 254
158 196 254
158 196 254
158 196 254
158 197 254
158 197 254
158 197 254
158 197 254
158 197 254
158 197 254
159 197 254
159 197 254
159 197 254
159 197 254
159 197 254
159 197 254
159 197 254
159 197 254
159 197 254
159 197 254
160 198 254
160 198 254
160 198 254
160 198 254
160 198 254
160 198 254
160 198 254
160 198 254
160 198 254
160 198 254
161 198 254
161 198 254
161 198 254
161 198 254
161 198 254
161 198 254
161 198 254
161 198 254
161 199 254
161 199 254
161 199 254
162 199 254
162 199 254
162 199 254
162 199 254
162 199 254
162 199 254
162 199 254
162 199 254
162 199 254
162 199 254
162 199 254
163 199 254
163 199 254
163 199 254
163 199 254
163 200 254
163 200 254
163 200 254
163 200 254
163 200 254
163 200 254
163 199 254
163 199 254
163 199 254
163 199 254
162 199 254
162 199 254
162 199 254
162 199 254
162 199 254
162 199 254
162 199 254
162 199 254
162 199 254
162 199 254
162 199 254
161 199 254
161 199 254
161 199 254
161 199 254
161 198 254
161 198 254
161 198 254
161 198 254
161 198 254
161 198 254
161 198 254
160 198 254
160 198 254
160 198 254
160 198 254
160 198 254
160 198 254
160 198 254
160 198 254
160 198 254
160 198 254
159 197 254
159 197 254
159 197 254
159 197 254
159 197 254
159 197 254
159 197 254
159 197 254
159 197 254
159 197 254
158 197 254
158 197 254
158 197 254
158 197 254
158 197 254
158 197 254
158 196 254
158 196 254
158 196 254
158 196 254
157 196 254
157 196 254
157 196 254
157 196 254
157 196 254
157 196 254
157 196 254
157 196 254
157 196 254
156 196 254
156 196 254
156 196 254
156 195 254
156 195 254
156 195 254
156 195 254
156 195 254
156 195 254
155 195 254
155 195 254
155 195 254
155 195 254
155 195 254
155 195 254
155 195 254
155 195 254
155 195 254
154 194 254
154 194 254
154 194 254
154 194 254
154 194 254
154 194 254
154 194 254
154 194 254
154 194 254
154 194 254
153 194 254
153 194 254
153 194 254
153 194 254
153 194 254
153 194 254
153 193 254
153 193 254
153 193 254
152 193 254
152 193 254
152 193 254
152 193 254
152 193 254
152 193 254
152 193 254
152 193 254
152 193 254
151 193 254
151 193 254
151 193 254
151 193 254
151 192 254
151 192 254
151 192 254
151 192 254
151 192 254
151 192 254
150 192 254
150 192 254
150 192 254
150 192 254
150 192 254
150 192 254
150 192 254
150 192 254
150 192 254
150 192 254
150 192 254
149 191 254
149 191 254
149 191 254
149 191 254
149 191 254
149 191 254
149 191 254
149 191 254
149 191 254
149 191 254
149 191 254
148 191 254
148 191 254
148 191 254
148 191 254
148 191 254
148 191 254
148 191 254
148 191 254
148 191 254
148 190 254
148 190 254
148 190 254
148 190 254
148 190 254
147 190 254
147 190 254
147 190 254
147 190 254
147 190 254
147 190 254
147 190 254
147 190 254
147 190 254
147 190 254
147 190 254
147 190 254
147 190 254
147 190 254
147 190 254
147 190 254
147 190 254
147 190 254
147 190 254
147 190 254
146 190 254
146 190 254
146 190 254
146 190 254
146 190 254
146 190 254
146 190 254
146 190 254
146 190 254
146 190 254
146 190 254
146 190 254
146 190 254
146 190 254
146 190 254
146 190 254
146 190 254
146 190 254
146 190 254
146 190 254
146 190 254
146 190 254
146 190 254
146 190 254
146 190 254
146 190 254
146 190 254
146 190 254
146 190 254
146 190 254
146 190 254
146 190 254
146 190 254
146 190 254
146 190 254
146 190 254
146 190 254
146 190 254
147 190 254
147 190 254
147 190 254
147 190 254
147 190 254
147 190 254
147 190 254
147 190 254
147 190 254
147 190 254
147 190 254
147 190 254
147 190 254
147 190 254
147 190 254
147 190 254
147 190 254
147 190 254
147 190 254
147 190 254
148 190 254
148 190 254
148 190 254
148 190 254
148 190 254
148 191 254
148 191 254
148 191 254
148 191 254
148 191 254
148 191 254
148 191 254
148 191 254
148 191 254
149 191 254
149 191 254
149 191 254
149 191 254
149 191 254
149 191 254
149 191 254
149 191 254
149 191 254
149 191 254
149 191 254
150 192 254
150 192 254
150 192 254
150 192 254
150 192 254
150 192 254
150 192 254
150 192 254
150 192 254
150 192 254
150 192 254
151 192 254
151 192 254
151 192 254
151 192 254
151 192 254
151 192 254
151 193 254
151 193 254
151 193 254
151 193 254
152 193 254
152 193 254
152 193 254
152 193 254
152 193 254
152 193 254
152 193 254
152 193 254
152 193 254
153 193 254
153 193 254
153 193 254
153 194 254
153 194 254
153 194 254
153 194 254
153 194 254
153 194 254
154 194 254
154 194 254
154 194 254
154 194 254
154 194 254
154 194 254
154 194 254
154 194 254
154 194 254
154 194 254
155 195 254
155 195 254
155 195 254
155 195 254
155 195 254
155 195 254
155 195 254
155 195 254
155 195 254
156 195 254
156 195 254
156 195 254
156 195 254
156 195 254
156 195 254
156 196 254
156 196 254
156 196 254
157 196 254
157 196 254
157 196 254
157 196 254
157 196 254
157 196 254
157 196 254
157 196 254
157 196 254
158 196 254
158 196 254
158 196 254
158 196 254
158 197 254
158 197 254
158 197 254
158 197 254
158 197 254
158 197 254
159 197 254
159 197 254
159 197 254
159 197 254
159 197 254
159 197 254
159 197 254
159 197 254
159 197 254
159 197 254
160 198 254
160 198 254
160 198 254
160 198 254
160 198 254
160 198 254
160 198 254
160 198 254
160 198 254
160 198 254
161 198 254
161 198 254
161 198 254
161 198 254
161 198 254
161 198 254
161 198 254
161 199 254
161 199 254
161 199 254
161 199 254
162 199 254
162 199 254
162 199 254
162 199 254
162 199 254
162 199 254
162 199 254
162 199 254
162 199 254
162 199 254
162 199 254
163 199 254
163 199 254
163 199 254
163 199 254
163 200 254
163 200 254
163 200 254
163 200 254
163 200 254
163 200 254
163 200 254
163 200 254
163 200 254
163 200 254
163 200 254
163 199 254
163 199 254
163 199 254
162 199 254
162 199 254
162 199 254
162 199 254
162 199 254
162 199 254
162 199 254
162 199 254
162 199 254
162 199 254
162 199 254
161 199 254
161 199 254
161 199 254
161 199 254
161 198 254
161 198 254
161 198 254
161 198 254
161 198 254
161 198 254
161 198 254
160 198 254
160 198 254
160 198 254
160 198 254
160 198 254
160 198 254
160 198 254
160 198 254
160 198 254
160 198 254
159 197 254
159 197 254
159 197 254
159 197 254
159 197 254
159 197 254
159 197 254
159 197 254
159 197 254
159 197 254
158 197 254
158 197 254
158 197 254
158 197 254
158 197 254
158 197 254
158 196 254
158 196 254
158 196 254
158 196 254
157 196 254
157 196 254
157 196 254
157 196 254
157 196 254
157 196 254
157 196 254
157 196 254
157 196 254
156 196 254
156 196 254
156 196 254
156 195 254
156 195 254
156 195 254
156 195 254
156 195 254
156 195 254
155 195 254
155 195 254
155 195 254
155 195 254
155 195 254
155 195 254
155 195 254
155 195 254
155 195 254
155 195 254
154 194 254
154 194 254
154 194 254
154 194 254
154 194 254
154 194 254
154 194 254
154 194 254
154 194 254
153 194 254
153 194 254
153 194 254
153 194 254
153 194 254
153 194 254
153 193 254
153 193 254
153 193 254
152 193 254
152 193 254
152 193 254
152 193 254
152 193 254
152 193 254
152 193 254
152 193 254
152 193 254
152 193 254
151 193 254
151 193 254
151 193 254
151 192 254
151 192 254
151 192 254
151 192 254
151 192 254
151 192 254
150 192 254
150 192 254
150 192 254
150 192 254
150 192 254
150 192 254
150 192 254
150 192 254
150 192 254
150 192 254
150 192 254
149 191 254
149 191 254
149 191 254
149 191 254
149 191 254
149 191 254
149 191 254
149 191 254
149 191 254
149 191 254
149 191 254
149 191 254
148 191 254
148 191 254
148 191 254
148 191 254
148 191 254
148 191 254
148 191 254
148 191 254
148 191 254
148 190 254
148 190 254
148 190 254
148 190 254
148 190 254
147 190 254
147 190 254
147 190 254
147 190 254
147 190 254
147 190 254
147 190 254
147 190 254
147 190 254
147 190 254
147 190 254
147 190 254
147 190 254
147 190 254
147 190 254
147 190 254
147 190 254
147 190 254
147 190 254
147 190 254
147 190 254
147 190 254
147 190 254
147 190 254
147 190 254
146 190 254
146 190 254
146 190 254
146 190 254
146 190 254
146 190 254
146 190 254
146 190 254
146 190 254
146 190 254
146 190 254
146 190 254
146 190 254
146 190 254
146 190 254
146 190 254
146 190 254
146 190 254
146 190 254
146 190 254
146 190 254
146 190 254
146 190 254
147 190 254
147 190 254
147 190 254
147 190 254
147 190 254
147 190 254
147 190 254
147 190 254
147 190 254
147 190 254
147 190 254
147 190 254
147 190 254
147 190 254
147 190 254
147 190 254
147 190 254
147 190 254
147 190 254
147 190 254
147 190 254
147 190 254
147 190 254
147 190 254
148 190 254
148 190 254
148 190 254
148 190 254
148 190 254
148 191 254
148 191 254
148 191 254
148 191 254
148 191 254
148 191 254
148 191 254
148 191 254
148 191 254
149 191 254
149 191 254
149 191 254
149 191 254
149 191 254
149 191 254
149 191 254
149 191 254
149 191 254
149 191 254
149 191 254
149 191 254
150 192 254
150 192 254
150 192 254
150 192 254
150 192 254
150 192 254
150 192 254
150 192 254
150 192 254
150 192 254
151 192 254
151 192 254
151 192 254
151 192 254
151 192 254
151 192 254
151 192 254
151 193 254
151 193 254
151 193 254
151 193 254
152 193 254
152 193 254
152 193 254
152 193 254
152 193 254
152 193 254
152 193 254
152 193 254
152 193 254
153 193 254
153 193 254
153 193 254
153 194 254
153 194 254
153 194 254
153 194 254
153 194 254
153 194 254
154 194 254
154 194 254
154 194 254
154 194 254
154 194 254
154 194 254
154 194 254
154 194 254
154 194 254
155 195 254
155 195 254
155 195 254
155 195 254
155 195 254
155 195 254
155 195 254
155 195 254
155 195 254
155 195 254
156 195 254
156 195 254
156 195 254
156 195 254
156 195 254
156 195 254
156 196 254
156 196 254
156 196 254
157 196 254
157 196 254
157 196 254
157 196 254
157 196 254
157 196 254
157 196 254
157 196 254
157 196 254
158 196 254
158 196 254
158 196 254
158 196 254
158 197 254
158 197 254
158 197 254
158 197 254
158 197 254
158 197 254
159 197 254
159 197 254
159 197 254
159 197 254
159 197 254
159 197 254
159 197 254
159 197 254
159 197 254
159 197 254
160 198 254
160 198 254
160 198 254
160 198 254
160 198 254
160 198 254
160 198 254
160 198 254
160 198 254
160 198 254
161 198 254
161 198 254
161 198 254
161 198 254
161 198 254
161 198 254
161 198 254
161 199 254
161 199 254
161 199 254
162 199 254
162 199 254
162 199 254
162 199 254
162 199 254
162 199 254
162 199 254
162 199 254
162 199 254
162 199 254
162 199 254
162 199 254
163 199 254
163 199 254
163 199 254
163 199 254
163 200 254
163 200 254
163 200 254
163 200 254
163 200 254
163 200 254
164 200 254
163 200 254
163 200 254
163 200 254
163 200 254
163 200 254
163 200 254
163 200 254
163 200 254
163 199 254
163 199 254
163 199 254
163 199 254
162 199 254
162 199 254
162 199 254
162 199 254
162 199 254
162 199 254
162 199 254
162 199 254
162 199 254
162 199 254
162 199 254
161 199 254
161 199 254
161 199 254
161 198 254
161 198 254
161 198 254
161 198 254
161 198 254
161 198 254
161 198 254
160 198 254
160 198 254
160 198 254
160 198 254
160 198 254
160 198 254
160 198 254
160 198 254
160 198 254
160 198 254
159 197 254
159 197 254
159 197 254
159 197 254
159 197 254
159 197 254
159 197 254
159 197 254
159 197 254
159 197 254
158 197 254
158 197 254
158 197 254
158 197 254
158 197 254
158 197 254
158 197 254
158 196 254
158 196 254
158 196 254
157 196 254
157 196 254
157 196 254
157 196 254
157 196 254
157 196 254
157 196 254
157 196 254
157 196 254
156 196 254
156 196 254
156 196 254
156 195 254
156 195 254
156 195 254
156 195 254
156 195 254
156 195 254
155 195 254
155 195 254
155 195 254
155 195 254
155 195 254
155 195 254
155 195 254
155 195 254
155 195 254
155 195 254
154 194 254
154 194 254
154 194 254
154 194 254
154 194 254
154 194 254
154 194 254
154 194 254
154 194 254
153 194 254
153 194 254
153 194 254
153 194 254
153 194 254
153 194 254
153 193 254
153 193 254
153 193 254
152 193 254
152 193 254
152 193 254
152 193 254
152 193 254
152 193 254
152 193 254
152 193 254
152 193 254
152 193 254
151 193 254
151 193 254
151 193 254
151 192 254
151 192 254
151 192 254
151 192 254
151 192 254
151 192 254
151 192 254
150 192 254
150 192 254
150 192 254
150 192 254
150 192 254
150 192 254
150 192 254
150 192 254
150 192 254
150 192 254
150 192 254
149 191 254
149 191 254
149 191 254
149 191 254
149 191 254
149 191 254
149 191 254
149 191 254
149 191 254
149 191 254
149 191 254
149 191 254
148 191 254
148 191 254
148 191 254
148 191 254
148 191 254
148 191 254
148 191 254
148 191 254
148 191 254
148 190 254
148 190 254
148 190 254
148 190 254
148 190 254
148 190 254
147 190 254
147 190 254
147 190 254
147 190 254
147 190 254
147 190 254
147 190 254
147 190 254
147 190 254
147 190 254
147 190 254
147 190 254
147 190 254
147 190 254
147 190 254
147 190 254
147 190 254
147 190 254
147 190 254
147 190 254
147 190 254
147 190 254
147 190 254
147 190 254
147 190 254
147 190 254
147 190 254
147 190 254
147 190 254
147 190 254
147 190 254
147 190 254
147 190 254
147 190 254
147 190 254
147 190 254
147 190 254
147 190 254
147 190 254
147 190 254
147 190 254
147 190 254
147 190 254
147 190 254
147 190 254
147 190 254
147 190 254
147 190 254
147 190 254
147 190 254
147 190 254
147 190 254
147 190 254
147 190 254
147 190 254
147 190 254
147 190 254
147 190 254
147 190 254
147 190 254
147 190 254
147 190 254
147 190 254
147 190 254
148 190 254
148 190 254
148 190 254
148 190 254
148 190 254
148 190 254
148 191 254
148 191 254
148 191 254
148 191 254
148 191 254
148 191 254
148 191 254
148 191 254
148 191 254
149 191 254
149 191 254
149 191 254
149 191 254
149 191 254
149 191 254
149 191 254
149 191 254
149 191 254
149 191 254
149 191 254
149 191 254
149 191 254
150 192 254
150 192 254
150 192 254
150 192 254
150 192 254
150 192 254
150 192 254
150 192 254
150 192 254
150 192 254
151 192 254
151 192 254
151 192 254
151 192 254
151 192 254
151 192 254
151 192 254
151 193 254
151 193 254
151 193 254
152 193 254
152 193 254
152 193 254
152 193 254
152 193 254
152 193 254
152 193 254
152 193 254
152 193 254
152 193 254
153 193 254
153 193 254
153 193 254
153 194 254
153 194 254
153 194 254
153 194 254
153 194 254
153 194 254
154 194 254
154 194 254
154 194 254
154 194 254
154 194 254
154 194 254
154 194 254
154 194 254
154 194 254
155 195 254
155 195 254
155 195 254
155 195 254
155 195 254
155 195 254
155 195 254
155 195 254
155 195 254
155 195 254
156 195 254
156 195 254
156 195 254
156 195 254
156 195 254
156 195 254
156 196 254
156 196 254
156 196 254
157 196 254
157 196 254
157 196 254
157 196 254
157 196 254
157 196 254
157 196 254
157 196 254
157 196 254
158 196 254
158 196 254
158 196 254
158 197 254
158 197 254
158 197 254
158 197 254
158 197 254
158 197 254
158 197 254
159 197 254
159 197 254
159 197 254
159 197 254
159 197 254
159 197 254
159 197 254
159 197 254
159 197 254
159 197 254
160 198 254
160 198 254
160 198 254
160 198 254
160 198 254
160 198 254
160 198 254
160 198 254
160 198 254
160 198 254
161 198 254
161 198 254
161 198 254
161 198 254
161 198 254
161 198 254
161 198 254
161 199 254
161 199 254
161 199 254
162 199 254
162 199 254
162 199 254
162 199 254
162 199 254
162 199 254
162 199 254
162 199 254
162 199 254
162 199 254
162 199 254
163 199 254
163 199 254
163 199 254
163 199 254
163 200 254
163 200 254
163 200 254
163 200 254
163 200 254
163 200 254
163 200 254
163 200 254
164 200 254
164 200 254
164 200 254
164 200 254
164 200 254
163 200 254
163 200 254
163 200 254
163 200 254
163 200 254
163 200 254
163 200 254
163 199 254
163 199 254
163 199 254
163 199 254
162 199 254
162 199 254
162 199 254
162 199 254
162 199 254
162 199 254
162 199 254
162 199 254
162 199 254
162 199 254
162 199 254
161 199 254
161 199 254
161 199 254
161 199 254
161 198 254
161 198 254
161 198 254
161 198 254
161 198 254
161 198 254
160 198 254
160 198 254
160 198 254
160 198 254
160 198 254
160 198 254
160 198 254
160 198 254
160 198 254
160 198 254
160 198 254
159 197 254
159 197 254
159 197 254
159 197 254
159 197 254
159 197 254
159 197 254
159 197 254
159 197 254
158 197 254
158 197 254
158 197 254
158 197 254
158 197 254
158 197 254
158 197 254
158 196 254
158 196 254
158 196 254
157 196 254
157 196 254
157 196 254
157 196 254
157 196 254
157 196 254
157 196 254
157 196 254
157 196 254
156 196 254
156 196 254
156 196 254
156 195 254
156 195 254
156 195 254
156 195 254
156 195 254
156 195 254
155 195 254
155 195 254
155 195 254
155 195 254
155 195 254
155 195 254
155 195 254
155 195 254
155 195 254
155 195 254
154 194 254
154 194 254
154 194 254
154 194 254
154 194 254
154 194 254
154 194 254
154 194 254
154 194 254
153 194 254
153 194 254
153 194 254
153 194 254
153 194 254
153 194 254
153 193 254
153 193 254
153 193 254
152 193 254
152 193 254
152 193 254
152 193 254
152 193 254
152 193 254
152 193 254
152 193 254
152 193 254
152 193 254
151 193 254
151 193 254
151 193 254
151 192 254
151 192 254
151 192 254
151 192 254
151 192 254
151 192 254
151 192 254
150 192 254
150 192 254
150 192 254
150 192 254
150 192 254
150 192 254
150 192 254
150 192 254
150 192 254
150 192 254
150 192 254
149 191 254
149 191 254
149 191 254
149 191 254
149 191 254
149 191 254
149 191 254
149 191 254
149 191 254
149 191 254
149 191 254
149 191 254
149 191 254
148 191 254
148 191 254
148 191 254
148 191 254
148 191 254
148 191 254
148 191 254
148 191 254
148 191 254
148 191 254
148 190 254
148 190 254
148 190 254
148 190 254
148 190 254
148 190 254
147 190 254
147 190 254
147 190 254
147 190 254
147 190 254
147 190 254
147 190 254
147 190 254
147 190 254
147 190 254
147 190 254
147 190 254
147 190 254
147 190 254
147 190 254
147 190 254
147 190 254
147 190 254
147 190 254
147 190 254
147 190 254
147 190 254
147 190 254
147 190 254
147 190 254
147 190 254
147 190 254
147 190 254
147 190 254
147 190 254
147 190 254
147 190 254
147 190 254
147 190 254
147 190 254
147 190 254
147 190 254
147 190 254
147 190 254
147 190 254
147 190 254
147 190 254
147 190 254
147 190 254
147 190 254
147 190 254
147 190 254
147 190 254
147 190 254
147 190 254
147 190 254
147 190 254
147 190 254
147 190 254
147 190 254
147 190 254
148 190 254
148 190 254
148 190 254
148 190 254
148 190 254
148 190 254
148 191 254
148 191 254
148 191 254
148 191 254
148 191 254
148 191 254
148 191 254
148 191 254
148 191 254
148 191 254
149 191 254
149 191 254
149 191 254
149 191 254
149 191 254
149 191 254
149 191 254
149 191 254
149 191 254
149 191 254
149 191 254
149 191 254
149 191 254
150 192 254
150 192 254
150 192 254
150 192 254
150 192 254
150 192 254
150 192 254
150 192 254
150 192 254
150 192 254
150 192 254
151 192 254
151 192 254
151 192 254
151 192 254
151 192 254
151 192 254
151 192 254
151 193 254
151 193 254
151 193 254
152 193 254
152 193 254
152 193 254
152 193 254
152 193 254
152 193 254
152 193 254
152 193 254
152 193 254
152 193 254
153 193 254
153 193 254
153 193 254
153 194 254
153 194 254
153 194 254
153 194 254
153 194 254
153 194 254
154 194 254
154 194 254
154 194 254
154 194 254
154 194 254
154 194 254
154 194 254
154 194 254
154 194 254
155 195 254
155 195 254
155 195 254
155 195 254
155 195 254
155 195 254
155 195 254
155 195 254
155 195 254
156 195 254
156 195 254
156 195 254
156 195 254
156 195 254
156 195 254
156 195 254
156 196 254
156 196 254
156 196 254
157 196 254
157 196 254
157 196 254
157 196 254
157 196 254
157 196 254
157 196 254
157 196 254
157 196 254
158 196 254
158 196 254
158 196 254
158 197 254
158 197 254
158 197 254
158 197 254
158 197 254
158 197 254
158 197 254
159 197 254
159 197 254
159 197 254
159 197 254
159 197 254
159 197 254
159 197 254
159 197 254
159 197 254
160 198 254
160 198 254
160 198 254
160 198 254
160 198 254
160 198 254
160 198 254
160 198 254
160 198 254
160 198 254
161 198 254
161 198 254
161 198 254
161 198 254
161 198 254
161 198 254
161 198 254
161 199 254
161 199 254
161 199 254
161 199 254
162 199 254
162 199 254
162 199 254
162 199 254
162 199 254
162 199 254
162 199 254
162 199 254
162 199 254
162 199 254
162 199 254
163 199 254
163 199 254
163 199 254
163 199 254
163 200 254
163 200 254
163 200 254
163 200 254
163 200 254
163 200 254
163 200 254
164 200 254
164 200 254
164 200 254
164 200 254
164 200 254
164 200 254
164 200 254
164 200 254
164 200 254
164 200 254
163 200 254
163 200 254
163 200 254
163 200 254
163 200 254
163 200 254
163 200 254
163 200 254
163 199 254
163 199 254
163 199 254
163 199 254
162 199 254
162 199 254
162 199 254
162 199 254
162 199 254
162 199 254
162 199 254
162 199 254
162 199 254
162 199 254
161 199 254
161 199 254
161 199 254
161 199 254
161 198 254
161 198 254
161 198 254
161 198 254
161 198 254
161 198 254
161 198 254
160 198 254
160 198 254
160 198 254
160 198 254
160 198 254
160 198 254
160 198 254
160 198 254
160 198 254
160 198 254
159 197 254
159 197 254
159 197 254
159 197 254
159 197 254
159 197 254
159 197 254
159 197 254
159 197 254
159 197 254
158 197 254
158 197 254
158 197 254
158 197 254
158 197 254
158 197 254
158 196 254
158 196 254
158 196 254
157 196 254
157 196 254
157 196 254
157 196 254
157 196 254
157 196 254
157 196 254
157 196 254
157 196 254
156 196 254
156 196 254
156 196 254
156 195 254
156 195 254
156 195 254
156 195 254
156 195 254
156 195 254
156 195 254
155 195 254
155 195 254
155 195 254
155 195 254
155 195 254
155 195 254
155 195 254
155 195 254
155 195 254
154 194 254
154 194 254
154 194 254
154 194 254
154 194 254
154 194 254
154 194 254
154 194 254
154 194 254
153 194 254
153 194 254
153 194 254
153 194 254
153 194 254
153 194 254
153 193 254
153 193 254
153 193 254
152 193 254
152 193 254
152 193 254
152 193 254
152 193 254
152 193 254
152 193 254
152 193 254
152 193 254
152 193 254
151 193 254
151 193 254
151 193 254
151 192 254
151 192 254
151 192 254
151 192 254
151 192 254
151 192 254
151 192 254
150 192 254
150 192 254
150 192 254
150 192 254
150 192 254
150 192 254
150 192 254
150 192 254
150 192 254
150 192 254
150 192 254
150 192 254
149 191 254
149 191 254
149 191 254
149 191 254
149 191 254
149 191 254
149 191 254
149 191 254
149 191 254
149 191 254
149 191 254
149 191 254
149 191 254
148 191 254
148 191 254
148 191 254
148 191 254
148 191 254
148 191 254
148 191 254
148 191 254
148 191 254
148 191 254
148 191 254
148 190 254
148 190 254
148 190 254
148 190 254
148 190 254
148 190 254
148 190 254
147 190 254
147 190 254
147 190 254
147 190 254
147 190 254
147 190 254
147 190 254
147 190 254
147 190 254
147 190 254
147 190 254
147 190 254
147 190 254
147 190 254
147 190 254
147 190 254
147 190 254
147 190 254
147 190 254
147 190 254
147 190 254
147 190 254
147 190 254
147 190 254
147 190 254
147 190 254
147 190 254
147 190 254
147 190 254
147 190 254
147 190 254
147 190 254
147 190 254
147 190 254
147 190 254
147 190 254
147 190 254
147 190 254
147 190 254
147 190 254
147 190 254
147 190 254
147 190 254
147 190 254
147 190 254
147 190 254
148 190 254
148 190 254
148 190 254
148 190 254
148 190 254
148 190 254
148 190 254
148 191 254
148 191 254
148 191 254
148 191 254
148 191 254
148 191 254
148 191 254
148 191 254
148 191 254
148 191 254
148 191 254
149 191 254
149 191 254
149 191 254
149 191 254
149 191 254
149 191 254
149 191 254
149 191 254
149 191 254
149 191 254
149 191 254
149 191 254
149 191 254
150 192 254
150 192 254
150 192 254
150 192 254
150 192 254
150 192 254
150 192 254
150 192 254
150 192 254
150 192 254
150 192 254
150 192 254
151 192 254
151 192 254
151 192 254
151 192 254
151 192 254
151 192 254
151 193 254
151 193 254
151 193 254
151 193 254
152 193 254
152 193 254
152 193 254
152 193 254
152 193 254
152 193 254
152 193 254
152 193 254
152 193 254
152 193 254
153 193 254
153 193 254
153 193 254
153 194 254
153 194 254
153 194 254
153 194 254
153 194 254
153 194 254
154 194 254
154 194 254
154 194 254
154 194 254
154 194 254
154 194 254
154 194 254
154 194 254
154 194 254
155 195 254
155 195 254
155 195 254
155 195 254
155 195 254
155 195 254
155 195 254
155 195 254
155 195 254
156 195 254
156 195 254
156 195 254
156 195 254
156 195 254
156 195 254
156 195 254
156 196 254
156 196 254
156 196 254
157 196 254
157 196 254
157 196 254
157 196 254
157 196 254
157 196 254
157 196 254
157 196 254
157 196 254
158 196 254
158 196 254
158 196 254
158 197 254
158 197 254
158 197 254
158 197 254
158 197 254
158 197 254
159 197 254
159 197 254
159 197 254
159 197 254
159 197 254
159 197 254
159 197 254
159 197 254
159 197 254
159 197 254
160 198 254
160 198 254
160 198 254
160 198 254
160 198 254
160 198 254
160 198 254
160 198 254
160 198 254
160 198 254
161 198 254
161 198 254
161 198 254
161 198 254
161 198 254
161 198 254
161 198 254
161 199 254
161 199 254
161 199 254
161 199 254
162 199 254
162 199 254
162 199 254
162 199 254
162 199 254
162 199 254
162 199 254
162 199 254
162 199 254
162 199 254
163 199 254
163 199 254
163 199 254
163 199 254
163 200 254
163 200 254
163 200 254
163 200 254
163 200 254
163 200 254
163 200 254
163 200 254
164 200 254
164 200 254
164 200 254
164 200 254
164 200 254
164 200 254
164 200 254
164 200 254
164 200 254
164 200 254
164 200 254
164 200 254
164 200 254
164 200 254
164 200 254
163 200 254
163 200 254
163 200 254
163 200 254
163 200 254
163 200 254
163 200 254
163 199 254
163 199 254
163 199 254
163 199 254
162 199 254
162 199 254
162 199 254
162 199 254
162 199 254
162 199 254
162 199 254
162 199 254
162 199 254
162 199 254
162 199 254
161 199 254
161 199 254
161 199 254
161 198 254
161 198 254
161 198 254
161 198 254
161 198 254
161 198 254
161 198 254
160 198 254
160 198 254
160 198 254
160 198 254
160 198 254
160 198 254
160 198 254
160 198 254
160 198 254
160 198 254
159 197 254
159 197 254
159 197 254
159 197 254
159 197 254
159 197 254
159 197 254
159 197 254
159 197 254
159 197 254
158 197 254
158 197 254
158 197 254
158 197 254
158 197 254
158 197 254
158 196 254
158 196 254
158 196 254
157 196 254
157 196 254
157 196 254
157 196 254
157 196 254
157 196 254
157 196 254
157 196 254
157 196 254
156 196 254
156 196 254
156 196 254
156 196 254
156 195 254
156 195 254
156 195 254
156 195 254
156 195 254
156 195 254
155 195 254
155 195 254
155 195 254
155 195 254
155 195 254
155 195 254
155 195 254
155 195 254
155 195 254
154 194 254
154 194 254
154 194 254
154 194 254
154 194 254
154 194 254
154 194 254
154 194 254
154 194 254
153 194 254
153 194 254
153 194 254
153 194 254
153 194 254
153 194 254
153 193 254
153 193 254
153 193 254
153 193 254
152 193 254
152 193 254
152 193 254
152 193 254
152 193 254
152 193 254
152 193 254
152 193 254
152 193 254
151 193 254
151 193 254
151 193 254
151 193 254
151 192 254
151 192 254
151 192 254
151 192 254
151 192 254
151 192 254
151 192 254
150 192 254
150 192 254
150 192 254
150 192 254
150 192 254
150 192 254
150 192 254
150 192 254
150 192 254
150 192 254
150 192 254
150 192 254
149 191 254
149 191 254
149 191 254
149 191 254
149 191 254
149 191 254
149 191 254
149 191 254
149 191 254
149 191 254
149 191 254
149 191 254
149 191 254
148 191 254
148 191 254
148 191 254
148 191 254
148 191 254
148 191 254
148 191 254
148 191 254
148 191 254
148 191 254
148 191 254
148 191 254
148 190 254
148 190 254
148 190 254
148 190 254
148 190 254
148 190 254
148 190 254
148 190 254
148 190 254
147 190 254
147 190 254
147 190 254
147 190 254
147 190 254
147 190 254
147 190 254
147 190 254
147 190 254
147 190 254
147 190 254
147 190 254
147 190 254
147 190 254
147 190 254
147 190 254
147 190 254
147 190 254
147 190 254
147 190 254
147 190 254
147 190 254
147 190 254
147 190 254
147 190 254
147 190 254
147 190 254
147 190 254
147 190 254
147 190 254
147 190 254
147 190 254
147 190 254
147 190 254
148 190 254
148 190 254
148 190 254
148 190 254
148 190 254
148 190 254
148 190 254
148 190 254
148 191 254
148 191 254
148 191 254
148 191 254
148 191 254
148 191 254
148 191 254
148 191 254
148 191 254
148 191 254
148 191 254
148 191 254
148 191 254
149 191 254
149 191 254
149 191 254
149 191 254
149 191 254
149 191 254
149 191 254
149 191 254
149 191 254
149 191 254
149 191 254
149 191 254
149 191 254
149 191 254
150 192 254
150 192 254
150 192 254
150 192 254
150 192 254
150 192 254
150 192 254
150 192 254
150 192 254
150 192 254
150 192 254
151 192 254
151 192 254
151 192 254
151 192 254
151 192 254
151 192 254
151 192 254
151 193 254
151 193 254
151 193 254
151 193 254
152 193 254
152 193 254
152 193 254
152 193 254
152 193 254
152 193 254
152 193 254
152 193 254
152 193 254
153 193 254
153 193 254
153 193 254
153 193 254
153 194 254
153 194 254
153 194 254
153 194 254
153 194 254
153 194 254
154 194 254
154 194 254
154 194 254
154 194 254
154 194 254
154 194 254
154 194 254
154 194 254
154 194 254
155 195 254
155 195 254
155 195 254
155 195 254
155 195 254
155 195 254
155 195 254
155 195 254
155 195 254
156 195 254
156 195 254
156 195 254
156 195 254
156 195 254
156 195 254
156 196 254
156 196 254
156 196 254
157 196 254
157 196 254
157 196 254
157 196 254
157 196 254
157 196 254
157 196 254
157 196 254
157 196 254
157 196 254
158 196 254
158 196 254
158 196 254
158 197 254
158 197 254
158 197 254
158 197 254
158 197 254
158 197 254
159 197 254
159 197 254
159 197 254
159 197 254
159 197 254
159 197 254
159 197 254
159 197 254
159 197 254
159 197 254
160 198 254
160 198 254
160 198 254
160 198 254
160 198 254
160 198 254
160 198 254
160 198 254
160 198 254
160 198 254
161 198 254
161 198 254
161 198 254
161 198 254
161 198 254
161 198 254
161 198 254
161 199 254
161 199 254
161 199 254
162 199 254
162 199 254
162 199 254
162 199 254
162 199 254
162 199 254
162 199 254
162 199 254
162 199 254
162 199 254
162 199 254
163 199 254
163 199 254
163 199 254
163 199 254
163 200 254
163 200 254
163 200 254
163 200 254
163 200 254
163 200 254
163 200 254
164 200 254
164 200 254
164 200 254
164 200 254
164 200 254
164 200 254
164 200 254
164 200 254
164 200 254
164 200 254
164 200 254
164 200 254
164 200 254
164 200 254
164 200 254
164 200 254
164 200 254
164 200 254
164 200 254
164 200 254
163 200 254
163 200 254
163 200 254
163 200 254
163 200 254
163 200 254
163 200 254
163 200 254
163 199 254
163 199 254
163 199 254
162 199 254
162 199 254
162 199 254
162 199 254
162 199 254
162 199 254
162 199 254
162 199 254
162 199 254
162 199 254
162 199 254
161 199 254
161 199 254
161 199 254
161 198 254
161 198 254
161 198 254
161 198 254
161 198 254
161 198 254
161 198 254
160 198 254
160 198 254
160 198 254
160 198 254
160 198 254
160 198 254
160 198 254
160 198 254
160 198 254
160 198 254
159 197 254
159 197 254
159 197 254
159 197 254
159 197 254
159 197 254
159 197 254
159 197 254
159 197 254
159 197 254
158 197 254
158 197 254
158 197 254
158 197 254
158 197 254
158 197 254
158 196 254
158 196 254
158 196 254
157 196 254
157 196 254
157 196 254
157 196 254
157 196 254
157 196 254
157 196 254
157 196 254
157 196 254
157 196 254
156 196 254
156 196 254
156 196 254
156 195 254
156 195 254
156 195 254
156 195 254
156 195 254
156 195 254
155 195 254
155 195 254
155 195 254
155 195 254
155 195 254
155 195 254
155 195 254
155 195 254
155 195 254
154 194 254
154 194 254
154 194 254
154 194 254
154 194 254
154 194 254
154 194 254
154 194 254
154 194 254
153 194 254
153 194 254
153 194 254
153 194 254
153 194 254
153 194 254
153 194 254
153 193 254
153 193 254
153 193 254
152 193 254
152 193 254
152 193 254
152 193 254
152 193 254
152 193 254
152 193 254
152 193 254
152 193 254
152 193 254
151 193 254
151 193 254
151 193 254
151 192 254
151 192 254
151 192 254
151 192 254
151 192 254
151 192 254
151 192 254
150 192 254
150 192 254
150 192 254
150 192 254
150 192 254
150 192 254
150 192 254
150 192 254
150 192 254
150 192 254
150 192 254
150 192 254
149 191 254
149 191 254
149 191 254
149 191 254
149 191 254
149 191 254
149 191 254
149 191 254
149 191 254
149 191 254
149 191 254
149 191 254
149 191 254
149 191 254
149 191 254
148 191 254
148 191 254
148 191 254
148 191 254
148 191 254
148 191 254
148 191 254
148 191 254
148 191 254
148 191 254
148 191 254
148 191 254
148 191 254
148 191 254
148 190 254
148 190 254
148 190 254
148 190 254
148 190 254
148 190 254
148 190 254
148 190 254
148 190 254
148 190 254
148 190 254
148 190 254
148 190 254
148 190 254
148 190 254
147 190 254
147 190 254
147 190 254
147 190 254
147 190 254
147 190 254
147 190 254
147 190 254
147 190 254
147 190 254
148 190 254
148 190 254
148 190 254
148 190 254
148 190 254
148 190 254
148 190 254
148 190 254
148 190 254
148 190 254
148 190 254
148 190 254
148 190 254
148 190 254
148 190 254
148 191 254
148 191 254
148 191 254
148 191 254
148 191 254
148 191 254
148 191 254
148 191 254
148 191 254
148 191 254
148 191 254
148 191 254
148 191 254
148 191 254
149 191 254
149 191 254
149 191 254
149 191 254
149 191 254
149 191 254
149 191 254
149 191 254
149 191 254
149 191 254
149 191 254
149 191 254
149 191 254
149 191 254
149 191 254
150 192 254
150 192 254
150 192 254
150 192 254
150 192 254
150 192 254
150 192 254
150 192 254
150 192 254
150 192 254
150 192 254
151 192 254
151 192 254
151 192 254
151 192 254
151 192 254
151 192 254
151 192 254
151 192 254
151 193 254
151 193 254
151 193 254
152 193 254
152 193 254
152 193 254
152 193 254
152 193 254
152 193 254
152 193 254
152 193 254
152 193 254
152 193 254
153 193 254
153 193 254
153 193 254
153 194 254
153 194 254
153 194 254
153 194 254
153 194 254
153 194 254
153 194 254
154 194 254
154 194 254
154 194 254
154 194 254
154 194 254
154 194 254
154 194 254
154 194 254
154 194 254
155 195 254
155 195 254
155 195 254
155 195 254
155 195 254
155 195 254
155 195 254
155 195 254
155 195 254
156 195 254
156 195 254
156 195 254
156 195 254
156 195 254
156 195 254
156 196 254
156 196 254
156 196 254
157 196 254
157 196 254
157 196 254
157 196 254
157 196 254
157 196 254
157 196 254
157 196 254
157 196 254
157 196 254
158 196 254
158 196 254
158 196 254
158 197 254
158 197 254
158 197 254
158 197 254
158 197 254
158 197 254
159 197 254
159 197 254
159 197 254
159 197 254
159 197 254
159 197 254
159 197 254
159 197 254
159 197 254
159 197 254
160 198 254
160 198 254
160 198 254
160 198 254
160 198 254
160 198 254
160 198 254
160 198 254
160 198 254
160 198 254
161 198 254
161 198 254
161 198 254
161 198 254
161 198 254
161 198 254
161 198 254
161 199 254
161 199 254
161 199 254
162 199 254
162 199 254
162 199 254
162 199 254
162 199 254
162 199 254
162 199 254
162 199 254
162 199 254
162 199 254
162 199 254
163 199 254
163 199 254
163 199 254
163 200 254
163 200 254
163 200 254
163 200 254
163 200 254
163 200 254
163 200 254
163 200 254
164 200 254
164 200 254
164 200 254
164 200 254
164 200 254
164 200 254
164 200 254
164 200 254
164 200 254
164 200 254
164 200 254
165 201 254
165 201 254
164 200 254
164 200 254
164 200 254
164 200 254
164 200 254
164 200 254
164 200 254
164 200 254
164 200 254
164 200 254
164 200 254
164 200 254
163 200 254
163 200 254
163 200 254
163 200 254
163 200 254
163 200 254
163 200 254
163 199 254
163 199 254
163 199 254
162 199 254
162 199 254
162 199 254
162 199 254
162 199 254
162 199 254
162 199 254
162 199 254
162 199 254
162 199 254
162 199 254
161 199 254
161 199 254
161 199 254
161 199 254
161 198 254
161 198 254
161 198 254
161 198 254
161 198 254
161 198 254
161 198 254
160 198 254
160 198 254
160 198 254
160 198 254
160 198 254
160 198 254
160 198 254
160 198 254
160 198 254
159 197 254
159 197 254
159 197 254
159 197 254
159 197 254
159 197 254
159 197 254
159 197 254
159 197 254
159 197 254
158 197 254
158 197 254
158 197 254
158 197 254
158 197 254
158 197 254
158 196 254
158 196 254
158 196 254
158 196 254
157 196 254
157 196 254
157 196 254
157 196 254
157 196 254
157 196 254
157 196 254
157 196 254
157 196 254
156 196 254
156 196 254
156 196 254
156 195 254
156 195 254
156 195 254
156 195 254
156 195 254
156 195 254
155 195 254
155 195 254
155 195 254
155 195 254
155 195 254
155 195 254
155 195 254
155 195 254
155 195 254
154 194 254
154 194 254
154 194 254
154 194 254
154 194 254
154 194 254
154 194 254
154 194 254
154 194 254
154 194 254
153 194 254
153 194 254
153 194 254
153 194 254
153 194 254
153 194 254
153 193 254
153 193 254
153 193 254
152 193 254
152 193 254
152 193 254
152 193 254
152 193 254
152 193 254
152 193 254
152 193 254
152 193 254
152 193 254
151 193 254
151 193 254
151 193 254
151 193 254
151 192 254
151 192 254
151 192 254
151 192 254
151 192 254
151 192 254
151 192 254
150 192 254
150 192 254
150 192 254
150 192 254
150 192 254
150 192 254
150 192 254
150 192 254
150 192 254
150 192 254
150 192 254
150 192 254
149 191 254
149 191 254
149 191 254
149 191 254
149 191 254
149 191 254
149 191 254
149 191 254
149 191 254
149 191 254
149 191 254
149 191 254
149 191 254
149 191 254
149 191 254
149 191 254
148 191 254
148 191 254
148 191 254
148 191 254
148 191 254
148 191 254
148 191 254
148 191 254
148 191 254
148 191 254
148 191 254
148 191 254
148 191 254
148 191 254
148 191 254
148 191 254
148 191 254
148 191 254
148 190 254
148 190 254
148 190 254
148 190 254
148 190 254
148 190 254
148 190 254
148 190 254
148 190 254
148 190 254
148 190 254
148 190 254
148 190 254
148 190 254
148 190 254
148 190 254
148 190 254
148 190 254
148 190 254
148 190 254
148 190 254
148 190 254
148 190 254
148 190 254
148 191 254
148 191 254
148 191 254
148 191 254
148 191 254
148 191 254
148 191 254
148 191 254
148 191 254
148 191 254
148 191 254
148 191 254
148 191 254
148 191 254
148 191 254
148 191 254
148 191 254
148 191 254
149 191 254
149 191 254
149 191 254
149 191 254
149 191 254
149 191 254
149 191 254
149 191 254
149 191 254
149 191 254
149 191 254
149 191 254
149 191 254
149 191 254
149 191 254
149 191 254
150 192 254
150 192 254
150 192 254
150 192 254
150 192 254
150 192 254
150 192 254
150 192 254
150 192 254
150 192 254
150 192 254
150 192 254
151 192 254
151 192 254
151 192 254
151 192 254
151 192 254
151 192 254
151 192 254
151 193 254
151 193 254
151 193 254
151 193 254
152 193 254
152 193 254
152 193 254
152 193 254
152 193 254
152 193 254
152 193 254
152 193 254
152 193 254
152 193 254
153 193 254
153 193 254
153 193 254
153 194 254
153 194 254
153 194 254
153 194 254
153 194 254
153 194 254
154 194 254
154 194 254
154 194 254
154 194 254
154 194 254
154 194 254
154 194 254
154 194 254
154 194 254
154 194 254
155 195 254
155 195 254
155 195 254
155 195 254
155 195 254
155 195 254
155 195 254
155 195 254
155 195 254
156 195 254
156 195 254
156 195 254
156 195 254
156 195 254
156 195 254
156 196 254
156 196 254
156 196 254
157 196 254
157 196 254
157 196 254
157 196 254
157 196 254
157 196 254
157 196 254
157 196 254
157 196 254
158 196 254
158 196 254
158 196 254
158 196 254
158 197 254
158 197 254
158 197 254
158 197 254
158 197 254
158 197 254
159 197 254
159 197 254
159 197 254
159 197 254
159 197 254
159 197 254
159 197 254
159 197 254
159 197 254
159 197 254
160 198 254
160 198 254
160 198 254
160 198 254
160 198 254
160 198 254
160 198 254
160 198 254
160 198 254
161 198 254
161 198 254
161 198 254
161 198 254
161 198 254
161 198 254
161 198 254
161 199 254
161 199 254
161 199 254
161 199 254
162 199 254
162 199 254
162 199 254
162 199 254
162 199 254
162 199 254
162 199 254
162 199 254
162 199 254
162 199 254
163 199 254
163 199 254
163 199 254
163 199 254
163 200 254
163 200 254
163 200 254
163 200 254
163 200 254
163 200 254
163 200 254
164 200 254
164 200 254
164 200 254
164 200 254
164 200 254
164 200 254
164 200 254
164 200 254
164 200 254
164 200 254
164 200 254
164 200 254
165 201 254
165 201 254
165 201 254
165 201 254
165 201 254
165 201 254
164 200 254
164 200 254
164 200 254
164 200 254
164 200 254
164 200 254
164 200 254
164 200 254
164 200 254
164 200 254
164 200 254
164 200 254
163 200 254
163 200 254
163 200 254
163 200 254
163 200 254
163 200 254
163 200 254
163 199 254
163 199 254
163 199 254
163 199 254
162 199 254
162 199 254
162 199 254
162 199 254
162 199 254
162 199 254
162 199 254
162 199 254
162 199 254
162 199 254
162 199 254
161 199 254
161 199 254
161 199 254
161 198 254
161 198 254
161 198 254
161 198 254
161 198 254
161 198 254
161 198 254
160 198 254
160 198 254
160 198 254
160 198 254
160 198 254
160 198 254
160 198 254
160 198 254
160 198 254
160 198 254
159 197 254
159 197 254
159 197 254
159 197 254
159 197 254
159 197 254
159 197 254
159 197 254
159 197 254
158 197 254
158 197 254
158 197 254
158 197 254
158 197 254
158 197 254
158 197 254
158 196 254
158 196 254
158 196 254
157 196 254
157 196 254
157 196 254
157 196 254
157 196 254
157 196 254
157 196 254
157 196 254
157 196 254
156 196 254
156 196 254
156 196 254
156 195 254
156 195 254
156 195 254
156 195 254
156 195 254
156 195 254
155 195 254
155 195 254
155 195 254
155 195 254
155 195 254
155 195 254
155 195 254
155 195 254
155 195 254
155 195 254
154 194 254
154 194 254
154 194 254
154 194 254
154 194 254
154 194 254
154 194 254
154 194 254
154 194 254
153 194 254
153 194 254
153 194 254
153 194 254
153 194 254
153 194 254
153 193 254
153 193 254
153 193 254
153 193 254
152 193 254
152 193 254
152 193 254
152 193 254
152 193 254
152 193 254
152 193 254
152 193 254
152 193 254
152 193 254
151 193 254
151 193 254
151 193 254
151 192 254
151 192 254
151 192 254
151 192 254
151 192 254
151 192 254
151 192 254
151 192 254
150 192 254
150 192 254
150 192 254
150 192 254
150 192 254
150 192 254
150 192 254
150 192 254
150 192 254
150 192 254
150 192 254
150 192 254
150 192 254
149 191 254
149 191 254
149 191 254
149 191 254
149 191 254
149 191 254
149 191 254
149 191 254
149 191 254
149 191 254
149 191 254
149 191 254
149 191 254
149 191 254
149 191 254
149 191 254
149 191 254
148 191 254
148 191 254
148 191 254
148 191 254
148 191 254
148 191 254
148 191 254
148 191 254
148 191 254
148 191 254
148 191 254
148 191 254
148 191 254
148 191 254
148 191 254
148 191 254
148 191 254
148 191 254
148 191 254
148 191 254
148 191 254
148 191 254
148 191 254
148 191 254
148 191 254
148 191 254
148 191 254
148 191 254
148 191 254
148 191 254
148 191 254
148 191 254
148 191 254
148 191 254
148 191 254
148 191 254
148 191 254
148 191 254
148 191 254
148 191 254
148 191 254
148 191 254
148 191 254
148 191 254
148 191 254
148 191 254
148 191 254
148 191 254
148 191 254
148 191 254
149 191 254
149 191 254
149 191 254
149 191 254
149 191 254
149 191 254
149 191 254
149 191 254
149 191 254
149 191 254
149 191 254
149 191 254
149 191 254
149 191 254
149 191 254
149 191 254
149 191 254
150 192 254
150 192 254
150 192 254
150 192 254
150 192 254
150 192 254
150 192 254
150 192 254
150 192 254
150 192 254
150 192 254
150 192 254
150 192 254
151 192 254
151 192 254
151 192 254
151 192 254
151 192 254
151 192 254
151 192 254
151 192 254
151 193 254
151 193 254
151 193 254
152 193 254
152 193 254
152 193 254
152 193 254
152 193 254
152 193 254
152 193 254
152 193 254
152 193 254
152 193 254
153 193 254
153 193 254
153 193 254
153 193 254
153 194 254
153 194 254
153 194 254
153 194 254
153 194 254
153 194 254
154 194 254
154 194 254
154 194 254
154 194 254
154 194 254
154 194 254
154 194 254
154 194 254
154 194 254
154 194 254
155 195 254
155 195 254
155 195 254
155 195 254
155 195 254
155 195 254
155 195 254
155 195 254
155 195 254
156 195 254
156 195 254
156 195 254
156 195 254
156 195 254
156 195 254
156 196 254
156 196 254
156 196 254
157 196 254
157 196 254
157 196 254
157 196 254
157 196 254
157 196 254
157 196 254
157 196 254
157 196 254
158 196 254
158 196 254
158 196 254
158 197 254
158 197 254
158 197 254
158 197 254
158 197 254
158 197 254
158 197 254
159 197 254
159 197 254
159 197 254
159 197 254
159 197 254
159 197 254
159 197 254
159 197 254
159 197 254
160 198 254
160 198 254
160 198 254
160 198 254
160 198 254
160 198 254
160 198 254
160 198 254
160 198 254
160 198 254
161 198 254
161 198 254
161 198 254
161 198 254
161 198 254
161 198 254
161 198 254
161 199 254
161 199 254
161 199 254
162 199 254
162 199 254
162 199 254
162 199 254
162 199 254
162 199 254
162 199 254
162 199 254
162 199 254
162 199 254
162 199 254
163 199 254
163 199 254
163 199 254
163 199 254
163 200 254
163 200 254
163 200 254
163 200 254
163 200 254
163 200 254
163 200 254
164 200 254
164 200 254
164 200 254
164 200 254
164 200 254
164 200 254
164 200 254
164 200 254
164 200 254
164 200 254
164 200 254
164 200 254
165 201 254
165 201 254
165 201 254
165 201 254
165 201 254
165 201 254
165 201 254
165 201 254
165 201 254
165 201 254
165 201 254
164 200 254
164 200 254
164 200 254
164 200 254
164 200 254
164 200 254
164 200 254
164 200 254
164 200 254
164 200 254
164 200 254
163 200 254
163 200 254
163 200 254
163 200 254
163 200 254
163 200 254
163 200 254
163 200 254
163 199 254
163 199 254
163 199 254
162 199 254
162 199 254
162 199 254
162 199 254
162 199 254
162 199 254
162 199 254
162 199 254
162 199 254
162 199 254
162 199 254
161 199 254
161 199 254
161 199 254
161 198 254
161 198 254
161 198 254
161 198 254
161 198 254
161 198 254
161 198 254
160 198 254
160 198 254
160 198 254
160 198 254
160 198 254
160 198 254
160 198 254
160 198 254
160 198 254
160 198 254
159 197 254
159 197 254
159 197 254
159 197 254
159 197 254
159 197 254
159 197 254
159 197 254
159 197 254
159 197 254
158 197 254
158 197 254
158 197 254
158 197 254
158 197 254
158 197 254
158 196 254
158 196 254
158 196 254
157 196 254
157 196 254
157 196 254
157 196 254
157 196 254
157 196 254
157 196 254
157 196 254
157 196 254
156 196 254
156 196 254
156 196 254
156 195 254
156 195 254
156 195 254
156 195 254
156 195 254
156 195 254
156 195 254
155 195 254
155 195 254
155 195 254
155 195 254
155 195 254
155 195 254
155 195 254
155 195 254
155 195 254
154 194 254
154 194 254
154 194 254
154 194 254
154 194 254
154 194 254
154 194 254
154 194 254
154 194 254
153 194 254
153 194 254
153 194 254
153 194 254
153 194 254
153 194 254
153 194 254
153 193 254
153 193 254
153 193 254
152 193 254
152 193 254
152 193 254
152 193 254
152 193 254
152 193 254
152 193 254
152 193 254
152 193 254
152 193 254
151 193 254
151 193 254
151 193 254
151 193 254
151 192 254
151 192 254
151 192 254
151 192 254
151 192 254
151 192 254
151 192 254
151 192 254
150 192 254
150 192 254
150 192 254
150 192 254
150 192 254
150 192 254
150 192 254
150 192 254
150 192 254
150 192 254
150 192 254
150 192 254
150 192 254
149 191 254
149 191 254
149 191 254
149 191 254
149 191 254
149 191 254
149 191 254
149 191 254
149 191 254
149 191 254
149 191 254
149 191 254
149 191 254
149 191 254
149 191 254
149 191 254
149 191 254
149 191 254
149 191 254
149 191 254
148 191 254
148 191 254
148 191 254
148 191 254
148 191 254
148 191 254
148 191 254
148 191 254
148 191 254
148 191 254
148 191 254
148 191 254
148 191 254
148 191 254
148 191 254
148 191 254
148 191 254
148 191 254
148 191 254
148 191 254
148 191 254
148 191 254
148 191 254
148 191 254
148 191 254
148 191 254
148 191 254
148 191 254
148 191 254
148 191 254
148 191 254
148 191 254
148 191 254
148 191 254
148 191 254
148 191 254
148 191 254
148 191 254
149 191 254
149 191 254
149 191 254
149 191 254
149 191 254
149 191 254
149 191 254
149 191 254
149 191 254
149 191 254
149 191 254
149 191 254
149 191 254
149 191 254
149 191 254
149 191 254
149 191 254
149 191 254
149 191 254
149 191 254
150 192 254
150 192 254
150 192 254
150 192 254
150 192 254
150 192 254
150 192 254
150 192 254
150 192 254
150 192 254
150 192 254
150 192 254
150 192 254
151 192 254
151 192 254
151 192 254
151 192 254
151 192 254
151 192 254
151 192 254
151 192 254
151 193 254
151 193 254
151 193 254
151 193 254
152 193 254
152 193 254
152 193 254
152 193 254
152 193 254
152 193 254
152 193 254
152 193 254
152 193 254
152 193 254
153 193 254
153 193 254
153 193 254
153 194 254
153 194 254
153 194 254
153 194 254
153 194 254
153 194 254
153 194 254
154 194 254
154 194 254
154 194 254
154 194 254
154 194 254
154 194 254
154 194 254
154 194 254
154 194 254
155 195 254
155 195 254
155 195 254
155 195 254
155 195 254
155 195 254
155 195 254
155 195 254
155 195 254
155 195 254
156 195 254
156 195 254
156 195 254
156 195 254
156 195 254
156 195 254
156 196 254
156 196 254
156 196 254
157 196 254
157 196 254
157 196 254
157 196 254
157 196 254
157 196 254
157 196 254
157 196 254
157 196 254
158 196 254
158 196 254
158 196 254
158 197 254
158 197 254
158 197 254
158 197 254
158 197 254
158 197 254
159 197 254
159 197 254
159 197 254
159 197 254
159 197 254
159 197 254
159 197 254
159 197 254
159 197 254
159 197 254
160 198 254
160 198 254
160 198 254
160 198 254
160 198 254
160 198 254
160 198 254
160 198 254
160 198 254
160 198 254
161 198 254
161 198 254
161 198 254
161 198 254
161 198 254
161 198 254
161 198 254
161 199 254
161 199 254
161 199 254
162 199 254
162 199 254
162 199 254
162 199 254
162 199 254
162 199 254
162 199 254
162 199 254
162 199 254
162 199 254
162 199 254
163 199 254
163 199 254
163 199 254
163 200 254
163 200 254
163 200 254
163 200 254
163 200 254
163 200 254
163 200 254
163 200 254
164 200 254
164 200 254
164 200 254
164 200 254
164 200 254
164 200 254
164 200 254
164 200 254
164 200 254
164 200 254
164 200 254
165 201 254
165 201 254
165 201 254
165 201 254
165 201 254
165 201 254
165 201 254
165 201 254
165 201 254
165 201 254
165 201 254
165 201 254
165 201 254
165 201 254
165 201 254
165 201 254
164 200 254
164 200 254
164 200 254
164 200 254
164 200 254
164 200 254
164 200 254
164 200 254
164 200 254
164 200 254
164 200 254
164 200 254
163 200 254
163 200 254
163 200 254
163 200 254
163 200 254
163 200 254
163 200 254
163 199 254
163 199 254
163 199 254
163 199 254
162 199 254
162 199 254
162 199 254
162 199 254
162 199 254
162 199 254
162 199 254
162 199 254
162 199 254
162 199 254
161 199 254
161 199 254
161 199 254
161 199 254
161 198 254
161 198 254
161 198 254
161 198 254
161 198 254
161 198 254
160 198 254
160 198 254
160 198 254
160 198 254
160 198 254
160 198 254
160 198 254
160 198 254
160 198 254
160 198 254
159 197 254
159 197 254
159 197 254
159 197 254
159 197 254
159 197 254
159 197 254
159 197 254
159 197 254
159 197 254
158 197 254
158 197 254
158 197 254
158 197 254
158 197 254
158 197 254
158 196 254
158 196 254
158 196 254
157 196 254
157 196 254
157 196 254
157 196 254
157 196 254
157 196 254
157 196 254
157 196 254
157 196 254
157 196 254
156 196 254
156 196 254
156 196 254
156 195 254
156 195 254
156 195 254
156 195 254
156 195 254
156 195 254
155 195 254
155 195 254
155 195 254
155 195 254
155 195 254
155 195 254
155 195 254
155 195 254
155 195 254
154 194 254
154 194 254
154 194 254
154 194 254
154 194 254
154 194 254
154 194 254
154 194 254
154 194 254
154 194 254
153 194 254
153 194 254
153 194 254
153 194 254
153 194 254
153 194 254
153 193 254
153 193 254
153 193 254
152 193 254
152 193 254
152 193 254
152 193 254
152 193 254
152 193 254
152 193 254
152 193 254
152 193 254
152 193 254
152 193 254
151 193 254
151 193 254
151 193 254
151 193 254
151 192 254
151 192 254
151 192 254
151 192 254
151 192 254
151 192 254
151 192 254
151 192 254
150 192 254
150 192 254
150 192 254
150 192 254
150 192 254
150 192 254
150 192 254
150 192 254
150 192 254
150 192 254
150 192 254
150 192 254
150 192 254
150 192 254
149 191 254
149 191 254
149 191 254
149 191 254
149 191 254
149 191 254
149 191 254
149 191 254
149 191 254
149 191 254
149 191 254
149 191 254
149 191 254
149 191 254
149 191 254
149 191 254
149 191 254
149 191 254
149 191 254
149 191 254
149 191 254
149 191 254
149 191 254
149 191 254
148 191 254
148 191 254
148 191 254
148 191 254
148 191 254
148 191 254
148 191 254
148 191 254
148 191 254
148 191 254
148 191 254
148 191 254
148 191 254
148 191 254
148 191 254
148 191 254
148 191 254
148 191 254
148 191 254
148 191 254
148 191 254
148 191 254
149 191 254
149 191 254
149 191 254
149 191 254
149 191 254
149 191 254
149 191 254
149 191 254
149 191 254
149 191 254
149 191 254
149 191 254
149 191 254
149 191 254
149 191 254
149 191 254
149 191 254
149 191 254
149 191 254
149 191 254
149 191 254
149 191 254
149 191 254
149 191 254
150 192 254
150 192 254
150 192 254
150 192 254
150 192 254
150 192 254
150 192 254
150 192 254
150 192 254
150 192 254
150 192 254
150 192 254
150 192 254
150 192 254
151 192 254
151 192 254
151 192 254
151 192 254
151 192 254
151 192 254
151 192 254
151 192 254
151 193 254
151 193 254
151 193 254
151 193 254
152 193 254
152 193 254
152 193 254
152 193 254
152 193 254
152 193 254
152 193 254
152 193 254
152 193 254
152 193 254
152 193 254
153 193 254
153 193 254
153 193 254
153 194 254
153 194 254
153 194 254
153 194 254
153 194 254
153 194 254
154 194 254
154 194 254
154 194 254
154 194 254
154 194 254
154 194 254
154 194 254
154 194 254
154 194 254
154 194 254
155 195 254
155 195 254
155 195 254
155 195 254
155 195 254
155 195 254
155 195 254
155 195 254
155 195 254
156 195 254
156 195 254
156 195 254
156 195 254
156 195 254
156 195 254
156 196 254
156 196 254
156 196 254
157 196 254
157 196 254
157 196 254
157 196 254
157 196 254
157 196 254
157 196 254
157 196 254
157 196 254
157 196 254
158 196 254
158 196 254
158 196 254
158 197 254
158 197 254
158 197 254
158 197 254
158 197 254
158 197 254
159 197 254
159 197 254
159 197 254
159 197 254
159 197 254
159 197 254
159 197 254
159 197 254
159 197 254
159 197 254
160 198 254
160 198 254
160 198 254
160 198 254
160 198 254
160 198 254
160 198 254
160 198 254
160 198 254
160 198 254
161 198 254
161 198 254
161 198 254
161 198 254
161 198 254
161 198 254
161 199 254
161 199 254
161 199 254
161 199 254
162 199 254
162 199 254
162 199 254
162 199 254
162 199 254
162 199 254
162 199 254
162 199 254
162 199 254
162 199 254
163 199 254
163 199 254
163 199 254
163 199 254
163 200 254
163 200 254
163 200 254
163 200 254
163 200 254
163 200 254
163 200 254
164 200 254
164 200 254
164 200 254
164 200 254
164 200 254
164 200 254
164 200 254
164 200 254
164 200 254
164 200 254
164 200 254
164 200 254
165 201 254
165 201 254
165 201 254
165 201 254
165 201 254
165 201 254
165 201 254
165 201 254
165 201 254
165 201 254
165 201 254
165 201 254
165 201 254
165 201 254
165 201 254
165 201 254
165 201 254
165 201 254
165 201 254
165 201 254
165 201 254
164 200 254
164 200 254
164 200 254
164 200 254
164 200 254
164 200 254
164 200 254
164 200 254
164 200 254
164 200 254
164 200 254
164 200 254
163 200 254
163 200 254
163 200 254
163 200 254
163 200 254
163 200 254
163 200 254
163 199 254
163 199 254
163 199 254
162 199 254
162 199 254
162 199 254
162 199 254
162 199 254
162 199 254
162 199 254
162 199 254
162 199 254
162 199 254
162 199 254
161 199 254
161 199 254
161 199 254
161 198 254
161 198 254
161 198 254
161 198 254
161 198 254
161 198 254
161 198 254
160 198 254
160 198 254
160 198 254
160 198 254
160 198 254
160 198 254
160 198 254
160 198 254
160 198 254
160 198 254
159 197 254
159 197 254
159 197 254
159 197 254
159 197 254
159 197 254
159 197 254
159 197 254
159 197 254
158 197 254
158 197 254
158 197 254
158 197 254
158 197 254
158 197 254
158 196 254
158 196 254
158 196 254
158 196 254
157 196 254
157 196 254
157 196 254
157 196 254
157 196 254
157 196 254
157 196 254
157 196 254
157 196 254
156 196 254
156 196 254
156 196 254
156 195 254
156 195 254
156 195 254
156 195 254
156 195 254
156 195 254
155 195 254
155 195 254
155 195 254
155 195 254
155 195 254
155 195 254
155 195 254
155 195 254
155 195 254
154 194 254
154 194 254
154 194 254
154 194 254
154 194 254
154 194 254
154 194 254
154 194 254
154 194 254
154 194 254
153 194 254
153 194 254
153 194 254
153 194 254
153 194 254
153 194 254
153 194 254
153 193 254
153 193 254
153 193 254
152 193 254
152 193 254
152 193 254
152 193 254
152 193 254
152 193 254
152 193 254
152 193 254
152 193 254
152 193 254
152 193 254
151 193 254
151 193 254
151 193 254
151 193 254
151 192 254
151 192 254
151 192 254
151 192 254
151 192 254
151 192 254
151 192 254
151 192 254
150 192 254
150 192 254
150 192 254
150 192 254
150 192 254
150 192 254
150 192 254
150 192 254
150 192 254
150 192 254
150 192 254
150 192 254
150 192 254
150 192 254
150 192 254
149 191 254
149 191 254
149 191 254
149 191 254
149 191 254
149 191 254
149 191 254
149 191 254
149 191 254
149 191 254
149 191 254
149 191 254
149 191 254
149 191 254
149 191 254
149 191 254
149 191 254
149 191 254
149 191 254
149 191 254
149 191 254
149 191 254
149 191 254
149 191 254
149 191 254
149 191 254
149 191 254
149 191 254
149 191 254
149 191 254
149 191 254
149 191 254
149 191 254
149 191 254
149 191 254
149 191 254
149 191 254
149 191 254
149 191 254
149 191 254
149 191 254
149 191 254
149 191 254
149 191 254
149 191 254
149 191 254
149 191 254
149 191 254
149 191 254
149 191 254
149 191 254
149 191 254
149 191 254
149 191 254
149 191 254
149 191 254
149 191 254
149 191 254
149 191 254
149 191 254
149 191 254
149 191 254
150 192 254
150 192 254
150 192 254
150 192 254
150 192 254
150 192 254
150 192 254
150 192 254
150 192 254
150 192 254
150 192 254
150 192 254
150 192 254
150 192 254
150 192 254
151 192 254
151 192 254
151 192 254
151 192 254
151 192 254
151 192 254
151 192 254
151 192 254
151 193 254
151 193 254
151 193 254
151 193 254
152 193 254
152 193 254
152 193 254
152 193 254
152 193 254
152 193 254
152 193 254
152 193 254
152 193 254
152 193 254
152 193 254
153 193 254
153 193 254
153 193 254
153 194 254
153 194 254
153 194 254
153 194 254
153 194 254
153 194 254
153 194 254
154 194 254
154 194 254
154 194 254
154 194 254
154 194 254
154 194 254
154 194 254
154 194 254
154 194 254
154 194 254
155 195 254
155 195 254
155 195 254
155 195 254
155 195 254
155 195 254
155 195 254
155 195 254
155 195 254
156 195 254
156 195 254
156 195 254
156 195 254
156 195 254
156 195 254
156 196 254
156 196 254
156 196 254
157 196 254
157 196 254
157 196 254
157 196 254
157 196 254
157 196 254
157 196 254
157 196 254
157 196 254
158 196 254
158 196 254
158 196 254
158 197 254
158 197 254
158 197 254
158 197 254
158 197 254
158 197 254
158 197 254
159 197 254
159 197 254
159 197 254
159 197 254
159 197 254
159 197 254
159 197 254
159 197 254
159 197 254
160 198 254
160 198 254
160 198 254
160 198 254
160 198 254
160 198 254
160 198 254
160 198 254
160 198 254
160 198 254
161 198 254
161 198 254
161 198 254
161 198 254
161 198 254
161 198 254
161 198 254
161 199 254
161 199 254
161 199 254
162 199 254
162 199 254
162 199 254
162 199 254
162 199 254
162 199 254
162 199 254
162 199 254
162 199 254
162 199 254
162 199 254
163 199 254
163 199 254
163 199 254
163 200 254
163 200 254
163 200 254
163 200 254
163 200 254
163 200 254
163 200 254
163 200 254
164 200 254
164 200 254
164 200 254
164 200 254
164 200 254
164 200 254
164 200 254
164 200 254
164 200 254
164 200 254
164 200 254
165 201 254
165 201 254
165 201 254
165 201 254
165 201 254
165 201 254
165 201 254
165 201 254
165 201 254
165 201 254
165 201 254
165 201 254
166 201 254
166 201 254
166 201 254
165 201 254
165 201 254
165 201 254
165 201 254
165 201 254
165 201 254
165 201 254
165 201 254
165 201 254
165 201 254
165 201 254
165 201 254
164 200 254
164 200 254
164 200 254
164 200 254
164 200 254
164 200 254
164 200 254
164 200 254
164 200 254
164 200 254
164 200 254
163 200 254
163 200 254
163 200 254
163 200 254
163 200 254
163 200 254
163 200 254
163 199 254
163 199 254
163 199 254
163 199 254
162 199 254
162 199 254
162 199 254
162 199 254
162 199 254
162 199 254
162 199 254
162 199 254
162 199 254
162 199 254
161 199 254
161 199 254
161 199 254
161 199 254
161 198 254
161 198 254
161 198 254
161 198 254
161 198 254
161 198 254
160 198 254
160 198 254
160 198 254
160 198 254
160 198 254
160 198 254
160 198 254
160 198 254
160 198 254
160 198 254
159 197 254
159 197 254
159 197 254
159 197 254
159 197 254
159 197 254
159 197 254
159 197 254
159 197 254
158 197 254
158 197 254
158 197 254
158 197 254
158 197 254
158 197 254
158 197 254
158 196 254
158 196 254
158 196 254
157 196 254
157 196 254
157 196 254
157 196 254
157 196 254
157 196 254
157 196 254
157 196 254
157 196 254
156 196 254
156 196 254
156 196 254
156 195 254
156 195 254
156 195 254
156 195 254
156 195 254
156 195 254
155 195 254
155 195 254
155 195 254
155 195 254
155 195 254
155 195 254
155 195 254
155 195 254
155 195 254
155 195 254
154 194 254
154 194 254
154 194 254
154 194 254
154 194 254
154 194 254
154 194 254
154 194 254
154 194 254
153 194 254
153 194 254
153 194 254
153 194 254
153 194 254
153 194 254
153 194 254
153 193 254
153 193 254
153 193 254
153 193 254
152 193 254
152 193 254
152 193 254
152 193 254
152 193 254
152 193 254
152 193 254
152 193 254
152 193 254
152 193 254
152 193 254
151 193 254
151 193 254
151 193 254
151 192 254
151 192 254
151 192 254
151 192 254
151 192 254
151 192 254
151 192 254
151 192 254
151 192 254
150 192 254
150 192 254
150 192 254
150 192 254
150 192 254
150 192 254
150 192 254
150 192 254
150 192 254
150 192 254
150 192 254
150 192 254
150 192 254
150 192 254
150 192 254
150 192 254
150 192 254
149 191 254
149 191 254
149 191 254
149 191 254
149 191 254
149 191 254
149 191 254
149 191 254
149 191 254
149 191 254
149 191 254
149 191 254
149 191 254
149 191 254
149 191 254
149 191 254
149 191 254
149 191 254
149 191 254
149 191 254
149 191 254
149 191 254
149 191 254
149 191 254
149 191 254
149 191 254
149 191 254
149 191 254
149 191 254
149 191 254
149 191 254
149 191 254
149 191 254
149 191 254
149 191 254
149 191 254
149 191 254
149 191 254
149 191 254
149 191 254
149 191 254
149 191 254
149 191 254
149 191 254
149 191 254
149 191 254
149 191 254
149 191 254
149 191 254
149 191 254
149 191 254
149 191 254
150 192 254
150 192 254
150 192 254
150 192 254
150 192 254
150 192 254
150 192 254
150 192 254
150 192 254
150 192 254
150 192 254
150 192 254
150 192 254
150 192 254
150 192 254
150 192 254
150 192 254
151 192 254
151 192 254
151 192 254
151 192 254
151 192 254
151 192 254
151 192 254
151 192 254
151 192 254
151 193 254
151 193 254
151 193 254
151 193 254
152 193 254
152 193 254
152 193 254
152 193 254
152 193 254
152 193 254
152 193 254
152 193 254
152 193 254
152 193 254
152 193 254
153 193 254
153 193 254
153 193 254
153 194 254
153 194 254
153 194 254
153 194 254
153 194 254
153 194 254
153 194 254
154 194 254
154 194 254
154 194 254
154 194 254
154 194 254
154 194 254
154 194 254
154 194 254
154 194 254
155 195 254
155 195 254
155 195 254
155 195 254
155 195 254
155 195 254
155 195 254
155 195 254
155 195 254
155 195 254
156 195 254
156 195 254
156 195 254
156 195 254
156 195 254
156 195 254
156 196 254
156 196 254
156 196 254
157 196 254
157 196 254
157 196 254
157 196 254
157 196 254
157 196 254
157 196 254
157 196 254
157 196 254
158 196 254
158 196 254
158 196 254
158 197 254
158 197 254
158 197 254
158 197 254
158 197 254
158 197 254
158 197 254
159 197 254
159 197 254
159 197 254
159 197 254
159 197 254
159 197 254
159 197 254
159 197 254
159 197 254
160 198 254
160 198 254
160 198 254
160 198 254
160 198 254
160 198 254
160 198 254
160 198 254
160 198 254
160 198 254
161 198 254
161 198 254
161 198 254
161 198 254
161 198 254
161 198 254
161 199 254
161 199 254
161 199 254
161 199 254
162 199 254
162 199 254
162 199 254
162 199 254
162 199 254
162 199 254
162 199 254
162 199 254
162 199 254
162 199 254
163 199 254
163 199 254
163 199 254
163 199 254
163 200 254
163 200 254
163 200 254
163 200 254
163 200 254
163 200 254
163 200 254
164 200 254
164 200 254
164 200 254
164 200 254
164 200 254
164 200 254
164 200 254
164 200 254
164 200 254
164 200 254
164 200 254
165 201 254
165 201 254
165 201 254
165 201 254
165 201 254
165 201 254
165 201 254
165 201 254
165 201 254
165 201 254
165 201 254
165 201 254
166 201 254
166 201 254
166 201 254
166 201 254
166 201 254
166 201 254
166 201 254
166 201 254
165 201 254
165 201 254
165 201 254
165 201 254
165 201 254
165 201 254
165 201 254
165 201 254
165 201 254
165 201 254
165 201 254
165 201 254
164 200 254
164 200 254
164 200 254
164 200 254
164 200 254
164 200 254
164 200 254
164 200 254
164 200 254
164 200 254
164 200 254
163 200 254
163 200 254
163 200 254
163 200 254
163 200 254
163 200 254
163 200 254
163 200 254
163 199 254
163 199 254
163 199 254
162 199 254
162 199 254
162 199 254
162 199 254
162 199 254
162 199 254
162 199 254
162 199 254
162 199 254
162 199 254
162 199 254
161 199 254
161 199 254
161 199 254
161 198 254
161 198 254
161 198 254
161 198 254
161 198 254
161 198 254
161 198 254
160 198 254
160 198 254
160 198 254
160 198 254
160 198 254
160 198 254
160 198 254
160 198 254
160 198 254
159 197 254
159 197 254
159 197 254
159 197 254
159 197 254
159 197 254
159 197 254
159 197 254
159 197 254
159 197 254
158 197 254
158 197 254
158 197 254
158 197 254
158 197 254
158 197 254
158 196 254
158 196 254
158 196 254
157 196 254
157 196 254
157 196 254
157 196 254
157 196 254
157 196 254
157 196 254
157 196 254
157 196 254
156 196 254
156 196 254
156 196 254
156 195 254
156 195 254
156 195 254
156 195 254
156 195 254
156 195 254
156 195 254
155 195 254
155 195 254
155 195 254
155 195 254
155 195 254
155 195 254
155 195 254
155 195 254
155 195 254
154 194 254
154 194 254
154 194 254
154 194 254
154 194 254
154 194 254
154 194 254
154 194 254
154 194 254
154 194 254
153 194 254
153 194 254
153 194 254
153 194 254
153 194 254
153 194 254
153 194 254
153 193 254
153 193 254
153 193 254
152 193 254
152 193 254
152 193 254
152 193 254
152 193 254
152 193 254
152 193 254
152 193 254
152 193 254
152 193 254
152 193 254
152 193 254
151 193 254
151 193 254
151 193 254
151 193 254
151 192 254
151 192 254
151 192 254
151 192 254
151 192 254
151 192 254
151 192 254
151 192 254
151 192 254
150 192 254
150 192 254
150 192 254
150 192 254
150 192 254
150 192 254
150 192 254
150 192 254
150 192 254
150 192 254
150 192 254
150 192 254
150 192 254
150 192 254
150 192 254
150 192 254
150 192 254
150 192 254
150 192 254
149 191 254
149 191 254
149 191 254
149 191 254
149 191 254
149 191 254
149 191 254
149 191 254
149 191 254
149 191 254
149 191 254
149 191 254
149 191 254
149 191 254
149 191 254
149 191 254
149 191 254
149 191 254
149 191 254
149 191 254
149 191 254
149 191 254
149 191 254
149 191 254
149 191 254
149 191 254
149 191 254
149 191 254
149 191 254
149 191 254
149 191 254
149 191 254
149 191 254
149 191 254
149 191 254
149 191 254
149 191 254
149 191 254
149 191 254
149 191 254
150 192 254
150 192 254
150 192 254
150 192 254
150 192 254
150 192 254
150 192 254
150 192 254
150 192 254
150 192 254
150 192 254
150 192 254
150 192 254
150 192 254
150 192 254
150 192 254
150 192 254
150 192 254
150 192 254
151 192 254
151 192 254
151 192 254
151 192 254
151 192 254
151 192 254
151 192 254
151 192 254
151 192 254
151 193 254
151 193 254
151 193 254
151 193 254
151 193 254
152 193 254
152 193 254
152 193 254
152 193 254
152 193 254
152 193 254
152 193 254
152 193 254
152 193 254
152 193 254
152 193 254
153 193 254
153 193 254
153 193 254
153 194 254
153 194 254
153 194 254
153 194 254
153 194 254
153 194 254
153 194 254
154 194 254
154 194 254
154 194 254
154 194 254
154 194 254
154 194 254
154 194 254
154 194 254
154 194 254
154 194 254
155 195 254
155 195 254
155 195 254
155 195 254
155 195 254
155 195 254
155 195 254
155 195 254
155 195 254
156 195 254
156 195 254
156 195 254
156 195 254
156 195 254
156 195 254
156 195 254
156 196 254
156 196 254
156 196 254
157 196 254
157 196 254
157 196 254
157 196 254
157 196 254
157 196 254
157 196 254
157 196 254
157 196 254
158 196 254
158 196 254
158 196 254
158 197 254
158 197 254
158 197 254
158 197 254
158 197 254
158 197 254
159 197 254
159 197 254
159 197 254
159 197 254
159 197 254
159 197 254
159 197 254
159 197 254
159 197 254
159 197 254
160 198 254
160 198 254
160 198 254
160 198 254
160 198 254
160 198 254
160 198 254
160 198 254
160 198 254
161 198 254
161 198 254
161 198 254
161 198 254
161 198 254
161 198 254
161 198 254
161 199 254
161 199 254
161 199 254
161 199 254
162 199 254
162 199 254
162 199 254
162 199 254
162 199 254
162 199 254
162 199 254
162 199 254
162 199 254
162 199 254
163 199 254
163 199 254
163 199 254
163 200 254
163 200 254
163 200 254
163 200 254
163 200 254
163 200 254
163 200 254
163 200 254
164 200 254
164 200 254
164 200 254
164 200 254
164 200 254
164 200 254
164 200 254
164 200 254
164 200 254
164 200 254
164 200 254
165 201 254
165 201 254
165 201 254
165 201 254
165 201 254
165 201 254
165 201 254
165 201 254
165 201 254
165 201 254
165 201 254
165 201 254
166 201 254
166 201 254
166 201 254
166 201 254
166 201 254
166 201 254
166 201 254
166 201 254
166 201 254
166 201 254
166 201 254
166 201 254
166 201 254
165 201 254
165 201 254
165 201 254
165 201 254
165 201 254
165 201 254
165 201 254
165 201 254
165 201 254
165 201 254
165 201 254
165 201 254
164 200 254
164 200 254
164 200 254
164 200 254
164 200 254
164 200 254
164 200 254
164 200 254
164 200 254
164 200 254
164 200 254
163 200 254
163 200 254
163 200 254
163 200 254
163 200 254
163 200 254
163 200 254
163 199 254
163 199 254
163 199 254
163 199 254
162 199 254
162 199 254
162 199 254
162 199 254
162 199 254
162 199 254
162 199 254
162 199 254
162 199 254
162 199 254
161 199 254
161 199 254
161 199 254
161 198 254
161 198 254
161 198 254
161 198 254
161 198 254
161 198 254
161 198 254
160 198 254
160 198 254
160 198 254
160 198 254
160 198 254
160 198 254
160 198 254
160 198 254
160 198 254
160 198 254
159 197 254
159 197 254
159 197 254
159 197 254
159 197 254
159 197 254
159 197 254
159 197 254
159 197 254
158 197 254
158 197 254
158 197 254
158 197 254
158 197 254
158 197 254
158 197 254
158 196 254
158 196 254
157 196 254
157 196 254
157 196 254
157 196 254
157 196 254
157 196 254
157 196 254
157 196 254
157 196 254
157 196 254
156 196 254
156 196 254
156 196 254
156 195 254
156 195 254
156 195 254
156 195 254
156 195 254
156 195 254
155 195 254
155 195 254
155 195 254
155 195 254
155 195 254
155 195 254
155 195 254
155 195 254
155 195 254
155 195 254
154 194 254
154 194 254
154 194 254
154 194 254
154 194 254
154 194 254
154 194 254
154 194 254
154 194 254
154 194 254
153 194 254
153 194 254
153 194 254
153 194 254
153 194 254
153 194 254
153 193 254
153 193 254
153 193 254
153 193 254
152 193 254
152 193 254
152 193 254
152 193 254
152 193 254
152 193 254
152 193 254
152 193 254
152 193 254
152 193 254
152 193 254
152 193 254
151 193 254
151 193 254
151 193 254
151 193 254
151 192 254
151 192 254
151 192 254
151 192 254
151 192 254
151 192 254
151 192 254
151 192 254
151 192 254
151 192 254
150 192 254
150 192 254
150 192 254
150 192 254
150 192 254
150 192 254
150 192 254
150 192 254
150 192 254
150 192 254
150 192 254
150 192 254
150 192 254
150 192 254
150 192 254
150 192 254
150 192 254
150 192 254
150 192 254
150 192 254
150 192 254
150 192 254
150 192 254
149 191 254
149 191 254
149 191 254
149 191 254
149 191 254
149 191 254
149 191 254
149 191 254
149 191 254
149 191 254
149 191 254
149 191 254
149 191 254
149 191 254
149 191 254
149 191 254
149 191 254
149 191 254
149 191 254
149 191 254
149 191 254
149 191 254
149 191 254
149 191 254
150 192 254
150 192 254
150 192 254
150 192 254
150 192 254
150 192 254
150 192 254
150 192 254
150 192 254
150 192 254
150 192 254
150 192 254
150 192 254
150 192 254
150 192 254
150 192 254
150 192 254
150 192 254
150 192 254
150 192 254
150 192 254
150 192 254
150 192 254
150 192 254
151 192 254
151 192 254
151 192 254
151 192 254
151 192 254
151 192 254
151 192 254
151 192 254
151 192 254
151 193 254
151 193 254
151 193 254
151 193 254
151 193 254
152 193 254
152 193 254
152 193 254
152 193 254
152 193 254
152 193 254
152 193 254
152 193 254
152 193 254
152 193 254
152 193 254
153 193 254
153 193 254
153 193 254
153 193 254
153 194 254
153 194 254
153 194 254
153 194 254
153 194 254
153 194 254
153 194 254
154 194 254
154 194 254
154 194 254
154 194 254
154 194 254
154 194 254
154 194 254
154 194 254
154 194 254
155 195 254
155 195 254
155 195 254
155 195 254
155 195 254
155 195 254
155 195 254
155 195 254
155 195 254
155 195 254
156 195 254
156 195 254
156 195 254
156 195 254
156 195 254
156 195 254
156 196 254
156 196 254
156 196 254
157 196 254
157 196 254
157 196 254
157 196 254
157 196 254
157 196 254
157 196 254
157 196 254
157 196 254
157 196 254
158 196 254
158 196 254
158 196 254
158 197 254
158 197 254
158 197 254
158 197 254
158 197 254
158 197 254
159 197 254
159 197 254
159 197 254
159 197 254
159 197 254
159 197 254
159 197 254
159 197 254
159 197 254
160 198 254
160 198 254
160 198 254
160 198 254
160 198 254
160 198 254
160 198 254
160 198 254
160 198 254
160 198 254
161 198 254
161 198 254
161 198 254
161 198 254
161 198 254
161 198 254
161 198 254
161 199 254
161 199 254
161 199 254
162 199 254
162 199 254
162 199 254
162 199 254
162 199 254
162 199 254
162 199 254
162 199 254
162 199 254
162 199 254
163 199 254
163 199 254
163 199 254
163 199 254
163 200 254
163 200 254
163 200 254
163 200 254
163 200 254
163 200 254
163 200 254
164 200 254
164 200 254
164 200 254
164 200 254
164 200 254
164 200 254
164 200 254
164 200 254
164 200 254
164 200 254
164 200 254
165 201 254
165 201 254
165 201 254
165 201 254
165 201 254
165 201 254
165 201 254
165 201 254
165 201 254
165 201 254
165 201 254
165 201 254
166 201 254
166 201 254
166 201 254
166 201 254
166 201 254
166 201 254
166 201 254
166 201 254
166 202 254
166 202 254
166 201 254
166 201 254
166 201 254
166 201 254
166 201 254
166 201 254
166 201 254
166 201 254
166 201 254
165 201 254
165 201 254
165 201 254
165 201 254
165 201 254
165 201 254
165 201 254
165 201 254
165 201 254
165 201 254
165 201 254
164 200 254
164 200 254
164 200 254
164 200 254
164 200 254
164 200 254
164 200 254
164 200 254
164 200 254
164 200 254
164 200 254
164 200 254
163 200 254
163 200 254
163 200 254
163 200 254
163 200 254
163 200 254
163 200 254
163 199 254
163 199 254
163 199 254
162 199 254
162 199 254
162 199 254
162 199 254
162 199 254
162 199 254
162 199 254
162 199 254
162 199 254
162 199 254
161 199 254
161 199 254
161 199 254
161 199 254
161 198 254
161 198 254
161 198 254
161 198 254
161 198 254
161 198 254
160 198 254
160 198 254
160 198 254
160 198 254
160 198 254
160 198 254
160 198 254
160 198 254
160 198 254
160 198 254
159 197 254
159 197 254
159 197 254
159 197 254
159 197 254
159 197 254
159 197 254
159 197 254
159 197 254
158 197 254
158 197 254
158 197 254
158 197 254
158 197 254
158 197 254
158 197 254
158 196 254
158 196 254
158 196 254
157 196 254
157 196 254
157 196 254
157 196 254
157 196 254
157 196 254
157 196 254
157 196 254
157 196 254
156 196 254
156 196 254
156 196 254
156 195 254
156 195 254
156 195 254
156 195 254
156 195 254
156 195 254
156 195 254
155 195 254
155 195 254
155 195 254
155 195 254
155 195 254
155 195 254
155 195 254
155 195 254
155 195 254
154 194 254
154 194 254
154 194 254
154 194 254
154 194 254
154 194 254
154 194 254
154 194 254
154 194 254
154 194 254
153 194 254
153 194 254
153 194 254
153 194 254
153 194 254
153 194 254
153 194 254
153 193 254
153 193 254
153 193 254
153 193 254
152 193 254
152 193 254
152 193 254
152 193 254
152 193 254
152 193 254
152 193 254
152 193 254
152 193 254
152 193 254
152 193 254
152 193 254
151 193 254
151 193 254
151 193 254
151 193 254
151 192 254
151 192 254
151 192 254
151 192 254
151 192 254
151 192 254
151 192 254
151 192 254
151 192 254
151 192 254
151 192 254
150 192 254
150 192 254
150 192 254
150 192 254
150 192 254
150 192 254
150 192 254
150 192 254
150 192 254
150 192 254
150 192 254
150 192 254
150 192 254
150 192 254
150 192 254
150 192 254
150 192 254
150 192 254
150 192 254
150 192 254
150 192 254
150 192 254
150 192 254
150 192 254
150 192 254
150 192 254
150 192 254
150 192 254
150 192 254
150 192 254
150 192 254
150 192 254
150 192 254
150 192 254
150 192 254
150 192 254
150 192 254
150 192 254
150 192 254
150 192 254
150 192 254
150 192 254
150 192 254
150 192 254
150 192 254
150 192 254
150 192 254
150 192 254
150 192 254
150 192 254
150 192 254
150 192 254
150 192 254
150 192 254
150 192 254
150 192 254
150 192 254
150 192 254
150 192 254
150 192 254
150 192 254
150 192 254
151 192 254
151 192 254
151 192 254
151 192 254
151 192 254
151 192 254
151 192 254
151 192 254
151 192 254
151 192 254
151 193 254
151 193 254
151 193 254
151 193 254
151 193 254
152 193 254
152 193 254
152 193 254
152 193 254
152 193 254
152 193 254
152 193 254
152 193 254
152 193 254
152 193 254
152 193 254
152 193 254
153 193 254
153 193 254
153 193 254
153 193 254
153 194 254
153 194 254
153 194 254
153 194 254
153 194 254
153 194 254
153 194 254
154 194 254
154 194 254
154 194 254
154 194 254
154 194 254
154 194 254
154 194 254
154 194 254
154 194 254
154 194 254
155 195 254
155 195 254
155 195 254
155 195 254
155 195 254
155 195 254
155 195 254
155 195 254
155 195 254
155 195 254
156 195 254
156 195 254
156 195 254
156 195 254
156 195 254
156 195 254
156 196 254
156 196 254
156 196 254
157 196 254
157 196 254
157 196 254
157 196 254
157 196 254
157 196 254
157 196 254
157 196 254
157 196 254
158 196 254
158 196 254
158 196 254
158 197 254
158 197 254
158 197 254
158 197 254
158 197 254
158 197 254
158 197 254
159 197 254
159 197 254
159 197 254
159 197 254
159 197 254
159 197 254
159 197 254
159 197 254
159 197 254
160 198 254
160 198 254
160 198 254
160 198 254
160 198 254
160 198 254
160 198 254
160 198 254
160 198 254
160 198 254
161 198 254
161 198 254
161 198 254
161 198 254
161 198 254
161 198 254
161 199 254
161 199 254
161 199 254
161 199 254
162 199 254
162 199 254
162 199 254
162 199 254
162 199 254
162 199 254
162 199 254
162 199 254
162 199 254
162 199 254
163 199 254
163 199 254
163 199 254
163 200 254
163 200 254
163 200 254
163 200 254
163 200 254
163 200 254
163 200 254
163 200 254
164 200 254
164 200 254
164 200 254
164 200 254
164 200 254
164 200 254
164 200 254
164 200 254
164 200 254
164 200 254
164 200 254
165 201 254
165 201 254
165 201 254
165 201 254
165 201 254
165 201 254
165 201 254
165 201 254
165 201 254
165 201 254
165 201 254
166 201 254
166 201 254
166 201 254
166 201 254
166 201 254
166 201 254
166 201 254
166 201 254
166 202 254
166 202 254
166 202 254
167 202 254
166 202 254
166 202 254
166 202 254
166 202 254
166 201 254
166 201 254
166 201 254
166 201 254
166 201 254
166 201 254
166 201 254
166 201 254
165 201 254
165 201 254
165 201 254
165 201 254
165 201 254
165 201 254
165 201 254
165 201 254
165 201 254
165 201 254
165 201 254
165 201 254
164 200 254
164 200 254
164 200 254
164 200 254
164 200 254
164 200 254
164 200 254
164 200 254
164 200 254
164 200 254
164 200 254
163 200 254
163 200 254
163 200 254
163 200 254
163 200 254
163 200 254
163 200 254
163 199 254
163 199 254
163 199 254
163 199 254
162 199 254
162 199 254
162 199 254
162 199 254
162 199 254
162 199 254
162 199 254
162 199 254
162 199 254
162 199 254
161 199 254
161 199 254
161 199 254
161 198 254
161 198 254
161 198 254
161 198 254
161 198 254
161 198 254
161 198 254
160 198 254
160 198 254
160 198 254
160 198 254
160 198 254
160 198 254
160 198 254
160 198 254
160 198 254
159 197 254
159 197 254
159 197 254
159 197 254
159 197 254
159 197 254
159 197 254
159 197 254
159 197 254
159 197 254
158 197 254
158 197 254
158 197 254
158 197 254
158 197 254
158 197 254
158 196 254
158 196 254
158 196 254
157 196 254
157 196 254
157 196 254
157 196 254
157 196 254
157 196 254
157 196 254
157 196 254
157 196 254
157 196 254
156 196 254
156 196 254
156 196 254
156 195 254
156 195 254
156 195 254
156 195 254
156 195 254
156 195 254
155 195 254
155 195 254
155 195 254
155 195 254
155 195 254
155 195 254
155 195 254
155 195 254
155 195 254
155 195 254
154 194 254
154 194 254
154 194 254
154 194 254
154 194 254
154 194 254
154 194 254
154 194 254
154 194 254
154 194 254
153 194 254
153 194 254
153 194 254
153 194 254
153 194 254
153 194 254
153 194 254
153 193 254
153 193 254
153 193 254
153 193 254
152 193 254
152 193 254
152 193 254
152 193 254
152 193 254
152 193 254
152 193 254
152 193 254
152 193 254
152 193 254
152 193 254
152 193 254
151 193 254
151 193 254
151 193 254
151 193 254
151 193 254
151 192 254
151 192 254
151 192 254
151 192 254
151 192 254
151 192 254
151 192 254
151 192 254
151 192 254
151 192 254
151 192 254
151 192 254
150 192 254
150 192 254
150 192 254
150 192 254
150 192 254
150 192 254
150 192 254
150 192 254
150 192 254
150 192 254
150 192 254
150 192 254
150 192 254
150 192 254
150 192 254
150 192 254
150 192 254
150 192 254
150 192 254
150 192 254
150 192 254
150 192 254
150 192 254
150 192 254
150 192 254
150 192 254
150 192 254
150 192 254
150 192 254
150 192 254
150 192 254
150 192 254
150 192 254
150 192 254
150 192 254
150 192 254
150 192 254
150 192 254
150 192 254
150 192 254
150 192 254
150 192 254
150 192 254
150 192 254
150 192 254
150 192 254
150 192 254
150 192 254
150 192 254
150 192 254
150 192 254
150 192 254
151 192 254
151 192 254
151 192 254
151 192 254
151 192 254
151 192 254
151 192 254
151 192 254
151 192 254
151 192 254
151 192 254
151 192 254
151 193 254
151 193 254
151 193 254
151 193 254
151 193 254
152 193 254
152 193 254
152 193 254
152 193 254
152 193 254
152 193 254
152 193 254
152 193 254
152 193 254
152 193 254
152 193 254
152 193 254
153 193 254
153 193 254
153 193 254
153 193 254
153 194 254
153 194 254
153 194 254
153 194 254
153 194 254
153 194 254
153 194 254
154 194 254
154 194 254
154 194 254
154 194 254
154 194 254
154 194 254
154 194 254
154 194 254
154 194 254
154 194 254
155 195 254
155 195 254
155 195 254
155 195 254
155 195 254
155 195 254
155 195 254
155 195 254
155 195 254
155 195 254
156 195 254
156 195 254
156 195 254
156 195 254
156 195 254
156 195 254
156 196 254
156 196 254
156 196 254
156 196 254
157 196 254
157 196 254
157 196 254
157 196 254
157 196 254
157 196 254
157 196 254
157 196 254
157 196 254
158 196 254
158 196 254
158 196 254
158 197 254
158 197 254
158 197 254
158 197 254
158 197 254
158 197 254
159 197 254
159 197 254
159 197 254
159 197 254
159 197 254
159 197 254
159 197 254
159 197 254
159 197 254
159 197 254
160 198 254
160 198 254
160 198 254
160 198 254
160 198 254
160 198 254
160 198 254
160 198 254
160 198 254
161 198 254
161 198 254
161 198 254
161 198 254
161 198 254
161 198 254
161 198 254
161 199 254
161 199 254
161 199 254
162 199 254
162 199 254
162 199 254
162 199 254
162 199 254
162 199 254
162 199 254
162 199 254
162 199 254
162 199 254
163 199 254
163 199 254
163 199 254
163 199 254
163 200 254
163 200 254
163 200 254
163 200 254
163 200 254
163 200 254
163 200 254
164 200 254
164 200 254
164 200 254
164 200 254
164 200 254
164 200 254
164 200 254
164 200 254
164 200 254
164 200 254
164 200 254
165 201 254
165 201 254
165 201 254
165 201 254
165 201 254
165 201 254
165 201 254
165 201 254
165 201 254
165 201 254
165 201 254
165 201 254
166 201 254
166 201 254
166 201 254
166 201 254
166 201 254
166 201 254
166 201 254
166 201 254
166 202 254
166 202 254
166 202 254
166 202 254
167 202 254
167 202 254
167 202 254
167 202 254
167 202 254
166 202 254
166 202 254
166 202 254
166 202 254
166 201 254
166 201 254
166 201 254
166 201 254
166 201 254
166 201 254
166 201 254
166 201 254
165 201 254
165 201 254
165 201 254
165 201 254
165 201 254
165 201 254
165 201 254
165 201 254
165 201 254
165 201 254
165 201 254
165 201 254
164 200 254
164 200 254
164 200 254
164 200 254
164 200 254
164 200 254
164 200 254
164 200 254
164 200 254
164 200 254
164 200 254
163 200 254
163 200 254
163 200 254
163 200 254
163 200 254
163 200 254
163 200 254
163 199 254
163 199 254
163 199 254
162 199 254
162 199 254
162 199 254
162 199 254
162 199 254
162 199 254
162 199 254
162 199 254
162 199 254
162 199 254
161 199 254
161 199 254
161 199 254
161 199 254
161 198 254
161 198 254
161 198 254
161 198 254
161 198 254
161 198 254
160 198 254
160 198 254
160 198 254
160 198 254
160 198 254
160 198 254
160 198 254
160 198 254
160 198 254
160 198 254
159 197 254
159 197 254
159 197 254
159 197 254
159 197 254
159 197 254
159 197 254
159 197 254
159 197 254
158 197 254
158 197 254
158 197 254
158 197 254
158 197 254
158 197 254
158 196 254
158 196 254
158 196 254
158 196 254
157 196 254
157 196 254
157 196 254
157 196 254
157 196 254
157 196 254
157 196 254
157 196 254
157 196 254
156 196 254
156 196 254
156 196 254
156 195 254
156 195 254
156 195 254
156 195 254
156 195 254
156 195 254
155 195 254
155 195 254
155 195 254
155 195 254
155 195 254
155 195 254
155 195 254
155 195 254
155 195 254
155 195 254
154 194 254
154 194 254
154 194 254
154 194 254
154 194 254
154 194 254
154 194 254
154 194 254
154 194 254
154 194 254
154 194 254
153 194 254
153 194 254
153 194 254
153 194 254
153 194 254
153 194 254
153 194 254
153 193 254
153 193 254
153 193 254
153 193 254
152 193 254
152 193 254
152 193 254
152 193 254
152 193 254
152 193 254
152 193 254
152 193 254
152 193 254
152 193 254
152 193 254
152 193 254
152 193 254
151 193 254
151 193 254
151 193 254
151 193 254
151 193 254
151 192 254
151 192 254
151 192 254
151 192 254
151 192 254
151 192 254
151 192 254
151 192 254
151 192 254
151 192 254
151 192 254
151 192 254
151 192 254
151 192 254
150 192 254
150 192 254
150 192 254
150 192 254
150 192 254
150 192 254
150 192 254
150 192 254
150 192 254
150 192 254
150 192 254
150 192 254
150 192 254
150 192 254
150 192 254
150 192 254
150 192 254
150 192 254
150 192 254
150 192 254
150 192 254
150 192 254
150 192 254
150 192 254
150 192 254
150 192 254
150 192 254
150 192 254
150 192 254
150 192 254
150 192 254
150 192 254
150 192 254
150 192 254
150 192 254
150 192 254
150 192 254
150 192 254
150 192 254
150 192 254
151 192 254
151 192 254
151 192 254
151 192 254
151 192 254
151 192 254
151 192 254
151 192 254
151 192 254
151 192 254
151 192 254
151 192 254
151 192 254
151 193 254
151 193 254
151 193 254
151 193 254
151 193 254
151 193 254
152 193 254
152 193 254
152 193 254
152 193 254
152 193 254
152 193 254
152 193 254
152 193 254
152 193 254
152 193 254
152 193 254
152 193 254
152 193 254
153 193 254
153 193 254
153 193 254
153 193 254
153 194 254
153 194 254
153 194 254
153 194 254
153 194 254
153 194 254
153 194 254
154 194 254
154 194 254
154 194 254
154 194 254
154 194 254
154 194 254
154 194 254
154 194 254
154 194 254
154 194 254
154 194 254
155 195 254
155 195 254
155 195 254
155 195 254
155 195 254
155 195 254
155 195 254
155 195 254
155 195 254
156 195 254
156 195 254
156 195 254
156 195 254
156 195 254
156 195 254
156 195 254
156 196 254
156 196 254
156 196 254
157 196 254
157 196 254
157 196 254
157 196 254
157 196 254
157 196 254
157 196 254
157 196 254
157 196 254
158 196 254
158 196 254
158 196 254
158 197 254
158 197 254
158 197 254
158 197 254
158 197 254
158 197 254
158 197 254
159 197 254
159 197 254
159 197 254
159 197 254
159 197 254
159 197 254
159 197 254
159 197 254
159 197 254
160 198 254
160 198 254
160 198 254
160 198 254
160 198 254
160 198 254
160 198 254
160 198 254
160 198 254
160 198 254
161 198 254
161 198 254
161 198 254
161 198 254
161 198 254
161 198 254
161 199 254
161 199 254
161 199 254
161 199 254
162 199 254
162 199 254
162 199 254
162 199 254
162 199 254
162 199 254
162 199 254
162 199 254
162 199 254
162 199 254
163 199 254
163 199 254
163 199 254
163 200 254
163 200 254
163 200 254
163 200 254
163 200 254
163 200 254
163 200 254
164 200 254
164 200 254
164 200 254
164 200 254
164 200 254
164 200 254
164 200 254
164 200 254
164 200 254
164 200 254
164 200 254
165 201 254
165 201 254
165 201 254
165 201 254
165 201 254
165 201 254
165 201 254
165 201 254
165 201 254
165 201 254
165 201 254
165 201 254
166 201 254
166 201 254
166 201 254
166 201 254
166 201 254
166 201 254
166 201 254
166 201 254
166 202 254
166 202 254
166 202 254
166 202 254
167 202 254
167 202 254
167 202 254
167 202 254
167 202 254
167 202 254
167 202 254
167 202 254
167 202 254
167 202 254
167 202 254
166 202 254
166 202 254
166 202 254
166 202 254
166 201 254
166 201 254
166 201 254
166 201 254
166 201 254
166 201 254
166 201 254
166 201 254
165 201 254
165 201 254
165 201 254
165 201 254
165 201 254
165 201 254
165 201 254
165 201 254
165 201 254
165 201 254
165 201 254
164 200 254
164 200 254
164 200 254
164 200 254
164 200 254
164 200 254
164 200 254
164 200 254
164 200 254
164 200 254
164 200 254
163 200 254
163 200 254
163 200 254
163 200 254
163 200 254
163 200 254
163 200 254
163 199 254
163 199 254
163 199 254
163 199 254
162 199 254
162 199 254
162 199 254
162 199 254
162 199 254
162 199 254
162 199 254
162 199 254
162 199 254
162 199 254
161 199 254
161 199 254
161 199 254
161 198 254
161 198 254
161 198 254
161 198 254
161 198 254
161 198 254
161 198 254
160 198 254
160 198 254
160 198 254
160 198 254
160 198 254
160 198 254
160 198 254
160 198 254
160 198 254
159 197 254
159 197 254
159 197 254
159 197 254
159 197 254
159 197 254
159 197 254
159 197 254
159 197 254
159 197 254
158 197 254
158 197 254
158 197 254
158 197 254
158 197 254
158 197 254
158 196 254
158 196 254
158 196 254
157 196 254
157 196 254
157 196 254
157 196 254
157 196 254
157 196 254
157 196 254
157 196 254
157 196 254
156 196 254
156 196 254
156 196 254
156 196 254
156 195 254
156 195 254
156 195 254
156 195 254
156 195 254
156 195 254
155 195 254
155 195 254
155 195 254
155 195 254
155 195 254
155 195 254
155 195 254
155 195 254
155 195 254
155 195 254
154 194 254
154 194 254
154 194 254
154 194 254
154 194 254
154 194 254
154 194 254
154 194 254
154 194 254
154 194 254
153 194 254
153 194 254
153 194 254
153 194 254
153 194 254
153 194 254
153 194 254
153 194 254
153 193 254
153 193 254
153 193 254
153 193 254
152 193 254
152 193 254
152 193 254
152 193 254
152 193 254
152 193 254
152 193 254
152 193 254
152 193 254
152 193 254
152 193 254
152 193 254
152 193 254
152 193 254
151 193 254
151 193 254
151 193 254
151 193 254
151 193 254
151 193 254
151 192 254
151 192 254
151 192 254
151 192 254
151 192 254
151 192 254
151 192 254
151 192 254
151 192 254
151 192 254
151 192 254
151 192 254
151 192 254
151 192 254
151 192 254
151 192 254
151 192 254
151 192 254
151 192 254
150 192 254
150 192 254
150 192 254
150 192 254
150 192 254
150 192 254
150 192 254
150 192 254
150 192 254
150 192 254
150 192 254
150 192 254
150 192 254
150 192 254
150 192 254
150 192 254
150 192 254
150 192 254
150 192 254
150 192 254
150 192 254
151 192 254
151 192 254
151 192 254
151 192 254
151 192 254
151 192 254
151 192 254
151 192 254
151 192 254
151 192 254
151 192 254
151 192 254
151 192 254
151 192 254
151 192 254
151 192 254
151 192 254
151 192 254
151 193 254
151 193 254
151 193 254
151 193 254
151 193 254
151 193 254
152 193 254
152 193 254
152 193 254
152 193 254
152 193 254
152 193 254
152 193 254
152 193 254
152 193 254
152 193 254
152 193 254
152 193 254
152 193 254
152 193 254
153 193 254
153 193 254
153 193 254
153 193 254
153 194 254
153 194 254
153 194 254
153 194 254
153 194 254
153 194 254
153 194 254
153 194 254
154 194 254
154 194 254
154 194 254
154 194 254
154 194 254
154 194 254
154 194 254
154 194 254
154 194 254
154 194 254
155 195 254
155 195 254
155 195 254
155 195 254
155 195 254
155 195 254
155 195 254
155 195 254
155 195 254
155 195 254
156 195 254
156 195 254
156 195 254
156 195 254
156 195 254
156 195 254
156 196 254
156 196 254
156 196 254
156 196 254
157 196 254
157 196 254
157 196 254
157 196 254
157 196 254
157 196 254
157 196 254
157 196 254
157 196 254
158 196 254
158 196 254
158 196 254
158 197 254
158 197 254
158 197 254
158 197 254
158 197 254
158 197 254
159 197 254
159 197 254
159 197 254
159 197 254
159 197 254
159 197 254
159 197 254
159 197 254
159 197 254
159 197 254
160 198 254
160 198 254
160 198 254
160 198 254
160 198 254
160 198 254
160 198 254
160 198 254
160 198 254
161 198 254
161 198 254
161 198 254
161 198 254
161 198 254
161 198 254
161 198 254
161 199 254
161 199 254
161 199 254
162 199 254
162 199 254
162 199 254
162 199 254
162 199 254
162 199 254
162 199 254
162 199 254
162 199 254
162 199 254
163 199 254
163 199 254
163 199 254
163 199 254
163 200 254
163 200 254
163 200 254
163 200 254
163 200 254
163 200 254
163 200 254
164 200 254
164 200 254
164 200 254
164 200 254
164 200 254
164 200 254
164 200 254
164 200 254
164 200 254
164 200 254
164 200 254
165 201 254
165 201 254
165 201 254
165 201 254
165 201 254
165 201 254
165 201 254
165 201 254
165 201 254
165 201 254
165 201 254
166 201 254
166 201 254
166 201 254
166 201 254
166 201 254
166 201 254
166 201 254
166 201 254
166 202 254
166 202 254
166 202 254
166 202 254
167 202 254
167 202 254
167 202 254
167 202 254
167 202 254
167 202 254
167 202 254
167 202 254
167 202 254
167 202 254
167 202 254
167 202 254
167 202 254
167 202 254
167 202 254
167 202 254
167 202 254
166 202 254
166 202 254
166 202 254
166 201 254
166 201 254
166 201 254
166 201 254
166 201 254
166 201 254
166 201 254
166 201 254
166 201 254
165 201 254
165 201 254
165 201 254
165 201 254
165 201 254
165 201 254
165 201 254
165 201 254
165 201 254
165 201 254
165 201 254
164 200 254
164 200 254
164 200 254
164 200 254
164 200 254
164 200 254
164 200 254
164 200 254
164 200 254
164 200 254
164 200 254
163 200 254
163 200 254
163 200 254
163 200 254
163 200 254
163 200 254
163 200 254
163 199 254
163 199 254
163 199 254
162 199 254
162 199 254
162 199 254
162 199 254
162 199 254
162 199 254
162 199 254
162 199 254
162 199 254
162 199 254
161 199 254
161 199 254
161 199 254
161 199 254
161 198 254
161 198 254
161 198 254
161 198 254
161 198 254
161 198 254
160 198 254
160 198 254
160 198 254
160 198 254
160 198 254
160 198 254
160 198 254
160 198 254
160 198 254
160 198 254
159 197 254
159 197 254
159 197 254
159 197 254
159 197 254
159 197 254
159 197 254
159 197 254
159 197 254
158 197 254
158 197 254
158 197 254
158 197 254
158 197 254
158 197 254
158 196 254
158 196 254
158 196 254
158 196 254
157 196 254
157 196 254
157 196 254
157 196 254
157 196 254
157 196 254
157 196 254
157 196 254
157 196 254
156 196 254
156 196 254
156 196 254
156 195 254
156 195 254
156 195 254
156 195 254
156 195 254
156 195 254
156 195 254
155 195 254
155 195 254
155 195 254
155 195 254
155 195 254
155 195 254
155 195 254
155 195 254
155 195 254
155 195 254
154 194 254
154 194 254
154 194 254
154 194 254
154 194 254
154 194 254
154 194 254
154 194 254
154 194 254
154 194 254
153 194 254
153 194 254
153 194 254
153 194 254
153 194 254
153 194 254
153 194 254
153 194 254
153 193 254
153 193 254
153 193 254
153 193 254
152 193 254
152 193 254
152 193 254
152 193 254
152 193 254
152 193 254
152 193 254
152 193 254
152 193 254
152 193 254
152 193 254
152 193 254
152 193 254
152 193 254
152 193 254
152 193 254
151 193 254
151 193 254
151 193 254
151 193 254
151 193 254
151 193 254
151 193 254
151 192 254
151 192 254
151 192 254
151 192 254
151 192 254
151 192 254
151 192 254
151 192 254
151 192 254
151 192 254
151 192 254
151 192 254
151 192 254
151 192 254
151 192 254
151 192 254
151 192 254
151 192 254
151 192 254
151 192 254
151 192 254
151 192 254
151 192 254
151 192 254
151 192 254
151 192 254
151 192 254
151 192 254
151 192 254
151 192 254
151 192 254
151 192 254
151 192 254
151 192 254
151 192 254
151 192 254
151 192 254
151 192 254
151 192 254
151 192 254
151 192 254
151 192 254
151 192 254
151 192 254
151 192 254
151 192 254
151 193 254
151 193 254
151 193 254
151 193 254
151 193 254
151 193 254
151 193 254
152 193 254
152 193 254
152 193 254
152 193 254
152 193 254
152 193 254
152 193 254
152 193 254
152 193 254
152 193 254
152 193 254
152 193 254
152 193 254
152 193 254
152 193 254
153 193 254
153 193 254
153 193 254
153 193 254
153 193 254
153 194 254
153 194 254
153 194 254
153 194 254
153 194 254
153 194 254
153 194 254
153 194 254
154 194 254
154 194 254
154 194 254
154 194 254
154 194 254
154 194 254
154 194 254
154 194 254
154 194 254
154 194 254
155 195 254
155 195 254
155 195 254
155 195 254
155 195 254
155 195 254
155 195 254
155 195 254
155 195 254
155 195 254
155 195 254
156 195 254
156 195 254
156 195 254
156 195 254
156 195 254
156 195 254
156 196 254
156 196 254
156 196 254
157 196 254
157 196 254
157 196 254
157 196 254
157 196 254
157 196 254
157 196 254
157 196 254
157 196 254
158 196 254
158 196 254
158 196 254
158 197 254
158 197 254
158 197 254
158 197 254
158 197 254
158 197 254
158 197 254
159 197 254
159 197 254
159 197 254
159 197 254
159 197 254
159 197 254
159 197 254
159 197 254
159 197 254
160 198 254
160 198 254
160 198 254
160 198 254
160 198 254
160 198 254
160 198 254
160 198 254
160 198 254
160 198 254
161 198 254
161 198 254
161 198 254
161 198 254
161 198 254
161 198 254
161 199 254
161 199 254
161 199 254
161 199 254
162 199 254
162 199 254
162 199 254
162 199 254
162 199 254
162 199 254
162 199 254
162 199 254
162 199 254
163 199 254
163 199 254
163 199 254
163 199 254
163 200 254
163 200 254
163 200 254
163 200 254
163 200 254
163 200 254
163 200 254
164 200 254
164 200 254
164 200 254
164 200 254
164 200 254
164 200 254
164 200 254
164 200 254
164 200 254
164 200 254
164 200 254
165 201 254
165 201 254
165 201 254
165 201 254
165 201 254
165 201 254
165 201 254
165 201 254
165 201 254
165 201 254
165 201 254
166 201 254
166 201 254
166 201 254
166 201 254
166 201 254
166 201 254
166 201 254
166 201 254
166 202 254
166 202 254
166 202 254
166 202 254
167 202 254
167 202 254
167 202 254
167 202 254
167 202 254
167 202 254
167 202 254
167 202 254
167 202 254
167 202 254
167 202 254
167 202 254
167 202 254
167 202 254
167 202 254
167 202 254
167 202 254
167 202 254
167 202 254
167 202 254
167 202 254
167 202 254
166 202 254
166 202 254
166 202 254
166 202 254
166 201 254
166 201 254
166 201 254
166 201 254
166 201 254
166 201 254
166 201 254
166 201 254
165 201 254
165 201 254
165 201 254
165 201 254
165 201 254
165 201 254
165 201 254
165 201 254
165 201 254
165 201 254
165 201 254
165 201 254
164 200 254
164 200 254
164 200 254
164 200 254
164 200 254
164 200 254
164 200 254
164 200 254
164 200 254
164 200 254
164 200 254
163 200 254
163 200 254
163 200 254
163 200 254
163 200 254
163 200 254
163 199 254
163 199 254
163 199 254
163 199 254
162 199 254
162 199 254
162 199 254
162 199 254
162 199 254
162 199 254
162 199 254
162 199 254
162 199 254
162 199 254
161 199 254
161 199 254
161 199 254
161 198 254
161 198 254
161 198 254
161 198 254
161 198 254
161 198 254
161 198 254
160 198 254
160 198 254
160 198 254
160 198 254
160 198 254
160 198 254
160 198 254
160 198 254
160 198 254
159 197 254
159 197 254
159 197 254
159 197 254
159 197 254
159 197 254
159 197 254
159 197 254
159 197 254
159 197 254
158 197 254
158 197 254
158 197 254
158 197 254
158 197 254
158 197 254
158 196 254
158 196 254
158 196 254
157 196 254
157 196 254
157 196 254
157 196 254
157 196 254
157 196 254
157 196 254
157 196 254
157 196 254
156 196 254
156 196 254
156 196 254
156 196 254
156 195 254
156 195 254
156 195 254
156 195 254
156 195 254
156 195 254
155 195 254
155 195 254
155 195 254
155 195 254
155 195 254
155 195 254
155 195 254
155 195 254
155 195 254
155 195 254
154 194 254
154 194 254
154 194 254
154 194 254
154 194 254
154 194 254
154 194 254
154 194 254
154 194 254
154 194 254
154 194 254
154 194 254
153 194 254
153 194 254
153 194 254
153 194 254
153 194 254
153 194 254
153 194 254
153 194 254
153 193 254
153 193 254
153 193 254
153 193 254
152 193 254
152 193 254
152 193 254
152 193 254
152 193 254
152 193 254
152 193 254
152 193 254
152 193 254
152 193 254
152 193 254
152 193 254
152 193 254
152 193 254
152 193 254
152 193 254
152 193 254
151 193 254
151 193 254
151 193 254
151 193 254
151 193 254
151 193 254
151 193 254
151 193 254
151 193 254
151 192 254
151 192 254
151 192 254
151 192 254
151 192 254
151 192 254
151 192 254
151 192 254
151 192 254
151 192 254
151 192 254
151 192 254
151 192 254
151 192 254
151 192 254
151 192 254
151 192 254
151 192 254
151 192 254
151 192 254
151 192 254
151 192 254
151 192 254
151 192 254
151 192 254
151 192 254
151 192 254
151 192 254
151 192 254
151 192 254
151 192 254
151 192 254
151 193 254
151 193 254
151 193 254
151 193 254
151 193 254
151 193 254
151 193 254
151 193 254
151 193 254
152 193 254
152 193 254
152 193 254
152 193 254
152 193 254
152 193 254
152 193 254
152 193 254
152 193 254
152 193 254
152 193 254
152 193 254
152 193 254
152 193 254
152 193 254
152 193 254
152 193 254
153 193 254
153 193 254
153 193 254
153 193 254
153 194 254
153 194 254
153 194 254
153 194 254
153 194 254
153 194 254
153 194 254
153 194 254
154 194 254
154 194 254
154 194 254
154 194 254
154 194 254
154 194 254
154 194 254
154 194 254
154 194 254
154 194 254
154 194 254
154 194 254
155 195 254
155 195 254
155 195 254
155 195 254
155 195 254
155 195 254
155 195 254
155 195 254
155 195 254
155 195 254
156 195 254
156 195 254
156 195 254
156 195 254
156 195 254
156 195 254
156 196 254
156 196 254
156 196 254
157 196 254
157 196 254
157 196 254
157 196 254
157 196 254
157 196 254
157 196 254
157 196 254
157 196 254
157 196 254
158 196 254
158 196 254
158 196 254
158 197 254
158 197 254
158 197 254
158 197 254
158 197 254
158 197 254
159 197 254
159 197 254
159 197 254
159 197 254
159 197 254
159 197 254
159 197 254
159 197 254
159 197 254
159 197 254
160 198 254
160 198 254
160 198 254
160 198 254
160 198 254
160 198 254
160 198 254
160 198 254
160 198 254
161 198 254
161 198 254
161 198 254
161 198 254
161 198 254
161 198 254
161 198 254
161 199 254
161 199 254
161 199 254
162 199 254
162 199 254
162 199 254
162 199 254
162 199 254
162 199 254
162 199 254
162 199 254
162 199 254
162 199 254
163 199 254
163 199 254
163 199 254
163 200 254
163 200 254
163 200 254
163 200 254
163 200 254
163 200 254
163 200 254
164 200 254
164 200 254
164 200 254
164 200 254
164 200 254
164 200 254
164 200 254
164 200 254
164 200 254
164 200 254
164 200 254
165 201 254
165 201 254
165 201 254
165 201 254
165 201 254
165 201 254
165 201 254
165 201 254
165 201 254
165 201 254
165 201 254
165 201 254
166 201 254
166 201 254
166 201 254
166 201 254
166 201 254
166 201 254
166 201 254
166 201 254
166 202 254
166 202 254
166 202 254
166 202 254
167 202 254
167 202 254
167 202 254
167 202 254
167 202 254
167 202 254
167 202 254
167 202 254
167 202 254
167 202 254
167 202 254
167 202 254
168 202 254
168 202 254
168 202 254
167 202 254
167 202 254
167 202 254
167 202 254
167 202 254
167 202 254
167 202 254
167 202 254
167 202 254
167 202 254
167 202 254
167 202 254
166 202 254
166 202 254
166 202 254
166 202 254
166 201 254
166 201 254
166 201 254
166 201 254
166 201 254
166 201 254
166 201 254
166 201 254
165 201 254
165 201 254
165 201 254
165 201 254
165 201 254
165 201 254
165 201 254
165 201 254
165 201 254
165 201 254
165 201 254
164 200 254
164 200 254
164 200 254
164 200 254
164 200 254
164 200 254
164 200 254
164 200 254
164 200 254
164 200 254
164 200 254
163 200 254
163 200 254
163 200 254
163 200 254
163 200 254
163 200 254
163 200 254
163 199 254
163 199 254
163 199 254
163 199 254
162 199 254
162 199 254
162 199 254
162 199 254
162 199 254
162 199 254
162 199 254
162 199 254
162 199 254
161 199 254
161 199 254
161 199 254
161 199 254
161 198 254
161 198 254
161 198 254
161 198 254
161 198 254
161 198 254
160 198 254
160 198 254
160 198 254
160 198 254
160 198 254
160 198 254
160 198 254
160 198 254
160 198 254
160 198 254
159 197 254
159 197 254
159 197 254
159 197 254
159 197 254
159 197 254
159 197 254
159 197 254
159 197 254
158 197 254
158 197 254
158 197 254
158 197 254
158 197 254
158 197 254
158 196 254
158 196 254
158 196 254
158 196 254
157 196 254
157 196 254
157 196 254
157 196 254
157 196 254
157 196 254
157 196 254
157 196 254
157 196 254
156 196 254
156 196 254
156 196 254
156 195 254
156 195 254
156 195 254
156 195 254
156 195 254
156 195 254
156 195 254
155 195 254
155 195 254
155 195 254
155 195 254
155 195 254
155 195 254
155 195 254
155 195 254
155 195 254
155 195 254
154 194 254
154 194 254
154 194 254
154 194 254
154 194 254
154 194 254
154 194 254
154 194 254
154 194 254
154 194 254
154 194 254
154 194 254
153 194 254
153 194 254
153 194 254
153 194 254
153 194 254
153 194 254
153 194 254
153 194 254
153 193 254
153 193 254
153 193 254
153 193 254
153 193 254
152 193 254
152 193 254
152 193 254
152 193 254
152 193 254
152 193 254
152 193 254
152 193 254
152 193 254
152 193 254
152 193 254
152 193 254
152 193 254
152 193 254
152 193 254
152 193 254
152 193 254
152 193 254
152 193 254
152 193 254
152 193 254
151 193 254
151 193 254
151 193 254
151 193 254
151 193 254
151 193 254
151 193 254
151 193 254
151 193 254
151 193 254
151 193 254
151 193 254
151 193 254
151 193 254
151 193 254
151 193 254
151 193 254
151 193 254
151 193 254
151 193 254
151 193 254
151 193 254
151 193 254
151 193 254
151 193 254
151 193 254
151 193 254
151 193 254
151 193 254
151 193 254
151 193 254
151 193 254
151 193 254
151 193 254
151 193 254
152 193 254
152 193 254
152 193 254
152 193 254
152 193 254
152 193 254
152 193 254
152 193 254
152 193 254
152 193 254
152 193 254
152 193 254
152 193 254
152 193 254
152 193 254
152 193 254
152 193 254
152 193 254
152 193 254
152 193 254
153 193 254
153 193 254
153 193 254
153 193 254
153 193 254
153 194 254
153 194 254
153 194 254
153 194 254
153 194 254
153 194 254
153 194 254
153 194 254
154 194 254
154 194 254
154 194 254
154 194 254
154 194 254
154 194 254
154 194 254
154 194 254
154 194 254
154 194 254
154 194 254
155 195 254
155 195 254
155 195 254
155 195 254
155 195 254
155 195 254
155 195 254
155 195 254
155 195 254
155 195 254
155 195 254
156 195 254
156 195 254
156 195 254
156 195 254
156 195 254
156 195 254
156 196 254
156 196 254
156 196 254
156 196 254
157 196 254
157 196 254
157 196 254
157 196 254
157 196 254
157 196 254
157 196 254
157 196 254
157 196 254
157 196 254
158 196 254
158 196 254
158 197 254
158 197 254
158 197 254
158 197 254
158 197 254
158 197 254
158 197 254
159 197 254
159 197 254
159 197 254
159 197 254
159 197 254
159 197 254
159 197 254
159 197 254
159 197 254
160 198 254
160 198 254
160 198 254
160 198 254
160 198 254
160 198 254
160 198 254
160 198 254
160 198 254
160 198 254
161 198 254
161 198 254
161 198 254
161 198 254
161 198 254
161 198 254
161 199 254
161 199 254
161 199 254
161 199 254
162 199 254
162 199 254
162 199 254
162 199 254
162 199 254
162 199 254
162 199 254
162 199 254
162 199 254
162 199 254
163 199 254
163 199 254
163 199 254
163 200 254
163 200 254
163 200 254
163 200 254
163 200 254
163 200 254
163 200 254
164 200 254
164 200 254
164 200 254
164 200 254
164 200 254
164 200 254
164 200 254
164 200 254
164 200 254
164 200 254
164 200 254
165 201 254
165 201 254
165 201 254
165 201 254
165 201 254
165 201 254
165 201 254
165 201 254
165 201 254
165 201 254
165 201 254
166 201 254
166 201 254
166 201 254
166 201 254
166 201 254
166 201 254
166 201 254
166 201 254
166 202 254
166 202 254
166 202 254
166 202 254
167 202 254
167 202 254
167 202 254
167 202 254
167 202 254
167 202 254
167 202 254
167 202 254
167 202 254
167 202 254
167 202 254
167 202 254
168 202 254
168 202 254
168 202 254
168 203 254
168 202 254
168 202 254
168 202 254
168 202 254
168 202 254
167 202 254
167 202 254
167 202 254
167 202 254
167 202 254
167 202 254
167 202 254
167 202 254
167 202 254
167 202 254
167 202 254
167 202 254
166 202 254
166 202 254
166 202 254
166 202 254
166 201 254
166 201 254
166 201 254
166 201 254
166 201 254
166 201 254
166 201 254
166 201 254
165 201 254
165 201 254
165 201 254
165 201 254
165 201 254
165 201 254
165 201 254
165 201 254
165 201 254
165 201 254
165 201 254
164 200 254
164 200 254
164 200 254
164 200 254
164 200 254
164 200 254
164 200 254
164 200 254
164 200 254
164 200 254
164 200 254
163 200 254
163 200 254
163 200 254
163 200 254
163 200 254
163 200 254
163 200 254
163 199 254
163 199 254
163 199 254
162 199 254
162 199 254
162 199 254
162 199 254
162 199 254
162 199 254
162 199 254
162 199 254
162 199 254
162 199 254
161 199 254
161 199 254
161 199 254
161 198 254
161 198 254
161 198 254
161 198 254
161 198 254
161 198 254
161 198 254
160 198 254
160 198 254
160 198 254
160 198 254
160 198 254
160 198 254
160 198 254
160 198 254
160 198 254
159 197 254
159 197 254
159 197 254
159 197 254
159 197 254
159 197 254
159 197 254
159 197 254
159 197 254
159 197 254
158 197 254
158 197 254
158 197 254
158 197 254
158 197 254
158 197 254
158 196 254
158 196 254
158 196 254
157 196 254
157 196 254
157 196 254
157 196 254
157 196 254
157 196 254
157 196 254
157 196 254
157 196 254
157 196 254
156 196 254
156 196 254
156 196 254
156 195 254
156 195 254
156 195 254
156 195 254
156 195 254
156 195 254
156 195 254
155 195 254
155 195 254
155 195 254
155 195 254
155 195 254
155 195 254
155 195 254
155 195 254
155 195 254
155 195 254
154 194 254
154 194 254
154 194 254
154 194 254
154 194 254
154 194 254
154 194 254
154 194 254
154 194 254
154 194 254
154 194 254
154 194 254
153 194 254
153 194 254
153 194 254
153 194 254
153 194 254
153 194 254
153 194 254
153 194 254
153 194 254
153 194 254
153 193 254
153 193 254
153 193 254
153 193 254
153 193 254
152 193 254
152 193 254
152 193 254
152 193 254
152 193 254
152 193 254
152 193 254
152 193 254
152 193 254
152 193 254
152 193 254
152 193 254
152 193 254
152 193 254
152 193 254
152 193 254
152 193 254
152 193 254
152 193 254
152 193 254
152 193 254
152 193 254
152 193 254
152 193 254
152 193 254
152 193 254
152 193 254
152 193 254
151 193 254
151 193 254
151 193 254
151 193 254
151 193 254
151 193 254
151 193 254
151 193 254
151 193 254
151 193 254
152 193 254
152 193 254
152 193 254
152 193 254
152 193 254
152 193 254
152 193 254
152 193 254
152 193 254
152 193 254
152 193 254
152 193 254
152 193 254
152 193 254
152 193 254
152 193 254
152 193 254
152 193 254
152 193 254
152 193 254
152 193 254
152 193 254
152 193 254
152 193 254
152 193 254
152 193 254
152 193 254
152 193 254
153 193 254
153 193 254
153 193 254
153 193 254
153 193 254
153 193 254
153 194 254
153 194 254
153 194 254
153 194 254
153 194 254
153 194 254
153 194 254
153 194 254
153 194 254
154 194 254
154 194 254
154 194 254
154 194 254
154 194 254
154 194 254
154 194 254
154 194 254
154 194 254
154 194 254
154 194 254
154 194 254
155 195 254
155 195 254
155 195 254
155 195 254
155 195 254
155 195 254
155 195 254
155 195 254
155 195 254
155 195 254
156 195 254
156 195 254
156 195 254
156 195 254
156 195 254
156 195 254
156 195 254
156 196 254
156 196 254
156 196 254
157 196 254
157 196 254
157 196 254
157 196 254
157 196 254
157 196 254
157 196 254
157 196 254
157 196 254
157 196 254
158 196 254
158 196 254
158 196 254
158 197 254
158 197 254
158 197 254
158 197 254
158 197 254
158 197 254
159 197 254
159 197 254
159 197 254
159 197 254
159 197 254
159 197 254
159 197 254
159 197 254
159 197 254
159 197 254
160 198 254
160 198 254
160 198 254
160 198 254
160 198 254
160 198 254
160 198 254
160 198 254
160 198 254
161 198 254
161 198 254
161 198 254
161 198 254
161 198 254
161 198 254
161 198 254
161 199 254
161 199 254
161 199 254
162 199 254
162 199 254
162 199 254
162 199 254
162 199 254
162 199 254
162 199 254
162 199 254
162 199 254
162 199 254
163 199 254
163 199 254
163 199 254
163 200 254
163 200 254
163 200 254
163 200 254
163 200 254
163 200 254
163 200 254
164 200 254
164 200 254
164 200 254
164 200 254
164 200 254
164 200 254
164 200 254
164 200 254
164 200 254
164 200 254
164 200 254
165 201 254
165 201 254
165 201 254
165 201 254
165 201 254
165 201 254
165 201 254
165 201 254
165 201 254
165 201 254
165 201 254
166 201 254
166 201 254
166 201 254
166 201 254
166 201 254
166 201 254
166 201 254
166 201 254
166 202 254
166 202 254
166 202 254
166 202 254
167 202 254
167 202 254
167 202 254
167 202 254
167 202 254
167 202 254
167 202 254
167 202 254
167 202 254
167 202 254
167 202 254
167 202 254
168 202 254
168 202 254
168 202 254
168 202 254
168 202 254
168 203 254
168 203 254
168 203 254
168 203 254
168 203 254
168 202 254
168 202 254
168 202 254
168 202 254
168 202 254
167 202 254
167 202 254
167 202 254
167 202 254
167 202 254
167 202 254
167 202 254
167 202 254
167 202 254
167 202 254
167 202 254
167 202 254
166 202 254
166 202 254
166 202 254
166 202 254
166 201 254
166 201 254
166 201 254
166 201 254
166 201 254
166 201 254
166 201 254
166 201 254
165 201 254
165 201 254
165 201 254
165 201 254
165 201 254
165 201 254
165 201 254
165 201 254
165 201 254
165 201 254
165 201 254
164 200 254
164 200 254
164 200 254
164 200 254
164 200 254
164 200 254
164 200 254
164 200 254
164 200 254
164 200 254
163 200 254
163 200 254
163 200 254
163 200 254
163 200 254
163 200 254
163 200 254
163 199 254
163 199 254
163 199 254
163 199 254
162 199 254
162 199 254
162 199 254
162 199 254
162 199 254
162 199 254
162 199 254
162 199 254
162 199 254
162 199 254
161 199 254
161 199 254
161 199 254
161 198 254
161 198 254
161 198 254
161 198 254
161 198 254
161 198 254
160 198 254
160 198 254
160 198 254
160 198 254
160 198 254
160 198 254
160 198 254
160 198 254
160 198 254
160 198 254
159 197 254
159 197 254
159 197 254
159 197 254
159 197 254
159 197 254
159 197 254
159 197 254
159 197 254
158 197 254
158 197 254
158 197 254
158 197 254
158 197 254
158 197 254
158 197 254
158 196 254
158 196 254
158 196 254
157 196 254
157 196 254
157 196 254
157 196 254
157 196 254
157 196 254
157 196 254
157 196 254
157 196 254
157 196 254
156 196 254
156 196 254
156 196 254
156 195 254
156 195 254
156 195 254
156 195 254
156 195 254
156 195 254
156 195 254
155 195 254
155 195 254
155 195 254
155 195 254
155 195 254
155 195 254
155 195 254
155 195 254
155 195 254
155 195 254
155 195 254
154 194 254
154 194 254
154 194 254
154 194 254
154 194 254
154 194 254
154 194 254
154 194 254
154 194 254
154 194 254
154 194 254
154 194 254
153 194 254
153 194 254
153 194 254
153 194 254
153 194 254
153 194 254
153 194 254
153 194 254
153 194 254
153 194 254
153 193 254
153 193 254
153 193 254
153 193 254
153 193 254
153 193 254
152 193 254
152 193 254
152 193 254
152 193 254
152 193 254
152 193 254
152 193 254
152 193 254
152 193 254
152 193 254
152 193 254
152 193 254
152 193 254
152 193 254
152 193 254
152 193 254
152 193 254
152 193 254
152 193 254
152 193 254
152 193 254
152 193 254
152 193 254
152 193 254
152 193 254
152 193 254
152 193 254
152 193 254
152 193 254
152 193 254
152 193 254
152 193 254
152 193 254
152 193 254
152 193 254
152 193 254
152 193 254
152 193 254
152 193 254
152 193 254
152 193 254
152 193 254
152 193 254
152 193 254
152 193 254
152 193 254
152 193 254
152 193 254
152 193 254
152 193 254
152 193 254
152 193 254
152 193 254
152 193 254
152 193 254
152 193 254
153 193 254
153 193 254
153 193 254
153 193 254
153 193 254
153 193 254
153 194 254
153 194 254
153 194 254
153 194 254
153 194 254
153 194 254
153 194 254
153 194 254
153 194 254
153 194 254
154 194 254
154 194 254
154 194 254
154 194 254
154 194 254
154 194 254
154 194 254
154 194 254
154 194 254
154 194 254
154 194 254
154 194 254
155 195 254
155 195 254
155 195 254
155 195 254
155 195 254
155 195 254
155 195 254
155 195 254
155 195 254
155 195 254
155 195 254
156 195 254
156 195 254
156 195 254
156 195 254
156 195 254
156 195 254
156 195 254
156 196 254
156 196 254
156 196 254
157 196 254
157 196 254
157 196 254
157 196 254
157 196 254
157 196 254
157 196 254
157 196 254
157 196 254
157 196 254
158 196 254
158 196 254
158 196 254
158 197 254
158 197 254
158 197 254
158 197 254
158 197 254
158 197 254
158 197 254
159 197 254
159 197 254
159 197 254
159 197 254
159 197 254
159 197 254
159 197 254
159 197 254
159 197 254
160 198 254
160 198 254
160 198 254
160 198 254
160 198 254
160 198 254
160 198 254
160 198 254
160 198 254
160 198 254
161 198 254
161 198 254
161 198 254
161 198 254
161 198 254
161 198 254
161 199 254
161 199 254
161 199 254
162 199 254
162 199 254
162 199 254
162 199 254
162 199 254
162 199 254
162 199 254
162 199 254
162 199 254
162 199 254
163 199 254
163 199 254
163 199 254
163 199 254
163 200 254
163 200 254
163 200 254
163 200 254
163 200 254
163 200 254
163 200 254
164 200 254
164 200 254
164 200 254
164 200 254
164 200 254
164 200 254
164 200 254
164 200 254
164 200 254
164 200 254
165 201 254
165 201 254
165 201 254
165 201 254
165 201 254
165 201 254
165 201 254
165 201 254
165 201 254
165 201 254
165 201 254
166 201 254
166 201 254
166 201 254
166 201 254
166 201 254
166 201 254
166 201 254
166 201 254
166 202 254
166 202 254
166 202 254
166 202 254
167 202 254
167 202 254
167 202 254
167 202 254
167 202 254
167 202 254
167 202 254
167 202 254
167 202 254
167 202 254
167 202 254
167 202 254
167 202 254
168 202 254
168 202 254
168 202 254
168 202 254
168 203 254
168 203 254
168 203 254
168 203 254
168 203 254
168 203 254
168 203 254
168 203 254
168 203 254
168 203 254
168 203 254
168 202 254
168 202 254
168 202 254
168 202 254
167 202 254
167 202 254
167 202 254
167 202 254
167 202 254
167 202 254
167 202 254
167 202 254
167 202 254
167 202 254
167 202 254
167 202 254
167 202 254
166 202 254
166 202 254
166 202 254
166 202 254
166 201 254
166 201 254
166 201 254
166 201 254
166 201 254
166 201 254
166 201 254
165 201 254
165 201 254
165 201 254
165 201 254
165 201 254
165 201 254
165 201 254
165 201 254
165 201 254
165 201 254
165 201 254
164 200 254
164 200 254
164 200 254
164 200 254
164 200 254
164 200 254
164 200 254
164 200 254
164 200 254
164 200 254
164 200 254
163 200 254
163 200 254
163 200 254
163 200 254
163 200 254
163 200 254
163 200 254
163 199 254
163 199 254
163 199 254
162 199 254
162 199 254
162 199 254
162 199 254
162 199 254
162 199 254
162 199 254
162 199 254
162 199 254
162 199 254
161 199 254
161 199 254
161 199 254
161 198 254
161 198 254
161 198 254
161 198 254
161 198 254
161 198 254
161 198 254
160 198 254
160 198 254
160 198 254
160 198 254
160 198 254
160 198 254
160 198 254
160 198 254
160 198 254
160 198 254
159 197 254
159 197 254
159 197 254
159 197 254
159 197 254
159 197 254
159 197 254
159 197 254
159 197 254
158 197 254
158 197 254
158 197 254
158 197 254
158 197 254
158 197 254
158 196 254
158 196 254
158 196 254
158 196 254
157 196 254
157 196 254
157 196 254
157 196 254
157 196 254
157 196 254
157 196 254
157 196 254
157 196 254
156 196 254
156 196 254
156 196 254
156 196 254
156 195 254
156 195 254
156 195 254
156 195 254
156 195 254
156 195 254
156 195 254
155 195 254
155 195 254
155 195 254
155 195 254
155 195 254
155 195 254
155 195 254
155 195 254
155 195 254
155 195 254
155 195 254
154 194 254
154 194 254
154 194 254
154 194 254
154 194 254
154 194 254
154 194 254
154 194 254
154 194 254
154 194 254
154 194 254
154 194 254
154 194 254
153 194 254
153 194 254
153 194 254
153 194 254
153 194 254
153 194 254
153 194 254
153 194 254
153 194 254
153 194 254
153 194 254
153 193 254
153 193 254
153 193 254
153 193 254
153 193 254
153 193 254
153 193 254
152 193 254
152 193 254
152 193 254
152 193 254
152 193 254
152 193 254
152 193 254
152 193 254
152 193 254
152 193 254
152 193 254
152 193 254
152 193 254
152 193 254
152 193 254
152 193 254
152 193 254
152 193 254
152 193 254
152 193 254
152 193 254
152 193 254
152 193 254
152 193 254
152 193 254
152 193 254
152 193 254
152 193 254
152 193 254
152 193 254
152 193 254
152 193 254
152 193 254
152 193 254
152 193 254
152 193 254
152 193 254
152 193 254
152 193 254
152 193 254
152 193 254
152 193 254
152 193 254
152 193 254
153 193 254
153 193 254
153 193 254
153 193 254
153 193 254
153 193 254
153 193 254
153 194 254
153 194 254
153 194 254
153 194 254
153 194 254
153 194 254
153 194 254
153 194 254
153 194 254
153 194 254
153 194 254
154 194 254
154 194 254
154 194 254
154 194 254
154 194 254
154 194 254
154 194 254
154 194 254
154 194 254
154 194 254
154 194 254
154 194 254
154 194 254
155 195 254
155 195 254
155 195 254
155 195 254
155 195 254
155 195 254
155 195 254
155 195 254
155 195 254
155 195 254
155 195 254
156 195 254
156 195 254
156 195 254
156 195 254
156 195 254
156 195 254
156 195 254
156 196 254
156 196 254
156 196 254
156 196 254
157 196 254
157 196 254
157 196 254
157 196 254
157 196 254
157 196 254
157 196 254
157 196 254
157 196 254
158 196 254
158 196 254
158 196 254
158 196 254
158 197 254
158 197 254
158 197 254
158 197 254
158 197 254
158 197 254
159 197 254
159 197 254
159 197 254
159 197 254
159 197 254
159 197 254
159 197 254
159 197 254
159 197 254
159 197 254
160 198 254
160 198 254
160 198 254
160 198 254
160 198 254
160 198 254
160 198 254
160 198 254
160 198 254
161 198 254
161 198 254
161 198 254
161 198 254
161 198 254
161 198 254
161 198 254
161 199 254
161 199 254
161 199 254
162 199 254
162 199 254
162 199 254
162 199 254
162 199 254
162 199 254
162 199 254
162 199 254
162 199 254
162 199 254
163 199 254
163 199 254
163 199 254
163 200 254
163 200 254
163 200 254
163 200 254
163 200 254
163 200 254
163 200 254
164 200 254
164 200 254
164 200 254
164 200 254
164 200 254
164 200 254
164 200 254
164 200 254
164 200 254
164 200 254
164 200 254
165 201 254
165 201 254
165 201 254
165 201 254
165 201 254
165 201 254
165 201 254
165 201 254
165 201 254
165 201 254
165 201 254
166 201 254
166 201 254
166 201 254
166 201 254
166 201 254
166 201 254
166 201 254
166 202 254
166 202 254
166 202 254
166 202 254
167 202 254
167 202 254
167 202 254
167 202 254
167 202 254
167 202 254
167 202 254
167 202 254
167 202 254
167 202 254
167 202 254
167 202 254
168 202 254
168 202 254
168 202 254
168 202 254
168 202 254
168 203 254
168 203 254
168 203 254
168 203 254
168 203 254
168 203 254
168 203 254
169 203 254
168 203 254
168 203 254
168 203 254
168 203 254
168 203 254
168 203 254
168 203 254
168 203 254
168 203 254
168 202 254
168 202 254
168 202 254
168 202 254
167 202 254
167 202 254
167 202 254
167 202 254
167 202 254
167 202 254
167 202 254
167 202 254
167 202 254
167 202 254
167 202 254
167 202 254
167 202 254
166 202 254
166 202 254
166 202 254
166 202 254
166 201 254
166 201 254
166 201 254
166 201 254
166 201 254
166 201 254
166 201 254
165 201 254
165 201 254
165 201 254
165 201 254
165 201 254
165 201 254
165 201 254
165 201 254
165 201 254
165 201 254
165 201 254
164 200 254
164 200 254
164 200 254
164 200 254
164 200 254
164 200 254
164 200 254
164 200 254
164 200 254
164 200 254
164 200 254
163 200 254
163 200 254
163 200 254
163 200 254
163 200 254
163 200 254
163 200 254
163 199 254
163 199 254
163 199 254
162 199 254
162 199 254
162 199 254
162 199 254
162 199 254
162 199 254
162 199 254
162 199 254
162 199 254
162 199 254
161 199 254
161 199 254
161 199 254
161 198 254
161 198 254
161 198 254
161 198 254
161 198 254
161 198 254
160 198 254
160 198 254
160 198 254
160 198 254
160 198 254
160 198 254
160 198 254
160 198 254
160 198 254
160 198 254
159 197 254
159 197 254
159 197 254
159 197 254
159 197 254
159 197 254
159 197 254
159 197 254
159 197 254
159 197 254
158 197 254
158 197 254
158 197 254
158 197 254
158 197 254
158 197 254
158 196 254
158 196 254
158 196 254
157 196 254
157 196 254
157 196 254
157 196 254
157 196 254
157 196 254
157 196 254
157 196 254
157 196 254
157 196 254
156 196 254
156 196 254
156 196 254
156 196 254
156 195 254
156 195 254
156 195 254
156 195 254
156 195 254
156 195 254
156 195 254
155 195 254
155 195 254
155 195 254
155 195 254
155 195 254
155 195 254
155 195 254
155 195 254
155 195 254
155 195 254
155 195 254
154 194 254
154 194 254
154 194 254
154 194 254
154 194 254
154 194 254
154 194 254
154 194 254
154 194 254
154 194 254
154 194 254
154 194 254
154 194 254
154 194 254
153 194 254
153 194 254
153 194 254
153 194 254
153 194 254
153 194 254
153 194 254
153 194 254
153 194 254
153 194 254
153 194 254
153 194 254
153 194 254
153 193 254
153 193 254
153 193 254
153 193 254
153 193 254
153 193 254
153 193 254
153 193 254
153 193 254
153 193 254
152 193 254
152 193 254
152 193 254
152 193 254
152 193 254
152 193 254
152 193 254
152 193 254
152 193 254
152 193 254
152 193 254
152 193 254
152 193 254
152 193 254
152 193 254
152 193 254
152 193 254
152 193 254
152 193 254
152 193 254
152 193 254
152 193 254
152 193 254
152 193 254
152 193 254
152 193 254
152 193 254
153 193 254
153 193 254
153 193 254
153 193 254
153 193 254
153 193 254
153 193 254
153 193 254
153 193 254
153 194 254
153 194 254
153 194 254
153 194 254
153 194 254
153 194 254
153 194 254
153 194 254
153 194 254
153 194 254
153 194 254
153 194 254
153 194 254
154 194 254
154 194 254
154 194 254
154 194 254
154 194 254
154 194 254
154 194 254
154 194 254
154 194 254
154 194 254
154 194 254
154 194 254
154 194 254
154 194 254
155 195 254
155 195 254
155 195 254
155 195 254
155 195 254
155 195 254
155 195 254
155 195 254
155 195 254
155 195 254
155 195 254
156 195 254
156 195 254
156 195 254
156 195 254
156 195 254
156 195 254
156 195 254
156 196 254
156 196 254
156 196 254
156 196 254
157 196 254
157 196 254
157 196 254
157 196 254
157 196 254
157 196 254
157 196 254
157 196 254
157 196 254
157 196 254
158 196 254
158 196 254
158 196 254
158 197 254
158 197 254
158 197 254
158 197 254
158 197 254
158 197 254
159 197 254
159 197 254
159 197 254
159 197 254
159 197 254
159 197 254
159 197 254
159 197 254
159 197 254
159 197 254
160 198 254
160 198 254
160 198 254
160 198 254
160 198 254
160 198 254
160 198 254
160 198 254
160 198 254
161 198 254
161 198 254
161 198 254
161 198 254
161 198 254
161 198 254
161 198 254
161 199 254
161 199 254
161 199 254
162 199 254
162 199 254
162 199 254
162 199 254
162 199 254
162 199 254
162 199 254
162 199 254
162 199 254
162 199 254
163 199 254
163 199 254
163 199 254
163 200 254
163 200 254
163 200 254
163 200 254
163 200 254
163 200 254
163 200 254
164 200 254
164 200 254
164 200 254
164 200 254
164 200 254
164 200 254
164 200 254
164 200 254
164 200 254
164 200 254
164 200 254
165 201 254
165 201 254
165 201 254
165 201 254
165 201 254
165 201 254
165 201 254
165 201 254
165 201 254
165 201 254
165 201 254
166 201 254
166 201 254
166 201 254
166 201 254
166 201 254
166 201 254
166 201 254
166 202 254
166 202 254
166 202 254
166 202 254
167 202 254
167 202 254
167 202 254
167 202 254
167 202 254
167 202 254
167 202 254
167 202 254
167 202 254
167 202 254
167 202 254
167 202 254
167 202 254
168 202 254
168 202 254
168 202 254
168 202 254
168 203 254
168 203 254
168 203 254
168 203 254
168 203 254
168 203 254
168 203 254
168 203 254
169 203 254
169 203 254
169 203 254
169 203 254
169 203 254
169 203 254
169 203 254
168 203 254
168 203 254
168 203 254
168 203 254
168 203 254
168 203 254
168 203 254
168 203 254
168 202 254
168 202 254
168 202 254
168 202 254
167 202 254
167 202 254
167 202 254
167 202 254
167 202 254
167 202 254
167 202 254
167 202 254
167 202 254
167 202 254
167 202 254
167 202 254
167 202 254
166 202 254
166 202 254
166 202 254
166 201 254
166 201 254
166 201 254
166 201 254
166 201 254
166 201 254
166 201 254
166 201 254
165 201 254
165 201 254
165 201 254
165 201 254
165 201 254
165 201 254
165 201 254
165 201 254
165 201 254
165 201 254
165 201 254
164 200 254
164 200 254
164 200 254
164 200 254
164 200 254
164 200 254
164 200 254
164 200 254
164 200 254
164 200 254
163 200 254
163 200 254
163 200 254
163 200 254
163 200 254
163 200 254
163 200 254
163 199 254
163 199 254
163 199 254
163 199 254
162 199 254
162 199 254
162 199 254
162 199 254
162 199 254
162 199 254
162 199 254
162 199 254
162 199 254
162 199 254
161 199 254
161 199 254
161 199 254
161 198 254
161 198 254
161 198 254
161 198 254
161 198 254
161 198 254
160 198 254
160 198 254
160 198 254
160 198 254
160 198 254
160 198 254
160 198 254
160 198 254
160 198 254
160 198 254
159 197 254
159 197 254
159 197 254
159 197 254
159 197 254
159 197 254
159 197 254
159 197 254
159 197 254
158 197 254
158 197 254
158 197 254
158 197 254
158 197 254
158 197 254
158 197 254
158 196 254
158 196 254
158 196 254
157 196 254
157 196 254
157 196 254
157 196 254
157 196 254
157 196 254
157 196 254
157 196 254
157 196 254
157 196 254
156 196 254
156 196 254
156 196 254
156 196 254
156 195 254
156 195 254
156 195 254
156 195 254
156 195 254
156 195 254
156 195 254
155 195 254
155 195 254
155 195 254
155 195 254
155 195 254
155 195 254
155 195 254
155 195 254
155 195 254
155 195 254
155 195 254
155 195 254
154 194 254
154 194 254
154 194 254
154 194 254
154 194 254
154 194 254
154 194 254
154 194 254
154 194 254
154 194 254
154 194 254
154 194 254
154 194 254
154 194 254
154 194 254
153 194 254
153 194 254
153 194 254
153 194 254
153 194 254
153 194 254
153 194 254
153 194 254
153 194 254
153 194 254
153 194 254
153 194 254
153 194 254
153 194 254
153 194 254
153 194 254
153 193 254
153 193 254
153 193 254
153 193 254
153 193 254
153 193 254
153 193 254
153 193 254
153 193 254
153 193 254
153 193 254
153 193 254
153 193 254
153 193 254
153 193 254
153 193 254
153 193 254
153 193 254
153 193 254
153 193 254
153 193 254
153 193 254
153 193 254
153 193 254
153 193 254
153 193 254
153 193 254
153 193 254
153 193 254
153 193 254
153 193 254
153 194 254
153 194 254
153 194 254
153 194 254
153 194 254
153 194 254
153 194 254
153 194 254
153 194 254
153 194 254
153 194 254
153 194 254
153 194 254
153 194 254
153 194 254
154 194 254
154 194 254
154 194 254
154 194 254
154 194 254
154 194 254
154 194 254
154 194 254
154 194 254
154 194 254
154 194 254
154 194 254
154 194 254
154 194 254
154 194 254
155 195 254
155 195 254
155 195 254
155 195 254
155 195 254
155 195 254
155 195 254
155 195 254
155 195 254
155 195 254
155 195 254
155 195 254
156 195 254
156 195 254
156 195 254
156 195 254
156 195 254
156 195 254
156 195 254
156 196 254
156 196 254
156 196 254
156 196 254
157 196 254
157 196 254
157 196 254
157 196 254
157 196 254
157 196 254
157 196 254
157 196 254
157 196 254
157 196 254
158 196 254
158 196 254
158 196 254
158 197 254
158 197 254
158 197 254
158 197 254
158 197 254
158 197 254
158 197 254
159 197 254
159 197 254
159 197 254
159 197 254
159 197 254
159 197 254
159 197 254
159 197 254
159 197 254
160 198 254
160 198 254
160 198 254
160 198 254
160 198 254
160 198 254
160 198 254
160 198 254
160 198 254
160 198 254
161 198 254
161 198 254
161 198 254
161 198 254
161 198 254
161 198 254
161 199 254
161 199 254
161 199 254
162 199 254
162 199 254
162 199 254
162 199 254
162 199 254
162 199 254
162 199 254
162 199 254
162 199 254
162 199 254
163 199 254
163 199 254
163 199 254
163 199 254
163 200 254
163 200 254
163 200 254
163 200 254
163 200 254
163 200 254
164 200 254
164 200 254
164 200 254
164 200 254
164 200 254
164 200 254
164 200 254
164 200 254
164 200 254
164 200 254
164 200 254
165 201 254
165 201 254
165 201 254
165 201 254
165 201 254
165 201 254
165 201 254
165 201 254
165 201 254
165 201 254
165 201 254
166 201 254
166 201 254
166 201 254
166 201 254
166 201 254
166 201 254
166 201 254
166 201 254
166 202 254
166 202 254
166 202 254
167 202 254
167 202 254
167 202 254
167 202 254
167 202 254
167 202 254
167 202 254
167 202 254
167 202 254
167 202 254
167 202 254
167 202 254
167 202 254
168 202 254
168 202 254
168 202 254
168 202 254
168 203 254
168 203 254
168 203 254
168 203 254
168 203 254
168 203 254
168 203 254
168 203 254
168 203 254
169 203 254
169 203 254
169 203 254
169 203 254
169 203 254
169 203 254
169 203 254
169 203 254
169 203 254
169 203 254
169 203 254
169 203 254
168 203 254
168 203 254
168 203 254
168 203 254
168 203 254
168 203 254
168 203 254
168 203 254
168 202 254
168 202 254
168 202 254
168 202 254
167 202 254
167 202 254
167 202 254
167 202 254
167 202 254
167 202 254
167 202 254
167 202 254
167 202 254
167 202 254
167 202 254
167 202 254
166 202 254
166 202 254
166 202 254
166 202 254
166 201 254
166 201 254
166 201 254
166 201 254
166 201 254
166 201 254
166 201 254
166 201 254
165 201 254
165 201 254
165 201 254
165 201 254
165 201 254
165 201 254
165 201 254
165 201 254
165 201 254
165 201 254
165 201 254
164 200 254
164 200 254
164 200 254
164 200 254
164 200 254
164 200 254
164 200 254
164 200 254
164 200 254
164 200 254
163 200 254
163 200 254
163 200 254
163 200 254
163 200 254
163 200 254
163 200 254
163 199 254
163 199 254
163 199 254
162 199 254
162 199 254
162 199 254
162 199 254
162 199 254
162 199 254
162 199 254
162 199 254
162 199 254
162 199 254
161 199 254
161 199 254
161 199 254
161 198 254
161 198 254
161 198 254
161 198 254
161 198 254
161 198 254
161 198 254
160 198 254
160 198 254
160 198 254
160 198 254
160 198 254
160 198 254
160 198 254
160 198 254
160 198 254
160 198 254
159 197 254
159 197 254
159 197 254
159 197 254
159 197 254
159 197 254
159 197 254
159 197 254
159 197 254
158 197 254
158 197 254
158 197 254
158 197 254
158 197 254
158 197 254
158 197 254
158 196 254
158 196 254
158 196 254
157 196 254
157 196 254
157 196 254
157 196 254
157 196 254
157 196 254
157 196 254
157 196 254
157 196 254
157 196 254
156 196 254
156 196 254
156 196 254
156 196 254
156 195 254
156 195 254
156 195 254
156 195 254
156 195 254
156 195 254
156 195 254
155 195 254
155 195 254
155 195 254
155 195 254
155 195 254
155 195 254
155 195 254
155 195 254
155 195 254
155 195 254
155 195 254
155 195 254
155 195 254
154 194 254
154 194 254
154 194 254
154 194 254
154 194 254
154 194 254
154 194 254
154 194 254
154 194 254
154 194 254
154 194 254
154 194 254
154 194 254
154 194 254
154 194 254
154 194 254
154 194 254
153 194 254
153 194 254
153 194 254
153 194 254
153 194 254
153 194 254
153 194 254
153 194 254
153 194 254
153 194 254
153 194 254
153 194 254
153 194 254
153 194 254
153 194 254
153 194 254
153 194 254
153 194 254
153 194 254
153 194 254
153 194 254
153 194 254
153 194 254
153 194 254
153 194 254
153 194 254
153 194 254
153 194 254
153 194 254
153 194 254
153 194 254
153 194 254
153 194 254
153 194 254
153 194 254
153 194 254
153 194 254
153 194 254
153 194 254
153 194 254
153 194 254
153 194 254
153 194 254
153 194 254
153 194 254
153 194 254
153 194 254
153 194 254
153 194 254
153 194 254
154 194 254
154 194 254
154 194 254
154 194 254
154 194 254
154 194 254
154 194 254
154 194 254
154 194 254
154 194 254
154 194 254
154 194 254
154 194 254
154 194 254
154 194 254
154 194 254
154 194 254
155 195 254
155 195 254
155 195 254
155 195 254
155 195 254
155 195 254
155 195 254
155 195 254
155 195 254
155 195 254
155 195 254
155 195 254
155 195 254
156 195 254
156 195 254
156 195 254
156 195 254
156 195 254
156 195 254
156 195 254
156 196 254
156 196 254
156 196 254
156 196 254
157 196 254
157 196 254
157 196 254
157 196 254
157 196 254
157 196 254
157 196 254
157 196 254
157 196 254
157 196 254
158 196 254
158 196 254
158 196 254
158 197 254
158 197 254
158 197 254
158 197 254
158 197 254
158 197 254
158 197 254
159 197 254
159 197 254
159 197 254
159 197 254
159 197 254
159 197 254
159 197 254
159 197 254
159 197 254
160 198 254
160 198 254
160 198 254
160 198 254
160 198 254
160 198 254
160 198 254
160 198 254
160 198 254
160 198 254
161 198 254
161 198 254
161 198 254
161 198 254
161 198 254
161 198 254
161 198 254
161 199 254
161 199 254
161 199 254
162 199 254
162 199 254
162 199 254
162 199 254
162 199 254
162 199 254
162 199 254
162 199 254
162 199 254
162 199 254
163 199 254
163 199 254
163 199 254
163 200 254
163 200 254
163 200 254
163 200 254
163 200 254
163 200 254
163 200 254
164 200 254
164 200 254
164 200 254
164 200 254
164 200 254
164 200 254
164 200 254
164 200 254
164 200 254
164 200 254
165 201 254
165 201 254
165 201 254
165 201 254
165 201 254
165 201 254
165 201 254
165 201 254
165 201 254
165 201 254
165 201 254
166 201 254
166 201 254
166 201 254
166 201 254
166 201 254
166 201 254
166 201 254
166 201 254
166 202 254
166 202 254
166 202 254
166 202 254
167 202 254
167 202 254
167 202 254
167 202 254
167 202 254
167 202 254
167 202 254
167 202 254
167 202 254
167 202 254
167 202 254
168 202 254
168 202 254
168 202 254
168 202 254
168 202 254
168 203 254
168 203 254
168 203 254
168 203 254
168 203 254
168 203 254
168 203 254
168 203 254
169 203 254
169 203 254
169 203 254
169 203 254
169 203 254
169 203 254
169 203 254
169 203 254
169 203 254
169 203 254
169 203 254
169 203 254
169 203 254
169 203 254
169 203 254
169 203 254
169 203 254
169 203 254
169 203 254
168 203 254
168 203 254
168 203 254
168 203 254
168 203 254
168 203 254
168 203 254
168 203 254
168 202 254
168 202 254
168 202 254
168 202 254
167 202 254
167 202 254
167 202 254
167 202 254
167 202 254
167 202 254
167 202 254
167 202 254
167 202 254
167 202 254
167 202 254
167 202 254
166 202 254
166 202 254
166 202 254
166 202 254
166 201 254
166 201 254
166 201 254
166 201 254
166 201 254
166 201 254
166 201 254
166 201 254
165 201 254
165 201 254
165 201 254
165 201 254
165 201 254
165 201 254
165 201 254
165 201 254
165 201 254
165 201 254
165 201 254
164 200 254
164 200 254
164 200 254
164 200 254
164 200 254
164 200 254
164 200 254
164 200 254
164 200 254
164 200 254
163 200 254
163 200 254
163 200 254
163 200 254
163 200 254
163 200 254
163 200 254
163 199 254
163 199 254
163 199 254
162 199 254
162 199 254
162 199 254
162 199 254
162 199 254
162 199 254
162 199 254
162 199 254
162 199 254
162 199 254
161 199 254
161 199 254
161 199 254
161 198 254
161 198 254
161 198 254
161 198 254
161 198 254
161 198 254
161 198 254
160 198 254
160 198 254
160 198 254
160 198 254
160 198 254
160 198 254
160 198 254
160 198 254
160 198 254
159 197 254
159 197 254
159 197 254
159 197 254
159 197 254
159 197 254
159 197 254
159 197 254
159 197 254
159 197 254
158 197 254
158 197 254
158 197 254
158 197 254
158 197 254
158 197 254
158 197 254
158 196 254
158 196 254
158 196 254
157 196 254
157 196 254
157 196 254
157 196 254
157 196 254
157 196 254
157 196 254
157 196 254
157 196 254
157 196 254
156 196 254
156 196 254
156 196 254
156 196 254
156 195 254
156 195 254
156 195 254
156 195 254
156 195 254
156 195 254
156 195 254
156 195 254
155 195 254
155 195 254
155 195 254
155 195 254
155 195 254
155 195 254
155 195 254
155 195 254
155 195 254
155 195 254
155 195 254
155 195 254
155 195 254
154 194 254
154 194 254
154 194 254
154 194 254
154 194 254
154 194 254
154 194 254
154 194 254
154 194 254
154 194 254
154 194 254
154 194 254
154 194 254
154 194 254
154 194 254
154 194 254
154 194 254
154 194 254
154 194 254
154 194 254
153 194 254
153 194 254
153 194 254
153 194 254
153 194 254
153 194 254
153 194 254
153 194 254
153 194 254
153 194 254
153 194 254
153 194 254
153 194 254
153 194 254
153 194 254
153 194 254
153 194 254
153 194 254
153 194 254
153 194 254
153 194 254
153 194 254
153 194 254
153 194 254
153 194 254
153 194 254
153 194 254
153 194 254
153 194 254
153 194 254
153 194 254
153 194 254
153 194 254
153 194 254
153 194 254
153 194 254
154 194 254
154 194 254
154 194 254
154 194 254
154 194 254
154 194 254
154 194 254
154 194 254
154 194 254
154 194 254
154 194 254
154 194 254
154 194 254
154 194 254
154 194 254
154 194 254
154 194 254
154 194 254
154 194 254
154 194 254
155 195 254
155 195 254
155 195 254
155 195 254
155 195 254
155 195 254
155 195 254
155 195 254
155 195 254
155 195 254
155 195 254
155 195 254
155 195 254
156 195 254
156 195 254
156 195 254
156 195 254
156 195 254
156 195 254
156 195 254
156 195 254
156 196 254
156 196 254
156 196 254
157 196 254
157 196 254
157 196 254
157 196 254
157 196 254
157 196 254
157 196 254
157 196 254
157 196 254
157 196 254
157 196 254
158 196 254
158 196 254
158 196 254
158 197 254
158 197 254
158 197 254
158 197 254
158 197 254
158 197 254
158 197 254
159 197 254
159 197 254
159 197 254
159 197 254
159 197 254
159 197 254
159 197 254
159 197 254
159 197 254
159 197 254
160 198 254
160 198 254
160 198 254
160 198 254
160 198 254
160 198 254
160 198 254
160 198 254
160 198 254
161 198 254
161 198 254
161 198 254
161 198 254
161 198 254
161 198 254
161 198 254
161 199 254
161 199 254
161 199 254
162 199 254
162 199 254
162 199 254
162 199 254
162 199 254
162 199 254
162 199 254
162 199 254
162 199 254
162 199 254
163 199 254
163 199 254
163 199 254
163 200 254
163 200 254
163 200 254
163 200 254
163 200 254
163 200 254
163 200 254
164 200 254
164 200 254
164 200 254
164 200 254
164 200 254
164 200 254
164 200 254
164 200 254
164 200 254
164 200 254
165 201 254
165 201 254
165 201 254
165 201 254
165 201 254
165 201 254
165 201 254
165 201 254
165 201 254
165 201 254
165 201 254
166 201 254
166 201 254
166 201 254
166 201 254
166 201 254
166 201 254
166 201 254
166 201 254
166 202 254
166 202 254
166 202 254
166 202 254
167 202 254
167 202 254
167 202 254
167 202 254
167 202 254
167 202 254
167 202 254
167 202 254
167 202 254
167 202 254
167 202 254
167 202 254
168 202 254
168 202 254
168 202 254
168 202 254
168 203 254
168 203 254
168 203 254
168 203 254
168 203 254
168 203 254
168 203 254
168 203 254
169 203 254
169 203 254
169 203 254
169 203 254
169 203 254
169 203 254
169 203 254
169 203 254
169 203 254
169 203 254
169 203 254
169 203 254
169 203 254
169 203 254
169 203 254
169 203 254
169 203 254
169 203 254
169 203 254
169 203 254
169 203 254
169 203 254
169 203 254
169 203 254
169 203 254
168 203 254
168 203 254
168 203 254
168 203 254
168 203 254
168 203 254
168 203 254
168 203 254
168 202 254
168 202 254
168 202 254
168 202 254
167 202 254
167 202 254
167 202 254
167 202 254
167 202 254
167 202 254
167 202 254
167 202 254
167 202 254
167 202 254
167 202 254
167 202 254
166 202 254
166 202 254
166 202 254
166 202 254
166 201 254
166 201 254
166 201 254
166 201 254
166 201 254
166 201 254
166 201 254
166 201 254
165 201 254
165 201 254
165 201 254
165 201 254
165 201 254
165 201 254
165 201 254
165 201 254
165 201 254
165 201 254
164 200 254
164 200 254
164 200 254
164 200 254
164 200 254
164 200 254
164 200 254
164 200 254
164 200 254
164 200 254
164 200 254
163 200 254
163 200 254
163 200 254
163 200 254
163 200 254
163 200 254
163 200 254
163 199 254
163 199 254
163 199 254
162 199 254
162 199 254
162 199 254
162 199 254
162 199 254
162 199 254
162 199 254
162 199 254
162 199 254
162 199 254
161 199 254
161 199 254
161 199 254
161 198 254
161 198 254
161 198 254
161 198 254
161 198 254
161 198 254
160 198 254
160 198 254
160 198 254
160 198 254
160 198 254
160 198 254
160 198 254
160 198 254
160 198 254
160 198 254
159 197 254
159 197 254
159 197 254
159 197 254
159 197 254
159 197 254
159 197 254
159 197 254
159 197 254
159 197 254
158 197 254
158 197 254
158 197 254
158 197 254
158 197 254
158 197 254
158 197 254
158 196 254
158 196 254
158 196 254
157 196 254
157 196 254
157 196 254
157 196 254
157 196 254
157 196 254
157 196 254
157 196 254
157 196 254
157 196 254
157 196 254
156 196 254
156 196 254
156 196 254
156 196 254
156 195 254
156 195 254
156 195 254
156 195 254
156 195 254
156 195 254
156 195 254
156 195 254
155 195 254
155 195 254
155 195 254
155 195 254
155 195 254
155 195 254
155 195 254
155 195 254
155 195 254
155 195 254
155 195 254
155 195 254
155 195 254
155 195 254
154 194 254
154 194 254
154 194 254
154 194 254
154 194 254
154 194 254
154 194 254
154 194 254
154 194 254
154 194 254
154 194 254
154 194 254
154 194 254
154 194 254
154 194 254
154 194 254
154 194 254
154 194 254
154 194 254
154 194 254
154 194 254
154 194 254
154 194 254
154 194 254
154 194 254
154 194 254
154 194 254
154 194 254
154 194 254
154 194 254
154 194 254
154 194 254
153 194 254
153 194 254
154 194 254
154 194 254
154 194 254
154 194 254
154 194 254
154 194 254
154 194 254
154 194 254
154 194 254
154 194 254
154 194 254
154 194 254
154 194 254
154 194 254
154 194 254
154 194 254
154 194 254
154 194 254
154 194 254
154 194 254
154 194 254
154 194 254
154 194 254
154 194 254
154 194 254
154 194 254
154 194 254
154 194 254
154 194 254
154 194 254
154 194 254
154 194 254
155 195 254
155 195 254
155 195 254
155 195 254
155 195 254
155 195 254
155 195 254
155 195 254
155 195 254
155 195 254
155 195 254
155 195 254
155 195 254
155 195 254
156 195 254
156 195 254
156 195 254
156 195 254
156 195 254
156 195 254
156 195 254
156 195 254
156 195 254
156 196 254
156 196 254
156 196 254
157 196 254
157 196 254
157 196 254
157 196 254
157 196 254
157 196 254
157 196 254
157 196 254
157 196 254
157 196 254
157 196 254
158 196 254
158 196 254
158 196 254
158 197 254
158 197 254
158 197 254
158 197 254
158 197 254
158 197 254
158 197 254
159 197 254
159 197 254
159 197 254
159 197 254
159 197 254
159 197 254
159 197 254
159 197 254
159 197 254
159 197 254
160 198 254
160 198 254
160 198 254
160 198 254
160 198 254
160 198 254
160 198 254
160 198 254
160 198 254
160 198 254
161 198 254
161 198 254
161 198 254
161 198 254
161 198 254
161 198 254
161 199 254
161 199 254
161 199 254
162 199 254
162 199 254
162 199 254
162 199 254
162 199 254
162 199 254
162 199 254
162 199 254
162 199 254
162 199 254
163 199 254
163 199 254
163 199 254
163 200 254
163 200 254
163 200 254
163 200 254
163 200 254
163 200 254
163 200 254
164 200 254
164 200 254
164 200 254
164 200 254
164 200 254
164 200 254
164 200 254
164 200 254
164 200 254
164 200 254
164 200 254
165 201 254
165 201 254
165 201 254
165 201 254
165 201 254
165 201 254
165 201 254
165 201 254
165 201 254
165 201 254
166 201 254
166 201 254
166 201 254
166 201 254
166 201 254
166 201 254
166 201 254
166 201 254
166 202 254
166 202 254
166 202 254
166 202 254
167 202 254
167 202 254
167 202 254
167 202 254
167 202 254
167 202 254
167 202 254
167 202 254
167 202 254
167 202 254
167 202 254
167 202 254
168 202 254
168 202 254
168 202 254
168 202 254
168 203 254
168 203 254
168 203 254
168 203 254
168 203 254
168 203 254
168 203 254
168 203 254
169 203 254
169 203 254
169 203 254
169 203 254
169 203 254
169 203 254
169 203 254
169 203 254
169 203 254
169 203 254
169 203 254
169 203 254
169 203 254
169 203 254
170 204 254
170 204 254
170 204 254
170 204 254
169 203 254
169 203 254
169 203 254
169 203 254
169 203 254
169 203 254
169 203 254
169 203 254
169 203 254
169 203 254
169 203 254
169 203 254
169 203 254
168 203 254
168 203 254
168 203 254
168 203 254
168 203 254
168 203 254
168 203 254
168 203 254
168 202 254
168 202 254
168 202 254
168 202 254
167 202 254
167 202 254
167 202 254
167 202 254
167 202 254
167 202 254
167 202 254
167 202 254
167 202 254
167 202 254
167 202 254
167 202 254
166 202 254
166 202 254
166 202 254
166 202 254
166 201 254
166 201 254
166 201 254
166 201 254
166 201 254
166 201 254
166 201 254
165 201 254
165 201 254
165 201 254
165 201 254
165 201 254
165 201 254
165 201 254
165 201 254
165 201 254
165 201 254
165 201 254
164 200 254
164 200 254
164 200 254
164 200 254
164 200 254
164 200 254
164 200 254
164 200 254
164 200 254
164 200 254
164 200 254
163 200 254
163 200 254
163 200 254
163 200 254
163 200 254
163 200 254
163 199 254
163 199 254
163 199 254
163 199 254
162 199 254
162 199 254
162 199 254
162 199 254
162 199 254
162 199 254
162 199 254
162 199 254
162 199 254
161 199 254
161 199 254
161 199 254
161 199 254
161 198 254
161 198 254
161 198 254
161 198 254
161 198 254
161 198 254
160 198 254
160 198 254
160 198 254
160 198 254
160 198 254
160 198 254
160 198 254
160 198 254
160 198 254
160 198 254
159 197 254
159 197 254
159 197 254
159 197 254
159 197 254
159 197 254
159 197 254
159 197 254
159 197 254
159 197 254
158 197 254
158 197 254
158 197 254
158 197 254
158 197 254
158 197 254
158 197 254
158 196 254
158 196 254
158 196 254
157 196 254
157 196 254
157 196 254
157 196 254
157 196 254
157 196 254
157 196 254
157 196 254
157 196 254
157 196 254
157 196 254
156 196 254
156 196 254
156 196 254
156 196 254
156 195 254
156 195 254
156 195 254
156 195 254
156 195 254
156 195 254
156 195 254
156 195 254
156 195 254
155 195 254
155 195 254
155 195 254
155 195 254
155 195 254
155 195 254
155 195 254
155 195 254
155 195 254
155 195 254
155 195 254
155 195 254
155 195 254
155 195 254
155 195 254
155 195 254
154 194 254
154 194 254
154 194 254
154 194 254
154 194 254
154 194 254
154 194 254
154 194 254
154 194 254
154 194 254
154 194 254
154 194 254
154 194 254
154 194 254
154 194 254
154 194 254
154 194 254
154 194 254
154 194 254
154 194 254
154 194 254
154 194 254
154 194 254
154 194 254
154 194 254
154 194 254
154 194 254
154 194 254
154 194 254
154 194 254
154 194 254
154 194 254
154 194 254
154 194 254
154 194 254
154 194 254
154 194 254
154 194 254
154 194 254
154 194 254
154 194 254
154 194 254
154 194 254
154 194 254
154 194 254
154 194 254
154 194 254
154 194 254
154 194 254
154 194 254
154 194 254
154 194 254
154 194 254
154 194 254
155 195 254
155 195 254
155 195 254
155 195 254
155 195 254
155 195 254
155 195 254
155 195 254
155 195 254
155 195 254
155 195 254
155 195 254
155 195 254
155 195 254
155 195 254
155 195 254
156 195 254
156 195 254
156 195 254
156 195 254
156 195 254
156 195 254
156 195 254
156 195 254
156 195 254
156 196 254
156 196 254
156 196 254
156 196 254
157 196 254
157 196 254
157 196 254
157 196 254
157 196 254
157 196 254
157 196 254
157 196 254
157 196 254
157 196 254
157 196 254
158 196 254
158 196 254
158 196 254
158 197 254
158 197 254
158 197 254
158 197 254
158 197 254
158 197 254
158 197 254
159 197 254
159 197 254
159 197 254
159 197 254
159 197 254
159 197 254
159 197 254
159 197 254
159 197 254
159 197 254
160 198 254
160 198 254
160 198 254
160 198 254
160 198 254
160 198 254
160 198 254
160 198 254
160 198 254
160 198 254
161 198 254
161 198 254
161 198 254
161 198 254
161 198 254
161 198 254
161 199 254
161 199 254
161 199 254
161 199 254
162 199 254
162 199 254
162 199 254
162 199 254
162 199 254
162 199 254
162 199 254
162 199 254
162 199 254
163 199 254
163 199 254
163 199 254
163 199 254
163 200 254
163 200 254
163 200 254
163 200 254
163 200 254
163 200 254
164 200 254
164 200 254
164 200 254
164 200 254
164 200 254
164 200 254
164 200 254
164 200 254
164 200 254
164 200 254
164 200 254
165 201 254
165 201 254
165 201 254
165 201 254
165 201 254
165 201 254
165 201 254
165 201 254
165 201 254
165 201 254
166 201 254
166 201 254
166 201 254
166 201 254
166 201 254
166 201 254
166 201 254
166 201 254
166 202 254
166 202 254
166 202 254
166 202 254
167 202 254
167 202 254
167 202 254
167 202 254
167 202 254
167 202 254
167 202 254
167 202 254
167 202 254
167 202 254
167 202 254
168 202 254
168 202 254
168 202 254
168 202 254
168 202 254
168 203 254
168 203 254
168 203 254
168 203 254
168 203 254
168 203 254
168 203 254
168 203 254
169 203 254
169 203 254
169 203 254
169 203 254
169 203 254
169 203 254
169 203 254
169 203 254
169 203 254
169 203 254
169 203 254
169 203 254
169 203 254
170 204 254
170 204 254
170 204 254
170 204 254
170 204 254
170 204 254
170 204 254
170 204 254
170 204 254
170 204 254
170 204 254
169 203 254
169 203 254
169 203 254
169 203 254
169 203 254
169 203 254
169 203 254
169 203 254
169 203 254
169 203 254
169 203 254
169 203 254
169 203 254
168 203 254
168 203 254
168 203 254
168 203 254
168 203 254
168 203 254
168 203 254
168 203 254
168 202 254
168 202 254
168 202 254
168 202 254
167 202 254
167 202 254
167 202 254
167 202 254
167 202 254
167 202 254
167 202 254
167 202 254
167 202 254
167 202 254
167 202 254
167 202 254
166 202 254
166 202 254
166 202 254
166 202 254
166 201 254
166 201 254
166 201 254
166 201 254
166 201 254
166 201 254
166 201 254
166 201 254
165 201 254
165 201 254
165 201 254
165 201 254
165 201 254
165 201 254
165 201 254
165 201 254
165 201 254
165 201 254
164 200 254
164 200 254
164 200 254
164 200 254
164 200 254
164 200 254
164 200 254
164 200 254
164 200 254
164 200 254
163 200 254
163 200 254
163 200 254
163 200 254
163 200 254
163 200 254
163 200 254
163 199 254
163 199 254
163 199 254
162 199 254
162 199 254
162 199 254
162 199 254
162 199 254
162 199 254
162 199 254
162 199 254
162 199 254
162 199 254
161 199 254
161 199 254
161 199 254
161 199 254
161 198 254
161 198 254
161 198 254
161 198 254
161 198 254
161 198 254
160 198 254
160 198 254
160 198 254
160 198 254
160 198 254
160 198 254
160 198 254
160 198 254
160 198 254
160 198 254
159 197 254
159 197 254
159 197 254
159 197 254
159 197 254
159 197 254
159 197 254
159 197 254
159 197 254
159 197 254
158 197 254
158 197 254
158 197 254
158 197 254
158 197 254
158 197 254
158 197 254
158 196 254
158 196 254
158 196 254
157 196 254
157 196 254
157 196 254
157 196 254
157 196 254
157 196 254
157 196 254
157 196 254
157 196 254
157 196 254
157 196 254
157 196 254
156 196 254
156 196 254
156 196 254
156 196 254
156 195 254
156 195 254
156 195 254
156 195 254
156 195 254
156 195 254
156 195 254
156 195 254
156 195 254
155 195 254
155 195 254
155 195 254
155 195 254
155 195 254
155 195 254
155 195 254
155 195 254
155 195 254
155 195 254
155 195 254
155 195 254
155 195 254
155 195 254
155 195 254
155 195 254
155 195 254
155 195 254
155 195 254
154 194 254
154 194 254
154 194 254
154 194 254
154 194 254
154 194 254
154 194 254
154 194 254
154 194 254
154 194 254
154 194 254
154 194 254
154 194 254
154 194 254
154 194 254
154 194 254
154 194 254
154 194 254
154 194 254
154 194 254
154 194 254
154 194 254
154 194 254
154 194 254
154 194 254
154 194 254
154 194 254
154 194 254
154 194 254
154 194 254
154 194 254
154 194 254
154 194 254
154 194 254
154 194 254
154 194 254
154 194 254
154 194 254
154 194 254
154 194 254
155 195 254
155 195 254
155 195 254
155 195 254
155 195 254
155 195 254
155 195 254
155 195 254
155 195 254
155 195 254
155 195 254
155 195 254
155 195 254
155 195 254
155 195 254
155 195 254
155 195 254
155 195 254
155 195 254
156 195 254
156 195 254
156 195 254
156 195 254
156 195 254
156 195 254
156 195 254
156 195 254
156 195 254
156 196 254
156 196 254
156 196 254
156 196 254
157 196 254
157 196 254
157 196 254
157 196 254
157 196 254
157 196 254
157 196 254
157 196 254
157 196 254
157 196 254
157 196 254
158 196 254
158 196 254
158 196 254
158 196 254
158 197 254
158 197 254
158 197 254
158 197 254
158 197 254
158 197 254
158 197 254
159 197 254
159 197 254
159 197 254
159 197 254
159 197 254
159 197 254
159 197 254
159 197 254
159 197 254
159 197 254
160 198 254
160 198 254
160 198 254
160 198 254
160 198 254
160 198 254
160 198 254
160 198 254
160 198 254
160 198 254
161 198 254
161 198 254
161 198 254
161 198 254
161 198 254
161 198 254
161 199 254
161 199 254
161 199 254
161 199 254
162 199 254
162 199 254
162 199 254
162 199 254
162 199 254
162 199 254
162 199 254
162 199 254
162 199 254
163 199 254
163 199 254
163 199 254
163 199 254
163 200 254
163 200 254
163 200 254
163 200 254
163 200 254
163 200 254
164 200 254
164 200 254
164 200 254
164 200 254
164 200 254
164 200 254
164 200 254
164 200 254
164 200 254
164 200 254
164 200 254
165 201 254
165 201 254
165 201 254
165 201 254
165 201 254
165 201 254
165 201 254
165 201 254
165 201 254
165 201 254
166 201 254
166 201 254
166 201 254
166 201 254
166 201 254
166 201 254
166 201 254
166 201 254
166 202 254
166 202 254
166 202 254
166 202 254
167 202 254
167 202 254
167 202 254
167 202 254
167 202 254
167 202 254
167 202 254
167 202 254
167 202 254
167 202 254
167 202 254
168 202 254
168 202 254
168 202 254
168 202 254
168 203 254
168 203 254
168 203 254
168 203 254
168 203 254
168 203 254
168 203 254
168 203 254
168 203 254
169 203 254
169 203 254
169 203 254
169 203 254
169 203 254
169 203 254
169 203 254
169 203 254
169 203 254
169 203 254
169 203 254
169 203 254
169 203 254
170 204 254
170 204 254
170 204 254
170 204 254
170 204 254
170 204 254
170 204 254
170 204 254
170 204 254
170 204 254
170 204 254
170 204 254
170 204 254
170 204 254
170 204 254
170 204 254
170 204 254
169 203 254
169 203 254
169 203 254
169 203 254
169 203 254
169 203 254
169 203 254
169 203 254
169 203 254
169 203 254
169 203 254
169 203 254
169 203 254
169 203 254
168 203 254
168 203 254
168 203 254
168 203 254
168 203 254
168 203 254
168 203 254
168 203 254
168 202 254
168 202 254
168 202 254
168 202 254
167 202 254
167 202 254
167 202 254
167 202 254
167 202 254
167 202 254
167 202 254
167 202 254
167 202 254
167 202 254
167 202 254
166 202 254
166 202 254
166 202 254
166 202 254
166 201 254
166 201 254
166 201 254
166 201 254
166 201 254
166 201 254
166 201 254
165 201 254
165 201 254
165 201 254
165 201 254
165 201 254
165 201 254
165 201 254
165 201 254
165 201 254
165 201 254
165 201 254
164 200 254
164 200 254
164 200 254
164 200 254
164 200 254
164 200 254
164 200 254
164 200 254
164 200 254
164 200 254
163 200 254
163 200 254
163 200 254
163 200 254
163 200 254
163 200 254
163 200 254
163 199 254
163 199 254
163 199 254
162 199 254
162 199 254
162 199 254
162 199 254
162 199 254
162 199 254
162 199 254
162 199 254
162 199 254
162 199 254
161 199 254
161 199 254
161 199 254
161 198 254
161 198 254
161 198 254
161 198 254
161 198 254
161 198 254
161 198 254
160 198 254
160 198 254
160 198 254
160 198 254
160 198 254
160 198 254
160 198 254
160 198 254
160 198 254
160 198 254
159 197 254
159 197 254
159 197 254
159 197 254
159 197 254
159 197 254
159 197 254
159 197 254
159 197 254
159 197 254
158 197 254
158 197 254
158 197 254
158 197 254
158 197 254
158 197 254
158 197 254
158 196 254
158 196 254
158 196 254
158 196 254
157 196 254
157 196 254
157 196 254
157 196 254
157 196 254
157 196 254
157 196 254
157 196 254
157 196 254
157 196 254
157 196 254
157 196 254
156 196 254
156 196 254
156 196 254
156 196 254
156 195 254
156 195 254
156 195 254
156 195 254
156 195 254
156 195 254
156 195 254
156 195 254
156 195 254
156 195 254
155 195 254
155 195 254
155 195 254
155 195 254
155 195 254
155 195 254
155 195 254
155 195 254
155 195 254
155 195 254
155 195 254
155 195 254
155 195 254
155 195 254
155 195 254
155 195 254
155 195 254
155 195 254
155 195 254
155 195 254
155 195 254
155 195 254
155 195 254
155 195 254
155 195 254
154 194 254
154 194 254
154 194 254
154 194 254
154 194 254
154 194 254
154 194 254
154 194 254
154 194 254
154 194 254
154 194 254
154 194 254
154 194 254
154 194 254
154 194 254
154 194 254
154 194 254
154 194 254
155 195 254
155 195 254
155 195 254
155 195 254
155 195 254
155 195 254
155 195 254
155 195 254
155 195 254
155 195 254
155 195 254
155 195 254
155 195 254
155 195 254
155 195 254
155 195 254
155 195 254
155 195 254
155 195 254
155 195 254
155 195 254
155 195 254
155 195 254
155 195 254
155 195 254
156 195 254
156 195 254
156 195 254
156 195 254
156 195 254
156 195 254
156 195 254
156 195 254
156 195 254
156 195 254
156 196 254
156 196 254
156 196 254
156 196 254
157 196 254
157 196 254
157 196 254
157 196 254
157 196 254
157 196 254
157 196 254
157 196 254
157 196 254
157 196 254
157 196 254
157 196 254
158 196 254
158 196 254
158 196 254
158 196 254
158 197 254
158 197 254
158 197 254
158 197 254
158 197 254
158 197 254
158 197 254
159 197 254
159 197 254
159 197 254
159 197 254
159 197 254
159 197 254
159 197 254
159 197 254
159 197 254
159 197 254
160 198 254
160 198 254
160 198 254
160 198 254
160 198 254
160 198 254
160 198 254
160 198 254
160 198 254
160 198 254
161 198 254
161 198 254
161 198 254
161 198 254
161 198 254
161 198 254
161 198 254
161 199 254
161 199 254
161 199 254
162 199 254
162 199 254
162 199 254
162 199 254
162 199 254
162 199 254
162 199 254
162 199 254
162 199 254
162 199 254
163 199 254
163 199 254
163 199 254
163 200 254
163 200 254
163 200 254
163 200 254
163 200 254
163 200 254
163 200 254
164 200 254
164 200 254
164 200 254
164 200 254
164 200 254
164 200 254
164 200 254
164 200 254
164 200 254
164 200 254
165 201 254
165 201 254
165 201 254
165 201 254
165 201 254
165 201 254
165 201 254
165 201 254
165 201 254
165 201 254
165 201 254
166 201 254
166 201 254
166 201 254
166 201 254
166 201 254
166 201 254
166 201 254
166 202 254
166 202 254
166 202 254
166 202 254
167 202 254
167 202 254
167 202 254
167 202 254
167 202 254
167 202 254
167 202 254
167 202 254
167 202 254
167 202 254
167 202 254
168 202 254
168 202 254
168 202 254
168 202 254
168 203 254
168 203 254
168 203 254
168 203 254
168 203 254
168 203 254
168 203 254
168 203 254
168 203 254
169 203 254
169 203 254
169 203 254
169 203 254
169 203 254
169 203 254
169 203 254
169 203 254
169 203 254
169 203 254
169 203 254
169 203 254
169 203 254
170 204 254
170 204 254
170 204 254
170 204 254
170 204 254
170 204 254
170 204 254
170 204 254
170 204 254
170 204 254
170 204 254
170 204 254
170 204 254
170 204 254
170 204 254
170 204 254
170 204 254
170 204 254
170 204 254
170 204 254
170 204 254
170 204 254
170 204 254
170 204 254
169 203 254
169 203 254
169 203 254
169 203 254
169 203 254
169 203 254
169 203 254
169 203 254
169 203 254
169 203 254
169 203 254
169 203 254
169 203 254
168 203 254
168 203 254
168 203 254
168 203 254
168 203 254
168 203 254
168 203 254
168 203 254
168 202 254
168 202 254
168 202 254
168 202 254
167 202 254
167 202 254
167 202 254
167 202 254
167 202 254
167 202 254
167 202 254
167 202 254
167 202 254
167 202 254
167 202 254
166 202 254
166 202 254
166 202 254
166 202 254
166 201 254
166 201 254
166 201 254
166 201 254
166 201 254
166 201 254
166 201 254
165 201 254
165 201 254
165 201 254
165 201 254
165 201 254
165 201 254
165 201 254
165 201 254
165 201 254
165 201 254
165 201 254
164 200 254
164 200 254
164 200 254
164 200 254
164 200 254
164 200 254
164 200 254
164 200 254
164 200 254
164 200 254
163 200 254
163 200 254
163 200 254
163 200 254
163 200 254
163 200 254
163 200 254
163 199 254
163 199 254
163 199 254
162 199 254
162 199 254
162 199 254
162 199 254
162 199 254
162 199 254
162 199 254
162 199 254
162 199 254
162 199 254
161 199 254
161 199 254
161 199 254
161 198 254
161 198 254
161 198 254
161 198 254
161 198 254
161 198 254
161 198 254
160 198 254
160 198 254
160 198 254
160 198 254
160 198 254
160 198 254
160 198 254
160 198 254
160 198 254
160 198 254
159 197 254
159 197 254
159 197 254
159 197 254
159 197 254
159 197 254
159 197 254
159 197 254
159 197 254
159 197 254
158 197 254
158 197 254
158 197 254
158 197 254
158 197 254
158 197 254
158 197 254
158 196 254
158 196 254
158 196 254
158 196 254
157 196 254
157 196 254
157 196 254
157 196 254
157 196 254
157 196 254
157 196 254
157 196 254
157 196 254
157 196 254
157 196 254
157 196 254
157 196 254
156 196 254
156 196 254
156 196 254
156 196 254
156 196 254
156 195 254
156 195 254
156 195 254
156 195 254
156 195 254
156 195 254
156 195 254
156 195 254
156 195 254
156 195 254
156 195 254
155 195 254
155 195 254
155 195 254
155 195 254
155 195 254
155 195 254
155 195 254
155 195 254
155 195 254
155 195 254
155 195 254
155 195 254
155 195 254
155 195 254
155 195 254
155 195 254
155 195 254
155 195 254
155 195 254
155 195 254
155 195 254
155 195 254
155 195 254
155 195 254
155 195 254
155 195 254
155 195 254
155 195 254
155 195 254
155 195 254
155 195 254
155 195 254
155 195 254
155 195 254
155 195 254
155 195 254
155 195 254
155 195 254
155 195 254
155 195 254
155 195 254
155 195 254
155 195 254
155 195 254
155 195 254
155 195 254
155 195 254
155 195 254
155 195 254
155 195 254
155 195 254
155 195 254
155 195 254
155 195 254
155 195 254
155 195 254
155 195 254
156 195 254
156 195 254
156 195 254
156 195 254
156 195 254
156 195 254
156 195 254
156 195 254
156 195 254
156 195 254
156 195 254
156 196 254
156 196 254
156 196 254
156 196 254
157 196 254
157 196 254
157 196 254
157 196 254
157 196 254
157 196 254
157 196 254
157 196 254
157 196 254
157 196 254
157 196 254
157 196 254
157 196 254
158 196 254
158 196 254
158 196 254
158 197 254
158 197 254
158 197 254
158 197 254
158 197 254
158 197 254
158 197 254
158 197 254
159 197 254
159 197 254
159 197 254
159 197 254
159 197 254
159 197 254
159 197 254
159 197 254
159 197 254
159 197 254
160 198 254
160 198 254
160 198 254
160 198 254
160 198 254
160 198 254
160 198 254
160 198 254
160 198 254
160 198 254
161 198 254
161 198 254
161 198 254
161 198 254
161 198 254
161 198 254
161 198 254
161 199 254
161 199 254
161 199 254
162 199 254
162 199 254
162 199 254
162 199 254
162 199 254
162 199 254
162 199 254
162 199 254
162 199 254
162 199 254
163 199 254
163 199 254
163 199 254
163 200 254
163 200 254
163 200 254
163 200 254
163 200 254
163 200 254
163 200 254
164 200 254
164 200 254
164 200 254
164 200 254
164 200 254
164 200 254
164 200 254
164 200 254
164 200 254
164 200 254
165 201 254
165 201 254
165 201 254
165 201 254
165 201 254
165 201 254
165 201 254
165 201 254
165 201 254
165 201 254
165 201 254
166 201 254
166 201 254
166 201 254
166 201 254
166 201 254
166 201 254
166 201 254
166 202 254
166 202 254
166 202 254
166 202 254
167 202 254
167 202 254
167 202 254
167 202 254
167 202 254
167 202 254
167 202 254
167 202 254
167 202 254
167 202 254
167 202 254
168 202 254
168 202 254
168 202 254
168 202 254
168 203 254
168 203 254
168 203 254
168 203 254
168 203 254
168 203 254
168 203 254
168 203 254
168 203 254
169 203 254
169 203 254
169 203 254
169 203 254
169 203 254
169 203 254
169 203 254
169 203 254
169 203 254
169 203 254
169 203 254
169 203 254
169 203 254
170 204 254
170 204 254
170 204 254
170 204 254
170 204 254
170 204 254
170 204 254
170 204 254
170 204 254
170 204 254
170 204 254
170 204 254
170 204 254
171 204 254
171 204 254
171 204 254
170 204 254
170 204 254
170 204 254
170 204 254
170 204 254
170 204 254
170 204 254
170 204 254
170 204 254
170 204 254
170 204 254
170 204 254
170 204 254
170 204 254
169 203 254
169 203 254
169 203 254
169 203 254
169 203 254
169 203 254
169 203 254
169 203 254
169 203 254
169 203 254
169 203 254
169 203 254
169 203 254
168 203 254
168 203 254
168 203 254
168 203 254
168 203 254
168 203 254
168 203 254
168 203 254
168 202 254
168 202 254
168 202 254
168 202 254
167 202 254
167 202 254
167 202 254
167 202 254
167 202 254
167 202 254
167 202 254
167 202 254
167 202 254
167 202 254
167 202 254
166 202 254
166 202 254
166 202 254
166 202 254
166 201 254
166 201 254
166 201 254
166 201 254
166 201 254
166 201 254
166 201 254
166 201 254
165 201 254
165 201 254
165 201 254
165 201 254
165 201 254
165 201 254
165 201 254
165 201 254
165 201 254
165 201 254
164 200 254
164 200 254
164 200 254
164 200 254
164 200 254
164 200 254
164 200 254
164 200 254
164 200 254
164 200 254
163 200 254
163 200 254
163 200 254
163 200 254
163 200 254
163 200 254
163 200 254
163 199 254
163 199 254
163 199 254
162 199 254
162 199 254
162 199 254
162 199 254
162 199 254
162 199 254
162 199 254
162 199 254
162 199 254
162 199 254
161 199 254
161 199 254
161 199 254
161 198 254
161 198 254
161 198 254
161 198 254
161 198 254
161 198 254
161 198 254
160 198 254
160 198 254
160 198 254
160 198 254
160 198 254
160 198 254
160 198 254
160 198 254
160 198 254
160 198 254
159 197 254
159 197 254
159 197 254
159 197 254
159 197 254
159 197 254
159 197 254
159 197 254
159 197 254
159 197 254
159 197 254
158 197 254
158 197 254
158 197 254
158 197 254
158 197 254
158 197 254
158 197 254
158 196 254
158 196 254
158 196 254
158 196 254
157 196 254
157 196 254
157 196 254
157 196 254
157 196 254
157 196 254
157 196 254
157 196 254
157 196 254
157 196 254
157 196 254
157 196 254
157 196 254
156 196 254
156 196 254
156 196 254
156 196 254
156 196 254
156 195 254
156 195 254
156 195 254
156 195 254
156 195 254
156 195 254
156 195 254
156 195 254
156 195 254
156 195 254
156 195 254
156 195 254
156 195 254
156 195 254
155 195 254
155 195 254
155 195 254
155 195 254
155 195 254
155 195 254
155 195 254
155 195 254
155 195 254
155 195 254
155 195 254
155 195 254
155 195 254
155 195 254
155 195 254
155 195 254
155 195 254
155 195 254
155 195 254
155 195 254
155 195 254
155 195 254
155 195 254
155 195 254
155 195 254
155 195 254
155 195 254
155 195 254
155 195 254
155 195 254
155 195 254
155 195 254
155 195 254
155 195 254
155 195 254
155 195 254
155 195 254
155 195 254
155 195 254
155 195 254
155 195 254
155 195 254
155 195 254
156 195 254
156 195 254
156 195 254
156 195 254
156 195 254
156 195 254
156 195 254
156 195 254
156 195 254
156 195 254
156 195 254
156 195 254
156 196 254
156 196 254
156 196 254
156 196 254
156 196 254
156 196 254
157 196 254
157 196 254
157 196 254
157 196 254
157 196 254
157 196 254
157 196 254
157 196 254
157 196 254
157 196 254
157 196 254
157 196 254
157 196 254
158 196 254
158 196 254
158 196 254
158 196 254
158 197 254
158 197 254
158 197 254
158 197 254
158 197 254
158 197 254
158 197 254
159 197 254
159 197 254
159 197 254
159 197 254
159 197 254
159 197 254
159 197 254
159 197 254
159 197 254
159 197 254
159 197 254
160 198 254
160 198 254
160 198 254
160 198 254
160 198 254
160 198 254
160 198 254
160 198 254
160 198 254
160 198 254
161 198 254
161 198 254
161 198 254
161 198 254
161 198 254
161 198 254
161 198 254
161 199 254
161 199 254
161 199 254
162 199 254
162 199 254
162 199 254
162 199 254
162 199 254
162 199 254
162 199 254
162 199 254
162 199 254
162 199 254
163 199 254
163 199 254
163 199 254
163 200 254
163 200 254
163 200 254
163 200 254
163 200 254
163 200 254
163 200 254
164 200 254
164 200 254
164 200 254
164 200 254
164 200 254
164 200 254
164 200 254
164 200 254
164 200 254
164 200 254
165 201 254
165 201 254
165 201 254
165 201 254
165 201 254
165 201 254
165 201 254
165 201 254
165 201 254
165 201 254
165 201 254
166 201 254
166 201 254
166 201 254
166 201 254
166 201 254
166 201 254
166 201 254
166 202 254
166 202 254
166 202 254
166 202 254
167 202 254
167 202 254
167 202 254
167 202 254
167 202 254
167 202 254
167 202 254
167 202 254
167 202 254
167 202 254
167 202 254
168 202 254
168 202 254
168 202 254
168 202 254
168 203 254
168 203 254
168 203 254
168 203 254
168 203 254
168 203 254
168 203 254
168 203 254
169 203 254
169 203 254
169 203 254
169 203 254
169 203 254
169 203 254
169 203 254
169 203 254
169 203 254
169 203 254
169 203 254
169 203 254
169 203 254
170 204 254
170 204 254
170 204 254
170 204 254
170 204 254
170 204 254
170 204 254
170 204 254
170 204 254
170 204 254
170 204 254
170 204 254
170 204 254
170 204 254
171 204 254
171 204 254
171 204 254
171 204 254
171 204 254
171 204 254
171 204 254
171 204 254
171 204 254
170 204 254
170 204 254
170 204 254
170 204 254
170 204 254
170 204 254
170 204 254
170 204 254
170 204 254
170 204 254
170 204 254
170 204 254
170 204 254
170 204 254
169 203 254
169 203 254
169 203 254
169 203 254
169 203 254
169 203 254
169 203 254
169 203 254
169 203 254
169 203 254
169 203 254
169 203 254
169 203 254
168 203 254
168 203 254
168 203 254
168 203 254
168 203 254
168 203 254
168 203 254
168 203 254
168 202 254
168 202 254
168 202 254
168 202 254
167 202 254
167 202 254
167 202 254
167 202 254
167 202 254
167 202 254
167 202 254
167 202 254
167 202 254
167 202 254
167 202 254
166 202 254
166 202 254
166 202 254
166 202 254
166 201 254
166 201 254
166 201 254
166 201 254
166 201 254
166 201 254
166 201 254
166 201 254
165 201 254
165 201 254
165 201 254
165 201 254
165 201 254
165 201 254
165 201 254
165 201 254
165 201 254
165 201 254
164 200 254
164 200 254
164 200 254
164 200 254
164 200 254
164 200 254
164 200 254
164 200 254
164 200 254
164 200 254
163 200 254
163 200 254
163 200 254
163 200 254
163 200 254
163 200 254
163 200 254
163 199 254
163 199 254
163 199 254
162 199 254
162 199 254
162 199 254
162 199 254
162 199 254
162 199 254
162 199 254
162 199 254
162 199 254
162 199 254
161 199 254
161 199 254
161 199 254
161 198 254
161 198 254
161 198 254
161 198 254
161 198 254
161 198 254
161 198 254
160 198 254
160 198 254
160 198 254
160 198 254
160 198 254
160 198 254
160 198 254
160 198 254
160 198 254
160 198 254
159 197 254
159 197 254
159 197 254
159 197 254
159 197 254
159 197 254
159 197 254
159 197 254
159 197 254
159 197 254
159 197 254
158 197 254
158 197 254
158 197 254
158 197 254
158 197 254
158 197 254
158 197 254
158 197 254
158 196 254
158 196 254
158 196 254
158 196 254
157 196 254
157 196 254
157 196 254
157 196 254
157 196 254
157 196 254
157 196 254
157 196 254
157 196 254
157 196 254
157 196 254
157 196 254
157 196 254
157 196 254
156 196 254
156 196 254
156 196 254
156 196 254
156 196 254
156 196 254
156 195 254
156 195 254
156 195 254
156 195 254
156 195 254
156 195 254
156 195 254
156 195 254
156 195 254
156 195 254
156 195 254
156 195 254
156 195 254
156 195 254
156 195 254
156 195 254
156 195 254
156 195 254
155 195 254
155 195 254
155 195 254
155 195 254
155 195 254
155 195 254
155 195 254
155 195 254
155 195 254
155 195 254
155 195 254
155 195 254
155 195 254
155 195 254
155 195 254
155 195 254
155 195 254
155 195 254
155 195 254
155 195 254
155 195 254
156 195 254
156 195 254
156 195 254
156 195 254
156 195 254
156 195 254
156 195 254
156 195 254
156 195 254
156 195 254
156 195 254
156 195 254
156 195 254
156 195 254
156 195 254
156 195 254
156 195 254
156 195 254
156 195 254
156 196 254
156 196 254
156 196 254
156 196 254
156 196 254
156 196 254
157 196 254
157 196 254
157 196 254
157 196 254
157 196 254
157 196 254
157 196 254
157 196 254
157 196 254
157 196 254
157 196 254
157 196 254
157 196 254
157 196 254
158 196 254
158 196 254
158 196 254
158 196 254
158 197 254
158 197 254
158 197 254
158 197 254
158 197 254
158 197 254
158 197 254
158 197 254
159 197 254
159 197 254
159 197 254
159 197 254
159 197 254
159 197 254
159 197 254
159 197 254
159 197 254
159 197 254
160 198 254
160 198 254
160 198 254
160 198 254
160 198 254
160 198 254
160 198 254
160 198 254
160 198 254
160 198 254
160 198 254
161 198 254
161 198 254
161 198 254
161 198 254
161 198 254
161 198 254
161 199 254
161 199 254
161 199 254
161 199 254
162 199 254
162 199 254
162 199 254
162 199 254
162 199 254
162 199 254
162 199 254
162 199 254
162 199 254
162 199 254
163 199 254
163 199 254
163 199 254
163 200 254
163 200 254
163 200 254
163 200 254
163 200 254
163 200 254
163 200 254
164 200 254
164 200 254
164 200 254
164 200 254
164 200 254
164 200 254
164 200 254
164 200 254
164 200 254
164 200 254
165 201 254
165 201 254
165 201 254
165 201 254
165 201 254
165 201 254
165 201 254
165 201 254
165 201 254
165 201 254
165 201 254
166 201 254
166 201 254
166 201 254
166 201 254
166 201 254
166 201 254
166 201 254
166 202 254
166 202 254
166 202 254
166 202 254
167 202 254
167 202 254
167 202 254
167 202 254
167 202 254
167 202 254
167 202 254
167 202 254
167 202 254
167 202 254
167 202 254
168 202 254
168 202 254
168 202 254
168 202 254
168 203 254
168 203 254
168 203 254
168 203 254
168 203 254
168 203 254
168 203 254
168 203 254
169 203 254
169 203 254
169 203 254
169 203 254
169 203 254
169 203 254
169 203 254
169 203 254
169 203 254
169 203 254
169 203 254
169 203 254
169 203 254
170 204 254
170 204 254
170 204 254
170 204 254
170 204 254
170 204 254
170 204 254
170 204 254
170 204 254
170 204 254
170 204 254
170 204 254
170 204 254
170 204 254
171 204 254
171 204 254
171 204 254
171 204 254
171 204 254
171 204 254
171 204 254
171 204 254
171 204 254
171 204 254
171 204 254
171 204 254
171 204 254
171 204 254
171 204 254
171 204 254
170 204 254
170 204 254
170 204 254
170 204 254
170 204 254
170 204 254
170 204 254
170 204 254
170 204 254
170 204 254
170 204 254
170 204 254
170 204 254
170 204 254
169 203 254
169 203 254
169 203 254
169 203 254
169 203 254
169 203 254
169 203 254
169 203 254
169 203 254
169 203 254
169 203 254
169 203 254
168 203 254
168 203 254
168 203 254
168 203 254
168 203 254
168 203 254
168 203 254
168 203 254
168 202 254
168 202 254
168 202 254
168 202 254
167 202 254
167 202 254
167 202 254
167 202 254
167 202 254
167 202 254
167 202 254
167 202 254
167 202 254
167 202 254
167 202 254
167 202 254
166 202 254
166 202 254
166 202 254
166 201 254
166 201 254
166 201 254
166 201 254
166 201 254
166 201 254
166 201 254
166 201 254
165 201 254
165 201 254
165 201 254
165 201 254
165 201 254
165 201 254
165 201 254
165 201 254
165 201 254
165 201 254
164 200 254
164 200 254
164 200 254
164 200 254
164 200 254
164 200 254
164 200 254
164 200 254
164 200 254
164 200 254
163 200 254
163 200 254
163 200 254
163 200 254
163 200 254
163 200 254
163 200 254
163 199 254
163 199 254
163 199 254
162 199 254
162 199 254
162 199 254
162 199 254
162 199 254
162 199 254
162 199 254
162 199 254
162 199 254
162 199 254
161 199 254
161 199 254
161 199 254
161 199 254
161 198 254
161 198 254
161 198 254
161 198 254
161 198 254
161 198 254
160 198 254
160 198 254
160 198 254
160 198 254
160 198 254
160 198 254
160 198 254
160 198 254
160 198 254
160 198 254
160 198 254
159 197 254
159 197 254
159 197 254
159 197 254
159 197 254
159 197 254
159 197 254
159 197 254
159 197 254
159 197 254
159 197 254
158 197 254
158 197 254
158 197 254
158 197 254
158 197 254
158 197 254
158 197 254
158 197 254
158 196 254
158 196 254
158 196 254
158 196 254
157 196 254
157 196 254
157 196 254
157 196 254
157 196 254
157 196 254
157 196 254
157 196 254
157 196 254
157 196 254
157 196 254
157 196 254
157 196 254
157 196 254
157 196 254
157 196 254
156 196 254
156 196 254
156 196 254
156 196 254
156 196 254
156 196 254
156 196 254
156 196 254
156 195 254
156 195 254
156 195 254
156 195 254
156 195 254
156 195 254
156 195 254
156 195 254
156 195 254
156 195 254
156 195 254
156 195 254
156 195 254
156 195 254
156 195 254
156 195 254
156 195 254
156 195 254
156 195 254
156 195 254
156 195 254
156 195 254
156 195 254
156 195 254
156 195 254
156 195 254
156 195 254
156 195 254
156 195 254
156 195 254
156 195 254
156 195 254
156 195 254
156 195 254
156 195 254
156 195 254
156 195 254
156 195 254
156 195 254
156 195 254
156 195 254
156 195 254
156 195 254
156 196 254
156 196 254
156 196 254
156 196 254
156 196 254
156 196 254
156 196 254
157 196 254
157 196 254
157 196 254
157 196 254
157 196 254
157 196 254
157 196 254
157 196 254
157 196 254
157 196 254
157 196 254
157 196 254
157 196 254
157 196 254
157 196 254
157 196 254
158 196 254
158 196 254
158 196 254
158 196 254
158 197 254
158 197 254
158 197 254
158 197 254
158 197 254
158 197 254
158 197 254
158 197 254
159 197 254
159 197 254
159 197 254
159 197 254
159 197 254
159 197 254
159 197 254
159 197 254
159 197 254
159 197 254
159 197 254
160 198 254
160 198 254
160 198 254
160 198 254
160 198 254
160 198 254
160 198 254
160 198 254
160 198 254
160 198 254
161 198 254
161 198 254
161 198 254
161 198 254
161 198 254
161 198 254
161 198 254
161 199 254
161 199 254
161 199 254
161 199 254
162 199 254
162 199 254
162 199 254
162 199 254
162 199 254
162 199 254
162 199 254
162 199 254
162 199 254
162 199 254
163 199 254
163 199 254
163 199 254
163 200 254
163 200 254
163 200 254
163 200 254
163 200 254
163 200 254
163 200 254
164 200 254
164 200 254
164 200 254
164 200 254
164 200 254
164 200 254
164 200 254
164 200 254
164 200 254
164 200 254
165 201 254
165 201 254
165 201 254
165 201 254
165 201 254
165 201 254
165 201 254
165 201 254
165 201 254
165 201 254
166 201 254
166 201 254
166 201 254
166 201 254
166 201 254
166 201 254
166 201 254
166 201 254
166 202 254
166 202 254
166 202 254
167 202 254
167 202 254
167 202 254
167 202 254
167 202 254
167 202 254
167 202 254
167 202 254
167 202 254
167 202 254
167 202 254
167 202 254
168 202 254
168 202 254
168 202 254
168 202 254
168 203 254
168 203 254
168 203 254
168 203 254
168 203 254
168 203 254
168 203 254
168 203 254
169 203 254
169 203 254
169 203 254
169 203 254
169 203 254
169 203 254
169 203 254
169 203 254
169 203 254
169 203 254
169 203 254
169 203 254
169 203 254
170 204 254
170 204 254
170 204 254
170 204 254
170 204 254
170 204 254
170 204 254
170 204 254
170 204 254
170 204 254
170 204 254
170 204 254
170 204 254
171 204 254
171 204 254
171 204 254
171 204 254
171 204 254
171 204 254
171 204 254
171 204 254
171 204 254
171 204 254
171 205 254
171 205 254
171 205 254
171 205 254
171 204 254
171 204 254
171 204 254
171 204 254
171 204 254
171 204 254
171 204 254
171 204 254
171 204 254
170 204 254
170 204 254
170 204 254
170 204 254
170 204 254
170 204 254
170 204 254
170 204 254
170 204 254
170 204 254
170 204 254
170 204 254
170 204 254
170 204 254
169 203 254
169 203 254
169 203 254
169 203 254
169 203 254
169 203 254
169 203 254
169 203 254
169 203 254
169 203 254
169 203 254
169 203 254
168 203 254
168 203 254
168 203 254
168 203 254
168 203 254
168 203 254
168 203 254
168 203 254
168 203 254
168 202 254
168 202 254
168 202 254
167 202 254
167 202 254
167 202 254
167 202 254
167 202 254
167 202 254
167 202 254
167 202 254
167 202 254
167 202 254
167 202 254
167 202 254
166 202 254
166 202 254
166 202 254
166 202 254
166 201 254
166 201 254
166 201 254
166 201 254
166 201 254
166 201 254
166 201 254
165 201 254
165 201 254
165 201 254
165 201 254
165 201 254
165 201 254
165 201 254
165 201 254
165 201 254
165 201 254
164 200 254
164 200 254
164 200 254
164 200 254
164 200 254
164 200 254
164 200 254
164 200 254
164 200 254
164 200 254
163 200 254
163 200 254
163 200 254
163 200 254
163 200 254
163 200 254
163 200 254
163 199 254
163 199 254
163 199 254
162 199 254
162 199 254
162 199 254
162 199 254
162 199 254
162 199 254
162 199 254
162 199 254
162 199 254
162 199 254
161 199 254
161 199 254
161 199 254
161 199 254
161 198 254
161 198 254
161 198 254
161 198 254
161 198 254
161 198 254
160 198 254
160 198 254
160 198 254
160 198 254
160 198 254
160 198 254
160 198 254
160 198 254
160 198 254
160 198 254
160 198 254
159 197 254
159 197 254
159 197 254
159 197 254
159 197 254
159 197 254
159 197 254
159 197 254
159 197 254
159 197 254
159 197 254
159 197 254
158 197 254
158 197 254
158 197 254
158 197 254
158 197 254
158 197 254
158 197 254
158 197 254
158 196 254
158 196 254
158 196 254
158 196 254
158 196 254
157 196 254
157 196 254
157 196 254
157 196 254
157 196 254
157 196 254
157 196 254
157 196 254
157 196 254
157 196 254
157 196 254
157 196 254
157 196 254
157 196 254
157 196 254
157 196 254
157 196 254
157 196 254
156 196 254
156 196 254
156 196 254
156 196 254
156 196 254
156 196 254
156 196 254
156 196 254
156 196 254
156 196 254
156 196 254
156 195 254
156 195 254
156 195 254
156 195 254
156 195 254
156 195 254
156 195 254
156 195 254
156 195 254
156 195 254
156 195 254
156 195 254
156 195 254
156 195 254
156 195 254
156 195 254
156 195 254
156 195 254
156 195 254
156 195 254
156 195 254
156 195 254
156 195 254
156 196 254
156 196 254
156 196 254
156 196 254
156 196 254
156 196 254
156 196 254
156 196 254
156 196 254
156 196 254
157 196 254
157 196 254
157 196 254
157 196 254
157 196 254
157 196 254
157 196 254
157 196 254
157 196 254
157 196 254
157 196 254
157 196 254
157 196 254
157 196 254
157 196 254
157 196 254
157 196 254
157 196 254
158 196 254
158 196 254
158 196 254
158 196 254
158 196 254
158 197 254
158 197 254
158 197 254
158 197 254
158 197 254
158 197 254
158 197 254
158 197 254
159 197 254
159 197 254
159 197 254
159 197 254
159 197 254
159 197 254
159 197 254
159 197 254
159 197 254
159 197 254
159 197 254
159 197 254
160 198 254
160 198 254
160 198 254
160 198 254
160 198 254
160 198 254
160 198 254
160 198 254
160 198 254
160 198 254
161 198 254
161 198 254
161 198 254
161 198 254
161 198 254
161 198 254
161 198 254
161 199 254
161 199 254
161 199 254
161 199 254
162 199 254
162 199 254
162 199 254
162 199 254
162 199 254
162 199 254
162 199 254
162 199 254
162 199 254
162 199 254
163 199 254
163 199 254
163 199 254
163 200 254
163 200 254
163 200 254
163 200 254
163 200 254
163 200 254
163 200 254
164 200 254
164 200 254
164 200 254
164 200 254
164 200 254
164 200 254
164 200 254
164 200 254
164 200 254
164 200 254
165 201 254
165 201 254
165 201 254
165 201 254
165 201 254
165 201 254
165 201 254
165 201 254
165 201 254
165 201 254
166 201 254
166 201 254
166 201 254
166 201 254
166 201 254
166 201 254
166 201 254
166 201 254
166 202 254
166 202 254
166 202 254
167 202 254
167 202 254
167 202 254
167 202 254
167 202 254
167 202 254
167 202 254
167 202 254
167 202 254
167 202 254
167 202 254
167 202 254
168 202 254
168 202 254
168 202 254
168 203 254
168 203 254
168 203 254
168 203 254
168 203 254
168 203 254
168 203 254
168 203 254
168 203 254
169 203 254
169 203 254
169 203 254
169 203 254
169 203 254
169 203 254
169 203 254
169 203 254
169 203 254
169 203 254
169 203 254
169 203 254
170 204 254
170 204 254
170 204 254
170 204 254
170 204 254
170 204 254
170 204 254
170 204 254
170 204 254
170 204 254
170 204 254
170 204 254
170 204 254
170 204 254
171 204 254
171 204 254
171 204 254
171 204 254
171 204 254
171 204 254
171 204 254
171 204 254
171 204 254
171 205 254
171 205 254
171 205 254
171 205 254
172 205 254
172 205 254
171 205 254
171 205 254
171 205 254
171 205 254
171 205 254
171 204 254
171 204 254
171 204 254
171 204 254
171 204 254
171 204 254
171 204 254
171 204 254
171 204 254
171 204 254
170 204 254
170 204 254
170 204 254
170 204 254
170 204 254
170 204 254
170 204 254
170 204 254
170 204 254
170 204 254
170 204 254
170 204 254
170 204 254
169 203 254
169 203 254
169 203 254
169 203 254
169 203 254
169 203 254
169 203 254
169 203 254
169 203 254
169 203 254
169 203 254
169 203 254
169 203 254
168 203 254
168 203 254
168 203 254
168 203 254
168 203 254
168 203 254
168 203 254
168 203 254
168 202 254
168 202 254
168 202 254
168 202 254
167 202 254
167 202 254
167 202 254
167 202 254
167 202 254
167 202 254
167 202 254
167 202 254
167 202 254
167 202 254
167 202 254
166 202 254
166 202 254
166 202 254
166 202 254
166 201 254
166 201 254
166 201 254
166 201 254
166 201 254
166 201 254
166 201 254
165 201 254
165 201 254
165 201 254
165 201 254
165 201 254
165 201 254
165 201 254
165 201 254
165 201 254
165 201 254
164 200 254
164 200 254
164 200 254
164 200 254
164 200 254
164 200 254
164 200 254
164 200 254
164 200 254
164 200 254
163 200 254
163 200 254
163 200 254
163 200 254
163 200 254
163 200 254
163 200 254
163 199 254
163 199 254
163 199 254
162 199 254
162 199 254
162 199 254
162 199 254
162 199 254
162 199 254
162 199 254
162 199 254
162 199 254
162 199 254
162 199 254
161 199 254
161 199 254
161 199 254
161 198 254
161 198 254
161 198 254
161 198 254
161 198 254
161 198 254
161 198 254
160 198 254
160 198 254
160 198 254
160 198 254
160 198 254
160 198 254
160 198 254
160 198 254
160 198 254
160 198 254
160 198 254
159 197 254
159 197 254
159 197 254
159 197 254
159 197 254
159 197 254
159 197 254
159 197 254
159 197 254
159 197 254
159 197 254
159 197 254
158 197 254
158 197 254
158 197 254
158 197 254
158 197 254
158 197 254
158 197 254
158 197 254
158 197 254
158 196 254
158 196 254
158 196 254
158 196 254
158 196 254
157 196 254
157 196 254
157 196 254
157 196 254
157 196 254
157 196 254
157 196 254
157 196 254
157 196 254
157 196 254
157 196 254
157 196 254
157 196 254
157 196 254
157 196 254
157 196 254
157 196 254
157 196 254
157 196 254
157 196 254
157 196 254
157 196 254
157 196 254
157 196 254
157 196 254
156 196 254
156 196 254
156 196 254
156 196 254
156 196 254
156 196 254
156 196 254
156 196 254
156 196 254
156 196 254
156 196 254
156 196 254
156 196 254
156 196 254
156 196 254
156 196 254
156 196 254
156 196 254
156 196 254
156 196 254
156 196 254
157 196 254
157 196 254
157 196 254
157 196 254
157 196 254
157 196 254
157 196 254
157 196 254
157 196 254
157 196 254
157 196 254
157 196 254
157 196 254
157 196 254
157 196 254
157 196 254
157 196 254
157 196 254
157 196 254
157 196 254
157 196 254
157 196 254
157 196 254
157 196 254
158 196 254
158 196 254
158 196 254
158 196 254
158 196 254
158 197 254
158 197 254
158 197 254
158 197 254
158 197 254
158 197 254
158 197 254
158 197 254
158 197 254
159 197 254
159 197 254
159 197 254
159 197 254
159 197 254
159 197 254
159 197 254
159 197 254
159 197 254
159 197 254
159 197 254
159 197 254
160 198 254
160 198 254
160 198 254
160 198 254
160 198 254
160 198 254
160 198 254
160 198 254
160 198 254
160 198 254
160 198 254
161 198 254
161 198 254
161 198 254
161 198 254
161 198 254
161 198 254
161 198 254
161 199 254
161 199 254
161 199 254
162 199 254
162 199 254
162 199 254
162 199 254
162 199 254
162 199 254
162 199 254
162 199 254
162 199 254
162 199 254
162 199 254
163 199 254
163 199 254
163 199 254
163 200 254
163 200 254
163 200 254
163 200 254
163 200 254
163 200 254
163 200 254
164 200 254
164 200 254
164 200 254
164 200 254
164 200 254
164 200 254
164 200 254
164 200 254
164 200 254
164 200 254
165 201 254
165 201 254
165 201 254
165 201 254
165 201 254
165 201 254
165 201 254
165 201 254
165 201 254
165 201 254
166 201 254
166 201 254
166 201 254
166 201 254
166 201 254
166 201 254
166 201 254
166 202 254
166 202 254
166 202 254
166 202 254
167 202 254
167 202 254
167 202 254
167 202 254
167 202 254
167 202 254
167 202 254
167 202 254
167 202 254
167 202 254
167 202 254
168 202 254
168 202 254
168 202 254
168 202 254
168 203 254
168 203 254
168 203 254
168 203 254
168 203 254
168 203 254
168 203 254
168 203 254
169 203 254
169 203 254
169 203 254
169 203 254
169 203 254
169 203 254
169 203 254
169 203 254
169 203 254
169 203 254
169 203 254
169 203 254
169 203 254
170 204 254
170 204 254
170 204 254
170 204 254
170 204 254
170 204 254
170 204 254
170 204 254
170 204 254
170 204 254
170 204 254
170 204 254
170 204 254
171 204 254
171 204 254
171 204 254
171 204 254
171 204 254
171 204 254
171 204 254
171 204 254
171 204 254
171 204 254
171 205 254
171 205 254
171 205 254
171 205 254
171 205 254
172 205 254
172 205 254
172 205 254
172 205 254
172 205 254
172 205 254
172 205 254
172 205 254
171 205 254
171 205 254
171 205 254
171 205 254
171 205 254
171 204 254
171 204 254
171 204 254
171 204 254
171 204 254
171 204 254
171 204 254
171 204 254
171 204 254
170 204 254
170 204 254
170 204 254
170 204 254
170 204 254
170 204 254
170 204 254
170 204 254
170 204 254
170 204 254
170 204 254
170 204 254
170 204 254
170 204 254
169 203 254
169 203 254
169 203 254
169 203 254
169 203 254
169 203 254
169 203 254
169 203 254
169 203 254
169 203 254
169 203 254
169 203 254
168 203 254
168 203 254
168 203 254
168 203 254
168 203 254
168 203 254
168 203 254
168 203 254
168 202 254
168 202 254
168 202 254
168 202 254
167 202 254
167 202 254
167 202 254
167 202 254
167 202 254
167 202 254
167 202 254
167 202 254
167 202 254
167 202 254
167 202 254
166 202 254
166 202 254
166 202 254
166 202 254
166 201 254
166 201 254
166 201 254
166 201 254
166 201 254
166 201 254
166 201 254
165 201 254
165 201 254
165 201 254
165 201 254
165 201 254
165 201 254
165 201 254
165 201 254
165 201 254
165 201 254
164 200 254
164 200 254
164 200 254
164 200 254
164 200 254
164 200 254
164 200 254
164 200 254
164 200 254
164 200 254
163 200 254
163 200 254
163 200 254
163 200 254
163 200 254
163 200 254
163 200 254
163 199 254
163 199 254
163 199 254
163 199 254
162 199 254
162 199 254
162 199 254
162 199 254
162 199 254
162 199 254
162 199 254
162 199 254
162 199 254
162 199 254
161 199 254
161 199 254
161 199 254
161 198 254
161 198 254
161 198 254
161 198 254
161 198 254
161 198 254
161 198 254
160 198 254
160 198 254
160 198 254
160 198 254
160 198 254
160 198 254
160 198 254
160 198 254
160 198 254
160 198 254
160 198 254
159 197 254
159 197 254
159 197 254
159 197 254
159 197 254
159 197 254
159 197 254
159 197 254
159 197 254
159 197 254
159 197 254
159 197 254
159 197 254
158 197 254
158 197 254
158 197 254
158 197 254
158 197 254
158 197 254
158 197 254
158 197 254
158 197 254
158 197 254
158 196 254
158 196 254
158 196 254
158 196 254
158 196 254
158 196 254
157 196 254
157 196 254
157 196 254
157 196 254
157 196 254
157 196 254
157 196 254
157 196 254
157 196 254
157 196 254
157 196 254
157 196 254
157 196 254
157 196 254
157 196 254
157 196 254
157 196 254
157 196 254
157 196 254
157 196 254
157 196 254
157 196 254
157 196 254
157 196 254
157 196 254
157 196 254
157 196 254
157 196 254
157 196 254
157 196 254
157 196 254
157 196 254
157 196 254
157 196 254
157 196 254
157 196 254
157 196 254
157 196 254
157 196 254
157 196 254
157 196 254
157 196 254
157 196 254
157 196 254
157 196 254
157 196 254
157 196 254
157 196 254
157 196 254
157 196 254
157 196 254
157 196 254
157 196 254
157 196 254
157 196 254
157 196 254
157 196 254
157 196 254
158 196 254
158 196 254
158 196 254
158 196 254
158 196 254
158 196 254
158 197 254
158 197 254
158 197 254
158 197 254
158 197 254
158 197 254
158 197 254
158 197 254
158 197 254
158 197 254
159 197 254
159 197 254
159 197 254
159 197 254
159 197 254
159 197 254
159 197 254
159 197 254
159 197 254
159 197 254
159 197 254
159 197 254
160 198 254
160 198 254
160 198 254
160 198 254
160 198 254
160 198 254
160 198 254
160 198 254
160 198 254
160 198 254
160 198 254
160 198 254
161 198 254
161 198 254
161 198 254
161 198 254
161 198 254
161 198 254
161 198 254
161 199 254
161 199 254
161 199 254
162 199 254
162 199 254
162 199 254
162 199 254
162 199 254
162 199 254
162 199 254
162 199 254
162 199 254
162 199 254
163 199 254
163 199 254
163 199 254
163 199 254
163 200 254
163 200 254
163 200 254
163 200 254
163 200 254
163 200 254
164 200 254
164 200 254
164 200 254
164 200 254
164 200 254
164 200 254
164 200 254
164 200 254
164 200 254
164 200 254
164 200 254
165 201 254
165 201 254
165 201 254
165 201 254
165 201 254
165 201 254
165 201 254
165 201 254
165 201 254
165 201 254
166 201 254
166 201 254
166 201 254
166 201 254
166 201 254
166 201 254
166 201 254
166 202 254
166 202 254
166 202 254
166 202 254
167 202 254
167 202 254
167 202 254
167 202 254
167 202 254
167 202 254
167 202 254
167 202 254
167 202 254
167 202 254
167 202 254
168 202 254
168 202 254
168 202 254
168 202 254
168 203 254
168 203 254
168 203 254
168 203 254
168 203 254
168 203 254
168 203 254
168 203 254
169 203 254
169 203 254
169 203 254
169 203 254
169 203 254
169 203 254
169 203 254
169 203 254
169 203 254
169 203 254
169 203 254
169 203 254
170 204 254
170 204 254
170 204 254
170 204 254
170 204 254
170 204 254
170 204 254
170 204 254
170 204 254
170 204 254
170 204 254
170 204 254
170 204 254
170 204 254
171 204 254
171 204 254
171 204 254
171 204 254
171 204 254
171 204 254
171 204 254
171 204 254
171 204 254
171 205 254
171 205 254
171 205 254
171 205 254
171 205 254
172 205 254
172 205 254
172 205 254
172 205 254
172 205 254
172 205 254
172 205 254
172 205 254
172 205 254
172 205 254
172 205 254
172 205 254
172 205 254
172 205 254
172 205 254
172 205 254
171 205 254
171 205 254
171 205 254
171 205 254
171 205 254
171 204 254
171 204 254
171 204 254
171 204 254
171 204 254
171 204 254
171 204 254
171 204 254
171 204 254
170 204 254
170 204 254
170 204 254
170 204 254
170 204 254
170 204 254
170 204 254
170 204 254
170 204 254
170 204 254
170 204 254
170 204 254
170 204 254
169 203 254
169 203 254
169 203 254
169 203 254
169 203 254
169 203 254
169 203 254
169 203 254
169 203 254
169 203 254
169 203 254
169 203 254
168 203 254
168 203 254
168 203 254
168 203 254
168 203 254
168 203 254
168 203 254
168 203 254
168 202 254
168 202 254
168 202 254
168 202 254
167 202 254
167 202 254
167 202 254
167 202 254
167 202 254
167 202 254
167 202 254
167 202 254
167 202 254
167 202 254
167 202 254
166 202 254
166 202 254
166 202 254
166 202 254
166 201 254
166 201 254
166 201 254
166 201 254
166 201 254
166 201 254
166 201 254
165 201 254
165 201 254
165 201 254
165 201 254
165 201 254
165 201 254
165 201 254
165 201 254
165 201 254
165 201 254
164 200 254
164 200 254
164 200 254
164 200 254
164 200 254
164 200 254
164 200 254
164 200 254
164 200 254
164 200 254
164 200 254
163 200 254
163 200 254
163 200 254
163 200 254
163 200 254
163 200 254
163 199 254
163 199 254
163 199 254
163 199 254
162 199 254
162 199 254
162 199 254
162 199 254
162 199 254
162 199 254
162 199 254
162 199 254
162 199 254
162 199 254
161 199 254
161 199 254
161 199 254
161 199 254
161 198 254
161 198 254
161 198 254
161 198 254
161 198 254
161 198 254
161 198 254
160 198 254
160 198 254
160 198 254
160 198 254
160 198 254
160 198 254
160 198 254
160 198 254
160 198 254
160 198 254
160 198 254
160 198 254
159 197 254
159 197 254
159 197 254
159 197 254
159 197 254
159 197 254
159 197 254
159 197 254
159 197 254
159 197 254
159 197 254
159 197 254
159 197 254
158 197 254
158 197 254
158 197 254
158 197 254
158 197 254
158 197 254
158 197 254
158 197 254
158 197 254
158 197 254
158 197 254
158 196 254
158 196 254
158 196 254
158 196 254
158 196 254
158 196 254
158 196 254
158 196 254
157 196 254
157 196 254
157 196 254
157 196 254
157 196 254
157 196 254
157 196 254
157 196 254
157 196 254
157 196 254
157 196 254
157 196 254
157 196 254
157 196 254
157 196 254
157 196 254
157 196 254
157 196 254
157 196 254
157 196 254
157 196 254
157 196 254
157 196 254
157 196 254
157 196 254
157 196 254
157 196 254
157 196 254
157 196 254
157 196 254
157 196 254
157 196 254
157 196 254
157 196 254
157 196 254
157 196 254
157 196 254
157 196 254
157 196 254
157 196 254
157 196 254
157 196 254
158 196 254
158 196 254
158 196 254
158 196 254
158 196 254
158 196 254
158 196 254
158 197 254
158 197 254
158 197 254
158 197 254
158 197 254
158 197 254
158 197 254
158 197 254
158 197 254
158 197 254
158 197 254
158 197 254
159 197 254
159 197 254
159 197 254
159 197 254
159 197 254
159 197 254
159 197 254
159 197 254
159 197 254
159 197 254
159 197 254
159 197 254
159 197 254
160 198 254
160 198 254
160 198 254
160 198 254
160 198 254
160 198 254
160 198 254
160 198 254
160 198 254
160 198 254
160 198 254
160 198 254
161 198 254
161 198 254
161 198 254
161 198 254
161 198 254
161 198 254
161 198 254
161 199 254
161 199 254
161 199 254
161 199 254
162 199 254
162 199 254
162 199 254
162 199 254
162 199 254
162 199 254
162 199 254
162 199 254
162 199 254
162 199 254
163 199 254
163 199 254
163 199 254
163 200 254
163 200 254
163 200 254
163 200 254
163 200 254
163 200 254
163 200 254
164 200 254
164 200 254
164 200 254
164 200 254
164 200 254
164 200 254
164 200 254
164 200 254
164 200 254
164 200 254
164 200 254
165 201 254
165 201 254
165 201 254
165 201 254
165 201 254
165 201 254
165 201 254
165 201 254
165 201 254
165 201 254
166 201 254
166 201 254
166 201 254
166 201 254
166 201 254
166 201 254
166 201 254
166 202 254
166 202 254
166 202 254
166 202 254
167 202 254
167 202 254
167 202 254
167 202 254
167 202 254
167 202 254
167 202 254
167 202 254
167 202 254
167 202 254
167 202 254
168 202 254
168 202 254
168 202 254
168 202 254
168 203 254
168 203 254
168 203 254
168 203 254
168 203 254
168 203 254
168 203 254
168 203 254
169 203 254
169 203 254
169 203 254
169 203 254
169 203 254
169 203 254
169 203 254
169 203 254
169 203 254
169 203 254
169 203 254
169 203 254
170 204 254
170 204 254
170 204 254
170 204 254
170 204 254
170 204 254
170 204 254
170 204 254
170 204 254
170 204 254
170 204 254
170 204 254
170 204 254
171 204 254
171 204 254
171 204 254
171 204 254
171 204 254
171 204 254
171 204 254
171 204 254
171 204 254
171 205 254
171 205 254
171 205 254
171 205 254
171 205 254
172 205 254
172 205 254
172 205 254
172 205 254
172 205 254
172 205 254
172 205 254
172 205 254
172 205 254
172 205 254
172 205 254
172 205 254
172 205 254
172 205 254
172 205 254
172 205 254
172 205 254
172 205 254
172 205 254
172 205 254
172 205 254
172 205 254
172 205 254
171 205 254
171 205 254
171 205 254
171 205 254
171 205 254
171 204 254
171 204 254
171 204 254
171 204 254
171 204 254
171 204 254
171 204 254
171 204 254
171 204 254
170 204 254
170 204 254
170 204 254
170 204 254
170 204 254
170 204 254
170 204 254
170 204 254
170 204 254
170 204 254
170 204 254
170 204 254
170 204 254
170 204 254
169 203 254
169 203 254
169 203 254
169 203 254
169 203 254
169 203 254
169 203 254
169 203 254
169 203 254
169 203 254
169 203 254
169 203 254
168 203 254
168 203 254
168 203 254
168 203 254
168 203 254
168 203 254
168 203 254
168 203 254
168 202 254
168 202 254
168 202 254
167 202 254
167 202 254
167 202 254
167 202 254
167 202 254
167 202 254
167 202 254
167 202 254
167 202 254
167 202 254
167 202 254
167 202 254
166 202 254
166 202 254
166 202 254
166 201 254
166 201 254
166 201 254
166 201 254
166 201 254
166 201 254
166 201 254
165 201 254
165 201 254
165 201 254
165 201 254
165 201 254
165 201 254
165 201 254
165 201 254
165 201 254
165 201 254
165 201 254
164 200 254
164 200 254
164 200 254
164 200 254
164 200 254
164 200 254
164 200 254
164 200 254
164 200 254
164 200 254
163 200 254
163 200 254
163 200 254
163 200 254
163 200 254
163 200 254
163 200 254
163 199 254
163 199 254
163 199 254
162 199 254
162 199 254
162 199 254
162 199 254
162 199 254
162 199 254
162 199 254
162 199 254
162 199 254
162 199 254
162 199 254
161 199 254
161 199 254
161 199 254
161 198 254
161 198 254
161 198 254
161 198 254
161 198 254
161 198 254
161 198 254
161 198 254
160 198 254
160 198 254
160 198 254
160 198 254
160 198 254
160 198 254
160 198 254
160 198 254
160 198 254
160 198 254
160 198 254
160 198 254
159 197 254
159 197 254
159 197 254
159 197 254
159 197 254
159 197 254
159 197 254
159 197 254
159 197 254
159 197 254
159 197 254
159 197 254
159 197 254
159 197 254
158 197 254
158 197 254
158 197 254
158 197 254
158 197 254
158 197 254
158 197 254
158 197 254
158 197 254
158 197 254
158 197 254
158 197 254
158 197 254
158 197 254
158 196 254
158 196 254
158 196 254
158 196 254
158 196 254
158 196 254
158 196 254
158 196 254
158 196 254
158 196 254
158 196 254
158 196 254
157 196 254
157 196 254
157 196 254
157 196 254
157 196 254
157 196 254
157 196 254
157 196 254
157 196 254
157 196 254
157 196 254
157 196 254
157 196 254
157 196 254
157 196 254
157 196 254
157 196 254
157 196 254
157 196 254
158 196 254
158 196 254
158 196 254
158 196 254
158 196 254
158 196 254
158 196 254
158 196 254
158 196 254
158 196 254
158 196 254
158 197 254
158 197 254
158 197 254
158 197 254
158 197 254
158 197 254
158 197 254
158 197 254
158 197 254
158 197 254
158 197 254
158 197 254
158 197 254
159 197 254
159 197 254
159 197 254
159 197 254
159 197 254
159 197 254
159 197 254
159 197 254
159 197 254
159 197 254
159 197 254
159 197 254
159 197 254
159 197 254
159 197 254
160 198 254
160 198 254
160 198 254
160 198 254
160 198 254
160 198 254
160 198 254
160 198 254
160 198 254
160 198 254
160 198 254
160 198 254
161 198 254
161 198 254
161 198 254
161 198 254
161 198 254
161 198 254
161 198 254
161 198 254
161 199 254
161 199 254
161 199 254
162 199 254
162 199 254
162 199 254
162 199 254
162 199 254
162 199 254
162 199 254
162 199 254
162 199 254
162 199 254
162 199 254
163 199 254
163 199 254
163 199 254
163 200 254
163 200 254
163 200 254
163 200 254
163 200 254
163 200 254
163 200 254
164 200 254
164 200 254
164 200 254
164 200 254
164 200 254
164 200 254
164 200 254
164 200 254
164 200 254
164 200 254
165 201 254
165 201 254
165 201 254
165 201 254
165 201 254
165 201 254
165 201 254
165 201 254
165 201 254
165 201 254
165 201 254
166 201 254
166 201 254
166 201 254
166 201 254
166 201 254
166 201 254
166 201 254
166 202 254
166 202 254
166 202 254
167 202 254
167 202 254
167 202 254
167 202 254
167 202 254
167 202 254
167 202 254
167 202 254
167 202 254
167 202 254
167 202 254
167 202 254
168 202 254
168 202 254
168 202 254
168 203 254
168 203 254
168 203 254
168 203 254
168 203 254
168 203 254
168 203 254
168 203 254
169 203 254
169 203 254
169 203 254
169 203 254
169 203 254
169 203 254
169 203 254
169 203 254
169 203 254
169 203 254
169 203 254
169 203 254
169 203 254
170 204 254
170 204 254
170 204 254
170 204 254
170 204 254
170 204 254
170 204 254
170 204 254
170 204 254
170 204 254
170 204 254
170 204 254
171 204 254
171 204 254
171 204 254
171 204 254
171 204 254
171 204 254
171 204 254
171 204 254
171 204 254
171 204 254
171 205 254
171 205 254
171 205 254
171 205 254
171 205 254
172 205 254
172 205 254
172 205 254
172 205 254
172 205 254
172 205 254
172 205 254
172 205 254
172 205 254
172 205 254
172 205 254
172 205 254
172 205 254
173 205 254
173 205 254
172 205 254
172 205 254
172 205 254
172 205 254
172 205 254
172 205 254
172 205 254
172 205 254
172 205 254
172 205 254
172 205 254
172 205 254
172 205 254
172 205 254
172 205 254
171 205 254
171 205 254
171 205 254
171 205 254
171 205 254
171 204 254
171 204 254
171 204 254
171 204 254
171 204 254
171 204 254
171 204 254
171 204 254
171 204 254
170 204 254
170 204 254
170 204 254
170 204 254
170 204 254
170 204 254
170 204 254
170 204 254
170 204 254
170 204 254
170 204 254
170 204 254
170 204 254
169 203 254
169 203 254
169 203 254
169 203 254
169 203 254
169 203 254
169 203 254
169 203 254
169 203 254
169 203 254
169 203 254
169 203 254
168 203 254
168 203 254
168 203 254
168 203 254
168 203 254
168 203 254
168 203 254
168 203 254
168 202 254
168 202 254
168 202 254
168 202 254
167 202 254
167 202 254
167 202 254
167 202 254
167 202 254
167 202 254
167 202 254
167 202 254
167 202 254
167 202 254
167 202 254
166 202 254
166 202 254
166 202 254
166 201 254
166 201 254
166 201 254
166 201 254
166 201 254
166 201 254
166 201 254
165 201 254
165 201 254
165 201 254
165 201 254
165 201 254
165 201 254
165 201 254
165 201 254
165 201 254
165 201 254
165 201 254
164 200 254
164 200 254
164 200 254
164 200 254
164 200 254
164 200 254
164 200 254
164 200 254
164 200 254
164 200 254
163 200 254
163 200 254
163 200 254
163 200 254
163 200 254
163 200 254
163 200 254
163 200 254
163 199 254
163 199 254
163 199 254
162 199 254
162 199 254
162 199 254
162 199 254
162 199 254
162 199 254
162 199 254
162 199 254
162 199 254
162 199 254
162 199 254
161 199 254
161 199 254
161 199 254
161 198 254
161 198 254
161 198 254
161 198 254
161 198 254
161 198 254
161 198 254
161 198 254
160 198 254
160 198 254
160 198 254
160 198 254
160 198 254
160 198 254
160 198 254
160 198 254
160 198 254
160 198 254
160 198 254
160 198 254
160 198 254
159 197 254
159 197 254
159 197 254
159 197 254
159 197 254
159 197 254
159 197 254
159 197 254
159 197 254
159 197 254
159 197 254
159 197 254
159 197 254
159 197 254
159 197 254
159 197 254
158 197 254
158 197 254
158 197 254
158 197 254
158 197 254
158 197 254
158 197 254
158 197 254
158 197 254
158 197 254
158 197 254
158 197 254
158 197 254
158 197 254
158 197 254
158 197 254
158 197 254
158 197 254
158 197 254
158 197 254
158 196 254
158 196 254
158 196 254
158 196 254
158 196 254
158 196 254
158 196 254
158 196 254
158 196 254
158 196 254
158 196 254
158 196 254
158 196 254
158 196 254
158 196 254
158 196 254
158 196 254
158 197 254
158 197 254
158 197 254
158 197 254
158 197 254
158 197 254
158 197 254
158 197 254
158 197 254
158 197 254
158 197 254
158 197 254
158 197 254
158 197 254
158 197 254
158 197 254
158 197 254
158 197 254
158 197 254
159 197 254
159 197 254
159 197 254
159 197 254
159 197 254
159 197 254
159 197 254
159 197 254
159 197 254
159 197 254
159 197 254
159 197 254
159 197 254
159 197 254
159 197 254
159 197 254
160 198 254
160 198 254
160 198 254
160 198 254
160 198 254
160 198 254
160 198 254
160 198 254
160 198 254
160 198 254
160 198 254
160 198 254
160 198 254
161 198 254
161 198 254
161 198 254
161 198 254
161 198 254
161 198 254
161 198 254
161 198 254
161 199 254
161 199 254
161 199 254
162 199 254
162 199 254
162 199 254
162 199 254
162 199 254
162 199 254
162 199 254
162 199 254
162 199 254
162 199 254
162 199 254
163 199 254
163 199 254
163 199 254
163 199 254
163 200 254
163 200 254
163 200 254
163 200 254
163 200 254
163 200 254
163 200 254
164 200 254
164 200 254
164 200 254
164 200 254
164 200 254
164 200 254
164 200 254
164 200 254
164 200 254
164 200 254
165 201 254
165 201 254
165 201 254
165 201 254
165 201 254
165 201 254
165 201 254
165 201 254
165 201 254
165 201 254
166 201 254
166 201 254
166 201 254
166 201 254
166 201 254
166 201 254
166 201 254
166 201 254
166 202 254
166 202 254
166 202 254
167 202 254
167 202 254
167 202 254
167 202 254
167 202 254
167 202 254
167 202 254
167 202 254
167 202 254
167 202 254
167 202 254
168 202 254
168 202 254
168 202 254
168 202 254
168 203 254
168 203 254
168 203 254
168 203 254
168 203 254
168 203 254
168 203 254
168 203 254
169 203 254
169 203 254
169 203 254
169 203 254
169 203 254
169 203 254
169 203 254
169 203 254
169 203 254
169 203 254
169 203 254
169 203 254
170 204 254
170 204 254
170 204 254
170 204 254
170 204 254
170 204 254
170 204 254
170 204 254
170 204 254
170 204 254
170 204 254
170 204 254
170 204 254
171 204 254
171 204 254
171 204 254
171 204 254
171 204 254
171 204 254
171 204 254
171 204 254
171 204 254
171 205 254
171 205 254
171 205 254
171 205 254
171 205 254
172 205 254
172 205 254
172 205 254
172 205 254
172 205 254
172 205 254
172 205 254
172 205 254
172 205 254
172 205 254
172 205 254
172 205 254
172 205 254
172 205 254
172 205 254
173 205 254
173 205 254
173 206 254
173 205 254
173 205 254
173 205 254
173 205 254
173 205 254
172 205 254
172 205 254
172 205 254
172 205 254
172 205 254
172 205 254
172 205 254
172 205 254
172 205 254
172 205 254
172 205 254
172 205 254
172 205 254
172 205 254
172 205 254
171 205 254
171 205 254
171 205 254
171 205 254
171 205 254
171 204 254
171 204 254
171 204 254
171 204 254
171 204 254
171 204 254
171 204 254
171 204 254
171 204 254
170 204 254
170 204 254
170 204 254
170 204 254
170 204 254
170 204 254
170 204 254
170 204 254
170 204 254
170 204 254
170 204 254
170 204 254
170 204 254
169 203 254
169 203 254
169 203 254
169 203 254
169 203 254
169 203 254
169 203 254
169 203 254
169 203 254
169 203 254
169 203 254
169 203 254
168 203 254
168 203 254
168 203 254
168 203 254
168 203 254
168 203 254
168 203 254
168 202 254
168 202 254
168 202 254
168 202 254
167 202 254
167 202 254
167 202 254
167 202 254
167 202 254
167 202 254
167 202 254
167 202 254
167 202 254
167 202 254
167 202 254
166 202 254
166 202 254
166 202 254
166 202 254
166 201 254
166 201 254
166 201 254
166 201 254
166 201 254
166 201 254
166 201 254
165 201 254
165 201 254
165 201 254
165 201 254
165 201 254
165 201 254
165 201 254
165 201 254
165 201 254
165 201 254
164 200 254
164 200 254
164 200 254
164 200 254
164 200 254
164 200 254
164 200 254
164 200 254
164 200 254
164 200 254
164 200 254
163 200 254
163 200 254
163 200 254
163 200 254
163 200 254
163 200 254
163 200 254
163 199 254
163 199 254
163 199 254
163 199 254
162 199 254
162 199 254
162 199 254
162 199 254
162 199 254
162 199 254
162 199 254
162 199 254
162 199 254
162 199 254
161 199 254
161 199 254
161 199 254
161 199 254
161 198 254
161 198 254
161 198 254
161 198 254
161 198 254
161 198 254
161 198 254
161 198 254
160 198 254
160 198 254
160 198 254
160 198 254
160 198 254
160 198 254
160 198 254
160 198 254
160 198 254
160 198 254
160 198 254
160 198 254
160 198 254
160 198 254
159 197 254
159 197 254
159 197 254
159 197 254
159 197 254
159 197 254
159 197 254
159 197 254
159 197 254
159 197 254
159 197 254
159 197 254
159 197 254
159 197 254
159 197 254
159 197 254
159 197 254
159 197 254
159 197 254
158 197 254
158 197 254
158 197 254
158 197 254
158 197 254
158 197 254
158 197 254
158 197 254
158 197 254
158 197 254
158 197 254
158 197 254
158 197 254
158 197 254
158 197 254
158 197 254
158 197 254
158 197 254
158 197 254
158 197 254
158 197 254
158 197 254
158 197 254
158 197 254
158 197 254
158 197 254
158 197 254
158 197 254
158 197 254
158 197 254
158 197 254
158 197 254
158 197 254
158 197 254
158 197 254
158 197 254
158 197 254
158 197 254
158 197 254
158 197 254
159 197 254
159 197 254
159 197 254
159 197 254
159 197 254
159 197 254
159 197 254
159 197 254
159 197 254
159 197 254
159 197 254
159 197 254
159 197 254
159 197 254
159 197 254
159 197 254
159 197 254
159 197 254
159 197 254
160 198 254
160 198 254
160 198 254
160 198 254
160 198 254
160 198 254
160 198 254
160 198 254
160 198 254
160 198 254
160 198 254
160 198 254
160 198 254
160 198 254
161 198 254
161 198 254
161 198 254
161 198 254
161 198 254
161 198 254
161 198 254
161 198 254
161 199 254
161 199 254
161 199 254
161 199 254
162 199 254
162 199 254
162 199 254
162 199 254
162 199 254
162 199 254
162 199 254
162 199 254
162 199 254
162 199 254
163 199 254
163 199 254
163 199 254
163 199 254
163 200 254
163 200 254
163 200 254
163 200 254
163 200 254
163 200 254
163 200 254
164 200 254
164 200 254
164 200 254
164 200 254
164 200 254
164 200 254
164 200 254
164 200 254
164 200 254
164 200 254
164 200 254
165 201 254
165 201 254
165 201 254
165 201 254
165 201 254
165 201 254
165 201 254
165 201 254
165 201 254
165 201 254
166 201 254
166 201 254
166 201 254
166 201 254
166 201 254
166 201 254
166 201 254
166 202 254
166 202 254
166 202 254
166 202 254
167 202 254
167 202 254
167 202 254
167 202 254
167 202 254
167 202 254
167 202 254
167 202 254
167 202 254
167 202 254
167 202 254
168 202 254
168 202 254
168 202 254
168 202 254
168 203 254
168 203 254
168 203 254
168 203 254
168 203 254
168 203 254
168 203 254
169 203 254
169 203 254
169 203 254
169 203 254
169 203 254
169 203 254
169 203 254
169 203 254
169 203 254
169 203 254
169 203 254
169 203 254
169 203 254
170 204 254
170 204 254
170 204 254
170 204 254
170 204 254
170 204 254
170 204 254
170 204 254
170 204 254
170 204 254
170 204 254
170 204 254
170 204 254
171 204 254
171 204 254
171 204 254
171 204 254
171 204 254
171 204 254
171 204 254
171 204 254
171 205 254
171 205 254
171 205 254
171 205 254
171 205 254
172 205 254
172 205 254
172 205 254
172 205 254
172 205 254
172 205 254
172 205 254
172 205 254
172 205 254
172 205 254
172 205 254
172 205 254
172 205 254
172 205 254
172 205 254
173 205 254
173 205 254
173 205 254
173 205 254
173 205 254
173 206 254
173 206 254
173 206 254
173 206 254
173 206 254
173 206 254
173 205 254
173 205 254
173 205 254
173 205 254
173 205 254
172 205 254
172 205 254
172 205 254
172 205 254
172 205 254
172 205 254
172 205 254
172 205 254
172 205 254
172 205 254
172 205 254
172 205 254
172 205 254
172 205 254
172 205 254
171 205 254
171 205 254
171 205 254
171 205 254
171 204 254
171 204 254
171 204 254
171 204 254
171 204 254
171 204 254
171 204 254
171 204 254
171 204 254
170 204 254
170 204 254
170 204 254
170 204 254
170 204 254
170 204 254
170 204 254
170 204 254
170 204 254
170 204 254
170 204 254
170 204 254
170 204 254
169 203 254
169 203 254
169 203 254
169 203 254
169 203 254
169 203 254
169 203 254
169 203 254
169 203 254
169 203 254
169 203 254
169 203 254
168 203 254
168 203 254
168 203 254
168 203 254
168 203 254
168 203 254
168 203 254
168 203 254
168 202 254
168 202 254
168 202 254
168 202 254
167 202 254
167 202 254
167 202 254
167 202 254
167 202 254
167 202 254
167 202 254
167 202 254
167 202 254
167 202 254
167 202 254
166 202 254
166 202 254
166 202 254
166 201 254
166 201 254
166 201 254
166 201 254
166 201 254
166 201 254
166 201 254
165 201 254
165 201 254
165 201 254
165 201 254
165 201 254
165 201 254
165 201 254
165 201 254
165 201 254
165 201 254
165 201 254
164 200 254
164 200 254
164 200 254
164 200 254
164 200 254
164 200 254
164 200 254
164 200 254
164 200 254
164 200 254
163 200 254
163 200 254
163 200 254
163 200 254
163 200 254
163 200 254
163 200 254
163 199 254
163 199 254
163 199 254
163 199 254
162 199 254
162 199 254
162 199 254
162 199 254
162 199 254
162 199 254
162 199 254
162 199 254
162 199 254
162 199 254
162 199 254
161 199 254
161 199 254
161 199 254
161 199 254
161 198 254
161 198 254
161 198 254
161 198 254
161 198 254
161 198 254
161 198 254
161 198 254
161 198 254
160 198 254
160 198 254
160 198 254
160 198 254
160 198 254
160 198 254
160 198 254
160 198 254
160 198 254
160 198 254
160 198 254
160 198 254
160 198 254
160 198 254
160 198 254
159 197 254
159 197 254
159 197 254
159 197 254
159 197 254
159 197 254
159 197 254
159 197 254
159 197 254
159 197 254
159 197 254
159 197 254
159 197 254
159 197 254
159 197 254
159 197 254
159 197 254
159 197 254
159 197 254
159 197 254
159 197 254
159 197 254
159 197 254
159 197 254
159 197 254
159 197 254
159 197 254
159 197 254
159 197 254
159 197 254
159 197 254
158 197 254
159 197 254
158 197 254
158 197 254
159 197 254
159 197 254
159 197 254
159 197 254
159 197 254
159 197 254
159 197 254
159 197 254
159 197 254
159 197 254
159 197 254
159 197 254
159 197 254
159 197 254
159 197 254
159 197 254
159 197 254
159 197 254
159 197 254
159 197 254
159 197 254
159 197 254
159 197 254
159 197 254
159 197 254
159 197 254
159 197 254
159 197 254
159 197 254
159 197 254
159 197 254
160 198 254
160 198 254
160 198 254
160 198 254
160 198 254
160 198 254
160 198 254
160 198 254
160 198 254
160 198 254
160 198 254
160 198 254
160 198 254
160 198 254
160 198 254
161 198 254
161 198 254
161 198 254
161 198 254
161 198 254
161 198 254
161 198 254
161 198 254
161 198 254
161 199 254
161 199 254
161 199 254
161 199 254
162 199 254
162 199 254
162 199 254
162 199 254
162 199 254
162 199 254
162 199 254
162 199 254
162 199 254
162 199 254
162 199 254
163 199 254
163 199 254
163 199 254
163 200 254
163 200 254
163 200 254
163 200 254
163 200 254
163 200 254
163 200 254
163 200 254
164 200 254
164 200 254
164 200 254
164 200 254
164 200 254
164 200 254
164 200 254
164 200 254
164 200 254
164 200 254
165 201 254
165 201 254
165 201 254
165 201 254
165 201 254
165 201 254
165 201 254
165 201 254
165 201 254
165 201 254
165 201 254
166 201 254
166 201 254
166 201 254
166 201 254
166 201 254
166 201 254
166 201 254
166 202 254
166 202 254
166 202 254
167 202 254
167 202 254
167 202 254
167 202 254
167 202 254
167 202 254
167 202 254
167 202 254
167 202 254
167 202 254
167 202 254
167 202 254
168 202 254
168 202 254
168 202 254
168 203 254
168 203 254
168 203 254
168 203 254
168 203 254
168 203 254
168 203 254
168 203 254
169 203 254
169 203 254
169 203 254
169 203 254
169 203 254
169 203 254
169 203 254
169 203 254
169 203 254
169 203 254
169 203 254
169 203 254
170 204 254
170 204 254
170 204 254
170 204 254
170 204 254
170 204 254
170 204 254
170 204 254
170 204 254
170 204 254
170 204 254
170 204 254
170 204 254
171 204 254
171 204 254
171 204 254
171 204 254
171 204 254
171 204 254
171 204 254
171 204 254
171 204 254
171 205 254
171 205 254
171 205 254
171 205 254
172 205 254
172 205 254
172 205 254
172 205 254
172 205 254
172 205 254
172 205 254
172 205 254
172 205 254
172 205 254
172 205 254
172 205 254
172 205 254
172 205 254
172 205 254
173 205 254
173 205 254
173 205 254
173 205 254
173 205 254
173 206 254
173 206 254
173 206 254
173 206 254
173 206 254
173 206 254
173 206 254
173 206 254
173 206 254
173 206 254
173 206 254
173 206 254
173 206 254
173 206 254
173 205 254
173 205 254
173 205 254
173 205 254
173 205 254
172 205 254
172 205 254
172 205 254
172 205 254
172 205 254
172 205 254
172 205 254
172 205 254
172 205 254
172 205 254
172 205 254
172 205 254
172 205 254
172 205 254
171 205 254
171 205 254
171 205 254
171 205 254
171 205 254
171 204 254
171 204 254
171 204 254
171 204 254
171 204 254
171 204 254
171 204 254
171 204 254
171 204 254
170 204 254
170 204 254
170 204 254
170 204 254
170 204 254
170 204 254
170 204 254
170 204 254
170 204 254
170 204 254
170 204 254
170 204 254
170 204 254
169 203 254
169 203 254
169 203 254
169 203 254
169 203 254
169 203 254
169 203 254
169 203 254
169 203 254
169 203 254
169 203 254
169 203 254
168 203 254
168 203 254
168 203 254
168 203 254
168 203 254
168 203 254
168 203 254
168 202 254
168 202 254
168 202 254
168 202 254
167 202 254
167 202 254
167 202 254
167 202 254
167 202 254
167 202 254
167 202 254
167 202 254
167 202 254
167 202 254
167 202 254
166 202 254
166 202 254
166 202 254
166 202 254
166 201 254
166 201 254
166 201 254
166 201 254
166 201 254
166 201 254
166 201 254
165 201 254
165 201 254
165 201 254
165 201 254
165 201 254
165 201 254
165 201 254
165 201 254
165 201 254
165 201 254
164 200 254
164 200 254
164 200 254
164 200 254
164 200 254
164 200 254
164 200 254
164 200 254
164 200 254
164 200 254
164 200 254
163 200 254
163 200 254
163 200 254
163 200 254
163 200 254
163 200 254
163 200 254
163 199 254
163 199 254
163 199 254
163 199 254
162 199 254
162 199 254
162 199 254
162 199 254
162 199 254
162 199 254
162 199 254
162 199 254
162 199 254
162 199 254
162 199 254
162 199 254
161 199 254
161 199 254
161 199 254
161 199 254
161 198 254
161 198 254
161 198 254
161 198 254
161 198 254
161 198 254
161 198 254
161 198 254
161 198 254
160 198 254
160 198 254
160 198 254
160 198 254
160 198 254
160 198 254
160 198 254
160 198 254
160 198 254
160 198 254
160 198 254
160 198 254
160 198 254
160 198 254
160 198 254
160 198 254
160 198 254
159 197 254
159 197 254
159 197 254
159 197 254
159 197 254
159 197 254
159 197 254
159 197 254
159 197 254
159 197 254
159 197 254
159 197 254
159 197 254
159 197 254
159 197 254
159 197 254
159 197 254
159 197 254
155 192 248
140 174 225
123 152 197
123 153 197
108 135 174
98 122 157
90 112 144
104 129 167
91 113 147
88 110 142
108 135 174
121 151 195
114 142 183
124 154 199
144 179 232
150 186 240
159 197 254
159 197 254
159 197 254
159 197 254
159 197 254
159 197 254
159 197 254
159 197 254
159 197 254
159 197 254
159 197 254
159 197 254
159 197 254
159 197 254
159 197 254
159 197 254
159 197 254
159 197 254
160 198 254
160 198 254
160 198 254
160 198 254
160 198 254
160 198 254
160 198 254
160 198 254
160 198 254
160 198 254
160 198 254
160 198 254
160 198 254
160 198 254
160 198 254
160 198 254
160 198 254
161 198 254
161 198 254
161 198 254
161 198 254
161 198 254
161 198 254
161 198 254
161 198 254
161 198 254
161 199 254
161 199 254
161 199 254
161 199 254
161 199 254
162 199 254
162 199 254
162 199 254
162 199 254
162 199 254
162 199 254
162 199 254
162 199 254
162 199 254
162 199 254
162 199 254
163 199 254
163 199 254
163 199 254
163 199 254
163 200 254
163 200 254
163 200 254
163 200 254
163 200 254
163 200 254
163 200 254
164 200 254
164 200 254
164 200 254
164 200 254
164 200 254
164 200 254
164 200 254
164 200 254
164 200 254
164 200 254
164 200 254
165 201 254
165 201 254
165 201 254
165 201 254
165 201 254
165 201 254
165 201 254
165 201 254
165 201 254
165 201 254
166 201 254
166 201 254
166 201 254
166 201 254
166 201 254
166 201 254
166 201 254
166 202 254
166 202 254
166 202 254
166 202 254
167 202 254
167 202 254
167 202 254
167 202 254
167 202 254
167 202 254
167 202 254
167 202 254
167 202 254
167 202 254
167 202 254
168 202 254
168 202 254
168 202 254
168 202 254
168 203 254
168 203 254
168 203 254
168 203 254
168 203 254
168 203 254
168 203 254
168 203 254
169 203 254
169 203 254
169 203 254
169 203 254
169 203 254
169 203 254
169 203 254
169 203 254
169 203 254
169 203 254
169 203 254
170 204 254
170 204 254
170 204 254
170 204 254
170 204 254
170 204 254
170 204 254
170 204 254
170 204 254
170 204 254
170 204 254
170 204 254
170 204 254
171 204 254
171 204 254
171 204 254
171 204 254
171 204 254
171 204 254
171 204 254
171 204 254
171 204 254
171 205 254
171 205 254
171 205 254
171 205 254
171 205 254
172 205 254
172 205 254
172 205 254
172 205 254
172 205 254
172 205 254
172 205 254
172 205 254
172 205 254
172 205 254
172 205 254
172 205 254
172 205 254
172 205 254
173 205 254
173 205 254
173 205 254
173 205 254
173 205 254
173 206 254
173 206 254
173 206 254
173 206 254
173 206 254
173 206 254
173 206 254
173 206 254
173 206 254
174 206 254
174 206 254
173 206 254
173 206 254
173 206 254
173 206 254
173 206 254
173 206 254
173 206 254
173 206 254
173 206 254
173 206 254
173 206 254
173 205 254
173 205 254
173 205 254
173 205 254
173 205 254
172 205 254
172 205 254
172 205 254
172 205 254
172 205 254
172 205 254
172 205 254
172 205 254
172 205 254
172 205 254
172 205 254
172 205 254
172 205 254
172 205 254
171 205 254
171 205 254
171 205 254
171 205 254
171 205 254
171 204 254
171 204 254
171 204 254
171 204 254
171 204 254
171 204 254
171 204 254
171 204 254
170 204 254
170 204 254
170 204 254
170 204 254
170 204 254
170 204 254
170 204 254
170 204 254
170 204 254
170 204 254
170 204 254
170 204 254
170 204 254
169 203 254
169 203 254
169 203 254
169 203 254
169 203 254
169 203 254
169 203 254
169 203 254
169 203 254
169 203 254
169 203 254
169 203 254
168 203 254
168 203 254
168 203 254
168 203 254
168 203 254
168 203 254
168 203 254
168 203 254
168 202 254
168 202 254
168 202 254
167 202 254
167 202 254
167 202 254
167 202 254
167 202 254
167 202 254
167 202 254
167 202 254
167 202 254
167 202 254
167 202 254
166 202 254
166 202 254
166 202 254
166 202 254
166 201 254
166 201 254
166 201 254
166 201 254
166 201 254
166 201 254
166 201 254
165 201 254
165 201 254
165 201 254
165 201 254
165 201 254
165 201 254
165 201 254
165 201 254
165 201 254
165 201 254
165 201 254
164 200 254
164 200 254
164 200 254
164 200 254
164 200 254
164 200 254
164 200 254
164 200 254
164 200 254
164 200 254
164 200 254
163 200 254
163 200 254
163 200 254
163 200 254
163 200 254
163 200 254
163 200 254
163 199 254
163 199 254
163 199 254
163 199 254
162 199 254
162 199 254
162 199 254
162 199 254
162 199 254
162 199 254
162 199 254
162 199 254
162 199 254
162 199 254
162 199 254
162 199 254
161 199 254
161 199 254
161 199 254
161 199 254
161 198 254
161 198 254
161 198 254
161 198 254
161 198 254
161 198 254
161 198 254
161 198 254
161 198 254
161 198 254
160 198 254
160 198 254
160 198 254
160 198 254
160 198 254
160 198 254
160 198 254
160 198 254
160 198 254
160 198 254
160 198 254
160 198 254
160 198 254
160 198 254
160 198 254
160 198 254
160 198 254
160 198 254
160 198 254
160 198 254
160 198 254
159 197 254
159 197 254
159 197 254
151 187 241
131 162 209
96 119 153
73 90 117
52 65 84
27 34 44
14 18 24
14 18 24
15 19 25
14 18 24
14 18 23
15 18 24
14 18 24
14 17 23
14 18 23
14 18 24
15 19 24
14 17 23
14 18 24
14 18 23
14 17 23
19 24 31
39 48 63
43 54 70
81 101 130
100 124 160
114 142 183
152 188 243
159 197 254
159 197 254
159 197 254
160 198 254
160 198 254
160 198 254
160 198 254
160 198 254
160 198 254
160 198 254
160 198 254
160 198 254
160 198 254
160 198 254
160 198 254
160 198 254
160 198 254
160 198 254
160 198 254
160 198 254
160 198 254
160 198 254
160 198 254
160 198 254
161 198 254
161 198 254
161 198 254
161 198 254
161 198 254
161 198 254
161 198 254
161 198 254
161 198 254
161 198 254
161 199 254
161 199 254
161 199 254
161 199 254
162 199 254
162 199 254
162 199 254
162 199 254
162 199 254
162 199 254
162 199 254
162 199 254
162 199 254
162 199 254
162 199 254
162 199 254
163 199 254
163 199 254
163 199 254
163 199 254
163 200 254
163 200 254
163 200 254
163 200 254
163 200 254
163 200 254
163 200 254
164 200 254
164 200 254
164 200 254
164 200 254
164 200 254
164 200 254
164 200 254
164 200 254
164 200 254
164 200 254
164 200 254
165 201 254
165 201 254
165 201 254
165 201 254
165 201 254
165 201 254
165 201 254
165 201 254
165 201 254
165 201 254
165 201 254
166 201 254
166 201 254
166 201 254
166 201 254
166 201 254
166 201 254
166 201 254
166 202 254
166 202 254
166 202 254
166 202 254
167 202 254
167 202 254
167 202 254
167 202 254
167 202 254
167 202 254
167 202 254
167 202 254
167 202 254
167 202 254
167 202 254
168 202 254
168 202 254
168 202 254
168 203 254
168 203 254
168 203 254
168 203 254
168 203 254
168 203 254
168 203 254
168 203 254
169 203 254
169 203 254
169 203 254
169 203 254
169 203 254
169 203 254
169 203 254
169 203 254
169 203 254
169 203 254
169 203 254
169 203 254
170 204 254
170 204 254
170 204 254
170 204 254
170 204 254
170 204 254
170 204 254
170 204 254
170 204 254
170 204 254
170 204 254
170 204 254
171 204 254
171 204 254
171 204 254
171 204 254
171 204 254
171 204 254
171 204 254
171 204 254
171 204 254
171 205 254
171 205 254
171 205 254
171 205 254
171 205 254
172 205 254
172 205 254
172 205 254
172 205 254
172 205 254
172 205 254
172 205 254
172 205 254
172 205 254
172 205 254
172 205 254
172 205 254
172 205 254
172 205 254
173 205 254
173 205 254
173 205 254
173 205 254
173 205 254
173 206 254
173 206 254
173 206 254
173 206 254
173 206 254
173 206 254
173 206 254
173 206 254
173 206 254
173 206 254
173 206 254
174 206 254
174 206 254
174 206 254
174 206 254
174 206 254
174 206 254
174 206 254
174 206 254
173 206 254
173 206 254
173 206 254
173 206 254
173 206 254
173 206 254
173 206 254
173 206 254
173 206 254
173 206 254
173 205 254
173 205 254
173 205 254
173 205 254
173 205 254
173 205 254
172 205 254
172 205 254
172 205 254
172 205 254
172 205 254
172 205 254
172 205 254
172 205 254
172 205 254
172 205 254
172 205 254
172 205 254
172 205 254
172 205 254
171 205 254
171 205 254
171 205 254
171 205 254
171 205 254
171 204 254
171 204 254
171 204 254
171 204 254
171 204 254
171 204 254
171 204 254
171 204 254
170 204 254
170 204 254
170 204 254
170 204 254
170 204 254
170 204 254
170 204 254
170 204 254
170 204 254
170 204 254
170 204 254
170 204 254
170 204 254
169 203 254
169 203 254
169 203 254
169 203 254
169 203 254
169 203 254
169 203 254
169 203 254
169 203 254
169 203 254
169 203 254
169 203 254
168 203 254
168 203 254
168 203 254
168 203 254
168 203 254
168 203 254
168 203 254
168 202 254
168 202 254
168 202 254
168 202 254
167 202 254
167 202 254
167 202 254
167 202 254
167 202 254
167 202 254
167 202 254
167 202 254
167 202 254
167 202 254
167 202 254
166 202 254
166 202 254
166 202 254
166 202 254
166 201 254
166 201 254
166 201 254
166 201 254
166 201 254
166 201 254
166 201 254
165 201 254
165 201 254
165 201 254
165 201 254
165 201 254
165 201 254
165 201 254
165 201 254
165 201 254
165 201 254
165 201 254
164 200 254
164 200 254
164 200 254
164 200 254
164 200 254
164 200 254
164 200 254
164 200 254
164 200 254
164 200 254
164 200 254
163 200 254
163 200 254
163 200 254
163 200 254
163 200 254
163 200 254
163 200 254
163 199 254
163 199 254
163 199 254
163 199 254
162 199 254
162 199 254
162 199 254
162 199 254
162 199 254
162 199 254
162 199 254
162 199 254
162 199 254
162 199 254
162 199 254
162 199 254
162 199 254
161 199 254
161 199 254
161 199 254
161 199 254
161 199 254
161 198 254
161 198 254
161 198 254
161 198 254
161 198 254
161 198 254
161 198 254
161 198 254
161 198 254
161 198 254
160 198 254
160 198 254
160 198 254
160 198 254
160 198 254
160 198 254
160 198 254
160 198 254
160 198 254
160 198 254
160 198 254
160 198 254
160 198 254
160 198 254
154 190 245
107 133 171
73 90 116
44 56 72
18 22 29
14 18 24
15 18 24
14 18 24
14 18 23
14 18 24
13 17 22
14 18 24
14 18 24
14 18 24
15 18 24
13 17 22
14 18 24
14 18 24
14 18 24
14 18 23
14 18 23
14 18 23
14 18 24
14 17 23
13 17 23
14 17 23
14 18 23
15 18 24
15 18 24
14 18 23
14 18 24
16 20 26
43 54 70
77 95 123
112 138 178
154 191 245
160 198 254
160 198 254
160 198 254
160 198 254
160 198 254
160 198 254
160 198 254
160 198 254
160 198 254
160 198 254
160 198 254
160 198 254
160 198 254
160 198 254
161 198 254
161 198 254
161 198 254
161 198 254
161 198 254
161 198 254
161 198 254
161 198 254
161 198 254
161 198 254
161 198 254
161 199 254
161 199 254
161 199 254
161 199 254
162 199 254
162 199 254
162 199 254
162 199 254
162 199 254
162 199 254
162 199 254
162 199 254
162 199 254
162 199 254
162 199 254
162 199 254
162 199 254
163 199 254
163 199 254
163 199 254
163 199 254
163 200 254
163 200 254
163 200 254
163 200 254
163 200 254
163 200 254
163 200 254
164 200 254
164 200 254
164 200 254
164 200 254
164 200 254
164 200 254
164 200 254
164 200 254
164 200 254
164 200 254
164 200 254
165 201 254
165 201 254
165 201 254
165 201 254
165 201 254
165 201 254
165 201 254
165 201 254
165 201 254
165 201 254
165 201 254
166 201 254
166 201 254
166 201 254
166 201 254
166 201 254
166 201 254
166 201 254
166 201 254
166 202 254
166 202 254
166 202 254
167 202 254
167 202 254
167 202 254
167 202 254
167 202 254
167 202 254
167 202 254
167 202 254
167 202 254
167 202 254
167 202 254
168 202 254
168 202 254
168 202 254
168 202 254
168 203 254
168 203 254
168 203 254
168 203 254
168 203 254
168 203 254
168 203 254
169 203 254
169 203 254
169 203 254
169 203 254
169 203 254
169 203 254
169 203 254
169 203 254
169 203 254
169 203 254
169 203 254
169 203 254
170 204 254
170 204 254
170 204 254
170 204 254
170 204 254
170 204 254
170 204 254
170 204 254
170 204 254
170 204 254
170 204 254
170 204 254
170 204 254
171 204 254
171 204 254
171 204 254
171 204 254
171 204 254
171 204 254
171 204 254
171 204 254
171 205 254
171 205 254
171 205 254
171 205 254
171 205 254
172 205 254
172 205 254
172 205 254
172 205 254
172 205 254
172 205 254
172 205 254
172 205 254
172 205 254
172 205 254
172 205 254
172 205 254
172 205 254
172 205 254
173 205 254
173 205 254
173 205 254
173 205 254
173 205 254
173 206 254
173 206 254
173 206 254
173 206 254
173 206 254
173 206 254
173 206 254
173 206 254
173 206 254
173 206 254
173 206 254
174 206 254
174 206 254
174 206 254
174 206 254
174 206 254
174 206 254
174 206 254
174 206 254
174 206 254
174 206 254
174 206 254
174 206 254
174 206 254
174 206 254
174 206 254
174 206 254
173 206 254
173 206 254
173 206 254
173 206 254
173 206 254
173 206 254
173 206 254
173 206 254
173 206 254
173 206 254
173 206 254
173 205 254
173 205 254
173 205 254
173 205 254
173 205 254
172 205 254
172 205 254
172 205 254
172 205 254
172 205 254
172 205 254
172 205 254
172 205 254
172 205 254
172 205 254
172 205 254
172 205 254
172 205 254
172 205 254
171 205 254
171 205 254
171 205 254
171 205 254
171 205 254
171 204 254
171 204 254
171 204 254
171 204 254
171 204 254
171 204 254
171 204 254
171 204 254
170 204 254
170 204 254
170 204 254
170 204 254
170 204 254
170 204 254
170 204 254
170 204 254
170 204 254
170 204 254
170 204 254
170 204 254
169 203 254
169 203 254
169 203 254
169 203 254
169 203 254
169 203 254
169 203 254
169 203 254
169 203 254
169 203 254
169 203 254
169 203 254
168 203 254
168 203 254
168 203 254
168 203 254
168 203 254
168 203 254
168 203 254
168 203 254
168 202 254
168 202 254
168 202 254
168 202 254
167 202 254
167 202 254
167 202 254
167 202 254
167 202 254
167 202 254
167 202 254
167 202 254
167 202 254
167 202 254
167 202 254
166 202 254
166 202 254
166 202 254
166 201 254
166 201 254
166 201 254
166 201 254
166 201 254
166 201 254
166 201 254
166 201 254
165 201 254
165 201 254
165 201 254
165 201 254
165 201 254
165 201 254
165 201 254
165 201 254
165 201 254
165 201 254
165 201 254
164 200 254
164 200 254
164 200 254
164 200 254
164 200 254
164 200 254
164 200 254
164 200 254
164 200 254
164 200 254
164 200 254
163 200 254
163 200 254
163 200 254
163 200 254
163 200 254
163 200 254
163 200 254
163 199 254
163 199 254
163 199 254
163 199 254
163 199 254
162 199 254
162 199 254
162 199 254
162 199 254
162 199 254
162 199 254
162 199 254
162 199 254
162 199 254
162 199 254
162 199 254
162 199 254
162 199 254
161 199 254
161 199 254
161 199 254
161 199 254
161 199 254
161 198 254
161 198 254
161 198 254
161 198 254
161 198 254
161 198 254
161 198 254
161 198 254
161 198 254
161 198 254
161 198 254
161 198 254
161 198 254
160 198 254
160 198 254
160 198 254
144 178 229
87 108 140
56 70 91
17 22 29
14 18 24
14 17 23
14 18 24
14 18 23
14 17 23
14 18 23
14 18 23
14 17 23
14 17 23
14 18 23
14 18 24
13 17 22
14 17 22
14 18 23
13 17 22
13 16 21
14 17 23
14 18 23
15 18 24
14 18 23
13 17 22
14 18 24
14 17 23
14 18 24
14 17 23
14 18 24
14 17 22
14 18 24
14 17 23
13 16 22
14 18 24
13 16 22
14 17 23
14 18 23
17 21 28
40 50 65
86 106 137
138 171 220
160 198 254
160 198 254
160 198 254
161 198 254
161 198 254
161 198 254
161 198 254
161 198 254
161 198 254
161 198 254
161 198 254
161 198 254
161 198 254
161 198 254
161 198 254
161 198 254
161 199 254
161 199 254
161 199 254
161 199 254
161 199 254
162 199 254
162 199 254
162 199 254
162 199 254
162 199 254
162 199 254
162 199 254
162 199 254
162 199 254
162 199 254
162 199 254
162 199 254
162 199 254
163 199 254
163 199 254
163 199 254
163 199 254
163 200 254
163 200 254
163 200 254
163 200 254
163 200 254
163 200 254
163 200 254
163 200 254
164 200 254
164 200 254
164 200 254
164 200 254
164 200 254
164 200 254
164 200 254
164 200 254
164 200 254
164 200 254
164 200 254
164 200 254
165 201 254
165 201 254
165 201 254
165 201 254
165 201 254
165 201 254
165 201 254
165 201 254
165 201 254
165 201 254
166 201 254
166 201 254
166 201 254
166 201 254
166 201 254
166 201 254
166 201 254
166 201 254
166 202 254
166 202 254
166 202 254
167 202 254
167 202 254
167 202 254
167 202 254
167 202 254
167 202 254
167 202 254
167 202 254
167 202 254
167 202 254
167 202 254
168 202 254
168 202 254
168 202 254
168 202 254
168 203 254
168 203 254
168 203 254
168 203 254
168 203 254
168 203 254
168 203 254
168 203 254
169 203 254
169 203 254
169 203 254
169 203 254
169 203 254
169 203 254
169 203 254
169 203 254
169 203 254
169 203 254
169 203 254
169 203 254
170 204 254
170 204 254
170 204 254
170 204 254
170 204 254
170 204 254
170 204 254
170 204 254
170 204 254
170 204 254
170 204 254
170 204 254
171 204 254
171 204 254
171 204 254
171 204 254
171 204 254
171 204 254
171 204 254
171 204 254
171 204 254
171 205 254
171 205 254
171 205 254
171 205 254
172 205 254
172 205 254
172 205 254
172 205 254
172 205 254
172 205 254
172 205 254
172 205 254
172 205 254
172 205 254
172 205 254
172 205 254
172 205 254
172 205 254
173 205 254
173 205 254
173 205 254
173 205 254
173 205 254
173 206 254
173 206 254
173 206 254
173 206 254
173 206 254
173 206 254
173 206 254
173 206 254
173 206 254
173 206 254
173 206 254
174 206 254
174 206 254
174 206 254
174 206 254
174 206 254
174 206 254
174 206 254
174 206 254
174 206 254
174 206 254
174 206 254
174 206 254
174 206 254
174 206 254
174 206 254
174 206 254
174 206 254
174 206 254
174 206 254
174 206 254
174 206 254
174 206 254
174 206 254
174 206 254
173 206 254
173 206 254
173 206 254
173 206 254
173 206 254
173 206 254
173 206 254
173 206 254
173 206 254
173 206 254
173 206 254
173 205 254
173 205 254
173 205 254
173 205 254
173 205 254
172 205 254
172 205 254
172 205 254
172 205 254
172 205 254
172 205 254
172 205 254
172 205 254
172 205 254
172 205 254
172 205 254
172 205 254
172 205 254
172 205 254
171 205 254
171 205 254
171 205 254
171 205 254
171 204 254
171 204 254
171 204 254
171 204 254
171 204 254
171 204 254
171 204 254
171 204 254
171 204 254
170 204 254
170 204 254
170 204 254
170 204 254
170 204 254
170 204 254
170 204 254
170 204 254
170 204 254
170 204 254
170 204 254
170 204 254
169 203 254
169 203 254
169 203 254
169 203 254
169 203 254
169 203 254
169 203 254
169 203 254
169 203 254
169 203 254
169 203 254
169 203 254
168 203 254
168 203 254
168 203 254
168 203 254
168 203 254
168 203 254
168 203 254
168 203 254
168 202 254
168 202 254
168 202 254
167 202 254
167 202 254
167 202 254
167 202 254
167 202 254
167 202 254
167 202 254
167 202 254
167 202 254
167 202 254
167 202 254
166 202 254
166 202 254
166 202 254
166 202 254
166 201 254
166 201 254
166 201 254
166 201 254
166 201 254
166 201 254
166 201 254
165 201 254
165 201 254
165 201 254
165 201 254
165 201 254
165 201 254
165 201 254
165 201 254
165 201 254
165 201 254
165 201 254
164 200 254
164 200 254
164 200 254
164 200 254
164 200 254
164 200 254
164 200 254
164 200 254
164 200 254
164 200 254
164 200 254
164 200 254
163 200 254
163 200 254
163 200 254
163 200 254
163 200 254
163 200 254
163 200 254
163 200 254
163 199 254
163 199 254
163 199 254
163 199 254
162 199 254
162 199 254
162 199 254
162 199 254
162 199 254
162 199 254
162 199 254
162 199 254
162 199 254
162 199 254
162 199 254
162 199 254
162 199 254
162 199 254
162 199 254
161 199 254
161 199 254
161 199 254
161 199 254
161 199 254
161 199 254
161 198 254
161 198 254
161 198 254
161 198 254
161 198 254
161 198 254
149 184 236
91 112 144
50 62 80
14 18 24
14 18 24
14 17 23
14 17 23
14 18 23
14 18 23
14 18 23
14 18 23
13 17 22
14 17 23
13 17 22
14 18 23
14 18 23
14 18 23
14 18 24
14 17 22
13 17 22
14 17 23
14 18 23
13 16 21
13 16 22
14 17 22
14 17 23
14 17 23
14 18 23
15 18 24
13 17 22
13 17 22
14 18 24
13 17 23
14 18 23
15 18 24
14 17 23
14 17 22
14 17 22
13 17 22
14 18 23
14 18 24
13 17 22
14 18 23
14 18 23
16 20 26
38 48 62
92 114 146
149 184 236
161 198 254
161 198 254
161 198 254
161 198 254
161 198 254
161 198 254
161 199 254
161 199 254
161 199 254
161 199 254
161 199 254
161 199 254
162 199 254
162 199 254
162 199 254
162 199 254
162 199 254
162 199 254
162 199 254
162 199 254
162 199 254
162 199 254
162 199 254
162 199 254
162 199 254
162 199 254
162 199 254
163 199 254
163 199 254
163 199 254
163 199 254
163 200 254
163 200 254
163 200 254
163 200 254
163 200 254
163 200 254
163 200 254
163 200 254
164 200 254
164 200 254
164 200 254
164 200 254
164 200 254
164 200 254
164 200 254
164 200 254
164 200 254
164 200 254
164 200 254
164 200 254
165 201 254
165 201 254
165 201 254
165 201 254
165 201 254
165 201 254
165 201 254
165 201 254
165 201 254
165 201 254
165 201 254
166 201 254
166 201 254
166 201 254
166 201 254
166 201 254
166 201 254
166 201 254
166 202 254
166 202 254
166 202 254
166 202 254
167 202 254
167 202 254
167 202 254
167 202 254
167 202 254
167 202 254
167 202 254
167 202 254
167 202 254
167 202 254
167 202 254
168 202 254
168 202 254
168 202 254
168 202 254
168 203 254
168 203 254
168 203 254
168 203 254
168 203 254
168 203 254
168 203 254
169 203 254
169 203 254
169 203 254
169 203 254
169 203 254
169 203 254
169 203 254
169 203 254
169 203 254
169 203 254
169 203 254
169 203 254
170 204 254
170 204 254
170 204 254
170 204 254
170 204 254
170 204 254
170 204 254
170 204 254
170 204 254
170 204 254
170 204 254
170 204 254
171 204 254
171 204 254
171 204 254
171 204 254
171 204 254
171 204 254
171 204 254
171 204 254
171 204 254
171 205 254
171 205 254
171 205 254
171 205 254
172 205 254
172 205 254
172 205 254
172 205 254
172 205 254
172 205 254
172 205 254
172 205 254
172 205 254
172 205 254
172 205 254
172 205 254
172 205 254
172 205 254
173 205 254
173 205 254
173 205 254
173 205 254
173 205 254
173 206 254
173 206 254
173 206 254
173 206 254
173 206 254
173 206 254
173 206 254
173 206 254
173 206 254
173 206 254
174 206 254
174 206 254
174 206 254
174 206 254
174 206 254
174 206 254
174 206 254
174 206 254
174 206 254
174 206 254
174 206 254
174 206 254
174 206 254
174 206 254
174 206 254
175 207 254
175 207 254
174 206 254
174 206 254
174 206 254
174 206 254
174 206 254
174 206 254
174 206 254
174 206 254
174 206 254
174 206 254
174 206 254
174 206 254
174 206 254
174 206 254
174 206 254
174 206 254
174 206 254
173 206 254
173 206 254
173 206 254
173 206 254
173 206 254
173 206 254
173 206 254
173 206 254
173 206 254
173 206 254
173 205 254
173 205 254
173 205 254
173 205 254
173 205 254
172 205 254
172 205 254
172 205 254
172 205 254
172 205 254
172 205 254
172 205 254
172 205 254
172 205 254
172 205 254
172 205 254
172 205 254
172 205 254
172 205 254
171 205 254
171 205 254
171 205 254
171 205 254
171 204 254
171 204 254
171 204 254
171 204 254
171 204 254
171 204 254
171 204 254
171 204 254
171 204 254
170 204 254
170 204 254
170 204 254
170 204 254
170 204 254
170 204 254
170 204 254
170 204 254
170 204 254
170 204 254
170 204 254
170 204 254
169 203 254
169 203 254
169 203 254
169 203 254
169 203 254
169 203 254
169 203 254
169 203 254
169 203 254
169 203 254
169 203 254
169 203 254
168 203 254
168 203 254
168 203 254
168 203 254
168 203 254
168 203 254
168 203 254
168 203 254
168 202 254
168 202 254
168 202 254
167 202 254
167 202 254
167 202 254
167 202 254
167 202 254
167 202 254
167 202 254
167 202 254
167 202 254
167 202 254
167 202 254
166 202 254
166 202 254
166 202 254
166 202 254
166 201 254
166 201 254
166 201 254
166 201 254
166 201 254
166 201 254
166 201 254
165 201 254
165 201 254
165 201 254
165 201 254
165 201 254
165 201 254
165 201 254
165 201 254
165 201 254
165 201 254
165 201 254
164 200 254
164 200 254
164 200 254
164 200 254
164 200 254
164 200 254
164 200 254
164 200 254
164 200 254
164 200 254
164 200 254
164 200 254
163 200 254
163 200 254
163 200 254
163 200 254
163 200 254
163 200 254
163 200 254
163 200 254
163 200 254
163 199 254
163 199 254
163 199 254
163 199 254
162 199 254
162 199 254
162 199 254
162 199 254
162 199 254
162 199 254
162 199 254
162 199 254
162 199 254
162 199 254
162 199 254
162 199 254
162 199 254
162 199 254
162 199 254
162 199 254
162 199 254
161 199 254
161 199 254
160 197 252
128 157 201
61 76 97
17 22 28
13 17 22
14 17 22
15 18 24
14 18 23
14 18 23
14 18 23
14 18 24
14 18 23
14 17 22
14 18 24
14 18 23
14 17 22
14 18 23
14 18 23
14 18 23
13 17 22
14 17 23
14 17 23
14 17 23
13 16 21
14 17 22
14 18 24
14 18 23
14 17 23
13 17 22
13 16 21
14 17 22
15 18 23
14 17 22
12 16 21
14 18 23
14 17 22
15 18 24
13 16 22
14 18 23
14 17 22
14 17 23
14 17 22
13 17 22
14 17 23
14 18 24
14 17 23
14 18 23
14 17 23
13 17 22
14 18 24
18 23 31
68 84 108
131 161 206
161 199 254
161 199 254
161 199 254
162 199 254
162 199 254
162 199 254
162 199 254
162 199 254
162 199 254
162 199 254
162 199 254
162 199 254
162 199 254
162 199 254
162 199 254
162 199 254
162 199 254
162 199 254
162 199 254
163 199 254
163 199 254
163 199 254
163 199 254
163 199 254
163 200 254
163 200 254
163 200 254
163 200 254
163 200 254
163 200 254
163 200 254
163 200 254
163 200 254
164 200 254
164 200 254
164 200 254
164 200 254
164 200 254
164 200 254
164 200 254
164 200 254
164 200 254
164 200 254
164 200 254
164 200 254
165 201 254
165 201 254
165 201 254
165 201 254
165 201 254
165 201 254
165 201 254
165 201 254
165 201 254
165 201 254
165 201 254
166 201 254
166 201 254
166 201 254
166 201 254
166 201 254
166 201 254
166 201 254
166 202 254
166 202 254
166 202 254
166 202 254
167 202 254
167 202 254
167 202 254
167 202 254
167 202 254
167 202 254
167 202 254
167 202 254
167 202 254
167 202 254
167 202 254
168 202 254
168 202 254
168 202 254
168 202 254
168 203 254
168 203 254
168 203 254
168 203 254
168 203 254
168 203 254
168 203 254
169 203 254
169 203 254
169 203 254
169 203 254
169 203 254
169 203 254
169 203 254
169 203 254
169 203 254
169 203 254
169 203 254
169 203 254
170 204 254
170 204 254
170 204 254
170 204 254
170 204 254
170 204 254
170 204 254
170 204 254
170 204 254
170 204 254
170 204 254
170 204 254
171 204 254
171 204 254
171 204 254
171 204 254
171 204 254
171 204 254
171 204 254
171 204 254
171 204 254
171 205 254
171 205 254
171 205 254
171 205 254
172 205 254
172 205 254
172 205 254
172 205 254
172 205 254
172 205 254
172 205 254
172 205 254
172 205 254
172 205 254
172 205 254
172 205 254
172 205 254
172 205 254
173 205 254
173 205 254
173 205 254
173 205 254
173 205 254
173 206 254
173 206 254
173 206 254
173 206 254
173 206 254
173 206 254
173 206 254
173 206 254
173 206 254
173 206 254
174 206 254
174 206 254
174 206 254
174 206 254
174 206 254
174 206 254
174 206 254
174 206 254
174 206 254
174 206 254
174 206 254
174 206 254
174 206 254
174 206 254
174 206 254
174 206 254
174 206 254
175 207 254
175 207 254
175 207 254
175 207 254
175 207 254
175 207 254
175 207 254
175 207 254
174 206 254
174 206 254
174 206 254
174 206 254
174 206 254
174 206 254
174 206 254
174 206 254
174 206 254
174 206 254
174 206 254
174 206 254
174 206 254
174 206 254
174 206 254
174 206 254
174 206 254
173 206 254
173 206 254
173 206 254
173 206 254
173 206 254
173 206 254
173 206 254
173 206 254
173 206 254
173 206 254
173 205 254
173 205 254
173 205 254
173 205 254
173 205 254
172 205 254
172 205 254
172 205 254
172 205 254
172 205 254
172 205 254
172 205 254
172 205 254
172 205 254
172 205 254
172 205 254
172 205 254
172 205 254
172 205 254
171 205 254
171 205 254
171 205 254
171 205 254
171 204 254
171 204 254
171 204 254
171 204 254
171 204 254
171 204 254
171 204 254
171 204 254
171 204 254
170 204 254
170 204 254
170 204 254
170 204 254
170 204 254
170 204 254
170 204 254
170 204 254
170 204 254
170 204 254
170 204 254
170 204 254
169 203 254
169 203 254
169 203 254
169 203 254
169 203 254
169 203 254
169 203 254
169 203 254
169 203 254
169 203 254
169 203 254
168 203 254
168 203 254
168 203 254
168 203 254
168 203 254
168 203 254
168 203 254
168 203 254
168 202 254
168 202 254
168 202 254
168 202 254
167 202 254
167 202 254
167 202 254
167 202 254
167 202 254
167 202 254
167 202 254
167 202 254
167 202 254
167 202 254
167 202 254
166 202 254
166 202 254
166 202 254
166 202 254
166 201 254
166 201 254
166 201 254
166 201 254
166 201 254
166 201 254
166 201 254
165 201 254
165 201 254
165 201 254
165 201 254
165 201 254
165 201 254
165 201 254
165 201 254
165 201 254
165 201 254
165 201 254
165 201 254
164 200 254
164 200 254
164 200 254
164 200 254
164 200 254
164 200 254
164 200 254
164 200 254
164 200 254
164 200 254
164 200 254
164 200 254
163 200 254
163 200 254
163 200 254
163 200 254
163 200 254
163 200 254
163 200 254
163 200 254
163 200 254
163 199 254
163 199 254
163 199 254
163 199 254
163 199 254
162 199 254
162 199 254
162 199 254
162 199 254
162 199 254
162 199 254
162 199 254
162 199 254
162 199 254
162 199 254
162 199 254
159 195 250
98 121 155
51 63 81
14 17 23
14 18 23
13 17 22
15 18 24
13 16 21
14 18 24
13 17 22
14 18 23
14 18 23
14 18 23
14 17 22
13 17 22
13 16 21
14 18 23
13 17 22
14 17 22
13 17 22
13 16 21
14 17 22
14 17 23
13 17 22
13 17 22
14 17 23
14 18 23
14 17 23
13 16 21
13 17 22
13 17 22
13 17 22
13 17 22
14 17 22
13 17 22
13 17 22
14 17 23
14 17 22
13 17 22
12 16 20
13 16 21
14 18 24
13 17 22
14 18 23
14 18 23
13 16 21
13 16 21
14 18 23
14 17 22
13 17 22
14 18 23
14 17 22
14 18 23
14 17 22
14 18 23
54 67 86
116 143 183
162 199 254
162 199 254
162 199 254
162 199 254
162 199 254
162 199 254
162 199 254
162 199 254
162 199 254
162 199 254
162 199 254
162 199 254
163 199 254
163 199 254
163 199 254
163 199 254
163 199 254
163 200 254
163 200 254
163 200 254
163 200 254
163 200 254
163 200 254
163 200 254
163 200 254
163 200 254
164 200 254
164 200 254
164 200 254
164 200 254
164 200 254
164 200 254
164 200 254
164 200 254
164 200 254
164 200 254
164 200 254
164 200 254
165 201 254
165 201 254
165 201 254
165 201 254
165 201 254
165 201 254
165 201 254
165 201 254
165 201 254
165 201 254
165 201 254
165 201 254
166 201 254
166 201 254
166 201 254
166 201 254
166 201 254
166 201 254
166 201 254
166 202 254
166 202 254
166 202 254
166 202 254
167 202 254
167 202 254
167 202 254
167 202 254
167 202 254
167 202 254
167 202 254
167 202 254
167 202 254
167 202 254
167 202 254
168 202 254
168 202 254
168 202 254
168 202 254
168 203 254
168 203 254
168 203 254
168 203 254
168 203 254
168 203 254
168 203 254
169 203 254
169 203 254
169 203 254
169 203 254
169 203 254
169 203 254
169 203 254
169 203 254
169 203 254
169 203 254
169 203 254
169 203 254
170 204 254
170 204 254
170 204 254
170 204 254
170 204 254
170 204 254
170 204 254
170 204 254
170 204 254
170 204 254
170 204 254
170 204 254
170 204 254
171 204 254
171 204 254
171 204 254
171 204 254
171 204 254
171 204 254
171 204 254
171 204 254
171 205 254
171 205 254
171 205 254
171 205 254
172 205 254
172 205 254
172 205 254
172 205 254
172 205 254
172 205 254
172 205 254
172 205 254
172 205 254
172 205 254
172 205 254
172 205 254
172 205 254
172 205 254
173 205 254
173 205 254
173 205 254
173 205 254
173 205 254
173 206 254
173 206 254
173 206 254
173 206 254
173 206 254
173 206 254
173 206 254
173 206 254
173 206 254
173 206 254
174 206 254
174 206 254
174 206 254
174 206 254
174 206 254
174 206 254
174 206 254
174 206 254
174 206 254
174 206 254
174 206 254
174 206 254
174 206 254
174 206 254
174 206 254
174 206 254
174 206 254
175 207 254
175 207 254
175 207 254
175 207 254
175 207 254
175 207 254
175 207 254
175 207 254
175 207 254
175 207 254
175 207 254
175 207 254
175 207 254
175 207 254
175 207 254
175 207 254
175 207 254
174 206 254
174 206 254
174 206 254
174 206 254
174 206 254
174 206 254
174 206 254
174 206 254
174 206 254
174 206 254
174 206 254
174 206 254
174 206 254
174 206 254
174 206 254
174 206 254
173 206 254
173 206 254
173 206 254
173 206 254
173 206 254
173 206 254
173 206 254
173 206 254
173 206 254
173 206 254
173 205 254
173 205 254
173 205 254
173 205 254
173 205 254
172 205 254
172 205 254
172 205 254
172 205 254
172 205 254
172 205 254
172 205 254
172 205 254
172 205 254
172 205 254
172 205 254
172 205 254
172 205 254
172 205 254
171 205 254
171 205 254
171 205 254
171 205 254
171 204 254
171 204 254
171 204 254
171 204 254
171 204 254
171 204 254
171 204 254
171 204 254
170 204 254
170 204 254
170 204 254
170 204 254
170 204 254
170 204 254
170 204 254
170 204 254
170 204 254
170 204 254
170 204 254
170 204 254
170 204 254
169 203 254
169 203 254
169 203 254
169 203 254
169 203 254
169 203 254
169 203 254
169 203 254
169 203 254
169 203 254
169 203 254
168 203 254
168 203 254
168 203 254
168 203 254
168 203 254
168 203 254
168 203 254
168 203 254
168 202 254
168 202 254
168 202 254
168 202 254
167 202 254
167 202 254
167 202 254
167 202 254
167 202 254
167 202 254
167 202 254
167 202 254
167 202 254
167 202 254
167 202 254
166 202 254
166 202 254
166 202 254
166 202 254
166 201 254
166 201 254
166 201 254
166 201 254
166 201 254
166 201 254
166 201 254
165 201 254
165 201 254
165 201 254
165 201 254
165 201 254
165 201 254
165 201 254
165 201 254
165 201 254
165 201 254
165 201 254
165 201 254
164 200 254
164 200 254
164 200 254
164 200 254
164 200 254
164 200 254
164 200 254
164 200 254
164 200 254
164 200 254
164 200 254
164 200 254
164 200 254
163 200 254
163 200 254
163 200 254
163 200 254
163 200 254
163 200 254
163 200 254
163 200 254
163 200 254
163 200 254
163 199 254
163 199 254
163 199 254
163 199 254
163 199 254
163 199 254
162 199 254
162 199 254
159 196 250
97 119 153
35 43 56
14 17 23
13 17 22
14 18 23
13 16 21
14 17 23
14 17 22
13 17 22
14 17 22
14 17 22
13 17 22
14 17 23
14 17 22
13 17 22
14 18 23
14 18 23
14 17 22
13 17 22
14 17 23
14 17 23
13 17 22
13 17 22
14 17 23
13 17 22
13 16 20
14 17 22
14 17 22
13 16 22
14 17 22
13 16 21
14 17 22
14 17 22
13 17 22
13 16 21
14 17 22
13 16 22
13 17 22
13 17 22
14 18 23
13 17 22
15 18 24
14 17 22
14 18 23
14 17 23
14 18 23
14 18 23
13 17 22
14 17 23
14 17 22
14 17 22
13 16 22
14 18 24
14 18 23
14 17 22
14 18 23
14 17 23
13 16 22
38 47 61
106 130 167
161 197 252
162 199 254
162 199 254
162 199 254
163 199 254
163 199 254
163 199 254
163 199 254
163 199 254
163 200 254
163 200 254
163 200 254
163 200 254
163 200 254
163 200 254
163 200 254
163 200 254
163 200 254
163 200 254
164 200 254
164 200 254
164 200 254
164 200 254
164 200 254
164 200 254
164 200 254
164 200 254
164 200 254
164 200 254
164 200 254
164 200 254
164 200 254
165 201 254
165 201 254
165 201 254
165 201 254
165 201 254
165 201 254
165 201 254
165 201 254
165 201 254
165 201 254
165 201 254
165 201 254
166 201 254
166 201 254
166 201 254
166 201 254
166 201 254
166 201 254
166 201 254
166 202 254
166 202 254
166 202 254
166 202 254
167 202 254
167 202 254
167 202 254
167 202 254
167 202 254
167 202 254
167 202 254
167 202 254
167 202 254
167 202 254
167 202 254
168 202 254
168 202 254
168 202 254
168 202 254
168 203 254
168 203 254
168 203 254
168 203 254
168 203 254
168 203 254
168 203 254
168 203 254
169 203 254
169 203 254
169 203 254
169 203 254
169 203 254
169 203 254
169 203 254
169 203 254
169 203 254
169 203 254
169 203 254
170 204 254
170 204 254
170 204 254
170 204 254
170 204 254
170 204 254
170 204 254
170 204 254
170 204 254
170 204 254
170 204 254
170 204 254
170 204 254
171 204 254
171 204 254
171 204 254
171 204 254
171 204 254
171 204 254
171 204 254
171 204 254
171 205 254
171 205 254
171 205 254
171 205 254
171 205 254
172 205 254
172 205 254
172 205 254
172 205 254
172 205 254
172 205 254
172 205 254
172 205 254
172 205 254
172 205 254
172 205 254
172 205 254
172 205 254
173 205 254
173 205 254
173 205 254
173 205 254
173 205 254
173 206 254
173 206 254
173 206 254
173 206 254
173 206 254
173 206 254
173 206 254
173 206 254
173 206 254
173 206 254
174 206 254
174 206 254
174 206 254
174 206 254
174 206 254
174 206 254
174 206 254
174 206 254
174 206 254
174 206 254
174 206 254
174 206 254
174 206 254
174 206 254
174 206 254
174 206 254
175 207 254
175 207 254
175 207 254
175 207 254
175 207 254
175 207 254
175 207 254
175 207 254
175 207 254
175 207 254
175 207 254
175 207 254
175 207 254
175 207 254
175 207 254
175 207 254
175 207 254
175 207 254
175 207 254
175 207 254
175 207 254
175 207 254
175 207 254
175 207 254
175 207 254
175 207 254
174 206 254
174 206 254
174 206 254
174 206 254
174 206 254
174 206 254
174 206 254
174 206 254
174 206 254
174 206 254
174 206 254
174 206 254
174 206 254
174 206 254
174 206 254
174 206 254
173 206 254
173 206 254
173 206 254
173 206 254
173 206 254
173 206 254
173 206 254
173 206 254
173 206 254
173 206 254
173 205 254
173 205 254
173 205 254
173 205 254
173 205 254
172 205 254
172 205 254
172 205 254
172 205 254
172 205 254
172 205 254
172 205 254
172 205 254
172 205 254
172 205 254
172 205 254
172 205 254
172 205 254
172 205 254
171 205 254
171 205 254
171 205 254
171 205 254
171 204 254
171 204 254
171 204 254
171 204 254
171 204 254
171 204 254
171 204 254
171 204 254
170 204 254
170 204 254
170 204 254
170 204 254
170 204 254
170 204 254
170 204 254
170 204 254
170 204 254
170 204 254
170 204 254
170 204 254
169 203 254
169 203 254
169 203 254
169 203 254
169 203 254
169 203 254
169 203 254
169 203 254
169 203 254
169 203 254
169 203 254
169 203 254
168 203 254
168 203 254
168 203 254
168 203 254
168 203 254
168 203 254
168 203 254
168 203 254
168 202 254
168 202 254
168 202 254
168 202 254
167 202 254
167 202 254
167 202 254
167 202 254
167 202 254
167 202 254
167 202 254
167 202 254
167 202 254
167 202 254
167 202 254
166 202 254
166 202 254
166 202 254
166 202 254
166 201 254
166 201 254
166 201 254
166 201 254
166 201 254
166 201 254
166 201 254
166 201 254
165 201 254
165 201 254
165 201 254
165 201 254
165 201 254
165 201 254
165 201 254
165 201 254
165 201 254
165 201 254
165 201 254
165 201 254
164 200 254
164 200 254
164 200 254
164 200 254
164 200 254
164 200 254
164 200 254
164 200 254
164 200 254
164 200 254
164 200 254
164 200 254
164 200 254
164 200 254
163 200 254
163 200 254
163 200 254
163 200 254
163 200 254
163 200 254
163 200 254
163 200 254
163 200 254
163 200 254
163 200 254
120 147 187
42 52 67
13 17 22
14 18 23
14 17 22
13 16 21
14 17 23
14 17 22
12 16 21
14 17 22
13 16 22
14 18 24
14 17 22
14 17 23
13 17 22
14 17 22
14 18 23
13 16 21
13 17 22
13 17 22
14 18 23
13 16 21
14 17 22
14 18 23
13 16 20
13 17 22
14 17 22
13 16 22
13 17 22
14 17 23
14 17 23
13 17 22
13 16 21
13 17 22
13 17 22
13 16 21
13 17 22
14 18 23
14 17 23
14 18 23
13 16 21
14 17 22
14 17 22
14 17 22
13 16 21
13 16 21
14 17 22
14 17 22
13 17 22
14 17 22
14 17 23
13 16 22
13 17 22
14 18 23
13 16 22
14 18 23
13 16 21
14 17 23
13 17 22
14 18 23
15 18 24
14 18 23
50 61 79
115 142 181
163 200 254
163 200 254
163 200 254
163 200 254
163 200 254
163 200 254
163 200 254
163 200 254
163 200 254
163 200 254
163 200 254
164 200 254
164 200 254
164 200 254
164 200 254
164 200 254
164 200 254
164 200 254
164 200 254
164 200 254
164 200 254
164 200 254
164 200 254
164 200 254
164 200 254
165 201 254
165 201 254
165 201 254
165 201 254
165 201 254
165 201 254
165 201 254
165 201 254
165 201 254
165 201 254
165 201 254
165 201 254
166 201 254
166 201 254
166 201 254
166 201 254
166 201 254
166 201 254
166 201 254
166 201 254
166 202 254
166 202 254
166 202 254
166 202 254
167 202 254
167 202 254
167 202 254
167 202 254
167 202 254
167 202 254
167 202 254
167 202 254
167 202 254
167 202 254
167 202 254
168 202 254
168 202 254
168 202 254
168 202 254
168 203 254
168 203 254
168 203 254
168 203 254
168 203 254
168 203 254
168 203 254
168 203 254
169 203 254
169 203 254
169 203 254
169 203 254
169 203 254
169 203 254
169 203 254
169 203 254
169 203 254
169 203 254
169 203 254
169 203 254
170 204 254
170 204 254
170 204 254
170 204 254
170 204 254
170 204 254
170 204 254
170 204 254
170 204 254
170 204 254
170 204 254
170 204 254
171 204 254
171 204 254
171 204 254
171 204 254
171 204 254
171 204 254
171 204 254
171 204 254
171 205 254
171 205 254
171 205 254
171 205 254
172 205 254
172 205 254
172 205 254
172 205 254
172 205 254
172 205 254
172 205 254
172 205 254
172 205 254
172 205 254
172 205 254
172 205 254
172 205 254
172 205 254
173 205 254
173 205 254
173 205 254
173 205 254
173 205 254
173 206 254
173 206 254
173 206 254
173 206 254
173 206 254
173 206 254
173 206 254
173 206 254
173 206 254
173 206 254
174 206 254
174 206 254
174 206 254
174 206 254
174 206 254
174 206 254
174 206 254
174 206 254
174 206 254
174 206 254
174 206 254
174 206 254
174 206 254
174 206 254
174 206 254
175 207 254
175 207 254
175 207 254
175 207 254
175 207 254
175 207 254
175 207 254
175 207 254
175 207 254
175 207 254
175 207 254
175 207 254
175 207 254
175 207 254
175 207 254
175 207 254
176 207 254
176 207 254
175 207 254
175 207 254
175 207 254
175 207 254
175 207 254
175 207 254
175 207 254
175 207 254
175 207 254
175 207 254
175 207 254
175 207 254
175 207 254
175 207 254
175 207 254
175 207 254
175 207 254
175 207 254
174 206 254
174 206 254
174 206 254
174 206 254
174 206 254
174 206 254
174 206 254
174 206 254
174 206 254
174 206 254
174 206 254
174 206 254
174 206 254
174 206 254
174 206 254
174 206 254
173 206 254
173 206 254
173 206 254
173 206 254
173 206 254
173 206 254
173 206 254
173 206 254
173 206 254
173 205 254
173 205 254
173 205 254
173 205 254
173 205 254
172 205 254
172 205 254
172 205 254
172 205 254
172 205 254
172 205 254
172 205 254
172 205 254
172 205 254
172 205 254
172 205 254
172 205 254
172 205 254
172 205 254
171 205 254
171 205 254
171 205 254
171 205 254
171 204 254
171 204 254
171 204 254
171 204 254
171 204 254
171 204 254
171 204 254
171 204 254
170 204 254
170 204 254
170 204 254
170 204 254
170 204 254
170 204 254
170 204 254
170 204 254
170 204 254
170 204 254
170 204 254
170 204 254
169 203 254
169 203 254
169 203 254
169 203 254
169 203 254
169 203 254
169 203 254
169 203 254
169 203 254
169 203 254
169 203 254
169 203 254
168 203 254
168 203 254
168 203 254
168 203 254
168 203 254
168 203 254
168 203 254
168 203 254
168 202 254
168 202 254
168 202 254
168 202 254
167 202 254
167 202 254
167 202 254
167 202 254
167 202 254
167 202 254
167 202 254
167 202 254
167 202 254
167 202 254
167 202 254
166 202 254
166 202 254
166 202 254
166 202 254
166 201 254
166 201 254
166 201 254
166 201 254
166 201 254
166 201 254
166 201 254
166 201 254
165 201 254
165 201 254
165 201 254
165 201 254
165 201 254
165 201 254
165 201 254
165 201 254
165 201 254
165 201 254
165 201 254
165 201 254
165 201 254
164 200 254
164 200 254
164 200 254
164 200 254
164 200 254
164 200 254
164 200 254
164 200 254
164 200 254
164 200 254
164 200 254
164 200 254
164 200 254
164 200 254
164 200 254
163 200 254
163 200 254
163 200 254
135 165 210
56 69 88
15 19 25
13 17 22
13 16 21
13 16 21
13 17 22
14 18 23
13 17 22
14 17 22
14 17 22
14 18 23
14 18 23
13 16 21
12 15 20
13 17 22
14 17 22
14 18 23
13 16 21
14 18 23
13 16 21
14 17 22
13 16 22
13 16 21
13 16 21
14 17 22
14 17 22
14 17 22
14 18 23
14 17 22
13 17 22
13 17 22
14 17 23
14 17 22
14 18 23
12 16 20
13 17 22
12 15 20
13 17 22
14 17 22
14 17 22
13 16 22
13 17 22
12 16 21
13 17 22
13 16 21
13 16 22
14 17 22
14 17 22
13 17 22
13 16 21
14 17 22
13 17 22
12 15 19
14 17 22
13 16 22
14 17 22
12 15 20
14 17 23
14 17 22
13 16 21
13 16 22
13 17 22
15 18 24
14 17 23
14 17 23
44 54 69
136 167 213
163 200 254
163 200 254
163 200 254
164 200 254
164 200 254
164 200 254
164 200 254
164 200 254
164 200 254
164 200 254
164 200 254
164 200 254
164 200 254
164 200 254
164 200 254
164 200 254
164 200 254
164 200 254
165 201 254
165 201 254
165 201 254
165 201 254
165 201 254
165 201 254
165 201 254
165 201 254
165 201 254
165 201 254
165 201 254
165 201 254
165 201 254
166 201 254
166 201 254
166 201 254
166 201 254
166 201 254
166 201 254
166 201 254
166 201 254
166 202 254
166 202 254
166 202 254
166 202 254
167 202 254
167 202 254
167 202 254
167 202 254
167 202 254
167 202 254
167 202 254
167 202 254
167 202 254
167 202 254
167 202 254
168 202 254
168 202 254
168 202 254
168 202 254
168 203 254
168 203 254
168 203 254
168 203 254
168 203 254
168 203 254
168 203 254
168 203 254
169 203 254
169 203 254
169 203 254
169 203 254
169 203 254
169 203 254
169 203 254
169 203 254
169 203 254
169 203 254
169 203 254
170 204 254
170 204 254
170 204 254
170 204 254
170 204 254
170 204 254
170 204 254
170 204 254
170 204 254
170 204 254
170 204 254
170 204 254
170 204 254
171 204 254
171 204 254
171 204 254
171 204 254
171 204 254
171 204 254
171 204 254
171 204 254
171 205 254
171 205 254
171 205 254
171 205 254
172 205 254
172 205 254
172 205 254
172 205 254
172 205 254
172 205 254
172 205 254
172 205 254
172 205 254
172 205 254
172 205 254
172 205 254
172 205 254
172 205 254
173 205 254
173 205 254
173 205 254
173 205 254
173 205 254
173 206 254
173 206 254
173 206 254
173 206 254
173 206 254
173 206 254
173 206 254
173 206 254
173 206 254
174 206 254
174 206 254
174 206 254
174 206 254
174 206 254
174 206 254
174 206 254
174 206 254
174 206 254
174 206 254
174 206 254
174 206 254
174 206 254
174 206 254
174 206 254
174 206 254
175 207 254
175 207 254
175 207 254
175 207 254
175 207 254
175 207 254
175 207 254
175 207 254
175 207 254
175 207 254
175 207 254
175 207 254
175 207 254
175 207 254
175 207 254
175 207 254
175 207 254
175 207 254
176 207 254
176 207 254
176 207 254
176 207 254
176 207 254
176 207 254
176 207 254
176 207 254
176 207 254
175 207 254
175 207 254
175 207 254
175 207 254
175 207 254
175 207 254
175 207 254
175 207 254
175 207 254
175 207 254
175 207 254
175 207 254
175 207 254
175 207 254
175 207 254
175 207 254
175 207 254
174 206 254
174 206 254
174 206 254
174 206 254
174 206 254
174 206 254
174 206 254
174 206 254
174 206 254
174 206 254
174 206 254
174 206 254
174 206 254
174 206 254
174 206 254
174 206 254
173 206 254
173 206 254
173 206 254
173 206 254
173 206 254
173 206 254
173 206 254
173 206 254
173 206 254
173 206 254
173 205 254
173 205 254
173 205 254
173 205 254
172 205 254
172 205 254
172 205 254
172 205 254
172 205 254
172 205 254
172 205 254
172 205 254
172 205 254
172 205 254
172 205 254
172 205 254
172 205 254
172 205 254
171 205 254
171 205 254
171 205 254
171 205 254
171 204 254
171 204 254
171 204 254
171 204 254
171 204 254
171 204 254
171 204 254
171 204 254
170 204 254
170 204 254
170 204 254
170 204 254
170 204 254
170 204 254
170 204 254
170 204 254
170 204 254
170 204 254
170 204 254
170 204 254
170 204 254
169 203 254
169 203 254
169 203 254
169 203 254
169 203 254
169 203 254
169 203 254
169 203 254
169 203 254
169 203 254
169 203 254
168 203 254
168 203 254
168 203 254
168 203 254
168 203 254
168 203 254
168 203 254
168 203 254
168 202 254
168 202 254
168 202 254
168 202 254
167 202 254
167 202 254
167 202 254
167 202 254
167 202 254
167 202 254
167 202 254
167 202 254
167 202 254
167 202 254
167 202 254
166 202 254
166 202 254
166 202 254
166 202 254
166 202 254
166 201 254
166 201 254
166 201 254
166 201 254
166 201 254
166 201 254
166 201 254
166 201 254
165 201 254
165 201 254
165 201 254
165 201 254
165 201 254
165 201 254
165 201 254
165 201 254
165 201 254
165 201 254
165 201 254
165 201 254
165 201 254
165 201 254
164 200 254
164 200 254
164 200 254
164 200 254
164 200 254
164 200 254
164 200 254
164 200 254
164 200 254
164 200 254
158 193 245
91 112 143
20 25 32
14 17 22
14 17 23
13 16 22
14 18 23
14 17 22
14 17 23
14 17 22
13 16 21
13 17 22
13 17 22
14 17 23
14 17 22
13 17 22
14 17 22
13 17 22
14 18 23
14 17 22
14 17 22
14 17 23
13 16 21
13 16 21
12 16 21
13 17 22
14 17 22
14 17 22
13 16 21
14 17 22
14 17 22
13 16 21
13 17 22
13 16 22
14 18 23
13 17 22
13 17 22
13 16 22
13 17 22
13 16 21
13 16 21
13 17 22
13 16 21
13 17 22
14 17 22
13 17 22
14 18 23
14 17 22
13 17 22
13 16 22
14 17 22
14 18 23
13 16 21
14 18 23
12 16 21
12 16 21
13 16 21
14 17 22
14 18 24
13 17 22
14 17 22
13 17 22
14 17 22
13 16 22
14 17 22
13 17 22
14 18 23
13 17 22
14 17 23
16 21 27
76 94 120
162 198 252
164 200 254
164 200 254
164 200 254
164 200 254
164 200 254
164 200 254
164 200 254
164 200 254
164 200 254
164 200 254
165 201 254
165 201 254
165 201 254
165 201 254
165 201 254
165 201 254
165 201 254
165 201 254
165 201 254
165 201 254
165 201 254
165 201 254
165 201 254
165 201 254
166 201 254
166 201 254
166 201 254
166 201 254
166 201 254
166 201 254
166 201 254
166 201 254
166 201 254
166 202 254
166 202 254
166 202 254
167 202 254
167 202 254
167 202 254
167 202 254
167 202 254
167 202 254
167 202 254
167 202 254
167 202 254
167 202 254
167 202 254
167 202 254
168 202 254
168 202 254
168 202 254
168 202 254
168 203 254
168 203 254
168 203 254
168 203 254
168 203 254
168 203 254
168 203 254
168 203 254
169 203 254
169 203 254
169 203 254
169 203 254
169 203 254
169 203 254
169 203 254
169 203 254
169 203 254
169 203 254
169 203 254
169 203 254
170 204 254
170 204 254
170 204 254
170 204 254
170 204 254
170 204 254
170 204 254
170 204 254
170 204 254
170 204 254
170 204 254
170 204 254
171 204 254
171 204 254
171 204 254
171 204 254
171 204 254
171 204 254
171 204 254
171 204 254
171 205 254
171 205 254
171 205 254
171 205 254
172 205 254
172 205 254
172 205 254
172 205 254
172 205 254
172 205 254
172 205 254
172 205 254
172 205 254
172 205 254
172 205 254
172 205 254
172 205 254
172 205 254
173 205 254
173 205 254
173 205 254
173 205 254
173 206 254
173 206 254
173 206 254
173 206 254
173 206 254
173 206 254
173 206 254
173 206 254
173 206 254
173 206 254
174 206 254
174 206 254
174 206 254
174 206 254
174 206 254
174 206 254
174 206 254
174 206 254
174 206 254
174 206 254
174 206 254
174 206 254
174 206 254
174 206 254
174 206 254
174 206 254
175 207 254
175 207 254
175 207 254
175 207 254
175 207 254
175 207 254
175 207 254
175 207 254
175 207 254
175 207 254
175 207 254
175 207 254
175 207 254
175 207 254
175 207 254
175 207 254
175 207 254
176 207 254
176 207 254
176 207 254
176 207 254
176 207 254
176 207 254
176 207 254
176 207 254
176 207 254
176 207 254
176 207 254
176 207 254
176 207 254
176 207 254
176 207 254
176 207 254
176 207 254
176 207 254
176 207 254
175 207 254
175 207 254
175 207 254
175 207 254
175 207 254
175 207 254
175 207 254
175 207 254
175 207 254
175 207 254
175 207 254
175 207 254
175 207 254
175 207 254
175 207 254
175 207 254
175 207 254
174 206 254
174 206 254
174 206 254
174 206 254
174 206 254
174 206 254
174 206 254
174 206 254
174 206 254
174 206 254
174 206 254
174 206 254
174 206 254
174 206 254
174 206 254
173 206 254
173 206 254
173 206 254
173 206 254
173 206 254
173 206 254
173 206 254
173 206 254
173 206 254
173 206 254
173 205 254
173 205 254
173 205 254
173 205 254
173 205 254
172 205 254
172 205 254
172 205 254
172 205 254
172 205 254
172 205 254
172 205 254
172 205 254
172 205 254
172 205 254
172 205 254
172 205 254
172 205 254
171 205 254
171 205 254
171 205 254
171 205 254
171 204 254
171 204 254
171 204 254
171 204 254
171 204 254
171 204 254
171 204 254
171 204 254
170 204 254
170 204 254
170 204 254
170 204 254
170 204 254
170 204 254
170 204 254
170 204 254
170 204 254
170 204 254
170 204 254
170 204 254
170 204 254
169 203 254
169 203 254
169 203 254
169 203 254
169 203 254
169 203 254
169 203 254
169 203 254
169 203 254
169 203 254
169 203 254
169 203 254
168 203 254
168 203 254
168 203 254
168 203 254
168 203 254
168 203 254
168 203 254
168 202 254
168 202 254
168 202 254
168 202 254
167 202 254
167 202 254
167 202 254
167 202 254
167 202 254
167 202 254
167 202 254
167 202 254
167 202 254
167 202 254
167 202 254
167 202 254
166 202 254
166 202 254
166 202 254
166 202 254
166 201 254
166 201 254
166 201 254
166 201 254
166 201 254
166 201 254
166 201 254
166 201 254
166 201 254
165 201 254
165 201 254
165 201 254
165 201 254
165 201 254
165 201 254
165 201 254
165 201 254
165 201 254
165 201 254
165 201 254
165 201 254
165 201 254
165 201 254
165 201 254
164 200 254
164 200 254
164 200 254
137 167 213
45 56 72
14 18 23
14 17 23
14 17 22
13 17 22
13 17 22
13 17 22
13 17 22
13 16 22
13 17 22
14 17 22
13 17 22
14 17 23
13 16 21
13 16 20
14 18 23
12 15 20
13 16 20
13 17 22
12 16 21
13 16 21
13 16 21
13 17 22
12 16 21
13 16 21
14 17 22
12 15 20
13 17 22
13 16 21
13 16 21
12 15 20
13 17 22
12 16 20
13 16 21
13 17 22
13 17 22
13 16 21
14 18 23
12 16 20
13 17 22
14 17 22
13 16 21
14 18 24
12 16 21
14 17 22
13 17 22
13 16 21
12 16 20
13 16 21
13 16 22
13 17 22
14 18 23
13 16 21
13 16 21
15 18 24
13 16 22
14 17 22
13 16 21
13 16 20
13 16 22
14 17 22
14 17 23
13 17 22
13 17 22
14 17 22
14 17 22
13 16 21
13 17 22
13 16 21
14 17 22
14 17 22
27 34 44
119 145 185
164 200 254
164 200 254
164 200 254
165 201 254
165 201 254
165 201 254
165 201 254
165 201 254
165 201 254
165 201 254
165 201 254
165 201 254
165 201 254
165 201 254
165 201 254
165 201 254
165 201 254
165 201 254
166 201 254
166 201 254
166 201 254
166 201 254
166 201 254
166 201 254
166 201 254
166 201 254
166 201 254
166 202 254
166 202 254
166 202 254
167 202 254
167 202 254
167 202 254
167 202 254
167 202 254
167 202 254
167 202 254
167 202 254
167 202 254
167 202 254
167 202 254
167 202 254
167 202 254
168 202 254
168 202 254
168 202 254
168 202 254
168 203 254
168 203 254
168 203 254
168 203 254
168 203 254
168 203 254
168 203 254
169 203 254
169 203 254
169 203 254
169 203 254
169 203 254
169 203 254
169 203 254
169 203 254
169 203 254
169 203 254
169 203 254
169 203 254
170 204 254
170 204 254
170 204 254
170 204 254
170 204 254
170 204 254
170 204 254
170 204 254
170 204 254
170 204 254
170 204 254
170 204 254
171 204 254
171 204 254
171 204 254
171 204 254
171 204 254
171 204 254
171 204 254
171 204 254
171 204 254
171 205 254
171 205 254
171 205 254
171 205 254
172 205 254
172 205 254
172 205 254
172 205 254
172 205 254
172 205 254
172 205 254
172 205 254
172 205 254
172 205 254
172 205 254
172 205 254
172 205 254
173 205 254
173 205 254
173 205 254
173 205 254
173 205 254
173 206 254
173 206 254
173 206 254
173 206 254
173 206 254
173 206 254
173 206 254
173 206 254
173 206 254
173 206 254
174 206 254
174 206 254
174 206 254
174 206 254
174 206 254
174 206 254
174 206 254
174 206 254
174 206 254
174 206 254
174 206 254
174 206 254
174 206 254
174 206 254
174 206 254
175 207 254
175 207 254
175 207 254
175 207 254
175 207 254
175 207 254
175 207 254
175 207 254
175 207 254
175 207 254
175 207 254
175 207 254
175 207 254
175 207 254
175 207 254
175 207 254
175 207 254
176 207 254
176 207 254
176 207 254
176 207 254
176 207 254
176 207 254
176 207 254
176 207 254
176 207 254
176 207 254
176 207 254
176 207 254
176 208 254
176 208 254
176 208 254
176 208 254
176 208 254
176 207 254
176 207 254
176 207 254
176 207 254
176 207 254
176 207 254
176 207 254
176 207 254
176 207 254
176 207 254
176 207 254
176 207 254
175 207 254
175 207 254
175 207 254
175 207 254
175 207 254
175 207 254
175 207 254
175 207 254
175 207 254
175 207 254
175 207 254
175 207 254
175 207 254
175 207 254
175 207 254
175 207 254
174 206 254
174 206 254
174 206 254
174 206 254
174 206 254
174 206 254
174 206 254
174 206 254
174 206 254
174 206 254
174 206 254
174 206 254
174 206 254
174 206 254
174 206 254
174 206 254
173 206 254
173 206 254
173 206 254
173 206 254
173 206 254
173 206 254
173 206 254
173 206 254
173 206 254
173 205 254
173 205 254
173 205 254
173 205 254
173 205 254
172 205 254
172 205 254
172 205 254
172 205 254
172 205 254
172 205 254
172 205 254
172 205 254
172 205 254
172 205 254
172 205 254
172 205 254
172 205 254
171 205 254
171 205 254
171 205 254
171 205 254
171 205 254
171 204 254
171 204 254
171 204 254
171 204 254
171 204 254
171 204 254
171 204 254
170 204 254
170 204 254
170 204 254
170 204 254
170 204 254
170 204 254
170 204 254
170 204 254
170 204 254
170 204 254
170 204 254
170 204 254
170 204 254
169 203 254
169 203 254
169 203 254
169 203 254
169 203 254
169 203 254
169 203 254
169 203 254
169 203 254
169 203 254
169 203 254
169 203 254
168 203 254
168 203 254
168 203 254
168 203 254
168 203 254
168 203 254
168 203 254
168 203 254
168 202 254
168 202 254
168 202 254
168 202 254
167 202 254
167 202 254
167 202 254
167 202 254
167 202 254
167 202 254
167 202 254
167 202 254
167 202 254
167 202 254
167 202 254
167 202 254
166 202 254
166 202 254
166 202 254
166 202 254
166 202 254
166 201 254
166 201 254
166 201 254
166 201 254
166 201 254
166 201 254
166 201 254
166 201 254
166 201 254
165 201 254
165 201 254
165 201 254
165 201 254
165 201 254
165 201 254
165 201 254
165 201 254
165 201 254
165 201 254
162 197 250
97 118 150
16 20 26
14 17 23
13 17 22
14 17 22
12 16 20
14 18 23
14 17 23
13 16 22
13 16 21
13 16 22
13 17 22
14 17 22
14 17 22
13 16 21
13 17 22
14 18 23
14 17 22
14 17 22
13 16 20
13 16 21
14 17 22
13 17 22
13 17 22
14 17 22
12 15 19
13 17 22
13 16 21
13 16 21
14 17 22
13 16 21
14 17 22
14 17 22
14 17 22
13 16 21
13 16 21
13 16 21
13 16 20
13 17 22
14 17 22
13 16 21
14 17 22
13 16 21
14 17 22
14 17 22
13 16 21
13 16 21
13 17 22
13 17 22
13 17 22
13 17 22
12 16 20
12 15 20
13 16 21
13 16 21
14 17 22
13 16 21
13 16 21
14 18 23
14 17 21
14 18 23
13 16 21
13 16 21
13 17 22
13 16 22
14 17 22
13 16 21
13 16 21
13 16 21
13 17 22
13 17 22
14 17 22
14 18 24
13 16 21
14 17 23
84 102 130
160 195 248
165 201 254
165 201 254
165 201 254
165 201 254
165 201 254
165 201 254
165 201 254
165 201 254
165 201 254
165 201 254
166 201 254
166 201 254
166 201 254
166 201 254
166 201 254
166 201 254
166 201 254
166 201 254
166 201 254
166 202 254
166 202 254
166 202 254
166 202 254
166 202 254
167 202 254
167 202 254
167 202 254
167 202 254
167 202 254
167 202 254
167 202 254
167 202 254
167 202 254
167 202 254
167 202 254
167 202 254
168 202 254
168 202 254
168 202 254
168 202 254
168 203 254
168 203 254
168 203 254
168 203 254
168 203 254
168 203 254
168 203 254
168 203 254
169 203 254
169 203 254
169 203 254
169 203 254
169 203 254
169 203 254
169 203 254
169 203 254
169 203 254
169 203 254
169 203 254
169 203 254
170 204 254
170 204 254
170 204 254
170 204 254
170 204 254
170 204 254
170 204 254
170 204 254
170 204 254
170 204 254
170 204 254
170 204 254
171 204 254
171 204 254
171 204 254
171 204 254
171 204 254
171 204 254
171 204 254
171 204 254
171 205 254
171 205 254
171 205 254
171 205 254
171 205 254
172 205 254
172 205 254
172 205 254
172 205 254
172 205 254
172 205 254
172 205 254
172 205 254
172 205 254
172 205 254
172 205 254
172 205 254
172 205 254
173 205 254
173 205 254
173 205 254
173 205 254
173 205 254
173 206 254
173 206 254
173 206 254
173 206 254
173 206 254
173 206 254
173 206 254
173 206 254
173 206 254
174 206 254
174 206 254
174 206 254
174 206 254
174 206 254
174 206 254
174 206 254
174 206 254
174 206 254
174 206 254
174 206 254
174 206 254
174 206 254
174 206 254
174 206 254
174 206 254
175 207 254
175 207 254
175 207 254
175 207 254
175 207 254
175 207 254
175 207 254
175 207 254
175 207 254
175 207 254
175 207 254
175 207 254
175 207 254
175 207 254
175 207 254
175 207 254
176 207 254
176 207 254
176 207 254
176 207 254
176 207 254
176 207 254
176 207 254
176 207 254
176 207 254
176 207 254
176 207 254
176 207 254
176 207 254
176 208 254
176 208 254
176 208 254
176 208 254
177 208 254
177 208 254
177 208 254
176 208 254
176 208 254
176 208 254
176 208 254
176 208 254
176 208 254
176 207 254
176 207 254
176 207 254
176 207 254
176 207 254
176 207 254
176 207 254
176 207 254
176 207 254
176 207 254
176 207 254
176 207 254
176 207 254
175 207 254
175 207 254
175 207 254
175 207 254
175 207 254
175 207 254
175 207 254
175 207 254
175 207 254
175 207 254
175 207 254
175 207 254
175 207 254
175 207 254
175 207 254
175 207 254
174 206 254
174 206 254
174 206 254
174 206 254
174 206 254
174 206 254
174 206 254
174 206 254
174 206 254
174 206 254
174 206 254
174 206 254
174 206 254
174 206 254
174 206 254
173 206 254
173 206 254
173 206 254
173 206 254
173 206 254
173 206 254
173 206 254
173 206 254
173 206 254
173 205 254
173 205 254
173 205 254
173 205 254
173 205 254
172 205 254
172 205 254
172 205 254
172 205 254
172 205 254
172 205 254
172 205 254
172 205 254
172 205 254
172 205 254
172 205 254
172 205 254
172 205 254
171 205 254
171 205 254
171 205 254
171 205 254
171 205 254
171 204 254
171 204 254
171 204 254
171 204 254
171 204 254
171 204 254
171 204 254
171 204 254
170 204 254
170 204 254
170 204 254
170 204 254
170 204 254
170 204 254
170 204 254
170 204 254
170 204 254
170 204 254
170 204 254
170 204 254
169 203 254
169 203 254
169 203 254
169 203 254
169 203 254
169 203 254
169 203 254
169 203 254
169 203 254
169 203 254
169 203 254
169 203 254
168 203 254
168 203 254
168 203 254
168 203 254
168 203 254
168 203 254
168 203 254
168 203 254
168 202 254
168 202 254
168 202 254
168 202 254
167 202 254
167 202 254
167 202 254
167 202 254
167 202 254
167 202 254
167 202 254
167 202 254
167 202 254
167 202 254
167 202 254
167 202 254
167 202 254
166 202 254
166 202 254
166 202 254
166 202 254
166 202 254
166 201 254
166 201 254
166 201 254
166 201 254
166 201 254
166 201 254
166 201 254
166 201 254
166 201 254
166 201 254
165 201 254
165 201 254
165 201 254
146 177 225
44 54 69
13 17 22
13 17 22
13 17 22
13 16 21
14 17 22
13 16 21
13 16 22
13 17 22
13 17 22
13 17 22
13 17 22
13 16 21
14 17 22
13 17 22
13 17 22
13 16 21
14 17 22
13 16 21
14 18 23
13 17 22
13 16 21
12 16 21
13 16 21
13 16 21
13 16 21
13 16 21
13 17 22
13 16 21
13 17 21
12 15 20
14 17 22
14 17 22
13 16 21
13 17 22
12 15 20
13 17 22
13 16 21
13 16 20
12 15 19
13 16 21
14 17 22
13 16 20
13 16 21
12 16 20
14 17 22
13 16 21
13 16 21
13 16 21
12 15 20
13 16 21
13 16 21
14 17 22
13 16 21
13 16 21
13 16 21
13 16 21
13 16 21
13 16 21
13 16 22
13 16 21
13 17 22
13 16 21
14 17 22
13 17 22
13 16 21
13 16 22
14 17 22
13 16 21
14 17 23
13 16 21
14 17 22
13 17 22
13 16 21
13 16 22
14 17 22
13 17 22
43 53 67
144 175 222
165 201 254
165 201 254
165 201 254
166 201 254
166 201 254
166 201 254
166 201 254
166 201 254
166 201 254
166 201 254
166 201 254
166 201 254
166 201 254
166 202 254
166 202 254
166 202 254
166 202 254
166 202 254
167 202 254
167 202 254
167 202 254
167 202 254
167 202 254
167 202 254
167 202 254
167 202 254
167 202 254
167 202 254
167 202 254
167 202 254
167 202 254
168 202 254
168 202 254
168 202 254
168 203 254
168 203 254
168 203 254
168 203 254
168 203 254
168 203 254
168 203 254
168 203 254
168 203 254
169 203 254
169 203 254
169 203 254
169 203 254
169 203 254
169 203 254
169 203 254
169 203 254
169 203 254
169 203 254
169 203 254
169 203 254
170 204 254
170 204 254
170 204 254
170 204 254
170 204 254
170 204 254
170 204 254
170 204 254
170 204 254
170 204 254
170 204 254
170 204 254
171 204 254
171 204 254
171 204 254
171 204 254
171 204 254
171 204 254
171 204 254
171 204 254
171 205 254
171 205 254
171 205 254
171 205 254
172 205 254
172 205 254
172 205 254
172 205 254
172 205 254
172 205 254
172 205 254
172 205 254
172 205 254
172 205 254
172 205 254
172 205 254
172 205 254
172 205 254
173 205 254
173 205 254
173 205 254
173 205 254
173 206 254
173 206 254
173 206 254
173 206 254
173 206 254
173 206 254
173 206 254
173 206 254
173 206 254
173 206 254
174 206 254
174 206 254
174 206 254
174 206 254
174 206 254
174 206 254
174 206 254
174 206 254
174 206 254
174 206 254
174 206 254
174 206 254
174 206 254
174 206 254
174 206 254
175 207 254
175 207 254
175 207 254
175 207 254
175 207 254
175 207 254
175 207 254
175 207 254
175 207 254
175 207 254
175 207 254
175 207 254
175 207 254
175 207 254
175 207 254
175 207 254
175 207 254
176 207 254
176 207 254
176 207 254
176 207 254
176 207 254
176 207 254
176 207 254
176 207 254
176 207 254
176 207 254
176 207 254
176 208 254
176 208 254
176 208 254
176 208 254
176 208 254
176 208 254
176 208 254
177 208 254
177 208 254
177 208 254
177 208 254
177 208 254
177 208 254
177 208 254
177 208 254
177 208 254
177 208 254
177 208 254
176 208 254
176 208 254
176 208 254
176 208 254
176 208 254
176 208 254
176 207 254
176 207 254
176 207 254
176 207 254
176 207 254
176 207 254
176 207 254
176 207 254
176 207 254
176 207 254
176 207 254
176 207 254
175 207 254
175 207 254
175 207 254
175 207 254
175 207 254
175 207 254
175 207 254
175 207 254
175 207 254
175 207 254
175 207 254
175 207 254
175 207 254
175 207 254
175 207 254
175 207 254
175 207 254
174 206 254
174 206 254
174 206 254
174 206 254
174 206 254
174 206 254
174 206 254
174 206 254
174 206 254
174 206 254
174 206 254
174 206 254
174 206 254
174 206 254
174 206 254
173 206 254
173 206 254
173 206 254
173 206 254
173 206 254
173 206 254
173 206 254
173 206 254
173 206 254
173 205 254
173 205 254
173 205 254
173 205 254
173 205 254
172 205 254
172 205 254
172 205 254
172 205 254
172 205 254
172 205 254
172 205 254
172 205 254
172 205 254
172 205 254
172 205 254
172 205 254
172 205 254
171 205 254
171 205 254
171 205 254
171 205 254
171 204 254
171 204 254
171 204 254
171 204 254
171 204 254
171 204 254
171 204 254
171 204 254
170 204 254
170 204 254
170 204 254
170 204 254
170 204 254
170 204 254
170 204 254
170 204 254
170 204 254
170 204 254
170 204 254
170 204 254
170 204 254
169 203 254
169 203 254
169 203 254
169 203 254
169 203 254
169 203 254
169 203 254
169 203 254
169 203 254
169 203 254
169 203 254
169 203 254
168 203 254
168 203 254
168 203 254
168 203 254
168 203 254
168 203 254
168 203 254
168 203 254
168 202 254
168 202 254
168 202 254
168 202 254
167 202 254
167 202 254
167 202 254
167 202 254
167 202 254
167 202 254
167 202 254
167 202 254
167 202 254
167 202 254
167 202 254
167 202 254
167 202 254
167 202 254
166 202 254
166 202 254
166 202 254
166 202 254
166 202 254
166 201 254
166 201 254
166 201 254
166 201 254
166 201 254
166 201 254
132 161 204
17 21 27
14 17 23
13 17 22
13 17 22
13 17 22
13 17 21
13 16 21
14 17 22
13 16 21
14 17 23
13 17 22
13 16 20
13 16 21
13 16 21
14 17 22
13 16 21
12 15 19
13 16 21
13 16 21
13 16 21
13 16 21
13 16 21
13 17 21
12 15 20
13 17 22
14 17 22
12 16 20
12 15 20
13 16 20
13 16 21
13 16 21
13 16 21
13 16 20
13 16 20
13 16 21
12 15 20
13 17 22
12 15 20
13 17 22
13 16 21
13 17 22
13 16 21
13 16 21
13 16 20
13 16 21
12 15 20
12 16 20
14 17 22
12 16 20
14 17 22
12 15 19
13 16 21
13 16 21
14 17 22
13 16 21
12 16 20
13 15 20
13 16 21
13 16 21
13 16 21
13 17 22
13 16 20
13 17 22
13 16 21
14 17 22
13 16 21
13 17 21
13 16 20
14 18 23
13 17 22
13 16 20
13 17 22
13 16 22
13 16 22
13 17 22
14 17 23
13 16 21
14 17 22
14 17 22
29 35 45
119 144 182
166 201 254
166 201 254
166 201 254
166 201 254
166 201 254
166 201 254
166 202 254
166 202 254
166 202 254
166 202 254
166 202 254
167 202 254
167 202 254
167 202 254
167 202 254
167 202 254
167 202 254
167 202 254
167 202 254
167 202 254
167 202 254
167 202 254
167 202 254
167 202 254
167 202 254
168 202 254
168 202 254
168 202 254
168 202 254
168 203 254
168 203 254
168 203 254
168 203 254
168 203 254
168 203 254
168 203 254
168 203 254
169 203 254
169 203 254
169 203 254
169 203 254
169 203 254
169 203 254
169 203 254
169 203 254
169 203 254
169 203 254
169 203 254
169 203 254
170 204 254
170 204 254
170 204 254
170 204 254
170 204 254
170 204 254
170 204 254
170 204 254
170 204 254
170 204 254
170 204 254
170 204 254
170 204 254
171 204 254
171 204 254
171 204 254
171 204 254
171 204 254
171 204 254
171 204 254
171 204 254
171 205 254
171 205 254
171 205 254
171 205 254
172 205 254
172 205 254
172 205 254
172 205 254
172 205 254
172 205 254
172 205 254
172 205 254
172 205 254
172 205 254
172 205 254
172 205 254
172 205 254
173 205 254
173 205 254
173 205 254
173 205 254
173 205 254
173 206 254
173 206 254
173 206 254
173 206 254
173 206 254
173 206 254
173 206 254
173 206 254
173 206 254
174 206 254
174 206 254
174 206 254
174 206 254
174 206 254
174 206 254
174 206 254
174 206 254
174 206 254
174 206 254
174 206 254
174 206 254
174 206 254
174 206 254
174 206 254
174 206 254
175 207 254
175 207 254
175 207 254
175 207 254
175 207 254
175 207 254
175 207 254
175 207 254
175 207 254
175 207 254
175 207 254
175 207 254
175 207 254
175 207 254
175 207 254
175 207 254
176 207 254
176 207 254
176 207 254
176 207 254
176 207 254
176 207 254
176 207 254
176 207 254
176 207 254
176 207 254
176 207 254
176 207 254
176 208 254
176 208 254
176 208 254
176 208 254
176 208 254
176 208 254
177 208 254
177 208 254
177 208 254
177 208 254
177 208 254
177 208 254
177 208 254
177 208 254
177 208 254
177 208 254
177 208 254
177 208 254
177 208 254
177 208 254
177 208 254
177 208 254
177 208 254
177 208 254
177 208 254
177 208 254
177 208 254
176 208 254
176 208 254
176 208 254
176 208 254
176 208 254
176 208 254
176 207 254
176 207 254
176 207 254
176 207 254
176 207 254
176 207 254
176 207 254
176 207 254
176 207 254
176 207 254
176 207 254
176 207 254
175 207 254
175 207 254
175 207 254
175 207 254
175 207 254
175 207 254
175 207 254
175 207 254
175 207 254
175 207 254
175 207 254
175 207 254
175 207 254
175 207 254
175 207 254
175 207 254
174 206 254
174 206 254
174 206 254
174 206 254
174 206 254
174 206 254
174 206 254
174 206 254
174 206 254
174 206 254
174 206 254
174 206 254
174 206 254
174 206 254
174 206 254
173 206 254
173 206 254
173 206 254
173 206 254
173 206 254
173 206 254
173 206 254
173 206 254
173 206 254
173 206 254
173 205 254
173 205 254
173 205 254
173 205 254
172 205 254
172 205 254
172 205 254
172 205 254
172 205 254
172 205 254
172 205 254
172 205 254
172 205 254
172 205 254
172 205 254
172 205 254
172 205 254
171 205 254
171 205 254
171 205 254
171 205 254
171 204 254
171 204 254
171 204 254
171 204 254
171 204 254
171 204 254
171 204 254
171 204 254
171 204 254
170 204 254
170 204 254
170 204 254
170 204 254
170 204 254
170 204 254
170 204 254
170 204 254
170 204 254
170 204 254
170 204 254
170 204 254
169 203 254
169 203 254
169 203 254
169 203 254
169 203 254
169 203 254
169 203 254
169 203 254
169 203 254
169 203 254
169 203 254
169 203 254
169 203 254
168 203 254
168 203 254
168 203 254
168 203 254
168 203 254
168 203 254
168 203 254
168 203 254
168 202 254
168 202 254
168 202 254
168 202 254
168 202 254
167 202 254
167 202 254
167 202 254
167 202 254
167 202 254
167 202 254
167 202 254
167 202 254
167 202 254
167 202 254
167 202 254
167 202 254
167 202 254
167 202 254
166 202 254
166 202 254
166 202 254
166 202 254
88 107 136
15 18 24
13 17 22
13 17 22
13 17 22
13 17 22
14 17 22
14 17 22
13 16 21
13 16 21
13 16 21
13 17 22
12 16 20
13 17 22
14 17 22
13 16 21
14 17 22
14 17 22
14 17 22
12 15 20
13 16 21
13 17 22
13 16 21
12 15 20
13 16 21
13 16 21
12 16 20
13 17 21
13 16 21
12 15 20
13 16 21
13 16 21
12 15 20
13 16 21
13 17 22
13 16 22
14 17 22
12 15 20
13 17 22
13 16 21
13 17 22
14 17 22
13 16 21
12 15 19
14 17 22
13 16 20
13 16 21
13 16 21
14 17 22
13 16 21
12 15 20
13 16 21
13 16 21
13 16 21
12 15 19
13 17 21
13 17 22
13 16 20
13 16 20
13 16 21
12 15 20
13 17 22
13 17 22
12 15 20
13 16 21
13 16 21
14 17 23
12 15 19
12 15 20
12 15 19
12 16 20
13 16 21
14 18 23
13 16 21
14 17 22
14 17 22
14 17 23
12 15 20
13 17 22
13 17 22
13 16 21
12 16 21
15 19 25
100 121 154
166 202 254
166 202 254
166 202 254
166 202 254
166 202 254
167 202 254
167 202 254
167 202 254
167 202 254
167 202 254
167 202 254
167 202 254
167 202 254
167 202 254
167 202 254
167 202 254
167 202 254
167 202 254
168 202 254
168 202 254
168 202 254
168 202 254
168 202 254
168 203 254
168 203 254
168 203 254
168 203 254
168 203 254
168 203 254
168 203 254
168 203 254
169 203 254
169 203 254
169 203 254
169 203 254
169 203 254
169 203 254
169 203 254
169 203 254
169 203 254
169 203 254
169 203 254
169 203 254
169 203 254
170 204 254
170 204 254
170 204 254
170 204 254
170 204 254
170 204 254
170 204 254
170 204 254
170 204 254
170 204 254
170 204 254
170 204 254
171 204 254
171 204 254
171 204 254
171 204 254
171 204 254
171 204 254
171 204 254
171 204 254
171 204 254
171 205 254
171 205 254
171 205 254
171 205 254
172 205 254
172 205 254
172 205 254
172 205 254
172 205 254
172 205 254
172 205 254
172 205 254
172 205 254
172 205 254
172 205 254
172 205 254
172 205 254
173 205 254
173 205 254
173 205 254
173 205 254
173 206 254
173 206 254
173 206 254
173 206 254
173 206 254
173 206 254
173 206 254
173 206 254
173 206 254
173 206 254
174 206 254
174 206 254
174 206 254
174 206 254
174 206 254
174 206 254
174 206 254
174 206 254
174 206 254
174 206 254
174 206 254
174 206 254
174 206 254
174 206 254
174 206 254
175 207 254
175 207 254
175 207 254
175 207 254
175 207 254
175 207 254
175 207 254
175 207 254
175 207 254
175 207 254
175 207 254
175 207 254
175 207 254
175 207 254
175 207 254
175 207 254
176 207 254
176 207 254
176 207 254
176 207 254
176 207 254
176 207 254
176 207 254
176 207 254
176 207 254
176 207 254
176 207 254
176 208 254
176 208 254
176 208 254
176 208 254
176 208 254
176 208 254
176 208 254
177 208 254
177 208 254
177 208 254
177 208 254
177 208 254
177 208 254
177 208 254
177 208 254
177 208 254
177 208 254
177 208 254
177 208 254
177 208 254
177 208 254
177 208 254
177 208 254
177 208 254
177 208 254
177 208 254
177 208 254
177 208 254
177 208 254
177 208 254
177 208 254
177 208 254
177 208 254
177 208 254
177 208 254
177 208 254
177 208 254
177 208 254
177 208 254
176 208 254
176 208 254
176 208 254
176 208 254
176 208 254
176 207 254
176 207 254
176 207 254
176 207 254
176 207 254
176 207 254
176 207 254
176 207 254
176 207 254
176 207 254
176 207 254
176 207 254
175 207 254
175 207 254
175 207 254
175 207 254
175 207 254
175 207 254
175 207 254
175 207 254
175 207 254
175 207 254
175 207 254
175 207 254
175 207 254
175 207 254
175 207 254
175 207 254
174 206 254
174 206 254
174 206 254
174 206 254
174 206 254
174 206 254
174 206 254
174 206 254
174 206 254
174 206 254
174 206 254
174 206 254
174 206 254
174 206 254
174 206 254
173 206 254
173 206 254
173 206 254
173 206 254
173 206 254
173 206 254
173 206 254
173 206 254
173 206 254
173 205 254
173 205 254
173 205 254
173 205 254
173 205 254
172 205 254
172 205 254
172 205 254
172 205 254
172 205 254
172 205 254
172 205 254
172 205 254
172 205 254
172 205 254
172 205 254
172 205 254
172 205 254
171 205 254
171 205 254
171 205 254
171 205 254
171 204 254
171 204 254
171 204 254
171 204 254
171 204 254
171 204 254
171 204 254
171 204 254
171 204 254
170 204 254
170 204 254
170 204 254
170 204 254
170 204 254
170 204 254
170 204 254
170 204 254
170 204 254
170 204 254
170 204 254
170 204 254
169 203 254
169 203 254
169 203 254
169 203 254
169 203 254
169 203 254
169 203 254
169 203 254
169 203 254
169 203 254
169 203 254
169 203 254
169 203 254
168 203 254
168 203 254
168 203 254
168 203 254
168 203 254
168 203 254
168 203 254
168 203 254
168 203 254
168 202 254
168 202 254
168 202 254
168 202 254
167 202 254
167 202 254
167 202 254
167 202 254
167 202 254
167 202 254
167 202 254
167 202 254
167 202 254
167 202 254
167 202 254
165 200 252
62 76 96
14 17 22
13 16 22
13 16 21
14 17 22
13 17 22
13 16 21
13 17 22
13 16 21
13 16 20
13 16 21
14 17 22
13 16 21
13 16 20
13 16 21
13 17 22
12 15 20
12 15 20
12 15 20
13 17 21
14 18 23
12 15 20
13 16 21
14 17 22
13 16 20
14 17 22
13 16 21
13 17 21
13 17 21
13 16 21
13 16 22
13 16 21
13 16 21
14 17 22
13 16 21
12 16 20
13 16 21
12 15 20
12 15 19
12 16 20
13 16 21
12 16 20
13 16 21
12 15 20
13 16 20
13 16 21
13 17 22
12 15 20
13 16 20
13 16 20
13 17 22
13 16 21
13 16 20
14 18 23
13 16 21
13 16 21
13 16 22
12 15 20
13 16 20
13 16 21
12 15 20
13 16 20
13 16 21
13 16 21
13 16 21
13 17 22
13 17 22
13 16 20
13 16 21
12 16 20
13 17 22
13 16 22
13 16 21
12 15 20
13 16 21
13 16 21
13 16 21
12 16 20
13 16 21
14 17 22
13 16 21
13 16 21
13 16 22
13 16 22
13 16 21
67 82 104
164 198 250
167 202 254
167 202 254
167 202 254
167 202 254
167 202 254
167 202 254
167 202 254
167 202 254
167 202 254
167 202 254
167 202 254
168 202 254
168 202 254
168 202 254
168 202 254
168 202 254
168 203 254
168 203 254
168 203 254
168 203 254
168 203 254
168 203 254
168 203 254
168 203 254
169 203 254
169 203 254
169 203 254
169 203 254
169 203 254
169 203 254
169 203 254
169 203 254
169 203 254
169 203 254
169 203 254
169 203 254
169 203 254
170 204 254
170 204 254
170 204 254
170 204 254
170 204 254
170 204 254
170 204 254
170 204 254
170 204 254
170 204 254
170 204 254
170 204 254
170 204 254
171 204 254
171 204 254
171 204 254
171 204 254
171 204 254
171 204 254
171 204 254
171 204 254
171 205 254
171 205 254
171 205 254
171 205 254
172 205 254
172 205 254
172 205 254
172 205 254
172 205 254
172 205 254
172 205 254
172 205 254
172 205 254
172 205 254
172 205 254
172 205 254
172 205 254
172 205 254
173 205 254
173 205 254
173 205 254
173 205 254
173 206 254
173 206 254
173 206 254
173 206 254
173 206 254
173 206 254
173 206 254
173 206 254
173 206 254
174 206 254
174 206 254
174 206 254
174 206 254
174 206 254
174 206 254
174 206 254
174 206 254
174 206 254
174 206 254
174 206 254
174 206 254
174 206 254
174 206 254
174 206 254
175 207 254
175 207 254
175 207 254
175 207 254
175 207 254
175 207 254
175 207 254
175 207 254
175 207 254
175 207 254
175 207 254
175 207 254
175 207 254
175 207 254
175 207 254
175 207 254
176 207 254
176 207 254
176 207 254
176 207 254
176 207 254
176 207 254
176 207 254
176 207 254
176 207 254
176 207 254
176 207 254
176 207 254
176 208 254
176 208 254
176 208 254
176 208 254
176 208 254
176 208 254
177 208 254
177 208 254
177 208 254
177 208 254
177 208 254
177 208 254
177 208 254
177 208 254
177 208 254
177 208 254
177 208 254
177 208 254
177 208 254
177 208 254
177 208 254
177 208 254
177 208 254
177 208 254
178 208 254
178 208 254
178 208 254
178 208 254
177 208 254
177 208 254
177 208 254
177 208 254
177 208 254
177 208 254
177 208 254
177 208 254
177 208 254
177 208 254
177 208 254
177 208 254
177 208 254
177 208 254
177 208 254
177 208 254
177 208 254
177 208 254
177 208 254
177 208 254
176 208 254
176 208 254
176 208 254
176 208 254
176 208 254
176 208 254
176 207 254
176 207 254
176 207 254
176 207 254
176 207 254
176 207 254
176 207 254
176 207 254
176 207 254
176 207 254
176 207 254
175 207 254
175 207 254
175 207 254
175 207 254
175 207 254
175 207 254
175 207 254
175 207 254
175 207 254
175 207 254
175 207 254
175 207 254
175 207 254
175 207 254
175 207 254
175 207 254
174 206 254
174 206 254
174 206 254
174 206 254
174 206 254
174 206 254
174 206 254
174 206 254
174 206 254
174 206 254
174 206 254
174 206 254
174 206 254
174 206 254
174 206 254
173 206 254
173 206 254
173 206 254
173 206 254
173 206 254
173 206 254
173 206 254
173 206 254
173 206 254
173 205 254
173 205 254
173 205 254
173 205 254
172 205 254
172 205 254
172 205 254
172 205 254
172 205 254
172 205 254
172 205 254
172 205 254
172 205 254
172 205 254
172 205 254
172 205 254
172 205 254
171 205 254
171 205 254
171 205 254
171 205 254
171 205 254
171 204 254
171 204 254
171 204 254
171 204 254
171 204 254
171 204 254
171 204 254
171 204 254
170 204 254
170 204 254
170 204 254
170 204 254
170 204 254
170 204 254
170 204 254
170 204 254
170 204 254
170 204 254
170 204 254
170 204 254
170 204 254
169 203 254
169 203 254
169 203 254
169 203 254
169 203 254
169 203 254
169 203 254
169 203 254
169 203 254
169 203 254
169 203 254
169 203 254
169 203 254
168 203 254
168 203 254
168 203 254
168 203 254
168 203 254
168 203 254
168 203 254
168 203 254
168 203 254
168 203 254
168 202 254
168 202 254
168 202 254
168 202 254
167 202 254
167 202 254
167 202 254
167 202 254
163 196 247
53 64 81
15 18 24
13 16 21
14 17 22
12 15 20
13 16 21
14 17 22
14 17 22
12 15 20
12 15 19
13 16 21
13 16 21
12 15 19
14 18 24
12 15 19
13 16 22
13 16 21
13 16 21
13 16 22
12 15 19
13 16 21
14 18 23
12 16 20
11 14 19
13 17 21
12 15 19
12 15 19
12 15 20
14 18 23
12 15 20
13 16 20
13 16 21
14 17 22
13 16 21
12 15 20
13 16 21
13 16 20
12 15 19
12 15 20
14 17 22
13 16 20
13 16 21
13 16 20
13 16 21
13 17 22
14 17 22
13 16 21
12 15 20
13 15 20
13 16 21
13 17 22
12 15 20
13 16 21
13 16 21
12 15 20
13 16 20
14 17 22
12 15 20
13 16 20
13 15 20
13 16 20
14 17 22
13 16 21
12 15 20
13 16 21
13 16 21
12 16 20
13 16 22
12 15 19
13 17 22
13 16 20
13 16 21
12 15 20
13 16 21
13 16 21
13 17 22
14 17 22
13 17 22
13 16 21
13 16 21
13 17 22
14 17 22
14 17 22
13 16 21
13 17 22
13 17 22
13 17 22
52 63 80
159 192 242
167 202 254
167 202 254
167 202 254
167 202 254
168 202 254
168 202 254
168 202 254
168 202 254
168 202 254
168 203 254
168 203 254
168 203 254
168 203 254
168 203 254
168 203 254
168 203 254
168 203 254
168 203 254
169 203 254
169 203 254
169 203 254
169 203 254
169 203 254
169 203 254
169 203 254
169 203 254
169 203 254
169 203 254
169 203 254
169 203 254
169 203 254
170 204 254
170 204 254
170 204 254
170 204 254
170 204 254
170 204 254
170 204 254
170 204 254
170 204 254
170 204 254
170 204 254
170 204 254
170 204 254
171 204 254
171 204 254
171 204 254
171 204 254
171 204 254
171 204 254
171 204 254
171 204 254
171 205 254
171 205 254
171 205 254
171 205 254
171 205 254
172 205 254
172 205 254
172 205 254
172 205 254
172 205 254
172 205 254
172 205 254
172 205 254
172 205 254
172 205 254
172 205 254
172 205 254
172 205 254
173 205 254
173 205 254
173 205 254
173 205 254
173 206 254
173 206 254
173 206 254
173 206 254
173 206 254
173 206 254
173 206 254
173 206 254
173 206 254
173 206 254
174 206 254
174 206 254
174 206 254
174 206 254
174 206 254
174 206 254
174 206 254
174 206 254
174 206 254
174 206 254
174 206 254
174 206 254
174 206 254
174 206 254
175 207 254
175 207 254
175 207 254
175 207 254
175 207 254
175 207 254
175 207 254
175 207 254
175 207 254
175 207 254
175 207 254
175 207 254
175 207 254
175 207 254
175 207 254
175 207 254
176 207 254
176 207 254
176 207 254
176 207 254
176 207 254
176 207 254
176 207 254
176 207 254
176 207 254
176 207 254
176 207 254
176 207 254
176 208 254
176 208 254
176 208 254
176 208 254
176 208 254
177 208 254
177 208 254
177 208 254
177 208 254
177 208 254
177 208 254
177 208 254
177 208 254
177 208 254
177 208 254
177 208 254
177 208 254
177 208 254
177 208 254
177 208 254
177 208 254
177 208 254
177 208 254
177 208 254
177 208 254
178 208 254
178 208 254
178 208 254
178 208 254
178 209 254
178 209 254
178 209 254
178 208 254
178 208 254
178 208 254
178 208 254
178 208 254
178 208 254
177 208 254
177 208 254
177 208 254
177 208 254
177 208 254
177 208 254
177 208 254
177 208 254
177 208 254
177 208 254
177 208 254
177 208 254
177 208 254
177 208 254
177 208 254
177 208 254
177 208 254
177 208 254
177 208 254
177 208 254
176 208 254
176 208 254
176 208 254
176 208 254
176 208 254
176 208 254
176 207 254
176 207 254
176 207 254
176 207 254
176 207 254
176 207 254
176 207 254
176 207 254
176 207 254
176 207 254
176 207 254
175 207 254
175 207 254
175 207 254
175 207 254
175 207 254
175 207 254
175 207 254
175 207 254
175 207 254
175 207 254
175 207 254
175 207 254
175 207 254
175 207 254
175 207 254
175 207 254
174 206 254
174 206 254
174 206 254
174 206 254
174 206 254
174 206 254
174 206 254
174 206 254
174 206 254
174 206 254
174 206 254
174 206 254
174 206 254
174 206 254
173 206 254
173 206 254
173 206 254
173 206 254
173 206 254
173 206 254
173 206 254
173 206 254
173 206 254
173 205 254
173 205 254
173 205 254
173 205 254
173 205 254
172 205 254
172 205 254
172 205 254
172 205 254
172 205 254
172 205 254
172 205 254
172 205 254
172 205 254
172 205 254
172 205 254
172 205 254
172 205 254
171 205 254
171 205 254
171 205 254
171 205 254
171 205 254
171 204 254
171 204 254
171 204 254
171 204 254
171 204 254
171 204 254
171 204 254
171 204 254
170 204 254
170 204 254
170 204 254
170 204 254
170 204 254
170 204 254
170 204 254
170 204 254
170 204 254
170 204 254
170 204 254
170 204 254
170 204 254
169 203 254
169 203 254
169 203 254
169 203 254
169 203 254
169 203 254
169 203 254
169 203 254
169 203 254
169 203 254
169 203 254
169 203 254
169 203 254
169 203 254
168 203 254
168 203 254
168 203 254
168 203 254
168 203 254
168 203 254
168 203 254
168 203 254
168 203 254
168 203 254
168 202 254
154 186 234
52 63 80
13 17 22
13 16 20
13 16 21
13 16 21
13 16 20
14 17 22
13 17 22
13 16 22
13 17 22
13 16 20
13 17 21
13 16 21
13 16 21
12 15 19
13 17 22
13 16 21
13 17 22
12 15 20
12 15 19
12 15 20
13 16 20
13 17 22
13 16 20
13 16 21
13 16 21
13 16 21
13 16 20
12 15 19
12 16 20
13 16 21
12 16 21
13 16 21
14 17 22
12 16 21
13 16 21
12 15 19
13 17 22
12 15 19
13 16 21
13 16 20
13 16 20
13 16 21
13 16 21
12 14 19
13 17 22
12 15 20
12 15 19
13 16 20
13 16 21
11 14 19
12 15 20
13 16 21
13 16 21
13 17 21
13 16 20
12 15 19
13 16 21
12 15 20
12 16 20
13 17 22
13 16 21
13 16 20
12 15 20
12 15 20
12 15 20
13 16 21
12 15 20
13 16 21
14 17 22
13 16 21
13 16 21
13 16 21
13 16 21
12 15 19
13 16 21
13 17 22
12 15 19
13 17 22
12 15 20
13 17 22
13 16 21
14 17 22
14 17 22
12 15 20
13 16 21
13 16 21
13 17 22
12 16 21
47 57 72
160 193 243
168 202 254
168 203 254
168 203 254
168 203 254
168 203 254
168 203 254
168 203 254
168 203 254
168 203 254
168 203 254
168 203 254
169 203 254
169 203 254
169 203 254
169 203 254
169 203 254
169 203 254
169 203 254
169 203 254
169 203 254
169 203 254
169 203 254
169 203 254
169 203 254
169 203 254
170 204 254
170 204 254
170 204 254
170 204 254
170 204 254
170 204 254
170 204 254
170 204 254
170 204 254
170 204 254
170 204 254
170 204 254
170 204 254
171 204 254
171 204 254
171 204 254
171 204 254
171 204 254
171 204 254
171 204 254
171 204 254
171 204 254
171 205 254
171 205 254
171 205 254
171 205 254
172 205 254
172 205 254
172 205 254
172 205 254
172 205 254
172 205 254
172 205 254
172 205 254
172 205 254
172 205 254
172 205 254
172 205 254
172 205 254
173 205 254
173 205 254
173 205 254
173 205 254
173 206 254
173 206 254
173 206 254
173 206 254
173 206 254
173 206 254
173 206 254
173 206 254
173 206 254
173 206 254
174 206 254
174 206 254
174 206 254
174 206 254
174 206 254
174 206 254
174 206 254
174 206 254
174 206 254
174 206 254
174 206 254
174 206 254
174 206 254
174 206 254
175 207 254
175 207 254
175 207 254
175 207 254
175 207 254
175 207 254
175 207 254
175 207 254
175 207 254
175 207 254
175 207 254
175 207 254
175 207 254
175 207 254
175 207 254
175 207 254
176 207 254
176 207 254
176 207 254
176 207 254
176 207 254
176 207 254
176 207 254
176 207 254
176 207 254
176 207 254
176 207 254
176 208 254
176 208 254
176 208 254
176 208 254
176 208 254
176 208 254
177 208 254
177 208 254
177 208 254
177 208 254
177 208 254
177 208 254
177 208 254
177 208 254
177 208 254
177 208 254
177 208 254
177 208 254
177 208 254
177 208 254
177 208 254
177 208 254
177 208 254
177 208 254
177 208 254
178 208 254
178 208 254
178 208 254
178 208 254
178 208 254
178 208 254
178 208 254
178 209 254
178 209 254
178 209 254
178 209 254
178 209 254
178 209 254
178 209 254
178 209 254
178 209 254
178 209 254
178 209 254
178 208 254
178 208 254
178 208 254
178 208 254
178 208 254
178 208 254
178 208 254
177 208 254
177 208 254
177 208 254
177 208 254
177 208 254
177 208 254
177 208 254
177 208 254
177 208 254
177 208 254
177 208 254
177 208 254
177 208 254
177 208 254
177 208 254
177 208 254
177 208 254
177 208 254
177 208 254
176 208 254
176 208 254
176 208 254
176 208 254
176 208 254
176 208 254
176 207 254
176 207 254
176 207 254
176 207 254
176 207 254
176 207 254
176 207 254
176 207 254
176 207 254
176 207 254
176 207 254
175 207 254
175 207 254
175 207 254
175 207 254
175 207 254
175 207 254
175 207 254
175 207 254
175 207 254
175 207 254
175 207 254
175 207 254
175 207 254
175 207 254
175 207 254
175 207 254
174 206 254
174 206 254
174 206 254
174 206 254
174 206 254
174 206 254
174 206 254
174 206 254
174 206 254
174 206 254
174 206 254
174 206 254
174 206 254
174 206 254
173 206 254
173 206 254
173 206 254
173 206 254
173 206 254
173 206 254
173 206 254
173 206 254
173 206 254
173 206 254
173 205 254
173 205 254
173 205 254
173 205 254
172 205 254
172 205 254
172 205 254
172 205 254
172 205 254
172 205 254
172 205 254
172 205 254
172 205 254
172 205 254
172 205 254
172 205 254
172 205 254
171 205 254
171 205 254
171 205 254
171 205 254
171 205 254
171 204 254
171 204 254
171 204 254
171 204 254
171 204 254
171 204 254
171 204 254
171 204 254
170 204 254
170 204 254
170 204 254
170 204 254
170 204 254
170 204 254
170 204 254
170 204 254
170 204 254
170 204 254
170 204 254
170 204 254
170 204 254
170 204 254
169 203 254
169 203 254
169 203 254
169 203 254
169 203 254
169 203 254
169 203 254
169 203 254
169 203 254
169 203 254
169 203 254
169 203 254
169 203 254
169 203 254
168 203 254
168 203 254
168 203 254
168 203 254
161 194 243
32 39 50
13 16 21
12 15 20
14 17 22
13 16 21
13 16 21
13 17 22
12 15 20
13 16 21
13 16 20
13 16 20
12 16 20
12 15 20
13 17 22
12 15 20
13 16 21
12 16 21
12 15 20
13 16 21
12 15 19
12 16 21
13 16 20
12 15 20
12 15 19
13 17 22
12 15 19
13 16 20
13 16 21
13 16 20
13 16 21
12 16 20
13 16 21
12 15 20
13 16 21
13 16 21
13 16 21
13 16 21
13 16 21
13 17 22
13 16 20
14 17 22
12 15 19
12 16 20
11 14 18
12 15 19
13 16 21
12 15 20
13 16 21
12 16 20
13 16 21
13 17 22
11 14 19
12 15 20
13 16 21
13 17 21
13 16 21
13 16 21
13 16 20
13 16 21
11 13 18
12 15 20
13 16 21
13 16 21
12 15 20
13 16 21
12 15 19
12 15 20
13 16 21
13 16 20
12 15 20
12 15 19
13 16 21
12 15 20
12 15 20
13 16 20
12 16 20
14 17 22
12 15 20
12 15 19
14 17 22
12 16 21
12 15 20
12 15 19
13 16 21
12 15 20
13 16 21
13 16 21
13 16 21
13 16 21
13 17 22
13 16 21
48 58 73
156 188 236
168 203 254
168 203 254
168 203 254
168 203 254
169 203 254
169 203 254
169 203 254
169 203 254
169 203 254
169 203 254
169 203 254
169 203 254
169 203 254
169 203 254
169 203 254
169 203 254
169 203 254
169 203 254
170 204 254
170 204 254
170 204 254
170 204 254
170 204 254
170 204 254
170 204 254
170 204 254
170 204 254
170 204 254
170 204 254
170 204 254
170 204 254
170 204 254
171 204 254
171 204 254
171 204 254
171 204 254
171 204 254
171 204 254
171 204 254
171 204 254
171 205 254
171 205 254
171 205 254
171 205 254
171 205 254
172 205 254
172 205 254
172 205 254
172 205 254
172 205 254
172 205 254
172 205 254
172 205 254
172 205 254
172 205 254
172 205 254
172 205 254
172 205 254
173 205 254
173 205 254
173 205 254
173 205 254
173 205 254
173 206 254
173 206 254
173 206 254
173 206 254
173 206 254
173 206 254
173 206 254
173 206 254
173 206 254
174 206 254
174 206 254
174 206 254
174 206 254
174 206 254
174 206 254
174 206 254
174 206 254
174 206 254
174 206 254
174 206 254
174 206 254
174 206 254
174 206 254
175 207 254
175 207 254
175 207 254
175 207 254
175 207 254
175 207 254
175 207 254
175 207 254
175 207 254
175 207 254
175 207 254
175 207 254
175 207 254
175 207 254
175 207 254
175 207 254
176 207 254
176 207 254
176 207 254
176 207 254
176 207 254
176 207 254
176 207 254
176 207 254
176 207 254
176 207 254
176 207 254
176 208 254
176 208 254
176 208 254
176 208 254
176 208 254
176 208 254
177 208 254
177 208 254
177 208 254
177 208 254
177 208 254
177 208 254
177 208 254
177 208 254
177 208 254
177 208 254
177 208 254
177 208 254
177 208 254
177 208 254
177 208 254
177 208 254
177 208 254
177 208 254
177 208 254
178 208 254
178 208 254
178 208 254
178 208 254
178 208 254
178 208 254
178 208 254
178 209 254
178 209 254
178 209 254
178 209 254
178 209 254
178 209 254
178 209 254
178 209 254
178 209 254
178 209 254
178 209 254
178 209 254
178 209 254
178 209 254
178 209 254
178 209 254
178 209 254
178 209 254
178 209 254
178 209 254
178 209 254
178 209 254
178 208 254
178 208 254
178 208 254
178 208 254
178 208 254
178 208 254
178 208 254
177 208 254
177 208 254
177 208 254
177 208 254
177 208 254
177 208 254
177 208 254
177 208 254
177 208 254
177 208 254
177 208 254
177 208 254
177 208 254
177 208 254
177 208 254
177 208 254
177 208 254
177 208 254
176 208 254
176 208 254
176 208 254
176 208 254
176 208 254
176 208 254
176 207 254
176 207 254
176 207 254
176 207 254
176 207 254
176 207 254
176 207 254
176 207 254
176 207 254
176 207 254
176 207 254
175 207 254
175 207 254
175 207 254
175 207 254
175 207 254
175 207 254
175 207 254
175 207 254
175 207 254
175 207 254
175 207 254
175 207 254
175 207 254
175 207 254
175 207 254
175 207 254
174 206 254
174 206 254
174 206 254
174 206 254
174 206 254
174 206 254
174 206 254
174 206 254
174 206 254
174 206 254
174 206 254
174 206 254
174 206 254
174 206 254
173 206 254
173 206 254
173 206 254
173 206 254
173 206 254
173 206 254
173 206 254
173 206 254
173 206 254
173 205 254
173 205 254
173 205 254
173 205 254
173 205 254
172 205 254
172 205 254
172 205 254
172 205 254
172 205 254
172 205 254
172 205 254
172 205 254
172 205 254
172 205 254
172 205 254
172 205 254
172 205 254
171 205 254
171 205 254
171 205 254
171 205 254
171 205 254
171 204 254
171 204 254
171 204 254
171 204 254
171 204 254
171 204 254
171 204 254
171 204 254
170 204 254
170 204 254
170 204 254
170 204 254
170 204 254
170 204 254
170 204 254
170 204 254
170 204 254
170 204 254
170 204 254
170 204 254
170 204 254
170 204 254
170 204 254
169 203 254
169 203 254
169 203 254
169 203 254
169 203 254
169 203 254
169 203 254
169 203 254
169 203 254
169 203 254
169 203 254
156 188 236
43 53 67
13 17 22
14 17 22
13 17 22
13 16 21
13 16 21
12 15 19
13 16 21
13 15 20
13 16 21
12 16 20
14 17 22
13 16 21
13 16 21
12 15 19
13 16 21
14 17 21
12 16 20
13 16 21
13 17 21
12 15 19
12 15 20
11 14 19
13 16 21
12 15 20
12 15 19
12 15 20
12 16 20
12 16 20
11 14 19
13 16 20
13 16 20
14 17 22
13 16 20
12 15 20
14 17 22
13 17 22
13 16 21
12 15 19
14 17 22
14 17 22
12 16 21
12 15 19
13 16 20
13 16 20
13 16 21
12 14 19
12 15 19
13 16 21
13 17 22
13 16 20
12 15 19
12 15 20
12 15 20
13 16 20
13 16 20
13 16 21
12 15 20
12 15 20
13 16 20
13 16 21
12 15 19
13 16 20
13 16 21
12 15 19
12 15 19
12 15 20
13 16 21
12 15 19
12 15 19
13 16 20
13 16 21
13 16 21
14 17 22
13 16 21
12 15 20
12 15 20
13 16 21
13 16 21
12 15 19
13 16 20
13 16 21
13 16 21
12 16 20
13 16 21
13 16 21
13 16 20
13 16 21
14 17 23
13 16 21
13 16 21
12 16 20
13 17 22
42 51 65
159 192 241
169 203 254
169 203 254
169 203 254
169 203 254
169 203 254
169 203 254
169 203 254
169 203 254
169 203 254
169 203 254
169 203 254
169 203 254
170 204 254
170 204 254
170 204 254
170 204 254
170 204 254
170 204 254
170 204 254
170 204 254
170 204 254
170 204 254
170 204 254
170 204 254
170 204 254
171 204 254
171 204 254
171 204 254
171 204 254
171 204 254
171 204 254
171 204 254
171 204 254
171 204 254
171 205 254
171 205 254
171 205 254
171 205 254
171 205 254
172 205 254
172 205 254
172 205 254
172 205 254
172 205 254
172 205 254
172 205 254
172 205 254
172 205 254
172 205 254
172 205 254
172 205 254
172 205 254
173 205 254
173 205 254
173 205 254
173 205 254
173 205 254
173 206 254
173 206 254
173 206 254
173 206 254
173 206 254
173 206 254
173 206 254
173 206 254
173 206 254
174 206 254
174 206 254
174 206 254
174 206 254
174 206 254
174 206 254
174 206 254
174 206 254
174 206 254
174 206 254
174 206 254
174 206 254
174 206 254
174 206 254
175 207 254
175 207 254
175 207 254
175 207 254
175 207 254
175 207 254
175 207 254
175 207 254
175 207 254
175 207 254
175 207 254
175 207 254
175 207 254
175 207 254
175 207 254
175 207 254
176 207 254
176 207 254
176 207 254
176 207 254
176 207 254
176 207 254
176 207 254
176 207 254
176 207 254
176 207 254
176 207 254
176 208 254
176 208 254
176 208 254
176 208 254
176 208 254
176 208 254
177 208 254
177 208 254
177 208 254
177 208 254
177 208 254
177 208 254
177 208 254
177 208 254
177 208 254
177 208 254
177 208 254
177 208 254
177 208 254
177 208 254
177 208 254
177 208 254
177 208 254
177 208 254
178 208 254
178 208 254
178 208 254
178 208 254
178 208 254
178 208 254
178 208 254
178 209 254
178 209 254
178 209 254
178 209 254
178 209 254
178 209 254
178 209 254
178 209 254
178 209 254
178 209 254
178 209 254
178 209 254
178 209 254
178 209 254
179 209 254
179 209 254
179 209 254
179 209 254
179 209 254
179 209 254
178 209 254
178 209 254
178 209 254
178 209 254
178 209 254
178 209 254
178 209 254
178 209 254
178 209 254
178 209 254
178 209 254
178 209 254
178 209 254
178 208 254
178 208 254
178 208 254
178 208 254
178 208 254
178 208 254
178 208 254
177 208 254
177 208 254
177 208 254
177 208 254
177 208 254
177 208 254
177 208 254
177 208 254
177 208 254
177 208 254
177 208 254
177 208 254
177 208 254
177 208 254
177 208 254
177 208 254
177 208 254
177 208 254
177 208 254
176 208 254
176 208 254
176 208 254
176 208 254
176 208 254
176 207 254
176 207 254
176 207 254
176 207 254
176 207 254
176 207 254
176 207 254
176 207 254
176 207 254
176 207 254
176 207 254
175 207 254
175 207 254
175 207 254
175 207 254
175 207 254
175 207 254
175 207 254
175 207 254
175 207 254
175 207 254
175 207 254
175 207 254
175 207 254
175 207 254
175 207 254
175 207 254
174 206 254
174 206 254
174 206 254
174 206 254
174 206 254
174 206 254
174 206 254
174 206 254
174 206 254
174 206 254
174 206 254
174 206 254
174 206 254
174 206 254
173 206 254
173 206 254
173 206 254
173 206 254
173 206 254
173 206 254
173 206 254
173 206 254
173 206 254
173 205 254
173 205 254
173 205 254
173 205 254
173 205 254
172 205 254
172 205 254
172 205 254
172 205 254
172 205 254
172 205 254
172 205 254
172 205 254
172 205 254
172 205 254
172 205 254
172 205 254
172 205 254
172 205 254
171 205 254
171 205 254
171 205 254
171 205 254
171 204 254
171 204 254
171 204 254
171 204 254
171 204 254
171 204 254
171 204 254
171 204 254
171 204 254
170 204 254
170 204 254
170 204 254
170 204 254
170 204 254
170 204 254
170 204 254
170 204 254
170 204 254
170 204 254
170 204 254
170 204 254
170 204 254
170 204 254
170 204 254
169 203 254
169 203 254
169 203 254
169 203 254
167 201 252
55 66 84
12 15 20
12 15 20
13 17 22
12 16 21
12 16 20
12 15 20
12 15 20
13 16 21
12 15 19
13 16 21
13 16 21
12 15 20
12 15 19
12 15 19
13 16 20
13 16 20
14 17 22
13 16 21
12 15 20
13 16 20
12 15 20
13 16 21
12 15 19
12 15 19
13 16 21
12 15 19
12 15 20
13 16 21
12 15 20
12 16 20
12 15 19
14 17 22
12 16 20
12 16 20
13 16 20
12 15 19
12 15 20
13 16 21
12 15 19
12 15 19
12 15 20
12 16 20
12 15 20
14 17 22
14 18 23
12 15 19
13 16 20
13 16 20
13 16 21
11 14 18
13 16 21
12 15 20
12 14 19
14 17 21
12 15 20
13 16 21
13 16 21
13 17 21
13 16 21
12 15 19
13 16 21
13 17 22
12 15 20
13 16 21
13 16 20
13 16 21
14 17 22
13 16 20
13 16 20
12 15 20
14 17 21
12 15 19
13 16 21
12 15 20
12 14 19
13 17 22
12 15 19
12 15 19
13 16 21
13 16 21
14 18 23
12 15 20
13 16 20
13 16 21
13 16 21
13 16 20
13 16 20
13 16 21
12 15 20
13 16 21
13 16 21
12 15 19
13 16 21
12 15 20
50 60 76
168 202 252
169 203 254
169 203 254
169 203 254
169 203 254
170 204 254
170 204 254
170 204 254
170 204 254
170 204 254
170 204 254
170 204 254
170 204 254
170 204 254
170 204 254
170 204 254
170 204 254
170 204 254
170 204 254
170 204 254
171 204 254
171 204 254
171 204 254
171 204 254
171 204 254
171 204 254
171 204 254
171 204 254
171 204 254
171 205 254
171 205 254
171 205 254
171 205 254
172 205 254
172 205 254
172 205 254
172 205 254
172 205 254
172 205 254
172 205 254
172 205 254
172 205 254
172 205 254
172 205 254
172 205 254
172 205 254
172 205 254
173 205 254
173 205 254
173 205 254
173 205 254
173 205 254
173 206 254
173 206 254
173 206 254
173 206 254
173 206 254
173 206 254
173 206 254
173 206 254
173 206 254
174 206 254
174 206 254
174 206 254
174 206 254
174 206 254
174 206 254
174 206 254
174 206 254
174 206 254
174 206 254
174 206 254
174 206 254
174 206 254
174 206 254
175 207 254
175 207 254
175 207 254
175 207 254
175 207 254
175 207 254
175 207 254
175 207 254
175 207 254
175 207 254
175 207 254
175 207 254
175 207 254
175 207 254
175 207 254
175 207 254
176 207 254
176 207 254
176 207 254
176 207 254
176 207 254
176 207 254
176 207 254
176 207 254
176 207 254
176 207 254
176 207 254
176 208 254
176 208 254
176 208 254
176 208 254
176 208 254
176 208 254
177 208 254
177 208 254
177 208 254
177 208 254
177 208 254
177 208 254
177 208 254
177 208 254
177 208 254
177 208 254
177 208 254
177 208 254
177 208 254
177 208 254
177 208 254
177 208 254
177 208 254
177 208 254
178 208 254
178 208 254
178 208 254
178 208 254
178 208 254
178 208 254
178 209 254
178 209 254
178 209 254
178 209 254
178 209 254
178 209 254
178 209 254
178 209 254
178 209 254
178 209 254
178 209 254
178 209 254
178 209 254
178 209 254
179 209 254
179 209 254
179 209 254
179 209 254
179 209 254
179 209 254
179 209 254
179 209 254
179 209 254
179 209 254
179 209 254
179 209 254
179 209 254
179 209 254
179 209 254
179 209 254
179 209 254
178 209 254
178 209 254
178 209 254
178 209 254
178 209 254
178 209 254
178 209 254
178 209 254
178 209 254
178 209 254
178 209 254
178 209 254
178 209 254
178 209 254
178 208 254
178 208 254
178 208 254
178 208 254
178 208 254
178 208 254
178 208 254
177 208 254
177 208 254
177 208 254
177 208 254
177 208 254
177 208 254
177 208 254
177 208 254
177 208 254
177 208 254
177 208 254
177 208 254
177 208 254
177 208 254
177 208 254
177 208 254
177 208 254
177 208 254
176 208 254
176 208 254
176 208 254
176 208 254
176 208 254
176 208 254
176 207 254
176 207 254
176 207 254
176 207 254
176 207 254
176 207 254
176 207 254
176 207 254
176 207 254
176 207 254
176 207 254
175 207 254
175 207 254
175 207 254
175 207 254
175 207 254
175 207 254
175 207 254
175 207 254
175 207 254
175 207 254
175 207 254
175 207 254
175 207 254
175 207 254
175 207 254
174 206 254
174 206 254
174 206 254
174 206 254
174 206 254
174 206 254
174 206 254
174 206 254
174 206 254
174 206 254
174 206 254
174 206 254
174 206 254
174 206 254
173 206 254
173 206 254
173 206 254
173 206 254
173 206 254
173 206 254
173 206 254
173 206 254
173 206 254
173 206 254
173 205 254
173 205 254
173 205 254
173 205 254
172 205 254
172 205 254
172 205 254
172 205 254
172 205 254
172 205 254
172 205 254
172 205 254
172 205 254
172 205 254
172 205 254
172 205 254
172 205 254
172 205 254
171 205 254
171 205 254
171 205 254
171 205 254
171 205 254
171 204 254
171 204 254
171 204 254
171 204 254
171 204 254
171 204 254
171 204 254
171 204 254
171 204 254
170 204 254
170 204 254
170 204 254
170 204 254
170 204 254
170 204 254
170 204 254
170 204 254
170 204 254
170 204 254
170 204 254
170 204 254
168 202 252
72 87 110
14 17 22
12 15 20
12 15 19
14 17 22
13 16 21
12 15 20
14 17 22
12 15 19
13 16 21
14 17 22
13 16 21
12 15 20
13 16 22
13 17 21
13 16 21
12 15 20
13 16 22
13 16 21
12 15 20
13 16 21
12 15 20
12 15 19
12 15 20
13 16 21
12 15 19
11 14 18
13 16 20
12 15 20
12 15 19
13 16 21
12 15 19
12 15 19
12 15 19
12 15 19
13 16 21
12 15 20
12 15 20
13 16 21
13 16 20
12 15 20
13 16 21
11 14 19
13 17 21
11 14 19
12 15 19
11 14 18
12 15 19
12 15 19
13 16 20
12 14 19
13 16 21
12 15 19
13 16 21
12 15 19
13 16 21
14 17 21
13 16 20
13 15 20
13 16 20
13 16 20
13 16 21
12 15 19
12 15 19
12 14 19
13 16 21
12 15 20
12 15 19
13 16 21
12 15 19
13 16 21
12 16 20
14 17 22
12 16 20
12 15 20
11 14 18
13 16 21
13 16 21
12 16 20
12 15 20
13 16 21
12 15 20
13 16 21
12 16 20
13 16 20
12 15 20
13 16 20
13 16 21
13 16 21
12 15 20
13 16 20
13 16 21
13 16 21
13 16 21
12 15 20
14 18 23
13 16 21
69 84 105
168 202 252
170 204 254
170 204 254
170 204 254
170 204 254
170 204 254
170 204 254
170 204 254
170 204 254
170 204 254
170 204 254
170 204 254
170 204 254
171 204 254
171 204 254
171 204 254
171 204 254
171 204 254
171 204 254
171 204 254
171 204 254
171 204 254
171 205 254
171 205 254
171 205 254
171 205 254
171 205 254
172 205 254
172 205 254
172 205 254
172 205 254
172 205 254
172 205 254
172 205 254
172 205 254
172 205 254
172 205 254
172 205 254
172 205 254
172 205 254
173 205 254
173 205 254
173 205 254
173 205 254
173 205 254
173 205 254
173 206 254
173 206 254
173 206 254
173 206 254
173 206 254
173 206 254
173 206 254
173 206 254
173 206 254
174 206 254
174 206 254
174 206 254
174 206 254
174 206 254
174 206 254
174 206 254
174 206 254
174 206 254
174 206 254
174 206 254
174 206 254
174 206 254
174 206 254
175 207 254
175 207 254
175 207 254
175 207 254
175 207 254
175 207 254
175 207 254
175 207 254
175 207 254
175 207 254
175 207 254
175 207 254
175 207 254
175 207 254
175 207 254
176 207 254
176 207 254
176 207 254
176 207 254
176 207 254
176 207 254
176 207 254
176 207 254
176 207 254
176 207 254
176 207 254
176 208 254
176 208 254
176 208 254
176 208 254
176 208 254
176 208 254
177 208 254
177 208 254
177 208 254
177 208 254
177 208 254
177 208 254
177 208 254
177 208 254
177 208 254
177 208 254
177 208 254
177 208 254
177 208 254
177 208 254
177 208 254
177 208 254
177 208 254
177 208 254
178 208 254
178 208 254
178 208 254
178 208 254
178 208 254
178 208 254
178 208 254
178 209 254
178 209 254
178 209 254
178 209 254
178 209 254
178 209 254
178 209 254
178 209 254
178 209 254
178 209 254
178 209 254
178 209 254
178 209 254
178 209 254
179 209 254
179 209 254
179 209 254
179 209 254
179 209 254
179 209 254
179 209 254
179 209 254
179 209 254
179 209 254
179 209 254
179 209 254
179 209 254
179 209 254
179 209 254
179 209 254
179 209 254
179 209 254
179 209 254
179 209 254
179 209 254
179 209 254
179 209 254
179 209 254
179 209 254
179 209 254
179 209 254
179 209 254
178 209 254
178 209 254
178 209 254
178 209 254
178 209 254
178 209 254
178 209 254
178 209 254
178 209 254
178 209 254
178 209 254
178 209 254
178 209 254
178 209 254
178 208 254
178 208 254
178 208 254
178 208 254
178 208 254
178 208 254
177 208 254
177 208 254
177 208 254
177 208 254
177 208 254
177 208 254
177 208 254
177 208 254
177 208 254
177 208 254
177 208 254
177 208 254
177 208 254
177 208 254
177 208 254
177 208 254
177 208 254
177 208 254
177 208 254
176 208 254
176 208 254
176 208 254
176 208 254
176 208 254
176 207 254
176 207 254
176 207 254
176 207 254
176 207 254
176 207 254
176 207 254
176 207 254
176 207 254
176 207 254
176 207 254
175 207 254
175 207 254
175 207 254
175 207 254
175 207 254
175 207 254
175 207 254
175 207 254
175 207 254
175 207 254
175 207 254
175 207 254
175 207 254
175 207 254
175 207 254
174 206 254
174 206 254
174 206 254
174 206 254
174 206 254
174 206 254
174 206 254
174 206 254
174 206 254
174 206 254
174 206 254
174 206 254
174 206 254
174 206 254
174 206 254
173 206 254
173 206 254
173 206 254
173 206 254
173 206 254
173 206 254
173 206 254
173 206 254
173 206 254
173 205 254
173 205 254
173 205 254
173 205 254
173 205 254
172 205 254
172 205 254
172 205 254
172 205 254
172 205 254
172 205 254
172 205 254
172 205 254
172 205 254
172 205 254
172 205 254
172 205 254
172 205 254
172 205 254
171 205 254
171 205 254
171 205 254
171 205 254
171 205 254
171 204 254
171 204 254
171 204 254
171 204 254
171 204 254
171 204 254
171 204 254
171 204 254
171 204 254
171 204 254
170 204 254
170 204 254
170 204 254
170 204 254
170 204 254
93 112 141
13 17 22
13 16 21
13 17 22
13 16 21
14 17 22
13 16 21
14 17 22
13 16 21
13 16 21
12 16 20
12 15 20
13 16 21
13 16 20
12 15 19
12 15 20
12 15 19
12 15 19
13 16 20
11 14 18
12 15 19
14 17 22
12 14 19
11 14 18
12 15 20
12 15 19
13 16 20
12 15 19
12 15 19
12 15 20
12 15 19
12 16 20
11 14 18
13 16 20
11 14 18
13 16 21
13 16 21
12 15 19
12 15 20
12 15 19
11 14 19
13 16 21
13 16 21
13 16 21
12 15 20
12 15 19
12 15 19
12 15 20
13 16 20
12 15 20
13 16 21
11 14 19
13 16 21
12 15 19
12 15 19
12 15 19
11 14 18
12 15 19
11 14 19
13 17 22
14 17 22
13 16 21
11 13 17
13 16 21
12 15 20
12 15 20
12 15 19
13 16 21
13 17 22
12 15 19
12 16 20
11 14 18
12 16 20
12 14 19
12 15 20
13 15 20
12 15 20
13 16 21
11 14 19
13 16 21
12 15 19
12 15 19
13 16 21
12 15 19
13 16 21
12 15 20
12 15 20
13 16 21
12 15 19
11 14 19
13 16 21
13 16 20
12 15 20
12 16 20
13 16 21
14 17 22
13 17 21
13 17 22
12 16 20
86 104 130
170 204 254
170 204 254
170 204 254
170 204 254
170 204 254
171 204 254
171 204 254
171 204 254
171 204 254
171 204 254
171 204 254
171 204 254
171 204 254
171 204 254
171 204 254
171 205 254
171 205 254
171 205 254
171 205 254
171 205 254
172 205 254
172 205 254
172 205 254
172 205 254
172 205 254
172 205 254
172 205 254
172 205 254
172 205 254
172 205 254
172 205 254
172 205 254
172 205 254
172 205 254
173 205 254
173 205 254
173 205 254
173 205 254
173 205 254
173 206 254
173 206 254
173 206 254
173 206 254
173 206 254
173 206 254
173 206 254
173 206 254
173 206 254
174 206 254
174 206 254
174 206 254
174 206 254
174 206 254
174 206 254
174 206 254
174 206 254
174 206 254
174 206 254
174 206 254
174 206 254
174 206 254
174 206 254
174 206 254
175 207 254
175 207 254
175 207 254
175 207 254
175 207 254
175 207 254
175 207 254
175 207 254
175 207 254
175 207 254
175 207 254
175 207 254
175 207 254
175 207 254
175 207 254
176 207 254
176 207 254
176 207 254
176 207 254
176 207 254
176 207 254
176 207 254
176 207 254
176 207 254
176 207 254
176 207 254
176 208 254
176 208 254
176 208 254
176 208 254
176 208 254
176 208 254
177 208 254
177 208 254
177 208 254
177 208 254
177 208 254
177 208 254
177 208 254
177 208 254
177 208 254
177 208 254
177 208 254
177 208 254
177 208 254
177 208 254
177 208 254
177 208 254
177 208 254
177 208 254
178 208 254
178 208 254
178 208 254
178 208 254
178 208 254
178 208 254
178 209 254
178 209 254
178 209 254
178 209 254
178 209 254
178 209 254
178 209 254
178 209 254
178 209 254
178 209 254
178 209 254
178 209 254
178 209 254
178 209 254
179 209 254
179 209 254
179 209 254
179 209 254
179 209 254
179 209 254
179 209 254
179 209 254
179 209 254
179 209 254
179 209 254
179 209 254
179 209 254
179 209 254
179 209 254
179 209 254
179 209 254
180 210 254
179 209 254
179 209 254
179 209 254
179 209 254
179 209 254
179 209 254
179 209 254
179 209 254
179 209 254
179 209 254
179 209 254
179 209 254
179 209 254
179 209 254
179 209 254
179 209 254
179 209 254
179 209 254
179 209 254
179 209 254
179 209 254
179 209 254
178 209 254
178 209 254
178 209 254
178 209 254
178 209 254
178 209 254
178 209 254
178 209 254
178 209 254
178 209 254
178 209 254
178 209 254
178 209 254
178 209 254
178 208 254
178 208 254
178 208 254
178 208 254
178 208 254
178 208 254
177 208 254
177 208 254
177 208 254
177 208 254
177 208 254
177 208 254
177 208 254
177 208 254
177 208 254
177 208 254
177 208 254
177 208 254
177 208 254
177 208 254
177 208 254
177 208 254
177 208 254
177 208 254
176 208 254
176 208 254
176 208 254
176 208 254
176 208 254
176 207 254
176 207 254
176 207 254
176 207 254
176 207 254
176 207 254
176 207 254
176 207 254
176 207 254
176 207 254
176 207 254
175 207 254
175 207 254
175 207 254
175 207 254
175 207 254
175 207 254
175 207 254
175 207 254
175 207 254
175 207 254
175 207 254
175 207 254
175 207 254
175 207 254
175 207 254
175 207 254
174 206 254
174 206 254
174 206 254
174 206 254
174 206 254
174 206 254
174 206 254
174 206 254
174 206 254
174 206 254
174 206 254
174 206 254
174 206 254
174 206 254
173 206 254
173 206 254
173 206 254
173 206 254
173 206 254
173 206 254
173 206 254
173 206 254
173 206 254
173 206 254
173 205 254
173 205 254
173 205 254
173 205 254
172 205 254
172 205 254
172 205 254
172 205 254
172 205 254
172 205 254
172 205 254
172 205 254
172 205 254
172 205 254
172 205 254
172 205 254
172 205 254
172 205 254
172 205 254
171 205 254
171 205 254
171 205 254
171 205 254
171 205 254
171 204 254
171 204 254
171 204 254
171 204 254
171 204 254
171 204 254
171 204 254
171 204 254
117 140 175
12 16 21
13 16 20
13 16 21
12 15 19
12 15 19
13 16 21
13 16 21
12 15 19
13 16 22
13 17 21
13 16 21
12 15 19
13 16 20
13 16 20
11 14 19
13 16 20
13 17 22
12 15 19
13 16 20
12 15 19
11 14 18
12 15 20
11 14 18
12 15 20
12 15 19
14 17 22
11 14 19
12 14 19
13 16 20
12 15 19
12 15 19
13 16 21
12 14 19
12 15 19
12 15 19
11 14 19
12 15 19
11 14 18
13 16 21
13 16 20
12 15 20
11 14 18
13 16 21
12 15 20
12 15 19
11 14 18
14 17 22
11 14 17
12 14 19
11 14 19
13 17 22
11 14 18
12 15 20
11 14 18
13 16 20
13 16 20
13 16 20
12 15 19
12 15 19
12 15 20
12 15 20
12 15 20
12 16 20
10 13 16
13 16 21
12 15 20
13 16 20
11 14 19
12 14 18
12 15 19
13 16 21
13 16 20
12 15 20
12 15 19
13 16 21
12 15 19
12 15 19
12 15 19
12 15 19
13 16 20
13 15 20
13 16 21
12 14 19
12 15 19
12 14 19
11 14 18
13 16 20
13 16 21
14 17 22
11 14 19
13 16 21
11 14 18
12 15 20
12 15 20
11 14 18
13 16 21
12 15 20
14 17 22
12 15 20
13 16 21
114 137 171
171 204 254
171 204 254
171 204 254
171 204 254
171 204 254
171 204 254
171 204 254
171 204 254
171 205 254
171 205 254
171 205 254
171 205 254
171 205 254
172 205 254
172 205 254
172 205 254
172 205 254
172 205 254
172 205 254
172 205 254
172 205 254
172 205 254
172 205 254
172 205 254
172 205 254
172 205 254
172 205 254
173 205 254
173 205 254
173 205 254
173 205 254
173 205 254
173 206 254
173 206 254
173 206 254
173 206 254
173 206 254
173 206 254
173 206 254
173 206 254
173 206 254
173 206 254
174 206 254
174 206 254
174 206 254
174 206 254
174 206 254
174 206 254
174 206 254
174 206 254
174 206 254
174 206 254
174 206 254
174 206 254
174 206 254
174 206 254
175 207 254
175 207 254
175 207 254
175 207 254
175 207 254
175 207 254
175 207 254
175 207 254
175 207 254
175 207 254
175 207 254
175 207 254
175 207 254
175 207 254
175 207 254
175 207 254
176 207 254
176 207 254
176 207 254
176 207 254
176 207 254
176 207 254
176 207 254
176 207 254
176 207 254
176 207 254
176 208 254
176 208 254
176 208 254
176 208 254
176 208 254
176 208 254
177 208 254
177 208 254
177 208 254
177 208 254
177 208 254
177 208 254
177 208 254
177 208 254
177 208 254
177 208 254
177 208 254
177 208 254
177 208 254
177 208 254
177 208 254
177 208 254
177 208 254
177 208 254
178 208 254
178 208 254
178 208 254
178 208 254
178 208 254
178 208 254
178 209 254
178 209 254
178 209 254
178 209 254
178 209 254
178 209 254
178 209 254
178 209 254
178 209 254
178 209 254
178 209 254
178 209 254
178 209 254
178 209 254
179 209 254
179 209 254
179 209 254
179 209 254
179 209 254
179 209 254
179 209 254
179 209 254
179 209 254
179 209 254
179 209 254
179 209 254
179 209 254
179 209 254
179 209 254
179 209 254
179 209 254
179 209 254
179 209 254
179 209 254
179 209 254
179 209 254
180 210 254
180 210 254
180 210 254
180 210 254
180 210 254
180 210 254
180 210 254
180 210 254
179 209 254
179 209 254
179 209 254
179 209 254
179 209 254
179 209 254
179 209 254
179 209 254
179 209 254
179 209 254
179 209 254
179 209 254
179 209 254
179 209 254
179 209 254
179 209 254
179 209 254
179 209 254
179 209 254
179 209 254
179 209 254
179 209 254
178 209 254
178 209 254
178 209 254
178 209 254
178 209 254
178 209 254
178 209 254
178 209 254
178 209 254
178 209 254
178 209 254
178 209 254
178 209 254
178 209 254
178 208 254
178 208 254
178 208 254
178 208 254
178 208 254
178 208 254
177 208 254
177 208 254
177 208 254
177 208 254
177 208 254
177 208 254
177 208 254
177 208 254
177 208 254
177 208 254
177 208 254
177 208 254
177 208 254
177 208 254
177 208 254
177 208 254
177 208 254
177 208 254
176 208 254
176 208 254
176 208 254
176 208 254
176 208 254
176 207 254
176 207 254
176 207 254
176 207 254
176 207 254
176 207 254
176 207 254
176 207 254
176 207 254
176 207 254
176 207 254
175 207 254
175 207 254
175 207 254
175 207 254
175 207 254
175 207 254
175 207 254
175 207 254
175 207 254
175 207 254
175 207 254
175 207 254
175 207 254
175 207 254
175 207 254
174 206 254
174 206 254
174 206 254
174 206 254
174 206 254
174 206 254
174 206 254
174 206 254
174 206 254
174 206 254
174 206 254
174 206 254
174 206 254
174 206 254
174 206 254
173 206 254
173 206 254
173 206 254
173 206 254
173 206 254
173 206 254
173 206 254
173 206 254
173 206 254
173 206 254
173 205 254
173 205 254
173 205 254
173 205 254
172 205 254
172 205 254
172 205 254
172 205 254
172 205 254
172 205 254
172 205 254
172 205 254
172 205 254
172 205 254
172 205 254
172 205 254
172 205 254
172 205 254
172 205 254
172 205 254
171 205 254
171 205 254
171 205 254
171 205 254
171 205 254
125 150 187
24 29 38
12 15 19
13 16 21
12 15 19
12 15 20
13 16 21
13 16 21
13 17 22
13 16 21
13 16 20
14 17 22
12 15 20
12 15 20
12 15 19
12 15 19
13 16 20
13 16 21
12 15 20
12 15 19
13 17 21
11 14 19
12 15 20
12 15 19
12 15 19
12 14 19
12 15 20
13 16 20
12 15 19
11 14 18
12 15 19
11 14 19
12 15 19
12 15 19
12 15 19
11 14 18
12 15 19
13 16 21
11 13 17
13 16 20
12 14 19
12 15 19
12 15 19
13 16 20
12 14 19
13 16 21
12 15 19
12 14 18
13 16 20
12 15 19
12 15 20
12 15 19
12 16 20
12 15 19
13 16 20
12 14 19
11 13 17
13 16 20
12 15 19
12 15 19
12 15 20
12 14 19
12 15 19
12 16 20
12 15 19
12 15 19
12 15 20
11 14 19
12 15 19
12 14 19
12 15 19
12 15 19
13 16 20
13 16 20
13 16 21
12 15 19
12 15 19
12 15 20
13 16 21
14 17 22
11 13 17
12 16 20
14 17 22
13 16 21
11 14 18
12 14 18
12 15 19
12 15 19
13 16 21
12 15 20
13 16 20
12 14 18
11 14 19
13 16 20
11 14 19
11 14 18
12 14 18
12 16 20
12 15 19
13 16 21
11 14 19
12 15 19
15 19 24
142 170 212
171 205 254
171 205 254
171 205 254
171 205 254
171 205 254
171 205 254
172 205 254
172 205 254
172 205 254
172 205 254
172 205 254
172 205 254
172 205 254
172 205 254
172 205 254
172 205 254
172 205 254
172 205 254
172 205 254
172 205 254
173 205 254
173 205 254
173 205 254
173 205 254
173 205 254
173 205 254
173 206 254
173 206 254
173 206 254
173 206 254
173 206 254
173 206 254
173 206 254
173 206 254
173 206 254
174 206 254
174 206 254
174 206 254
174 206 254
174 206 254
174 206 254
174 206 254
174 206 254
174 206 254
174 206 254
174 206 254
174 206 254
174 206 254
174 206 254
174 206 254
175 207 254
175 207 254
175 207 254
175 207 254
175 207 254
175 207 254
175 207 254
175 207 254
175 207 254
175 207 254
175 207 254
175 207 254
175 207 254
175 207 254
175 207 254
176 207 254
176 207 254
176 207 254
176 207 254
176 207 254
176 207 254
176 207 254
176 207 254
176 207 254
176 207 254
176 207 254
176 208 254
176 208 254
176 208 254
176 208 254
176 208 254
177 208 254
177 208 254
177 208 254
177 208 254
177 208 254
177 208 254
177 208 254
177 208 254
177 208 254
177 208 254
177 208 254
177 208 254
177 208 254
177 208 254
177 208 254
177 208 254
177 208 254
177 208 254
178 208 254
178 208 254
178 208 254
178 208 254
178 208 254
178 208 254
178 209 254
178 209 254
178 209 254
178 209 254
178 209 254
178 209 254
178 209 254
178 209 254
178 209 254
178 209 254
178 209 254
178 209 254
178 209 254
178 209 254
179 209 254
179 209 254
179 209 254
179 209 254
179 209 254
179 209 254
179 209 254
179 209 254
179 209 254
179 209 254
179 209 254
179 209 254
179 209 254
179 209 254
179 209 254
179 209 254
179 209 254
179 209 254
179 209 254
179 209 254
179 209 254
179 209 254
180 210 254
180 210 254
180 210 254
180 210 254
180 210 254
180 210 254
180 210 254
180 210 254
180 210 254
180 210 254
180 210 254
180 210 254
180 210 254
180 210 254
180 210 254
180 210 254
180 210 254
180 210 254
180 210 254
180 210 254
180 210 254
179 209 254
179 209 254
179 209 254
179 209 254
179 209 254
179 209 254
179 209 254
179 209 254
179 209 254
179 209 254
179 209 254
179 209 254
179 209 254
179 209 254
179 209 254
179 209 254
179 209 254
179 209 254
179 209 254
179 209 254
179 209 254
179 209 254
178 209 254
178 209 254
178 209 254
178 209 254
178 209 254
178 209 254
178 209 254
178 209 254
178 209 254
178 209 254
178 209 254
178 209 254
178 209 254
178 208 254
178 208 254
178 208 254
178 208 254
178 208 254
178 208 254
177 208 254
177 208 254
177 208 254
177 208 254
177 208 254
177 208 254
177 208 254
177 208 254
177 208 254
177 208 254
177 208 254
177 208 254
177 208 254
177 208 254
177 208 254
177 208 254
177 208 254
176 208 254
176 208 254
176 208 254
176 208 254
176 208 254
176 208 254
176 207 254
176 207 254
176 207 254
176 207 254
176 207 254
176 207 254
176 207 254
176 207 254
176 207 254
176 207 254
175 207 254
175 207 254
175 207 254
175 207 254
175 207 254
175 207 254
175 207 254
175 207 254
175 207 254
175 207 254
175 207 254
175 207 254
175 207 254
175 207 254
175 207 254
175 207 254
174 206 254
174 206 254
174 206 254
174 206 254
174 206 254
174 206 254
174 206 254
174 206 254
174 206 254
174 206 254
174 206 254
174 206 254
174 206 254
174 206 254
174 206 254
173 206 254
173 206 254
173 206 254
173 206 254
173 206 254
173 206 254
173 206 254
173 206 254
173 206 254
173 206 254
173 205 254
173 205 254
173 205 254
173 205 254
173 205 254
172 205 254
172 205 254
172 205 254
172 205 254
172 205 254
172 205 254
172 205 254
172 205 254
172 205 254
172 205 254
172 205 254
172 205 254
172 205 254
161 192 238
25 30 38
13 17 21
13 16 20
13 16 21
13 16 21
12 14 18
13 17 21
13 16 20
13 16 21
12 15 20
12 15 20
14 17 21
14 17 21
11 14 18
13 16 21
12 15 20
12 15 19
13 16 20
12 15 19
12 15 19
12 15 20
13 16 21
12 15 20
12 14 19
11 14 18
12 15 19
12 15 19
12 15 19
12 15 19
12 16 20
12 15 19
12 15 19
12 15 20
11 14 17
12 15 19
12 14 19
13 16 21
11 13 17
11 14 18
13 16 20
12 15 19
12 15 20
13 16 20
13 16 21
12 15 19
11 14 18
12 15 19
12 15 20
12 15 19
11 14 19
13 16 20
11 14 18
12 15 20
12 14 19
12 15 19
12 14 18
13 16 20
11 13 17
13 16 20
12 15 19
13 16 20
12 15 19
12 15 19
12 15 20
13 16 20
12 15 20
13 16 21
11 14 18
12 15 20
13 16 21
13 16 21
12 16 20
13 16 20
12 15 19
12 15 20
12 16 20
12 15 19
11 13 17
13 16 20
12 15 19
12 15 19
12 14 19
13 16 20
14 17 22
13 17 21
12 14 19
11 14 18
12 15 19
13 16 20
14 17 22
13 16 20
13 16 21
13 16 21
13 16 21
13 16 21
13 16 21
13 16 20
12 15 19
11 14 19
11 14 19
13 16 21
12 16 20
13 16 20
41 50 63
164 195 243
172 205 254
172 205 254
172 205 254
172 205 254
172 205 254
172 205 254
172 205 254
172 205 254
172 205 254
172 205 254
172 205 254
172 205 254
172 205 254
173 205 254
173 205 254
173 205 254
173 205 254
173 205 254
173 206 254
173 206 254
173 206 254
173 206 254
173 206 254
173 206 254
173 206 254
173 206 254
173 206 254
173 206 254
174 206 254
174 206 254
174 206 254
174 206 254
174 206 254
174 206 254
174 206 254
174 206 254
174 206 254
174 206 254
174 206 254
174 206 254
174 206 254
174 206 254
174 206 254
175 207 254
175 207 254
175 207 254
175 207 254
175 207 254
175 207 254
175 207 254
175 207 254
175 207 254
175 207 254
175 207 254
175 207 254
175 207 254
175 207 254
175 207 254
175 207 254
176 207 254
176 207 254
176 207 254
176 207 254
176 207 254
176 207 254
176 207 254
176 207 254
176 207 254
176 207 254
176 208 254
176 208 254
176 208 254
176 208 254
176 208 254
177 208 254
177 208 254
177 208 254
177 208 254
177 208 254
177 208 254
177 208 254
177 208 254
177 208 254
177 208 254
177 208 254
177 208 254
177 208 254
177 208 254
177 208 254
177 208 254
177 208 254
177 208 254
178 208 254
178 208 254
178 208 254
178 208 254
178 208 254
178 208 254
178 209 254
178 209 254
178 209 254
178 209 254
178 209 254
178 209 254
178 209 254
178 209 254
178 209 254
178 209 254
178 209 254
178 209 254
178 209 254
179 209 254
179 209 254
179 209 254
179 209 254
179 209 254
179 209 254
179 209 254
179 209 254
179 209 254
179 209 254
179 209 254
179 209 254
179 209 254
179 209 254
179 209 254
179 209 254
179 209 254
179 209 254
179 209 254
179 209 254
179 209 254
179 209 254
180 210 254
180 210 254
180 210 254
180 210 254
180 210 254
180 210 254
180 210 254
180 210 254
180 210 254
180 210 254
180 210 254
180 210 254
180 210 254
180 210 254
180 210 254
180 210 254
180 210 254
180 210 254
180 210 254
180 210 254
180 210 254
180 210 254
180 210 254
180 210 254
180 210 254
180 210 254
180 210 254
180 210 254
180 210 254
180 210 254
180 210 254
180 210 254
180 210 254
180 210 254
180 210 254
179 209 254
179 209 254
179 209 254
179 209 254
179 209 254
179 209 254
179 209 254
179 209 254
179 209 254
179 209 254
179 209 254
179 209 254
179 209 254
179 209 254
179 209 254
179 209 254
179 209 254
179 209 254
179 209 254
179 209 254
179 209 254
178 209 254
178 209 254
178 209 254
178 209 254
178 209 254
178 209 254
178 209 254
178 209 254
178 209 254
178 209 254
178 209 254
178 209 254
178 209 254
178 208 254
178 208 254
178 208 254
178 208 254
178 208 254
178 208 254
177 208 254
177 208 254
177 208 254
177 208 254
177 208 254
177 208 254
177 208 254
177 208 254
177 208 254
177 208 254
177 208 254
177 208 254
177 208 254
177 208 254
177 208 254
177 208 254
177 208 254
176 208 254
176 208 254
176 208 254
176 208 254
176 208 254
176 208 254
176 207 254
176 207 254
176 207 254
176 207 254
176 207 254
176 207 254
176 207 254
176 207 254
176 207 254
176 207 254
176 207 254
175 207 254
175 207 254
175 207 254
175 207 254
175 207 254
175 207 254
175 207 254
175 207 254
175 207 254
175 207 254
175 207 254
175 207 254
175 207 254
175 207 254
174 206 254
174 206 254
174 206 254
174 206 254
174 206 254
174 206 254
174 206 254
174 206 254
174 206 254
174 206 254
174 206 254
174 206 254
174 206 254
174 206 254
174 206 254
174 206 254
173 206 254
173 206 254
173 206 254
173 206 254
173 206 254
173 206 254
173 206 254
173 206 254
173 206 254
173 206 254
173 205 254
173 205 254
173 205 254
173 205 254
173 205 254
173 205 254
172 205 254
172 205 254
172 205 254
172 205 254
172 205 254
172 205 254
64 77 96
13 16 20
13 16 21
12 15 20
13 16 21
12 15 19
12 15 19
11 14 19
13 16 21
11 14 19
12 15 19
12 15 19
13 17 21
12 15 19
12 15 19
13 16 20
12 15 19
13 16 21
13 16 21
12 15 19
12 15 19
13 15 20
12 15 19
13 16 21
12 16 20
12 14 19
12 15 19
14 17 22
12 15 20
12 15 19
12 15 19
12 15 19
12 14 18
13 16 20
12 15 20
13 16 20
12 15 20
12 14 18
12 15 19
11 13 17
11 14 18
12 15 19
12 15 19
12 15 19
12 15 19
12 15 19
13 15 20
12 15 20
11 14 18
12 15 19
11 14 18
13 16 21
11 14 19
12 15 19
12 15 20
12 15 19
12 15 19
13 16 21
12 15 19
12 15 19
11 14 17
13 15 20
12 15 20
11 14 19
13 16 20
12 15 19
12 14 19
12 15 19
12 15 19
12 15 19
11 14 18
12 15 19
12 15 19
12 15 19
13 16 20
12 15 19
12 15 19
12 15 20
12 15 19
11 13 17
12 16 21
12 15 19
12 15 19
12 15 20
12 14 19
12 15 19
12 15 19
11 14 19
12 15 19
12 15 19
12 15 20
12 15 20
12 15 19
12 15 19
12 15 19
12 16 20
12 15 20
12 14 19
12 15 19
12 15 20
13 17 22
13 16 21
12 15 19
12 15 19
13 16 20
69 83 103
172 205 254
172 205 254
172 205 254
172 205 254
172 205 254
172 205 254
172 205 254
173 205 254
173 205 254
173 205 254
173 205 254
173 205 254
173 206 254
173 206 254
173 206 254
173 206 254
173 206 254
173 206 254
173 206 254
173 206 254
173 206 254
173 206 254
174 206 254
174 206 254
174 206 254
174 206 254
174 206 254
174 206 254
174 206 254
174 206 254
174 206 254
174 206 254
174 206 254
174 206 254
174 206 254
174 206 254
174 206 254
175 207 254
175 207 254
175 207 254
175 207 254
175 207 254
175 207 254
175 207 254
175 207 254
175 207 254
175 207 254
175 207 254
175 207 254
175 207 254
175 207 254
175 207 254
176 207 254
176 207 254
176 207 254
176 207 254
176 207 254
176 207 254
176 207 254
176 207 254
176 207 254
176 207 254
176 207 254
176 208 254
176 208 254
176 208 254
176 208 254
176 208 254
176 208 254
177 208 254
177 208 254
177 208 254
177 208 254
177 208 254
177 208 254
177 208 254
177 208 254
177 208 254
177 208 254
177 208 254
177 208 254
177 208 254
177 208 254
177 208 254
177 208 254
177 208 254
178 208 254
178 208 254
178 208 254
178 208 254
178 208 254
178 208 254
178 208 254
178 209 254
178 209 254
178 209 254
178 209 254
178 209 254
178 209 254
178 209 254
178 209 254
178 209 254
178 209 254
178 209 254
178 209 254
179 209 254
179 209 254
179 209 254
179 209 254
179 209 254
179 209 254
179 209 254
179 209 254
179 209 254
179 209 254
179 209 254
179 209 254
179 209 254
179 209 254
179 209 254
179 209 254
179 209 254
179 209 254
179 209 254
179 209 254
179 209 254
179 209 254
180 210 254
180 210 254
180 210 254
180 210 254
180 210 254
180 210 254
180 210 254
180 210 254
180 210 254
180 210 254
180 210 254
180 210 254
180 210 254
180 210 254
180 210 254
180 210 254
180 210 254
180 210 254
180 210 254
180 210 254
181 210 254
181 210 254
181 210 254
180 210 254
180 210 254
180 210 254
180 210 254
180 210 254
180 210 254
180 210 254
180 210 254
180 210 254
180 210 254
180 210 254
180 210 254
180 210 254
180 210 254
180 210 254
180 210 254
180 210 254
180 210 254
180 210 254
180 210 254
180 210 254
180 210 254
180 210 254
180 210 254
179 209 254
179 209 254
179 209 254
179 209 254
179 209 254
179 209 254
179 209 254
179 209 254
179 209 254
179 209 254
179 209 254
179 209 254
179 209 254
179 209 254
179 209 254
179 209 254
179 209 254
179 209 254
179 209 254
179 209 254
179 209 254
179 209 254
178 209 254
178 209 254
178 209 254
178 209 254
178 209 254
178 209 254
178 209 254
178 209 254
178 209 254
178 209 254
178 209 254
178 209 254
178 208 254
178 208 254
178 208 254
178 208 254
178 208 254
178 208 254
177 208 254
177 208 254
177 208 254
177 208 254
177 208 254
177 208 254
177 208 254
177 208 254
177 208 254
177 208 254
177 208 254
177 208 254
177 208 254
177 208 254
177 208 254
177 208 254
177 208 254
177 208 254
176 208 254
176 208 254
176 208 254
176 208 254
176 208 254
176 207 254
176 207 254
176 207 254
176 207 254
176 207 254
176 207 254
176 207 254
176 207 254
176 207 254
176 207 254
176 207 254
175 207 254
175 207 254
175 207 254
175 207 254
175 207 254
175 207 254
175 207 254
175 207 254
175 207 254
175 207 254
175 207 254
175 207 254
175 207 254
175 207 254
175 207 254
174 206 254
174 206 254
174 206 254
174 206 254
174 206 254
174 206 254
174 206 254
174 206 254
174 206 254
174 206 254
174 206 254
174 206 254
174 206 254
174 206 254
174 206 254
174 206 254
173 206 254
173 206 254
173 206 254
173 206 254
173 206 254
173 206 254
173 206 254
173 206 254
173 206 254
173 206 254
173 206 254
173 205 254
173 205 254
173 205 254
107 128 159
13 16 21
12 15 19
11 14 18
13 16 21
13 16 21
13 16 21
12 15 19
13 16 21
13 16 21
12 15 20
11 14 19
13 15 20
13 16 21
12 15 20
12 15 20
12 15 19
13 16 20
12 15 20
12 14 19
13 16 21
12 15 20
13 16 21
13 16 21
13 16 20
12 15 19
12 15 19
12 15 19
12 15 19
12 15 19
11 13 17
13 16 20
13 16 20
11 14 19
12 15 19
12 15 19
12 14 19
12 15 19
11 14 19
12 15 19
11 13 17
11 13 17
11 14 18
12 15 20
11 14 18
12 15 19
11 14 18
12 15 19
12 15 19
11 14 18
12 15 19
11 14 18
12 14 18
12 15 20
13 16 20
12 15 19
11 14 19
13 16 21
12 15 19
13 16 20
12 15 19
13 16 20
12 14 19
12 15 19
12 14 18
12 14 18
13 16 20
12 15 19
11 14 18
13 16 21
11 14 19
12 14 19
13 16 20
13 16 21
13 16 21
11 14 17
12 16 20
13 15 20
13 16 20
11 13 17
12 15 19
12 14 19
12 15 19
12 15 19
12 14 19
14 17 22
13 16 21
12 14 19
10 12 16
13 17 21
11 14 18
13 17 21
12 15 20
12 15 19
12 15 19
12 15 20
12 15 19
11 14 18
12 15 19
12 14 19
13 16 21
12 15 20
11 14 19
13 16 21
13 16 21
13 16 21
12 15 20
113 135 168
173 205 254
173 205 254
173 205 254
173 206 254
173 206 254
173 206 254
173 206 254
173 206 254
173 206 254
173 206 254
173 206 254
173 206 254
173 206 254
173 206 254
174 206 254
174 206 254
174 206 254
174 206 254
174 206 254
174 206 254
174 206 254
174 206 254
174 206 254
174 206 254
174 206 254
174 206 254
174 206 254
174 206 254
174 206 254
174 206 254
175 207 254
175 207 254
175 207 254
175 207 254
175 207 254
175 207 254
175 207 254
175 207 254
175 207 254
175 207 254
175 207 254
175 207 254
175 207 254
175 207 254
175 207 254
175 207 254
176 207 254
176 207 254
176 207 254
176 207 254
176 207 254
176 207 254
176 207 254
176 207 254
176 207 254
176 207 254
176 207 254
176 208 254
176 208 254
176 208 254
176 208 254
176 208 254
177 208 254
177 208 254
177 208 254
177 208 254
177 208 254
177 208 254
177 208 254
177 208 254
177 208 254
177 208 254
177 208 254
177 208 254
177 208 254
177 208 254
177 208 254
177 208 254
177 208 254
178 208 254
178 208 254
178 208 254
178 208 254
178 208 254
178 208 254
178 209 254
178 209 254
178 209 254
178 209 254
178 209 254
178 209 254
178 209 254
178 209 254
178 209 254
178 209 254
178 209 254
178 209 254
178 209 254
179 209 254
179 209 254
179 209 254
179 209 254
179 209 254
179 209 254
179 209 254
179 209 254
179 209 254
179 209 254
179 209 254
179 209 254
179 209 254
179 209 254
179 209 254
179 209 254
179 209 254
179 209 254
179 209 254
179 209 254
179 209 254
180 210 254
180 210 254
180 210 254
180 210 254
180 210 254
180 210 254
180 210 254
180 210 254
180 210 254
180 210 254
180 210 254
180 210 254
180 210 254
180 210 254
180 210 254
180 210 254
180 210 254
180 210 254
180 210 254
180 210 254
180 210 254
180 210 254
180 210 254
180 210 254
181 210 254
181 210 254
181 210 254
181 210 254
181 210 254
181 210 254
181 210 254
181 210 254
181 210 254
181 210 254
181 210 254
181 210 254
181 210 254
180 210 254
180 210 254
180 210 254
180 210 254
180 210 254
180 210 254
180 210 254
180 210 254
180 210 254
180 210 254
180 210 254
180 210 254
180 210 254
180 210 254
180 210 254
180 210 254
180 210 254
180 210 254
180 210 254
180 210 254
180 210 254
180 210 254
180 210 254
180 210 254
179 209 254
179 209 254
179 209 254
179 209 254
179 209 254
179 209 254
179 209 254
179 209 254
179 209 254
179 209 254
179 209 254
179 209 254
179 209 254
179 209 254
179 209 254
179 209 254
179 209 254
179 209 254
179 209 254
179 209 254
179 209 254
178 209 254
178 209 254
178 209 254
178 209 254
178 209 254
178 209 254
178 209 254
178 209 254
178 209 254
178 209 254
178 209 254
178 209 254
178 208 254
178 208 254
178 208 254
178 208 254
178 208 254
178 208 254
177 208 254
177 208 254
177 208 254
177 208 254
177 208 254
177 208 254
177 208 254
177 208 254
177 208 254
177 208 254
177 208 254
177 208 254
177 208 254
177 208 254
177 208 254
177 208 254
177 208 254
176 208 254
176 208 254
176 208 254
176 208 254
176 208 254
176 208 254
176 207 254
176 207 254
176 207 254
176 207 254
176 207 254
176 207 254
176 207 254
176 207 254
176 207 254
176 207 254
176 207 254
175 207 254
175 207 254
175 207 254
175 207 254
175 207 254
175 207 254
175 207 254
175 207 254
175 207 254
175 207 254
175 207 254
175 207 254
175 207 254
175 207 254
175 207 254
174 206 254
174 206 254
174 206 254
174 206 254
174 206 254
174 206 254
174 206 254
174 206 254
174 206 254
174 206 254
174 206 254
174 206 254
174 206 254
174 206 254
174 206 254
174 206 254
174 206 254
173 206 254
173 206 254
173 206 254
173 206 254
173 206 254
173 206 254
157 186 231
14 18 23
13 16 21
12 16 20
12 15 19
12 15 19
13 16 21
13 16 20
12 14 18
11 14 19
13 16 20
12 15 20
13 16 20
13 16 20
13 16 20
12 15 20
13 16 20
12 15 19
12 15 20
11 14 18
14 17 22
12 15 19
13 16 21
13 16 20
12 15 20
12 15 19
12 14 19
12 15 20
12 15 19
11 14 19
12 14 18
12 15 20
12 15 19
12 14 19
12 15 19
12 15 20
13 16 21
12 15 19
11 14 18
12 15 20
12 15 19
12 15 19
12 15 19
12 15 19
12 15 20
11 14 18
12 15 19
10 13 17
11 14 17
11 14 18
11 13 17
12 15 19
12 15 19
13 17 21
13 16 20
12 15 19
13 16 21
12 16 20
11 14 18
11 14 18
11 14 18
13 16 21
12 14 19
11 14 17
12 15 20
12 15 19
12 15 19
12 15 19
12 15 19
13 16 20
12 15 19
12 15 19
13 16 20
12 15 19
13 16 21
12 15 19
12 15 20
12 15 19
13 16 20
13 16 21
12 14 19
11 14 18
13 16 20
11 14 18
12 15 20
12 15 19
12 15 19
13 16 21
10 13 17
13 16 21
12 15 19
12 15 19
12 15 19
12 14 19
11 14 18
13 16 21
14 17 22
12 15 19
12 15 19
13 16 20
12 15 19
12 15 19
12 15 20
13 16 20
12 15 20
13 16 21
13 16 21
12 15 19
25 30 39
149 177 219
173 206 254
173 206 254
173 206 254
173 206 254
173 206 254
173 206 254
174 206 254
174 206 254
174 206 254
174 206 254
174 206 254
174 206 254
174 206 254
174 206 254
174 206 254
174 206 254
174 206 254
174 206 254
174 206 254
174 206 254
174 206 254
174 206 254
175 207 254
175 207 254
175 207 254
175 207 254
175 207 254
175 207 254
175 207 254
175 207 254
175 207 254
175 207 254
175 207 254
175 207 254
175 207 254
175 207 254
175 207 254
175 207 254
176 207 254
176 207 254
176 207 254
176 207 254
176 207 254
176 207 254
176 207 254
176 207 254
176 207 254
176 207 254
176 207 254
176 208 254
176 208 254
176 208 254
176 208 254
176 208 254
176 208 254
177 208 254
177 208 254
177 208 254
177 208 254
177 208 254
177 208 254
177 208 254
177 208 254
177 208 254
177 208 254
177 208 254
177 208 254
177 208 254
177 208 254
177 208 254
177 208 254
177 208 254
178 208 254
178 208 254
178 208 254
178 208 254
178 208 254
178 208 254
178 209 254
178 209 254
178 209 254
178 209 254
178 209 254
178 209 254
178 209 254
178 209 254
178 209 254
178 209 254
178 209 254
178 209 254
179 209 254
179 209 254
179 209 254
179 209 254
179 209 254
179 209 254
179 209 254
179 209 254
179 209 254
179 209 254
179 209 254
179 209 254
179 209 254
179 209 254
179 209 254
179 209 254
179 209 254
179 209 254
179 209 254
179 209 254
179 209 254
180 210 254
180 210 254
180 210 254
180 210 254
180 210 254
180 210 254
180 210 254
180 210 254
180 210 254
180 210 254
180 210 254
180 210 254
180 210 254
180 210 254
180 210 254
180 210 254
180 210 254
180 210 254
180 210 254
180 210 254
180 210 254
180 210 254
180 210 254
180 210 254
181 210 254
181 210 254
181 210 254
181 210 254
181 210 254
181 210 254
181 210 254
181 210 254
181 210 254
181 210 254
181 210 254
181 210 254
181 210 254
181 210 254
181 210 254
181 210 254
181 210 254
181 210 254
181 210 254
181 210 254
181 210 254
181 210 254
181 210 254
181 210 254
181 210 254
181 210 254
181 210 254
181 210 254
180 210 254
180 210 254
180 210 254
180 210 254
180 210 254
180 210 254
180 210 254
180 210 254
180 210 254
180 210 254
180 210 254
180 210 254
180 210 254
180 210 254
180 210 254
180 210 254
180 210 254
180 210 254
180 210 254
180 210 254
180 210 254
180 210 254
179 209 254
179 209 254
179 209 254
179 209 254
179 209 254
179 209 254
179 209 254
179 209 254
179 209 254
179 209 254
179 209 254
179 209 254
179 209 254
179 209 254
179 209 254
179 209 254
179 209 254
179 209 254
179 209 254
179 209 254
179 209 254
178 209 254
178 209 254
178 209 254
178 209 254
178 209 254
178 209 254
178 209 254
178 209 254
178 209 254
178 209 254
178 209 254
178 209 254
178 209 254
178 208 254
178 208 254
178 208 254
178 208 254
178 208 254
178 208 254
177 208 254
177 208 254
177 208 254
177 208 254
177 208 254
177 208 254
177 208 254
177 208 254
177 208 254
177 208 254
177 208 254
177 208 254
177 208 254
177 208 254
177 208 254
177 208 254
177 208 254
176 208 254
176 208 254
176 208 254
176 208 254
176 208 254
176 207 254
176 207 254
176 207 254
176 207 254
176 207 254
176 207 254
176 207 254
176 207 254
176 207 254
176 207 254
176 207 254
175 207 254
175 207 254
175 207 254
175 207 254
175 207 254
175 207 254
175 207 254
175 207 254
175 207 254
175 207 254
175 207 254
175 207 254
175 207 254
175 207 254
175 207 254
175 207 254
175 207 254
174 206 254
174 206 254
174 206 254
174 206 254
174 206 254
174 206 254
174 206 254
174 206 254
174 206 254
174 206 254
174 206 254
174 206 254
174 206 254
174 206 254
174 206 254
58 69 86
12 15 19
13 16 21
11 14 19
12 14 18
11 13 17
11 14 19
10 13 17
13 17 22
13 16 20
13 16 21
12 15 20
13 16 20
12 15 19
11 14 18
11 14 18
13 16 20
12 16 20
13 16 21
12 15 19
11 14 18
13 16 20
12 15 19
13 16 20
12 14 18
12 15 19
12 15 20
12 15 19
12 15 19
12 15 19
12 15 19
12 15 19
13 16 21
12 15 19
11 13 17
13 16 21
11 14 19
11 13 17
12 15 19
12 14 18
12 15 19
12 14 18
12 15 19
11 14 18
12 15 19
13 16 21
11 14 18
11 14 17
12 15 19
12 15 19
11 14 18
11 14 18
10 13 16
12 15 19
12 15 20
11 13 17
13 16 20
11 13 17
12 14 19
13 16 20
12 14 18
12 15 19
12 15 19
12 14 18
11 14 18
12 15 19
12 15 19
12 15 20
11 14 18
12 15 19
13 16 20
12 14 18
12 15 19
12 15 19
12 15 19
11 14 18
12 15 19
13 16 21
11 14 18
12 15 19
11 14 17
11 14 19
12 15 19
11 14 18
13 16 20
13 16 20
12 16 20
12 15 19
11 14 18
12 15 19
12 15 20
12 15 19
13 16 20
13 16 21
12 15 19
12 15 19
11 14 19
11 14 18
13 16 20
12 15 20
12 15 19
13 16 21
12 15 19
13 16 20
12 15 20
12 15 19
11 14 19
12 15 20
13 16 21
64 76 95
174 206 254
174 206 254
174 206 254
174 206 254
174 206 254
174 206 254
174 206 254
174 206 254
174 206 254
174 206 254
174 206 254
174 206 254
174 206 254
174 206 254
174 206 254
174 206 254
175 207 254
175 207 254
175 207 254
175 207 254
175 207 254
175 207 254
175 207 254
175 207 254
175 207 254
175 207 254
175 207 254
175 207 254
175 207 254
175 207 254
175 207 254
175 207 254
176 207 254
176 207 254
176 207 254
176 207 254
176 207 254
176 207 254
176 207 254
176 207 254
176 207 254
176 207 254
176 208 254
176 208 254
176 208 254
176 208 254
176 208 254
176 208 254
177 208 254
177 208 254
177 208 254
177 208 254
177 208 254
177 208 254
177 208 254
177 208 254
177 208 254
177 208 254
177 208 254
177 208 254
177 208 254
177 208 254
177 208 254
177 208 254
177 208 254
178 208 254
178 208 254
178 208 254
178 208 254
178 208 254
178 208 254
178 209 254
178 209 254
178 209 254
178 209 254
178 209 254
178 209 254
178 209 254
178 209 254
178 209 254
178 209 254
178 209 254
178 209 254
178 209 254
179 209 254
179 209 254
179 209 254
179 209 254
179 209 254
179 209 254
179 209 254
179 209 254
179 209 254
179 209 254
179 209 254
179 209 254
179 209 254
179 209 254
179 209 254
179 209 254
179 209 254
179 209 254
179 209 254
179 209 254
180 210 254
180 210 254
180 210 254
180 210 254
180 210 254
180 210 254
180 210 254
180 210 254
180 210 254
180 210 254
180 210 254
180 210 254
180 210 254
180 210 254
180 210 254
180 210 254
180 210 254
180 210 254
180 210 254
180 210 254
180 210 254
180 210 254
180 210 254
180 210 254
181 210 254
181 210 254
181 210 254
181 210 254
181 210 254
181 210 254
181 210 254
181 210 254
181 210 254
181 210 254
181 210 254
181 210 254
181 210 254
181 210 254
181 210 254
181 210 254
181 210 254
181 211 254
181 211 254
181 211 254
181 211 254
181 211 254
181 211 254
181 211 254
181 210 254
181 210 254
181 210 254
181 210 254
181 210 254
181 210 254
181 210 254
181 210 254
181 210 254
181 210 254
181 210 254
181 210 254
181 210 254
181 210 254
181 210 254
181 210 254
181 210 254
180 210 254
180 210 254
180 210 254
180 210 254
180 210 254
180 210 254
180 210 254
180 210 254
180 210 254
180 210 254
180 210 254
180 210 254
180 210 254
180 210 254
180 210 254
180 210 254
180 210 254
180 210 254
180 210 254
180 210 254
180 210 254
180 210 254
180 210 254
179 209 254
179 209 254
179 209 254
179 209 254
179 209 254
179 209 254
179 209 254
179 209 254
179 209 254
179 209 254
179 209 254
179 209 254
179 209 254
179 209 254
179 209 254
179 209 254
179 209 254
179 209 254
179 209 254
179 209 254
179 209 254
178 209 254
178 209 254
178 209 254
178 209 254
178 209 254
178 209 254
178 209 254
178 209 254
178 209 254
178 209 254
178 209 254
178 209 254
178 208 254
178 208 254
178 208 254
178 208 254
178 208 254
178 208 254
177 208 254
177 208 254
177 208 254
177 208 254
177 208 254
177 208 254
177 208 254
177 208 254
177 208 254
177 208 254
177 208 254
177 208 254
177 208 254
177 208 254
177 208 254
177 208 254
177 208 254
176 208 254
176 208 254
176 208 254
176 208 254
176 208 254
176 208 254
176 207 254
176 207 254
176 207 254
176 207 254
176 207 254
176 207 254
176 207 254
176 207 254
176 207 254
176 207 254
176 207 254
175 207 254
175 207 254
175 207 254
175 207 254
175 207 254
175 207 254
175 207 254
175 207 254
175 207 254
175 207 254
175 207 254
175 207 254
175 207 254
175 207 254
175 207 254
175 207 254
175 207 254
174 206 254
174 206 254
174 206 254
174 206 254
174 206 254
174 206 254
174 206 254
116 138 171
12 15 20
13 16 20
12 15 19
14 17 22
13 16 20
12 15 19
12 14 19
13 16 21
12 15 19
12 15 19
12 15 19
12 14 19
13 16 21
13 16 20
12 15 19
11 14 18
13 16 21
13 16 21
12 16 20
13 16 21
12 15 19
12 14 18
11 14 18
11 14 18
12 14 19
12 15 19
11 14 18
13 16 20
12 15 20
12 15 20
12 14 18
11 14 19
12 15 19
12 15 19
11 14 18
11 13 17
11 13 17
11 14 19
12 15 20
12 15 19
11 14 18
12 15 20
12 14 19
11 14 18
11 14 17
12 15 19
12 15 19
12 15 20
11 14 18
13 16 20
12 15 19
12 14 18
13 16 20
13 16 21
12 15 19
11 14 18
12 16 20
12 15 20
11 14 18
11 14 18
10 13 17
12 15 19
12 14 19
11 14 18
11 14 18
12 14 19
11 14 18
11 14 18
11 14 18
11 14 18
11 14 18
12 15 19
11 14 18
12 15 19
11 14 18
13 16 20
13 16 20
12 15 19
12 15 19
10 13 17
14 17 22
12 14 19
11 14 18
12 15 19
12 15 19
12 15 19
11 13 17
12 15 19
12 14 19
12 15 19
13 16 20
12 15 19
11 14 18
12 15 19
13 16 20
13 16 20
12 15 19
12 15 19
11 13 17
12 15 19
13 16 21
12 15 20
12 15 19
13 16 20
11 14 18
13 16 20
11 14 19
12 15 19
13 16 20
14 17 22
134 159 196
174 206 254
174 206 254
174 206 254
174 206 254
174 206 254
174 206 254
174 206 254
175 207 254
175 207 254
175 207 254
175 207 254
175 207 254
175 207 254
175 207 254
175 207 254
175 207 254
175 207 254
175 207 254
175 207 254
175 207 254
175 207 254
175 207 254
175 207 254
175 207 254
176 207 254
176 207 254
176 207 254
176 207 254
176 207 254
176 207 254
176 207 254
176 207 254
176 207 254
176 207 254
176 207 254
176 208 254
176 208 254
176 208 254
176 208 254
176 208 254
176 208 254
177 208 254
177 208 254
177 208 254
177 208 254
177 208 254
177 208 254
177 208 254
177 208 254
177 208 254
177 208 254
177 208 254
177 208 254
177 208 254
177 208 254
177 208 254
177 208 254
177 208 254
178 208 254
178 208 254
178 208 254
178 208 254
178 208 254
178 208 254
178 209 254
178 209 254
178 209 254
178 209 254
178 209 254
178 209 254
178 209 254
178 209 254
178 209 254
178 209 254
178 209 254
178 209 254
179 209 254
179 209 254
179 209 254
179 209 254
179 209 254
179 209 254
179 209 254
179 209 254
179 209 254
179 209 254
179 209 254
179 209 254
179 209 254
179 209 254
179 209 254
179 209 254
179 209 254
179 209 254
179 209 254
179 209 254
180 210 254
180 210 254
180 210 254
180 210 254
180 210 254
180 210 254
180 210 254
180 210 254
180 210 254
180 210 254
180 210 254
180 210 254
180 210 254
180 210 254
180 210 254
180 210 254
180 210 254
180 210 254
180 210 254
180 210 254
180 210 254
180 210 254
180 210 254
180 210 254
181 210 254
181 210 254
181 210 254
181 210 254
181 210 254
181 210 254
181 210 254
181 210 254
181 210 254
181 210 254
181 210 254
181 210 254
181 210 254
181 210 254
181 210 254
181 210 254
181 210 254
181 211 254
181 211 254
181 211 254
181 211 254
181 211 254
181 211 254
181 211 254
182 211 254
182 211 254
182 211 254
182 211 254
182 211 254
181 211 254
181 211 254
181 211 254
181 211 254
181 211 254
181 211 254
181 211 254
181 211 254
181 211 254
181 211 254
181 210 254
181 210 254
181 210 254
181 210 254
181 210 254
181 210 254
181 210 254
181 210 254
181 210 254
181 210 254
181 210 254
181 210 254
181 210 254
181 210 254
181 210 254
181 210 254
181 210 254
180 210 254
180 210 254
180 210 254
180 210 254
180 210 254
180 210 254
180 210 254
180 210 254
180 210 254
180 210 254
180 210 254
180 210 254
180 210 254
180 210 254
180 210 254
180 210 254
180 210 254
180 210 254
180 210 254
180 210 254
180 210 254
180 210 254
179 209 254
179 209 254
179 209 254
179 209 254
179 209 254
179 209 254
179 209 254
179 209 254
179 209 254
179 209 254
179 209 254
179 209 254
179 209 254
179 209 254
179 209 254
179 209 254
179 209 254
179 209 254
179 209 254
179 209 254
178 209 254
178 209 254
178 209 254
178 209 254
178 209 254
178 209 254
178 209 254
178 209 254
178 209 254
178 209 254
178 209 254
178 209 254
178 209 254
178 208 254
178 208 254
178 208 254
178 208 254
178 208 254
178 208 254
177 208 254
177 208 254
177 208 254
177 208 254
177 208 254
177 208 254
177 208 254
177 208 254
177 208 254
177 208 254
177 208 254
177 208 254
177 208 254
177 208 254
177 208 254
177 208 254
177 208 254
176 208 254
176 208 254
176 208 254
176 208 254
176 208 254
176 208 254
176 207 254
176 207 254
176 207 254
176 207 254
176 207 254
176 207 254
176 207 254
176 207 254
176 207 254
176 207 254
176 207 254
175 207 254
175 207 254
175 207 254
175 207 254
175 207 254
175 207 254
175 207 254
175 207 254
175 207 254
175 207 254
175 207 254
175 207 254
175 207 254
175 207 254
175 207 254
175 207 254
168 199 245
28 33 42
13 16 20
13 16 20
13 16 21
12 15 19
12 14 19
12 15 19
11 14 19
10 12 16
11 13 17
13 16 21
12 15 19
12 14 18
11 14 19
11 14 19
13 15 20
11 14 18
12 14 19
13 16 21
12 15 19
12 15 19
12 15 19
13 17 21
11 14 18
12 15 19
12 15 19
12 14 19
12 14 18
11 14 18
12 15 19
10 13 16
12 15 19
13 17 22
12 15 19
12 15 19
11 14 18
12 15 19
12 15 19
13 16 20
12 15 19
11 14 18
12 15 19
12 15 19
12 15 19
12 15 19
12 15 19
13 16 20
11 14 17
12 15 19
13 16 20
12 15 20
11 14 18
10 13 17
11 14 18
11 14 18
12 15 19
12 15 20
12 15 19
12 14 19
11 14 18
11 14 18
11 14 18
12 15 19
11 14 18
12 15 19
11 14 18
13 16 20
12 15 19
13 15 20
12 15 19
12 15 19
12 15 19
12 14 19
12 15 19
11 14 18
12 15 19
13 16 20
12 14 19
12 14 19
11 13 17
13 15 20
12 15 19
12 15 19
12 14 19
11 13 17
11 14 18
12 14 18
11 13 17
12 15 19
12 15 20
13 16 20
11 14 17
13 16 20
12 15 20
12 14 19
12 15 19
13 16 21
13 16 21
11 14 18
12 15 20
13 15 20
12 15 19
13 16 20
12 15 19
12 15 19
12 15 19
12 15 19
12 15 19
12 14 19
11 14 18
13 16 20
34 41 51
168 199 245
175 207 254
175 207 254
175 207 254
175 207 254
175 207 254
175 207 254
175 207 254
175 207 254
175 207 254
175 207 254
175 207 254
175 207 254
175 207 254
175 207 254
175 207 254
175 207 254
176 207 254
176 207 254
176 207 254
176 207 254
176 207 254
176 207 254
176 207 254
176 207 254
176 207 254
176 207 254
176 207 254
176 208 254
176 208 254
176 208 254
176 208 254
176 208 254
176 208 254
177 208 254
177 208 254
177 208 254
177 208 254
177 208 254
177 208 254
177 208 254
177 208 254
177 208 254
177 208 254
177 208 254
177 208 254
177 208 254
177 208 254
177 208 254
177 208 254
177 208 254
178 208 254
178 208 254
178 208 254
178 208 254
178 208 254
178 208 254
178 209 254
178 209 254
178 209 254
178 209 254
178 209 254
178 209 254
178 209 254
178 209 254
178 209 254
178 209 254
178 209 254
178 209 254
179 209 254
179 209 254
179 209 254
179 209 254
179 209 254
179 209 254
179 209 254
179 209 254
179 209 254
179 209 254
179 209 254
179 209 254
179 209 254
179 209 254
179 209 254
179 209 254
179 209 254
179 209 254
179 209 254
179 209 254
180 210 254
180 210 254
180 210 254
180 210 254
180 210 254
180 210 254
180 210 254
180 210 254
180 210 254
180 210 254
180 210 254
180 210 254
180 210 254
180 210 254
180 210 254
180 210 254
180 210 254
180 210 254
180 210 254
180 210 254
180 210 254
180 210 254
180 210 254
181 210 254
181 210 254
181 210 254
181 210 254
181 210 254
181 210 254
181 210 254
181 210 254
181 210 254
181 210 254
181 210 254
181 210 254
181 210 254
181 210 254
181 210 254
181 210 254
181 210 254
181 210 254
181 211 254
181 211 254
181 211 254
181 211 254
181 211 254
181 211 254
181 211 254
181 211 254
181 211 254
182 211 254
182 211 254
182 211 254
182 211 254
182 211 254
182 211 254
182 211 254
182 211 254
182 211 254
182 211 254
182 211 254
182 211 254
182 211 254
182 211 254
182 211 254
182 211 254
182 211 254
182 211 254
181 211 254
181 211 254
181 211 254
181 211 254
181 211 254
181 211 254
181 211 254
181 211 254
181 211 254
181 210 254
181 210 254
181 210 254
181 210 254
181 210 254
181 210 254
181 210 254
181 210 254
181 210 254
181 210 254
181 210 254
181 210 254
181 210 254
181 210 254
181 210 254
181 210 254
181 210 254
180 210 254
180 210 254
180 210 254
180 210 254
180 210 254
180 210 254
180 210 254
180 210 254
180 210 254
180 210 254
180 210 254
180 210 254
180 210 254
180 210 254
180 210 254
180 210 254
180 210 254
180 210 254
180 210 254
180 210 254
180 210 254
180 210 254
179 209 254
179 209 254
179 209 254
179 209 254
179 209 254
179 209 254
179 209 254
179 209 254
179 209 254
179 209 254
179 209 254
179 209 254
179 209 254
179 209 254
179 209 254
179 209 254
179 209 254
179 209 254
179 209 254
179 209 254
178 209 254
178 209 254
178 209 254
178 209 254
178 209 254
178 209 254
178 209 254
178 209 254
178 209 254
178 209 254
178 209 254
178 209 254
178 209 254
178 208 254
178 208 254
178 208 254
178 208 254
178 208 254
178 208 254
177 208 254
177 208 254
177 208 254
177 208 254
177 208 254
177 208 254
177 208 254
177 208 254
177 208 254
177 208 254
177 208 254
177 208 254
177 208 254
177 208 254
177 208 254
177 208 254
177 208 254
176 208 254
176 208 254
176 208 254
176 208 254
176 208 254
176 208 254
176 207 254
176 207 254
176 207 254
176 207 254
176 207 254
176 207 254
176 207 254
176 207 254
176 207 254
176 207 254
176 207 254
176 207 254
175 207 254
175 207 254
175 207 254
175 207 254
175 207 254
175 207 254
175 207 254
175 207 254
94 112 138
12 14 19
11 14 18
11 14 18
13 16 20
12 15 19
13 16 20
12 15 20
12 15 20
12 16 20
11 14 18
12 14 18
12 15 19
12 15 19
11 13 17
12 14 19
11 13 17
12 16 20
11 14 18
12 15 19
11 14 18
11 14 18
11 14 18
11 14 18
12 15 19
12 15 19
11 14 18
13 15 20
12 14 18
11 14 18
11 13 17
12 14 19
12 15 19
11 14 18
12 15 19
11 14 18
12 14 19
11 14 19
12 15 19
12 14 19
11 14 18
12 15 19
12 15 19
12 15 19
11 14 18
12 15 19
11 14 18
11 14 18
11 13 17
11 13 17
12 15 19
11 14 18
11 14 18
12 15 20
13 17 21
10 13 16
11 14 18
11 13 17
12 15 19
12 15 19
12 15 19
12 15 19
11 14 17
12 15 19
11 14 17
12 15 20
12 15 20
10 12 16
11 14 18
11 14 18
12 14 19
12 15 19
11 14 19
11 14 18
12 15 19
12 15 20
11 14 18
11 14 18
11 14 18
13 16 20
12 15 19
11 14 18
11 14 18
13 16 21
12 15 19
12 14 19
12 14 19
13 16 21
11 14 18
12 15 19
12 15 19
11 14 18
13 16 20
12 14 19
11 14 18
11 14 18
13 15 20
12 15 19
12 15 19
11 14 18
12 15 19
11 14 18
12 15 19
12 15 19
12 14 18
12 15 19
12 15 20
13 16 20
12 15 19
12 14 19
12 15 20
12 15 19
12 15 19
99 117 144
175 207 254
175 207 254
175 207 254
175 207 254
175 207 254
175 207 254
175 207 254
175 207 254
176 207 254
176 207 254
176 207 254
176 207 254
176 207 254
176 207 254
176 207 254
176 207 254
176 207 254
176 207 254
176 207 254
176 207 254
176 208 254
176 208 254
176 208 254
176 208 254
176 208 254
177 208 254
177 208 254
177 208 254
177 208 254
177 208 254
177 208 254
177 208 254
177 208 254
177 208 254
177 208 254
177 208 254
177 208 254
177 208 254
177 208 254
177 208 254
177 208 254
177 208 254
177 208 254
178 208 254
178 208 254
178 208 254
178 208 254
178 208 254
178 208 254
178 209 254
178 209 254
178 209 254
178 209 254
178 209 254
178 209 254
178 209 254
178 209 254
178 209 254
178 209 254
178 209 254
178 209 254
179 209 254
179 209 254
179 209 254
179 209 254
179 209 254
179 209 254
179 209 254
179 209 254
179 209 254
179 209 254
179 209 254
179 209 254
179 209 254
179 209 254
179 209 254
179 209 254
179 209 254
179 209 254
179 209 254
179 209 254
179 209 254
180 210 254
180 210 254
180 210 254
180 210 254
180 210 254
180 210 254
180 210 254
180 210 254
180 210 254
180 210 254
180 210 254
180 210 254
180 210 254
180 210 254
180 210 254
180 210 254
180 210 254
180 210 254
180 210 254
180 210 254
180 210 254
180 210 254
181 210 254
181 210 254
181 210 254
181 210 254
181 210 254
181 210 254
181 210 254
181 210 254
181 210 254
181 210 254
181 210 254
181 210 254
181 210 254
181 210 254
181 210 254
181 210 254
181 210 254
181 211 254
181 211 254
181 211 254
181 211 254
181 211 254
181 211 254
181 211 254
181 211 254
181 211 254
182 211 254
182 211 254
182 211 254
182 211 254
182 211 254
182 211 254
182 211 254
182 211 254
182 211 254
182 211 254
182 211 254
182 211 254
182 211 254
182 211 254
182 211 254
182 211 254
182 211 254
182 211 254
182 211 254
182 211 254
182 211 254
182 211 254
182 211 254
182 211 254
182 211 254
182 211 254
182 211 254
182 211 254
182 211 254
182 211 254
182 211 254
182 211 254
182 211 254
182 211 254
181 211 254
181 211 254
181 211 254
181 211 254
181 211 254
181 211 254
181 211 254
181 211 254
181 211 254
181 210 254
181 210 254
181 210 254
181 210 254
181 210 254
181 210 254
181 210 254
181 210 254
181 210 254
181 210 254
181 210 254
181 210 254
181 210 254
181 210 254
181 210 254
181 210 254
181 210 254
180 210 254
180 210 254
180 210 254
180 210 254
180 210 254
180 210 254
180 210 254
180 210 254
180 210 254
180 210 254
180 210 254
180 210 254
180 210 254
180 210 254
180 210 254
180 210 254
180 210 254
180 210 254
180 210 254
180 210 254
180 210 254
180 210 254
179 209 254
179 209 254
179 209 254
179 209 254
179 209 254
179 209 254
179 209 254
179 209 254
179 209 254
179 209 254
179 209 254
179 209 254
179 209 254
179 209 254
179 209 254
179 209 254
179 209 254
179 209 254
179 209 254
178 209 254
178 209 254
178 209 254
178 209 254
178 209 254
178 209 254
178 209 254
178 209 254
178 209 254
178 209 254
178 209 254
178 209 254
178 209 254
178 208 254
178 208 254
178 208 254
178 208 254
178 208 254
178 208 254
177 208 254
177 208 254
177 208 254
177 208 254
177 208 254
177 208 254
177 208 254
177 208 254
177 208 254
177 208 254
177 208 254
177 208 254
177 208 254
177 208 254
177 208 254
177 208 254
177 208 254
177 208 254
176 208 254
176 208 254
176 208 254
176 208 254
176 208 254
176 208 254
176 207 254
176 207 254
176 207 254
176 207 254
176 207 254
176 207 254
176 207 254
176 207 254
176 207 254
176 207 254
176 207 254
157 185 228
19 23 29
13 16 20
13 16 21
12 15 19
11 14 18
12 15 19
12 14 18
12 15 19
13 16 20
12 15 19
11 14 18
12 15 19
12 15 19
12 15 19
12 15 19
11 13 17
12 15 19
12 15 19
12 15 20
12 14 19
12 14 18
14 17 21
11 14 18
12 15 20
12 15 19
11 14 17
13 16 20
12 15 19
12 14 18
12 15 20
12 15 19
12 14 19
11 14 17
12 14 18
12 15 19
12 15 19
11 14 18
12 14 18
12 15 19
12 15 19
12 15 19
12 15 19
12 14 18
11 14 18
12 15 19
11 14 18
13 16 20
11 14 19
13 16 21
10 13 16
11 14 18
11 14 18
12 15 19
13 16 20
11 13 17
11 13 17
11 13 17
12 14 19
12 15 19
12 15 19
12 14 18
11 14 18
10 13 17
12 14 19
11 14 18
11 13 17
11 13 17
11 13 17
12 14 18
11 14 18
12 14 18
12 14 18
13 16 21
11 14 19
12 14 18
11 14 17
13 16 20
13 15 19
11 14 18
12 15 19
12 15 19
12 15 20
12 15 19
11 13 17
12 15 19
12 14 18
11 14 18
12 14 18
13 16 20
13 16 20
11 13 17
11 14 18
12 14 19
11 14 18
11 13 17
11 14 18
11 14 17
12 15 19
12 15 19
12 15 20
12 15 19
11 14 18
11 14 18
11 14 18
12 15 19
12 14 18
12 15 19
12 15 19
12 15 20
12 15 19
12 15 19
11 14 18
12 14 18
19 23 30
158 186 229
176 207 254
176 207 254
176 207 254
176 207 254
176 207 254
176 207 254
176 207 254
176 207 254
176 207 254
176 207 254
176 207 254
176 208 254
176 208 254
176 208 254
176 208 254
176 208 254
176 208 254
177 208 254
177 208 254
177 208 254
177 208 254
177 208 254
177 208 254
177 208 254
177 208 254
177 208 254
177 208 254
177 208 254
177 208 254
177 208 254
177 208 254
177 208 254
177 208 254
177 208 254
177 208 254
178 208 254
178 208 254
178 208 254
178 208 254
178 208 254
178 208 254
178 209 254
178 209 254
178 209 254
178 209 254
178 209 254
178 209 254
178 209 254
178 209 254
178 209 254
178 209 254
178 209 254
178 209 254
179 209 254
179 209 254
179 209 254
179 209 254
179 209 254
179 209 254
179 209 254
179 209 254
179 209 254
179 209 254
179 209 254
179 209 254
179 209 254
179 209 254
179 209 254
179 209 254
179 209 254
179 209 254
179 209 254
179 209 254
180 210 254
180 210 254
180 210 254
180 210 254
180 210 254
180 210 254
180 210 254
180 210 254
180 210 254
180 210 254
180 210 254
180 210 254
180 210 254
180 210 254
180 210 254
180 210 254
180 210 254
180 210 254
180 210 254
180 210 254
180 210 254
180 210 254
181 210 254
181 210 254
181 210 254
181 210 254
181 210 254
181 210 254
181 210 254
181 210 254
181 210 254
181 210 254
181 210 254
181 210 254
181 210 254
181 210 254
181 210 254
181 210 254
181 210 254
181 211 254
181 211 254
181 211 254
181 211 254
181 211 254
181 211 254
181 211 254
181 211 254
181 211 254
182 211 254
182 211 254
182 211 254
182 211 254
182 211 254
182 211 254
182 211 254
182 211 254
182 211 254
182 211 254
182 211 254
182 211 254
182 211 254
182 211 254
182 211 254
182 211 254
182 211 254
182 211 254
182 211 254
182 211 254
182 211 254
182 211 254
182 211 254
182 211 254
182 211 254
182 211 254
182 211 254
182 211 254
182 211 254
182 211 254
182 211 254
182 211 254
182 211 254
182 211 254
182 211 254
182 211 254
182 211 254
182 211 254
182 211 254
182 211 254
182 211 254
182 211 254
182 211 254
182 211 254
182 211 254
182 211 254
182 211 254
182 211 254
182 211 254
182 211 254
181 211 254
181 211 254
181 211 254
181 211 254
181 211 254
181 211 254
181 211 254
181 211 254
181 211 254
181 210 254
181 210 254
181 210 254
181 210 254
181 210 254
181 210 254
181 210 254
181 210 254
181 210 254
181 210 254
181 210 254
181 210 254
181 210 254
181 210 254
181 210 254
181 210 254
180 210 254
180 210 254
180 210 254
180 210 254
180 210 254
180 210 254
180 210 254
180 210 254
180 210 254
180 210 254
180 210 254
180 210 254
180 210 254
180 210 254
180 210 254
180 210 254
180 210 254
180 210 254
180 210 254
180 210 254
180 210 254
180 210 254
179 209 254
179 209 254
179 209 254
179 209 254
179 209 254
179 209 254
179 209 254
179 209 254
179 209 254
179 209 254
179 209 254
179 209 254
179 209 254
179 209 254
179 209 254
179 209 254
179 209 254
179 209 254
179 209 254
179 209 254
178 209 254
178 209 254
178 209 254
178 209 254
178 209 254
178 209 254
178 209 254
178 209 254
178 209 254
178 209 254
178 209 254
178 209 254
178 209 254
178 208 254
178 208 254
178 208 254
178 208 254
178 208 254
178 208 254
177 208 254
177 208 254
177 208 254
177 208 254
177 208 254
177 208 254
177 208 254
177 208 254
177 208 254
177 208 254
177 208 254
177 208 254
177 208 254
177 208 254
177 208 254
177 208 254
177 208 254
177 208 254
176 208 254
176 208 254
176 208 254
176 208 254
176 208 254
176 208 254
176 207 254
176 207 254
176 207 254
98 115 142
12 15 19
12 15 19
11 14 19
12 15 20
12 15 19
13 16 21
10 12 16
12 15 19
13 16 20
12 15 19
12 14 19
12 15 19
12 15 19
11 14 18
12 15 19
12 15 19
12 15 19
12 15 19
12 14 18
11 14 18
12 15 19
12 15 19
12 15 19
11 14 18
13 15 19
10 13 16
11 14 18
11 14 18
11 14 18
12 14 18
11 14 18
12 15 19
11 14 18
13 16 20
11 14 18
12 15 19
10 13 17
12 15 19
11 14 18
12 14 18
12 15 19
12 14 18
12 15 19
12 15 19
12 15 19
11 14 18
12 15 19
11 14 18
12 15 19
11 13 17
12 14 19
12 14 18
11 14 18
11 13 17
11 13 17
12 14 18
11 13 17
13 16 20
12 15 19
12 15 19
11 14 18
12 15 19
10 13 16
11 14 18
11 14 17
11 13 17
11 13 17
12 15 19
12 15 19
13 16 20
10 13 17
12 15 19
11 13 17
10 13 17
13 16 21
11 13 17
11 14 18
11 14 18
12 15 19
12 15 19
11 14 18
12 15 19
11 14 18
12 15 19
11 14 18
11 14 18
12 15 19
13 16 20
11 13 17
11 14 18
12 14 18
11 14 18
12 15 19
12 14 19
11 14 18
11 14 18
12 15 19
12 15 19
11 13 17
11 13 17
13 15 19
11 13 17
13 16 20
12 14 19
12 16 20
11 14 18
13 16 20
11 13 17
12 15 19
12 15 19
12 14 19
13 16 21
12 15 20
12 14 19
69 82 102
176 207 254
176 207 254
176 207 254
176 208 254
176 208 254
176 208 254
176 208 254
176 208 254
176 208 254
177 208 254
177 208 254
177 208 254
177 208 254
177 208 254
177 208 254
177 208 254
177 208 254
177 208 254
177 208 254
177 208 254
177 208 254
177 208 254
177 208 254
177 208 254
177 208 254
177 208 254
177 208 254
178 208 254
178 208 254
178 208 254
178 208 254
178 208 254
178 208 254
178 209 254
178 209 254
178 209 254
178 209 254
178 209 254
178 209 254
178 209 254
178 209 254
178 209 254
178 209 254
178 209 254
178 209 254
178 209 254
179 209 254
179 209 254
179 209 254
179 209 254
179 209 254
179 209 254
179 209 254
179 209 254
179 209 254
179 209 254
179 209 254
179 209 254
179 209 254
179 209 254
179 209 254
179 209 254
179 209 254
179 209 254
179 209 254
179 209 254
180 210 254
180 210 254
180 210 254
180 210 254
180 210 254
180 210 254
180 210 254
180 210 254
180 210 254
180 210 254
180 210 254
180 210 254
180 210 254
180 210 254
180 210 254
180 210 254
180 210 254
180 210 254
180 210 254
180 210 254
180 210 254
180 210 254
181 210 254
181 210 254
181 210 254
181 210 254
181 210 254
181 210 254
181 210 254
181 210 254
181 210 254
181 210 254
181 210 254
181 210 254
181 210 254
181 210 254
181 210 254
181 210 254
181 211 254
181 211 254
181 211 254
181 211 254
181 211 254
181 211 254
181 211 254
181 211 254
181 211 254
182 211 254
182 211 254
182 211 254
182 211 254
182 211 254
182 211 254
182 211 254
182 211 254
182 211 254
182 211 254
182 211 254
182 211 254
182 211 254
182 211 254
182 211 254
182 211 254
182 211 254
182 211 254
182 211 254
182 211 254
182 211 254
182 211 254
182 211 254
182 211 254
182 211 254
182 211 254
182 211 254
182 211 254
182 211 254
183 211 254
183 211 254
183 211 254
183 211 254
183 211 254
183 211 254
183 211 254
183 211 254
182 211 254
182 211 254
182 211 254
182 211 254
182 211 254
182 211 254
182 211 254
182 211 254
182 211 254
182 211 254
182 211 254
182 211 254
182 211 254
182 211 254
182 211 254
182 211 254
182 211 254
182 211 254
182 211 254
182 211 254
182 211 254
182 211 254
182 211 254
182 211 254
182 211 254
182 211 254
182 211 254
182 211 254
182 211 254
181 211 254
181 211 254
181 211 254
181 211 254
181 211 254
181 211 254
181 211 254
181 211 254
181 211 254
181 210 254
181 210 254
181 210 254
181 210 254
181 210 254
181 210 254
181 210 254
181 210 254
181 210 254
181 210 254
181 210 254
181 210 254
181 210 254
181 210 254
181 210 254
181 210 254
180 210 254
180 210 254
180 210 254
180 210 254
180 210 254
180 210 254
180 210 254
180 210 254
180 210 254
180 210 254
180 210 254
180 210 254
180 210 254
180 210 254
180 210 254
180 210 254
180 210 254
180 210 254
180 210 254
180 210 254
180 210 254
180 210 254
179 209 254
179 209 254
179 209 254
179 209 254
179 209 254
179 209 254
179 209 254
179 209 254
179 209 254
179 209 254
179 209 254
179 209 254
179 209 254
179 209 254
179 209 254
179 209 254
179 209 254
179 209 254
179 209 254
179 209 254
178 209 254
178 209 254
178 209 254
178 209 254
178 209 254
178 209 254
178 209 254
178 209 254
178 209 254
178 209 254
178 209 254
178 209 254
178 209 254
178 208 254
178 208 254
178 208 254
178 208 254
178 208 254
177 208 254
177 208 254
177 208 254
177 208 254
177 208 254
177 208 254
177 208 254
177 208 254
177 208 254
177 208 254
177 208 254
177 208 254
177 208 254
177 208 254
177 208 254
177 208 254
177 208 254
177 208 254
177 208 254
154 181 222
20 24 31
12 15 20
12 15 19
13 16 20
12 15 19
12 14 18
11 14 18
12 15 19
11 14 18
10 13 17
12 15 19
11 14 18
11 14 18
11 14 19
12 15 19
12 15 19
11 14 18
11 14 18
12 15 19
11 13 17
12 14 19
12 15 19
12 15 19
11 14 18
12 15 19
12 15 19
12 15 19
11 14 18
12 15 19
11 14 17
11 14 18
11 14 18
11 14 18
12 15 19
11 14 18
10 13 17
12 14 19
11 14 18
12 14 19
12 15 19
11 14 18
11 14 18
13 16 21
12 15 19
11 14 17
12 15 19
12 15 20
12 15 19
11 13 17
12 15 20
12 14 19
11 14 18
12 14 18
12 15 20
12 15 19
12 15 19
12 15 19
13 16 20
11 13 17
12 15 19
11 14 18
12 14 18
12 14 18
10 12 16
12 15 19
10 13 17
11 13 17
11 14 18
11 13 17
11 14 18
12 15 19
12 14 18
11 13 17
11 13 17
12 14 19
13 16 20
11 14 18
12 15 19
12 14 19
11 13 17
11 13 17
11 14 17
13 16 20
11 14 19
11 13 17
12 15 19
11 13 17
11 14 18
11 13 17
12 14 19
11 13 17
11 14 18
12 15 20
11 14 18
11 13 17
11 14 18
11 13 17
12 14 19
12 15 19
12 15 20
13 16 20
11 14 18
12 15 19
11 14 18
11 14 18
11 14 18
11 14 18
13 16 20
12 15 19
12 15 20
13 17 21
11 13 18
11 14 19
12 15 20
12 15 19
16 19 25
143 169 207
177 208 254
177 208 254
177 208 254
177 208 254
177 208 254
177 208 254
177 208 254
177 208 254
177 208 254
177 208 254
177 208 254
177 208 254
177 208 254
177 208 254
177 208 254
177 208 254
177 208 254
177 208 254
177 208 254
178 208 254
178 208 254
178 208 254
178 208 254
178 208 254
178 209 254
178 209 254
178 209 254
178 209 254
178 209 254
178 209 254
178 209 254
178 209 254
178 209 254
178 209 254
178 209 254
178 209 254
178 209 254
179 209 254
179 209 254
179 209 254
179 209 254
179 209 254
179 209 254
179 209 254
179 209 254
179 209 254
179 209 254
179 209 254
179 209 254
179 209 254
179 209 254
179 209 254
179 209 254
179 209 254
179 209 254
179 209 254
179 209 254
180 210 254
180 210 254
180 210 254
180 210 254
180 210 254
180 210 254
180 210 254
180 210 254
180 210 254
180 210 254
180 210 254
180 210 254
180 210 254
180 210 254
180 210 254
180 210 254
180 210 254
180 210 254
180 210 254
180 210 254
180 210 254
180 210 254
181 210 254
181 210 254
181 210 254
181 210 254
181 210 254
181 210 254
181 210 254
181 210 254
181 210 254
181 210 254
181 210 254
181 210 254
181 210 254
181 210 254
181 210 254
181 210 254
181 211 254
181 211 254
181 211 254
181 211 254
181 211 254
181 211 254
181 211 254
181 211 254
181 211 254
182 211 254
182 211 254
182 211 254
182 211 254
182 211 254
182 211 254
182 211 254
182 211 254
182 211 254
182 211 254
182 211 254
182 211 254
182 211 254
182 211 254
182 211 254
182 211 254
182 211 254
182 211 254
182 211 254
182 211 254
182 211 254
182 211 254
182 211 254
182 211 254
182 211 254
182 211 254
182 211 254
182 211 254
182 211 254
183 211 254
183 211 254
183 211 254
183 211 254
183 211 254
183 211 254
183 211 254
183 211 254
183 212 254
183 212 254
183 212 254
183 212 254
183 212 254
183 212 254
183 211 254
183 211 254
183 211 254
183 211 254
183 211 254
183 211 254
183 211 254
183 211 254
183 211 254
183 211 254
183 211 254
182 211 254
182 211 254
182 211 254
182 211 254
182 211 254
182 211 254
182 211 254
182 211 254
182 211 254
182 211 254
182 211 254
182 211 254
182 211 254
182 211 254
182 211 254
182 211 254
182 211 254
182 211 254
182 211 254
182 211 254
182 211 254
182 211 254
182 211 254
182 211 254
182 211 254
182 211 254
182 211 254
182 211 254
182 211 254
181 211 254
181 211 254
181 211 254
181 211 254
181 211 254
181 211 254
181 211 254
181 211 254
181 210 254
181 210 254
181 210 254
181 210 254
181 210 254
181 210 254
181 210 254
181 210 254
181 210 254
181 210 254
181 210 254
181 210 254
181 210 254
181 210 254
181 210 254
181 210 254
180 210 254
180 210 254
180 210 254
180 210 254
180 210 254
180 210 254
180 210 254
180 210 254
180 210 254
180 210 254
180 210 254
180 210 254
180 210 254
180 210 254
180 210 254
180 210 254
180 210 254
180 210 254
180 210 254
180 210 254
180 210 254
180 210 254
179 209 254
179 209 254
179 209 254
179 209 254
179 209 254
179 209 254
179 209 254
179 209 254
179 209 254
179 209 254
179 209 254
179 209 254
179 209 254
179 209 254
179 209 254
179 209 254
179 209 254
179 209 254
179 209 254
179 209 254
178 209 254
178 209 254
178 209 254
178 209 254
178 209 254
178 209 254
178 209 254
178 209 254
178 209 254
178 209 254
178 209 254
178 209 254
178 209 254
178 208 254
178 208 254
178 208 254
178 208 254
178 208 254
178 208 254
177 208 254
177 208 254
177 208 254
177 208 254
177 208 254
177 208 254
177 208 254
177 208 254
177 208 254
177 208 254
69 81 100
13 16 21
12 14 19
10 13 16
11 14 18
11 14 18
12 14 18
10 13 17
11 14 17
13 16 20
13 16 21
11 14 18
12 15 19
11 14 19
11 13 17
12 15 19
12 15 19
11 14 18
12 15 19
11 13 17
12 14 18
13 16 20
11 13 16
11 14 18
10 13 17
11 14 19
12 14 18
12 15 19
11 13 17
12 15 19
11 14 18
11 14 18
12 14 18
11 13 17
12 15 19
10 13 16
12 15 19
12 14 19
11 14 18
12 14 19
12 15 20
10 12 16
12 15 19
12 15 19
11 13 17
11 13 17
13 16 21
12 14 18
12 15 19
10 12 15
10 13 16
11 14 18
10 12 16
11 13 17
11 14 18
13 15 20
11 14 18
11 14 18
11 14 18
12 15 19
11 14 19
11 13 17
11 14 18
12 14 18
12 15 19
11 14 18
11 14 17
12 15 19
13 17 21
11 14 18
10 13 17
11 13 17
11 13 17
11 14 18
11 13 17
11 14 18
12 15 19
10 13 16
11 14 18
12 14 18
12 15 19
12 15 20
11 14 18
11 14 18
12 14 18
11 14 18
12 15 19
11 13 17
11 14 17
11 13 17
11 14 18
11 14 17
12 15 19
10 13 17
10 12 16
10 12 16
11 14 18
12 14 19
11 13 17
12 14 19
11 14 18
12 15 19
11 13 17
12 14 19
12 15 19
11 14 18
11 14 18
12 14 19
11 14 18
11 14 18
11 14 18
11 14 18
12 15 19
12 15 19
12 15 19
11 14 18
12 15 19
72 85 104
177 208 254
177 208 254
177 208 254
177 208 254
177 208 254
177 208 254
177 208 254
177 208 254
177 208 254
177 208 254
178 208 254
178 208 254
178 208 254
178 208 254
178 208 254
178 208 254
178 209 254
178 209 254
178 209 254
178 209 254
178 209 254
178 209 254
178 209 254
178 209 254
178 209 254
178 209 254
178 209 254
178 209 254
178 209 254
179 209 254
179 209 254
179 209 254
179 209 254
179 209 254
179 209 254
179 209 254
179 209 254
179 209 254
179 209 254
179 209 254
179 209 254
179 209 254
179 209 254
179 209 254
179 209 254
179 209 254
179 209 254
179 209 254
179 209 254
180 210 254
180 210 254
180 210 254
180 210 254
180 210 254
180 210 254
180 210 254
180 210 254
180 210 254
180 210 254
180 210 254
180 210 254
180 210 254
180 210 254
180 210 254
180 210 254
180 210 254
180 210 254
180 210 254
180 210 254
180 210 254
180 210 254
181 210 254
181 210 254
181 210 254
181 210 254
181 210 254
181 210 254
181 210 254
181 210 254
181 210 254
181 210 254
181 210 254
181 210 254
181 210 254
181 210 254
181 210 254
181 210 254
181 211 254
181 211 254
181 211 254
181 211 254
181 211 254
181 211 254
181 211 254
181 211 254
182 211 254
182 211 254
182 211 254
182 211 254
182 211 254
182 211 254
182 211 254
182 211 254
182 211 254
182 211 254
182 211 254
182 211 254
182 211 254
182 211 254
182 211 254
182 211 254
182 211 254
182 211 254
182 211 254
182 211 254
182 211 254
182 211 254
182 211 254
182 211 254
182 211 254
182 211 254
182 211 254
182 211 254
182 211 254
183 211 254
183 211 254
183 211 254
183 211 254
183 211 254
183 211 254
183 211 254
183 211 254
183 211 254
183 211 254
183 212 254
183 212 254
183 212 254
183 212 254
183 212 254
183 212 254
183 212 254
183 212 254
183 212 254
183 212 254
183 212 254
183 212 254
183 212 254
183 212 254
183 212 254
183 212 254
183 212 254
183 212 254
183 212 254
183 212 254
183 212 254
183 212 254
183 212 254
183 211 254
183 211 254
183 211 254
183 211 254
183 211 254
183 211 254
183 211 254
183 211 254
183 211 254
183 211 254
183 211 254
182 211 254
182 211 254
182 211 254
182 211 254
182 211 254
182 211 254
182 211 254
182 211 254
182 211 254
182 211 254
182 211 254
182 211 254
182 211 254
182 211 254
182 211 254
182 211 254
182 211 254
182 211 254
182 211 254
182 211 254
182 211 254
182 211 254
182 211 254
182 211 254
182 211 254
182 211 254
182 211 254
181 211 254
181 211 254
181 211 254
181 211 254
181 211 254
181 211 254
181 211 254
181 211 254
181 211 254
181 210 254
181 210 254
181 210 254
181 210 254
181 210 254
181 210 254
181 210 254
181 210 254
181 210 254
181 210 254
181 210 254
181 210 254
181 210 254
181 210 254
181 210 254
180 210 254
180 210 254
180 210 254
180 210 254
180 210 254
180 210 254
180 210 254
180 210 254
180 210 254
180 210 254
180 210 254
180 210 254
180 210 254
180 210 254
180 210 254
180 210 254
180 210 254
180 210 254
180 210 254
180 210 254
180 210 254
180 210 254
179 209 254
179 209 254
179 209 254
179 209 254
179 209 254
179 209 254
179 209 254
179 209 254
179 209 254
179 209 254
179 209 254
179 209 254
179 209 254
179 209 254
179 209 254
179 209 254
179 209 254
179 209 254
179 209 254
179 209 254
179 209 254
178 209 254
178 209 254
178 209 254
178 209 254
178 209 254
178 209 254
178 209 254
178 209 254
178 209 254
178 209 254
178 209 254
178 209 254
178 209 254
178 208 254
178 208 254
178 208 254
178 208 254
178 208 254
178 208 254
163 191 233
16 20 26
11 13 17
13 15 20
11 14 18
11 14 18
12 15 19
13 16 20
12 14 18
13 15 20
12 15 19
12 14 19
11 14 18
11 14 18
12 14 19
11 13 17
12 16 20
12 15 19
13 15 19
12 14 18
12 15 19
10 12 16
11 14 18
12 15 19
12 15 19
12 14 18
11 14 18
12 15 19
11 14 18
10 13 16
10 13 16
12 14 19
11 14 18
11 14 18
11 13 17
12 15 19
12 15 19
12 15 19
10 13 17
11 13 17
12 14 18
10 13 17
12 15 20
11 14 17
11 13 17
10 12 16
12 14 18
11 13 17
11 13 17
11 13 17
11 13 17
11 13 17
11 14 18
11 14 18
11 14 18
11 13 17
12 14 18
12 14 19
12 14 19
12 15 19
12 15 19
11 13 17
10 13 16
13 15 19
12 15 19
12 15 19
11 14 18
11 14 18
11 14 18
11 14 18
11 14 18
13 16 20
12 14 18
11 13 17
12 14 18
11 14 18
12 14 18
11 14 18
12 15 19
11 14 18
12 14 19
11 14 18
11 13 17
10 12 16
12 15 19
11 13 17
11 14 18
12 15 19
10 13 17
11 14 18
11 14 18
11 14 18
12 14 18
10 13 17
11 13 17
11 14 18
12 15 19
12 15 19
12 14 18
12 14 18
12 15 19
12 15 20
12 15 19
11 14 18
12 15 20
12 15 19
12 14 18
12 15 20
12 15 19
11 13 17
12 15 19
12 14 19
12 15 20
11 14 18
11 14 18
12 15 20
11 14 18
11 13 17
13 16 21
164 193 235
178 208 254
178 208 254
178 208 254
178 208 254
178 208 254
178 208 254
178 209 254
178 209 254
178 209 254
178 209 254
178 209 254
178 209 254
178 209 254
178 209 254
178 209 254
178 209 254
178 209 254
178 209 254
178 209 254
178 209 254
179 209 254
179 209 254
179 209 254
179 209 254
179 209 254
179 209 254
179 209 254
179 209 254
179 209 254
179 209 254
179 209 254
179 209 254
179 209 254
179 209 254
179 209 254
179 209 254
179 209 254
179 209 254
179 209 254
179 209 254
180 210 254
180 210 254
180 210 254
180 210 254
180 210 254
180 210 254
180 210 254
180 210 254
180 210 254
180 210 254
180 210 254
180 210 254
180 210 254
180 210 254
180 210 254
180 210 254
180 210 254
180 210 254
180 210 254
180 210 254
180 210 254
180 210 254
181 210 254
181 210 254
181 210 254
181 210 254
181 210 254
181 210 254
181 210 254
181 210 254
181 210 254
181 210 254
181 210 254
181 210 254
181 210 254
181 210 254
181 210 254
181 211 254
181 211 254
181 211 254
181 211 254
181 211 254
181 211 254
181 211 254
181 211 254
181 211 254
182 211 254
182 211 254
182 211 254
182 211 254
182 211 254
182 211 254
182 211 254
182 211 254
182 211 254
182 211 254
182 211 254
182 211 254
182 211 254
182 211 254
182 211 254
182 211 254
182 211 254
182 211 254
182 211 254
182 211 254
182 211 254
182 211 254
182 211 254
182 211 254
182 211 254
182 211 254
182 211 254
182 211 254
183 211 254
183 211 254
183 211 254
183 211 254
183 211 254
183 211 254
183 211 254
183 211 254
183 211 254
183 211 254
183 212 254
183 212 254
183 212 254
183 212 254
183 212 254
183 212 254
183 212 254
183 212 254
183 212 254
183 212 254
183 212 254
183 212 254
183 212 254
183 212 254
183 212 254
183 212 254
184 212 254
184 212 254
184 212 254
183 212 254
183 212 254
183 212 254
183 212 254
183 212 254
183 212 254
183 212 254
183 212 254
183 212 254
183 212 254
183 212 254
183 212 254
183 212 254
183 212 254
183 212 254
183 212 254
183 212 254
183 212 254
183 212 254
183 212 254
183 212 254
183 212 254
183 211 254
183 211 254
183 211 254
183 211 254
183 211 254
183 211 254
183 211 254
183 211 254
183 211 254
183 211 254
183 211 254
182 211 254
182 211 254
182 211 254
182 211 254
182 211 254
182 211 254
182 211 254
182 211 254
182 211 254
182 211 254
182 211 254
182 211 254
182 211 254
182 211 254
182 211 254
182 211 254
182 211 254
182 211 254
182 211 254
182 211 254
182 211 254
182 211 254
182 211 254
182 211 254
182 211 254
182 211 254
182 211 254
181 211 254
181 211 254
181 211 254
181 211 254
181 211 254
181 211 254
181 211 254
181 211 254
181 210 254
181 210 254
181 210 254
181 210 254
181 210 254
181 210 254
181 210 254
181 210 254
181 210 254
181 210 254
181 210 254
181 210 254
181 210 254
181 210 254
181 210 254
180 210 254
180 210 254
180 210 254
180 210 254
180 210 254
180 210 254
180 210 254
180 210 254
180 210 254
180 210 254
180 210 254
180 210 254
180 210 254
180 210 254
180 210 254
180 210 254
180 210 254
180 210 254
180 210 254
180 210 254
180 210 254
180 210 254
180 210 254
179 209 254
179 209 254
179 209 254
179 209 254
179 209 254
179 209 254
179 209 254
179 209 254
179 209 254
179 209 254
179 209 254
179 209 254
179 209 254
179 209 254
179 209 254
179 209 254
179 209 254
179 209 254
179 209 254
179 209 254
178 209 254
178 209 254
178 209 254
178 209 254
178 209 254
178 209 254
178 209 254
178 209 254
178 209 254
178 209 254
178 209 254
97 114 140
12 15 19
10 12 16
11 14 18
13 16 20
12 15 19
11 14 18
10 13 16
11 13 17
13 15 20
12 15 19
12 15 19
12 16 20
11 13 18
12 15 19
13 16 20
12 15 20
10 12 16
11 14 18
11 14 18
11 14 18
11 14 18
12 14 18
11 14 17
11 14 19
11 14 18
12 15 20
11 13 17
10 13 16
12 15 19
11 14 18
11 14 18
13 15 20
12 15 19
11 14 17
12 15 19
11 14 17
12 15 19
12 15 20
13 15 19
11 14 18
10 12 16
11 13 17
12 14 19
10 12 16
11 14 18
11 13 17
12 15 19
11 13 17
12 15 19
11 14 18
11 13 17
11 14 18
12 15 19
10 13 16
11 13 17
11 14 17
9 12 15
12 14 19
11 13 17
12 15 20
11 13 17
10 12 16
10 12 16
12 15 19
11 13 17
9 11 15
11 14 18
12 14 18
10 12 16
12 15 19
11 13 17
12 15 19
11 13 17
12 15 19
11 14 18
11 14 18
11 14 17
9 12 15
11 14 18
11 14 18
12 15 19
11 14 17
11 14 18
12 14 19
12 14 18
11 14 18
10 13 17
11 14 18
13 16 20
11 14 18
12 14 18
11 14 18
12 15 19
10 12 16
12 14 18
11 13 17
10 12 15
14 17 22
10 12 16
11 13 17
13 16 21
11 14 17
12 15 20
11 14 18
10 13 17
10 13 16
12 15 19
13 16 20
13 16 21
12 15 19
11 14 18
13 15 20
11 13 17
15 18 22
12 15 19
11 14 17
11 14 18
12 15 19
79 92 113
178 209 254
178 209 254
178 209 254
178 209 254
178 209 254
178 209 254
178 209 254
178 209 254
178 209 254
178 209 254
178 209 254
179 209 254
179 209 254
179 209 254
179 209 254
179 209 254
179 209 254
179 209 254
179 209 254
179 209 254
179 209 254
179 209 254
179 209 254
179 209 254
179 209 254
179 209 254
179 209 254
179 209 254
179 209 254
179 209 254
179 209 254
180 210 254
180 210 254
180 210 254
180 210 254
180 210 254
180 210 254
180 210 254
180 210 254
180 210 254
180 210 254
180 210 254
180 210 254
180 210 254
180 210 254
180 210 254
180 210 254
180 210 254
180 210 254
180 210 254
180 210 254
180 210 254
180 210 254
181 210 254
181 210 254
181 210 254
181 210 254
181 210 254
181 210 254
181 210 254
181 210 254
181 210 254
181 210 254
181 210 254
181 210 254
181 210 254
181 210 254
181 210 254
181 210 254
181 211 254
181 211 254
181 211 254
181 211 254
181 211 254
181 211 254
181 211 254
181 211 254
182 211 254
182 211 254
182 211 254
182 211 254
182 211 254
182 211 254
182 211 254
182 211 254
182 211 254
182 211 254
182 211 254
182 211 254
182 211 254
182 211 254
182 211 254
182 211 254
182 211 254
182 211 254
182 211 254
182 211 254
182 211 254
182 211 254
182 211 254
182 211 254
182 211 254
182 211 254
182 211 254
183 211 254
183 211 254
183 211 254
183 211 254
183 211 254
183 211 254
183 211 254
183 211 254
183 211 254
183 211 254
183 211 254
183 212 254
183 212 254
183 212 254
183 212 254
183 212 254
183 212 254
183 212 254
183 212 254
183 212 254
183 212 254
183 212 254
183 212 254
183 212 254
183 212 254
183 212 254
183 212 254
183 212 254
183 212 254
183 212 254
183 212 254
183 212 254
183 212 254
184 212 254
184 212 254
184 212 254
184 212 254
184 212 254
184 212 254
184 212 254
184 212 254
184 212 254
184 212 254
184 212 254
184 212 254
184 212 254
184 212 254
184 212 254
184 212 254
184 212 254
183 212 254
183 212 254
183 212 254
183 212 254
183 212 254
183 212 254
183 212 254
183 212 254
183 212 254
183 212 254
183 212 254
183 212 254
183 212 254
183 212 254
183 212 254
183 212 254
183 212 254
183 212 254
183 212 254
183 212 254
183 212 254
183 211 254
183 211 254
183 211 254
183 211 254
183 211 254
183 211 254
183 211 254
183 211 254
183 211 254
183 211 254
182 211 254
182 211 254
182 211 254
182 211 254
182 211 254
182 211 254
182 211 254
182 211 254
182 211 254
182 211 254
182 211 254
182 211 254
182 211 254
182 211 254
182 211 254
182 211 254
182 211 254
182 211 254
182 211 254
182 211 254
182 211 254
182 211 254
182 211 254
182 211 254
182 211 254
182 211 254
182 211 254
181 211 254
181 211 254
181 211 254
181 211 254
181 211 254
181 211 254
181 211 254
181 211 254
181 210 254
181 210 254
181 210 254
181 210 254
181 210 254
181 210 254
181 210 254
181 210 254
181 210 254
181 210 254
181 210 254
181 210 254
181 210 254
181 210 254
181 210 254
180 210 254
180 210 254
180 210 254
180 210 254
180 210 254
180 210 254
180 210 254
180 210 254
180 210 254
180 210 254
180 210 254
180 210 254
180 210 254
180 210 254
180 210 254
180 210 254
180 210 254
180 210 254
180 210 254
180 210 254
180 210 254
180 210 254
180 210 254
179 209 254
179 209 254
179 209 254
179 209 254
179 209 254
179 209 254
179 209 254
179 209 254
179 209 254
179 209 254
179 209 254
179 209 254
179 209 254
179 209 254
179 209 254
179 209 254
179 209 254
179 209 254
179 209 254
179 209 254
179 209 254
173 203 247
30 36 44
11 14 18
11 14 18
11 13 17
11 14 17
13 16 20
12 15 19
12 15 19
12 15 19
11 14 18
11 14 18
12 14 18
12 15 20
11 14 18
12 15 19
11 14 18
10 13 16
11 14 18
10 13 16
12 14 18
12 14 19
13 16 21
11 13 17
11 14 18
11 13 17
12 15 19
11 14 18
11 13 18
12 14 18
11 14 18
11 14 18
13 16 20
10 13 16
11 14 18
12 15 19
12 15 19
12 14 18
11 14 18
12 15 19
12 15 19
10 13 16
12 14 18
12 14 18
10 13 17
12 15 19
10 13 16
11 14 18
11 13 17
10 13 16
10 13 16
11 13 17
12 14 19
12 14 19
11 14 18
11 14 18
11 14 18
11 13 17
10 12 15
11 13 17
12 15 20
10 13 16
12 14 18
11 14 18
11 14 18
11 14 17
11 14 18
11 14 18
13 16 20
12 14 18
11 13 17
12 14 19
12 15 19
10 12 16
12 15 19
11 13 16
12 15 19
10 12 16
13 16 20
11 14 17
10 12 16
10 12 16
12 15 19
12 14 19
10 13 16
11 13 17
11 14 18
12 14 18
11 13 17
13 15 20
11 14 18
13 16 20
10 13 16
12 15 19
11 14 18
11 14 18
11 14 17
13 15 19
12 14 19
11 14 17
12 15 19
12 14 19
10 13 17
12 15 19
12 14 18
10 13 17
12 14 18
12 14 18
11 13 17
11 14 18
12 15 19
12 14 19
12 15 19
11 14 19
12 15 19
12 15 19
12 14 19
12 15 19
12 15 19
12 15 19
28 34 42
177 207 252
179 209 254
179 209 254
179 209 254
179 209 254
179 209 254
179 209 254
179 209 254
179 209 254
179 209 254
179 209 254
179 209 254
179 209 254
179 209 254
179 209 254
179 209 254
179 209 254
179 209 254
179 209 254
179 209 254
179 209 254
179 209 254
180 210 254
180 210 254
180 210 254
180 210 254
180 210 254
180 210 254
180 210 254
180 210 254
180 210 254
180 210 254
180 210 254
180 210 254
180 210 254
180 210 254
180 210 254
180 210 254
180 210 254
180 210 254
180 210 254
180 210 254
180 210 254
180 210 254
180 210 254
181 210 254
181 210 254
181 210 254
181 210 254
181 210 254
181 210 254
181 210 254
181 210 254
181 210 254
181 210 254
181 210 254
181 210 254
181 210 254
181 210 254
181 211 254
181 211 254
181 211 254
181 211 254
181 211 254
181 211 254
181 211 254
181 211 254
181 211 254
182 211 254
182 211 254
182 211 254
182 211 254
182 211 254
182 211 254
182 211 254
182 211 254
182 211 254
182 211 254
182 211 254
182 211 254
182 211 254
182 211 254
182 211 254
182 211 254
182 211 254
182 211 254
182 211 254
182 211 254
182 211 254
182 211 254
182 211 254
182 211 254
182 211 254
182 211 254
182 211 254
183 211 254
183 211 254
183 211 254
183 211 254
183 211 254
183 211 254
183 211 254
183 211 254
183 211 254
183 211 254
183 212 254
183 212 254
183 212 254
183 212 254
183 212 254
183 212 254
183 212 254
183 212 254
183 212 254
183 212 254
183 212 254
183 212 254
183 212 254
183 212 254
183 212 254
183 212 254
183 212 254
183 212 254
183 212 254
183 212 254
183 212 254
183 212 254
183 212 254
184 212 254
184 212 254
184 212 254
184 212 254
184 212 254
184 212 254
184 212 254
184 212 254
184 212 254
184 212 254
184 212 254
184 212 254
184 212 254
184 212 254
184 212 254
184 212 254
184 212 254
184 212 254
184 212 254
184 212 254
184 212 254
184 212 254
184 212 254
184 212 254
184 212 254
184 212 254
184 212 254
184 212 254
184 212 254
184 212 254
184 212 254
184 212 254
184 212 254
184 212 254
184 212 254
183 212 254
183 212 254
183 212 254
183 212 254
183 212 254
183 212 254
183 212 254
183 212 254
183 212 254
183 212 254
183 212 254
183 212 254
183 212 254
183 212 254
183 212 254
183 212 254
183 212 254
183 212 254
183 212 254
183 212 254
183 212 254
183 212 254
183 211 254
183 211 254
183 211 254
183 211 254
183 211 254
183 211 254
183 211 254
183 211 254
183 211 254
183 211 254
182 211 254
182 211 254
182 211 254
182 211 254
182 211 254
182 211 254
182 211 254
182 211 254
182 211 254
182 211 254
182 211 254
182 211 254
182 211 254
182 211 254
182 211 254
182 211 254
182 211 254
182 211 254
182 211 254
182 211 254
182 211 254
182 211 254
182 211 254
182 211 254
182 211 254
182 211 254
181 211 254
181 211 254
181 211 254
181 211 254
181 211 254
181 211 254
181 211 254
181 211 254
181 210 254
181 210 254
181 210 254
181 210 254
181 210 254
181 210 254
181 210 254
181 210 254
181 210 254
181 210 254
181 210 254
181 210 254
181 210 254
181 210 254
181 210 254
181 210 254
180 210 254
180 210 254
180 210 254
180 210 254
180 210 254
180 210 254
180 210 254
180 210 254
180 210 254
180 210 254
180 210 254
180 210 254
180 210 254
180 210 254
180 210 254
180 210 254
180 210 254
180 210 254
180 210 254
180 210 254
180 210 254
180 210 254
180 210 254
179 209 254
179 209 254
179 209 254
179 209 254
179 209 254
179 209 254
179 209 254
179 209 254
179 209 254
179 209 254
179 209 254
121 141 172
11 14 18
12 15 20
11 13 17
11 13 17
12 14 19
11 14 18
12 15 19
12 15 19
11 13 17
11 14 18
11 14 18
12 15 19
12 14 18
12 14 19
10 13 17
11 14 18
12 14 19
12 15 19
11 14 17
12 14 18
12 15 19
12 14 19
11 14 18
11 14 18
11 14 18
13 15 20
10 12 16
10 13 17
11 14 18
10 12 16
11 14 18
10 13 17
11 13 17
11 14 18
10 12 16
11 14 18
12 15 19
11 14 18
11 14 17
11 13 17
11 13 17
11 14 18
12 14 19
11 13 17
11 14 17
11 14 18
11 14 18
11 13 16
11 14 18
11 14 17
11 14 18
11 14 17
11 14 18
10 12 16
10 13 17
11 14 18
10 12 16
11 14 18
11 14 18
12 14 18
10 13 16
10 13 17
10 13 16
11 14 18
10 13 17
12 14 19
10 12 15
11 14 18
11 14 18
12 14 18
11 14 18
11 13 17
11 13 17
12 14 18
10 13 16
12 15 19
10 12 16
12 14 19
10 13 16
11 13 17
11 14 18
11 13 17
12 14 19
12 15 19
11 13 17
10 12 16
10 13 17
10 13 16
11 14 17
11 14 18
11 13 17
11 14 17
11 14 18
12 15 19
11 14 17
11 13 17
12 15 19
10 13 16
11 14 18
13 16 20
12 14 18
12 14 19
12 15 19
12 15 19
10 13 17
12 15 19
12 15 19
10 12 16
11 14 18
11 13 17
9 12 15
12 15 19
12 15 19
11 14 18
11 14 17
10 13 16
11 14 18
13 15 20
12 15 19
12 15 19
122 143 174
179 209 254
179 209 254
179 209 254
179 209 254
179 209 254
179 209 254
179 209 254
179 209 254
179 209 254
179 209 254
179 209 254
180 210 254
180 210 254
180 210 254
180 210 254
180 210 254
180 210 254
180 210 254
180 210 254
180 210 254
180 210 254
180 210 254
180 210 254
180 210 254
180 210 254
180 210 254
180 210 254
180 210 254
180 210 254
180 210 254
180 210 254
180 210 254
180 210 254
180 210 254
180 210 254
181 210 254
181 210 254
181 210 254
181 210 254
181 210 254
181 210 254
181 210 254
181 210 254
181 210 254
181 210 254
181 210 254
181 210 254
181 210 254
181 210 254
181 210 254
181 211 254
181 211 254
181 211 254
181 211 254
181 211 254
181 211 254
181 211 254
181 211 254
182 211 254
182 211 254
182 211 254
182 211 254
182 211 254
182 211 254
182 211 254
182 211 254
182 211 254
182 211 254
182 211 254
182 211 254
182 211 254
182 211 254
182 211 254
182 211 254
182 211 254
182 211 254
182 211 254
182 211 254
182 211 254
182 211 254
182 211 254
182 211 254
182 211 254
182 211 254
182 211 254
183 211 254
183 211 254
183 211 254
183 211 254
183 211 254
183 211 254
183 211 254
183 211 254
183 211 254
183 212 254
183 212 254
183 212 254
183 212 254
183 212 254
183 212 254
183 212 254
183 212 254
183 212 254
183 212 254
183 212 254
183 212 254
183 212 254
183 212 254
183 212 254
183 212 254
183 212 254
183 212 254
183 212 254
183 212 254
183 212 254
184 212 254
184 212 254
184 212 254
184 212 254
184 212 254
184 212 254
184 212 254
184 212 254
184 212 254
184 212 254
184 212 254
184 212 254
184 212 254
184 212 254
184 212 254
184 212 254
184 212 254
184 212 254
184 212 254
184 212 254
184 212 254
184 212 254
184 212 254
184 212 254
184 212 254
184 212 254
184 212 254
184 212 254
184 212 254
184 212 254
184 212 254
184 212 254
184 212 254
184 212 254
184 212 254
184 212 254
184 212 254
184 212 254
184 212 254
184 212 254
184 212 254
184 212 254
184 212 254
184 212 254
184 212 254
184 212 254
184 212 254
184 212 254
184 212 254
184 212 254
184 212 254
184 212 254
184 212 254
184 212 254
184 212 254
184 212 254
184 212 254
184 212 254
183 212 254
183 212 254
183 212 254
183 212 254
183 212 254
183 212 254
183 212 254
183 212 254
183 212 254
183 212 254
183 212 254
183 212 254
183 212 254
183 212 254
183 212 254
183 212 254
183 212 254
183 212 254
183 212 254
183 212 254
183 212 254
183 211 254
183 211 254
183 211 254
183 211 254
183 211 254
183 211 254
183 211 254
183 211 254
183 211 254
182 211 254
182 211 254
182 211 254
182 211 254
182 211 254
182 211 254
182 211 254
182 211 254
182 211 254
182 211 254
182 211 254
182 211 254
182 211 254
182 211 254
182 211 254
182 211 254
182 211 254
182 211 254
182 211 254
182 211 254
182 211 254
182 211 254
182 211 254
182 211 254
182 211 254
182 211 254
181 211 254
181 211 254
181 211 254
181 211 254
181 211 254
181 211 254
181 211 254
181 211 254
181 211 254
181 210 254
181 210 254
181 210 254
181 210 254
181 210 254
181 210 254
181 210 254
181 210 254
181 210 254
181 210 254
181 210 254
181 210 254
181 210 254
181 210 254
181 210 254
181 210 254
180 210 254
180 210 254
180 210 254
180 210 254
180 210 254
180 210 254
180 210 254
180 210 254
180 210 254
180 210 254
180 210 254
180 210 254
180 210 254
180 210 254
180 210 254
180 210 254
180 210 254
180 210 254
180 210 254
180 210 254
180 210 254
180 210 254
180 210 254
179 209 254
51 60 74
12 15 19
12 14 19
12 15 19
11 13 17
12 15 19
11 13 17
11 14 18
10 13 17
12 15 19
12 14 19
10 13 16
11 13 17
11 14 18
11 13 17
12 15 19
12 15 19
11 14 18
11 14 18
11 14 18
11 14 18
12 14 18
11 14 18
12 15 19
12 15 19
11 13 18
11 13 17
11 14 18
11 13 17
10 13 16
12 15 20
11 14 18
12 14 18
12 15 19
11 14 18
12 15 19
11 13 17
11 14 18
11 13 17
10 12 16
12 15 19
11 14 18
11 14 18
10 12 16
11 14 18
12 14 18
10 12 16
11 13 17
11 14 17
10 12 16
11 14 18
12 15 19
10 13 17
12 15 20
11 13 17
10 13 16
11 14 18
11 13 17
11 13 17
11 13 17
12 14 18
11 14 18
10 12 15
11 13 17
10 12 16
12 14 18
9 11 15
12 15 19
13 16 20
9 12 15
11 13 17
13 16 20
10 13 16
12 14 19
12 14 19
12 15 19
12 15 19
11 14 18
12 14 18
11 13 17
11 13 17
10 13 16
11 13 17
11 14 17
10 13 16
11 13 16
10 12 16
10 13 17
10 13 16
10 12 15
12 14 18
11 13 17
12 15 19
11 14 18
12 15 19
11 13 17
10 12 16
12 15 19
12 14 19
13 16 20
11 14 18
11 13 16
12 15 19
11 13 17
11 14 18
11 13 17
12 14 18
11 14 17
11 13 17
11 14 18
12 14 19
12 15 19
11 14 18
12 15 19
11 13 17
10 13 16
11 14 18
11 14 18
12 15 19
12 14 19
11 14 19
58 69 84
179 209 254
180 210 254
180 210 254
180 210 254
180 210 254
180 210 254
180 210 254
180 210 254
180 210 254
180 210 254
180 210 254
180 210 254
180 210 254
180 210 254
180 210 254
180 210 254
180 210 254
180 210 254
180 210 254
180 210 254
180 210 254
180 210 254
180 210 254
180 210 254
181 210 254
181 210 254
181 210 254
181 210 254
181 210 254
181 210 254
181 210 254
181 210 254
181 210 254
181 210 254
181 210 254
181 210 254
181 210 254
181 210 254
181 210 254
181 210 254
181 210 254
181 211 254
181 211 254
181 211 254
181 211 254
181 211 254
181 211 254
181 211 254
182 211 254
182 211 254
182 211 254
182 211 254
182 211 254
182 211 254
182 211 254
182 211 254
182 211 254
182 211 254
182 211 254
182 211 254
182 211 254
182 211 254
182 211 254
182 211 254
182 211 254
182 211 254
182 211 254
182 211 254
182 211 254
182 211 254
182 211 254
182 211 254
182 211 254
182 211 254
182 211 254
183 211 254
183 211 254
183 211 254
183 211 254
183 211 254
183 211 254
183 211 254
183 211 254
183 211 254
183 211 254
183 212 254
183 212 254
183 212 254
183 212 254
183 212 254
183 212 254
183 212 254
183 212 254
183 212 254
183 212 254
183 212 254
183 212 254
183 212 254
183 212 254
183 212 254
183 212 254
183 212 254
183 212 254
183 212 254
183 212 254
184 212 254
184 212 254
184 212 254
184 212 254
184 212 254
184 212 254
184 212 254
184 212 254
184 212 254
184 212 254
184 212 254
184 212 254
184 212 254
184 212 254
184 212 254
184 212 254
184 212 254
184 212 254
184 212 254
184 212 254
184 212 254
184 212 254
184 212 254
184 212 254
184 212 254
184 212 254
184 212 254
184 212 254
184 212 254
184 212 254
184 212 254
184 212 254
184 212 254
184 212 254
185 213 254
185 213 254
185 213 254
185 213 254
185 213 254
185 213 254
185 213 254
184 212 254
184 212 254
184 212 254
184 212 254
184 212 254
184 212 254
184 212 254
184 212 254
184 212 254
184 212 254
184 212 254
184 212 254
184 212 254
184 212 254
184 212 254
184 212 254
184 212 254
184 212 254
184 212 254
184 212 254
184 212 254
184 212 254
184 212 254
184 212 254
184 212 254
184 212 254
184 212 254
184 212 254
184 212 254
184 212 254
184 212 254
184 212 254
184 212 254
184 212 254
184 212 254
184 212 254
184 212 254
183 212 254
183 212 254
183 212 254
183 212 254
183 212 254
183 212 254
183 212 254
183 212 254
183 212 254
183 212 254
183 212 254
183 212 254
183 212 254
183 212 254
183 212 254
183 212 254
183 212 254
183 212 254
183 212 254
183 212 254
183 212 254
183 211 254
183 211 254
183 211 254
183 211 254
183 211 254
183 211 254
183 211 254
183 211 254
183 211 254
182 211 254
182 211 254
182 211 254
182 211 254
182 211 254
182 211 254
182 211 254
182 211 254
182 211 254
182 211 254
182 211 254
182 211 254
182 211 254
182 211 254
182 211 254
182 211 254
182 211 254
182 211 254
182 211 254
182 211 254
182 211 254
182 211 254
182 211 254
182 211 254
182 211 254
182 211 254
181 211 254
181 211 254
181 211 254
181 211 254
181 211 254
181 211 254
181 211 254
181 211 254
181 210 254
181 210 254
181 210 254
181 210 254
181 210 254
181 210 254
181 210 254
181 210 254
181 210 254
181 210 254
181 210 254
181 210 254
181 210 254
181 210 254
181 210 254
181 210 254
181 210 254
180 210 254
180 210 254
180 210 254
180 210 254
180 210 254
180 210 254
180 210 254
180 210 254
180 210 254
180 210 254
180 210 254
180 210 254
180 210 254
165 192 233
13 16 21
12 15 20
11 14 18
12 15 19
12 15 20
11 13 17
11 14 18
11 13 17
11 14 18
12 14 19
12 15 19
11 14 18
10 12 16
12 15 19
12 15 19
12 14 19
12 15 20
11 14 18
11 13 17
10 12 16
10 13 16
11 14 18
12 15 19
10 12 15
11 13 17
11 14 18
11 14 18
12 14 18
11 14 18
11 13 17
12 15 19
10 13 16
12 14 18
11 13 17
11 14 18
10 13 16
12 15 19
10 13 16
12 15 19
12 14 18
13 16 20
11 14 17
11 13 17
11 14 18
10 13 17
11 13 17
12 14 18
11 14 19
10 13 16
11 13 16
10 12 16
12 15 19
11 14 17
10 13 16
12 15 19
11 14 18
11 14 17
10 13 17
11 13 17
11 14 17
13 16 20
11 14 18
11 14 18
11 14 18
10 12 15
11 14 17
11 13 17
12 15 19
11 14 18
10 12 16
10 12 15
9 11 15
11 13 17
12 15 20
11 13 17
11 13 17
11 14 17
10 13 17
11 13 17
11 13 17
11 13 17
11 13 17
10 12 16
12 14 18
10 13 16
10 12 16
12 14 18
11 13 17
12 14 18
10 13 16
11 14 18
10 13 17
11 13 17
11 14 18
12 14 18
11 14 18
11 14 18
10 12 16
10 12 15
11 14 18
11 13 17
11 14 18
11 14 18
12 15 19
11 13 17
11 13 17
11 14 18
11 14 18
12 15 19
11 13 17
11 13 17
11 13 17
11 14 18
11 14 18
11 14 18
10 13 16
11 14 18
12 14 19
11 14 18
12 15 19
12 14 18
14 17 22
165 192 234
180 210 254
180 210 254
180 210 254
180 210 254
180 210 254
180 210 254
180 210 254
180 210 254
180 210 254
180 210 254
180 210 254
180 210 254
180 210 254
181 210 254
181 210 254
181 210 254
181 210 254
181 210 254
181 210 254
181 210 254
181 210 254
181 210 254
181 210 254
181 210 254
181 210 254
181 210 254
181 210 254
181 210 254
181 210 254
181 211 254
181 211 254
181 211 254
181 211 254
181 211 254
181 211 254
181 211 254
181 211 254
182 211 254
182 211 254
182 211 254
182 211 254
182 211 254
182 211 254
182 211 254
182 211 254
182 211 254
182 211 254
182 211 254
182 211 254
182 211 254
182 211 254
182 211 254
182 211 254
182 211 254
182 211 254
182 211 254
182 211 254
182 211 254
182 211 254
182 211 254
182 211 254
182 211 254
182 211 254
182 211 254
183 211 254
183 211 254
183 211 254
183 211 254
183 211 254
183 211 254
183 211 254
183 211 254
183 211 254
183 212 254
183 212 254
183 212 254
183 212 254
183 212 254
183 212 254
183 212 254
183 212 254
183 212 254
183 212 254
183 212 254
183 212 254
183 212 254
183 212 254
183 212 254
183 212 254
183 212 254
183 212 254
183 212 254
183 212 254
183 212 254
184 212 254
184 212 254
184 212 254
184 212 254
184 212 254
184 212 254
184 212 254
184 212 254
184 212 254
184 212 254
184 212 254
184 212 254
184 212 254
184 212 254
184 212 254
184 212 254
184 212 254
184 212 254
184 212 254
184 212 254
184 212 254
184 212 254
184 212 254
184 212 254
184 212 254
184 212 254
184 212 254
184 212 254
184 212 254
184 212 254
184 212 254
184 212 254
184 212 254
184 212 254
184 212 254
184 212 254
185 213 254
185 213 254
185 213 254
185 213 254
185 213 254
185 213 254
185 213 254
185 213 254
185 213 254
185 213 254
185 213 254
185 213 254
185 213 254
185 213 254
185 213 254
185 213 254
185 213 254
185 213 254
185 213 254
185 213 254
185 213 254
185 213 254
185 213 254
185 213 254
185 213 254
185 213 254
185 213 254
184 212 254
184 212 254
184 212 254
184 212 254
184 212 254
184 212 254
184 212 254
184 212 254
184 212 254
184 212 254
184 212 254
184 212 254
184 212 254
184 212 254
184 212 254
184 212 254
184 212 254
184 212 254
184 212 254
184 212 254
184 212 254
184 212 254
184 212 254
184 212 254
184 212 254
184 212 254
184 212 254
184 212 254
184 212 254
184 212 254
184 212 254
184 212 254
184 212 254
184 212 254
184 212 254
184 212 254
183 212 254
183 212 254
183 212 254
183 212 254
183 212 254
183 212 254
183 212 254
183 212 254
183 212 254
183 212 254
183 212 254
183 212 254
183 212 254
183 212 254
183 212 254
183 212 254
183 212 254
183 212 254
183 212 254
183 212 254
183 212 254
183 211 254
183 211 254
183 211 254
183 211 254
183 211 254
183 211 254
183 211 254
183 211 254
183 211 254
182 211 254
182 211 254
182 211 254
182 211 254
182 211 254
182 211 254
182 211 254
182 211 254
182 211 254
182 211 254
182 211 254
182 211 254
182 211 254
182 211 254
182 211 254
182 211 254
182 211 254
182 211 254
182 211 254
182 211 254
182 211 254
182 211 254
182 211 254
182 211 254
182 211 254
182 211 254
181 211 254
181 211 254
181 211 254
181 211 254
181 211 254
181 211 254
181 211 254
181 211 254
181 211 254
181 210 254
181 210 254
181 210 254
181 210 254
181 210 254
181 210 254
181 210 254
181 210 254
181 210 254
181 210 254
181 210 254
181 210 254
181 210 254
181 210 254
181 210 254
181 210 254
181 210 254
180 210 254
101 118 144
12 15 19
12 15 19
12 15 19
13 16 20
12 14 18
11 13 17
10 13 17
11 14 18
11 14 18
11 14 17
11 14 18
11 13 17
11 14 18
12 15 19
11 14 18
11 14 18
10 13 16
11 14 18
11 14 18
10 12 16
12 14 18
10 12 16
10 13 16
11 14 18
12 15 19
10 13 17
12 14 18
10 13 17
12 14 18
11 14 18
11 14 17
10 12 16
12 15 19
11 13 17
11 14 18
11 14 18
11 14 18
12 14 18
11 14 18
12 14 18
11 13 17
11 14 18
12 14 18
11 14 18
11 13 17
10 13 17
11 13 17
12 14 18
9 11 15
11 13 17
11 13 17
12 14 18
11 14 18
10 12 16
10 13 16
11 14 18
10 12 16
11 13 16
10 13 17
12 15 19
10 13 16
11 14 18
11 14 18
11 14 18
12 14 18
12 15 19
11 13 16
11 14 17
11 13 16
11 14 18
11 13 16
11 13 17
12 15 19
12 14 18
11 14 18
11 13 17
10 12 16
10 13 16
11 14 17
11 13 17
10 13 16
12 14 18
12 15 19
12 14 18
11 13 17
11 14 18
11 14 18
11 14 18
10 13 17
11 14 18
10 13 16
11 14 18
10 13 16
11 14 18
11 14 18
10 12 16
12 14 19
10 13 16
12 15 19
11 13 17
10 12 16
11 13 17
11 14 17
11 13 16
10 13 17
12 15 19
11 13 17
11 13 17
11 14 18
12 14 18
11 14 18
12 14 18
10 12 16
11 14 18
11 14 18
10 13 16
11 14 18
10 13 17
11 14 18
12 14 18
13 16 21
11 13 17
104 122 148
180 210 254
181 210 254
181 210 254
181 210 254
181 210 254
181 210 254
181 210 254
181 210 254
181 210 254
181 210 254
181 210 254
181 210 254
181 210 254
181 210 254
181 210 254
181 210 254
181 210 254
181 211 254
181 211 254
181 211 254
181 211 254
181 211 254
181 211 254
181 211 254
181 211 254
181 211 254
181 211 254
182 211 254
182 211 254
182 211 254
182 211 254
182 211 254
182 211 254
182 211 254
182 211 254
182 211 254
182 211 254
182 211 254
182 211 254
182 211 254
182 211 254
182 211 254
182 211 254
182 211 254
182 211 254
182 211 254
182 211 254
182 211 254
182 211 254
182 211 254
182 211 254
182 211 254
182 211 254
183 211 254
183 211 254
183 211 254
183 211 254
183 211 254
183 211 254
183 211 254
183 211 254
183 211 254
183 211 254
183 212 254
183 212 254
183 212 254
183 212 254
183 212 254
183 212 254
183 212 254
183 212 254
183 212 254
183 212 254
183 212 254
183 212 254
183 212 254
183 212 254
183 212 254
183 212 254
183 212 254
183 212 254
183 212 254
183 212 254
184 212 254
184 212 254
184 212 254
184 212 254
184 212 254
184 212 254
184 212 254
184 212 254
184 212 254
184 212 254
184 212 254
184 212 254
184 212 254
184 212 254
184 212 254
184 212 254
184 212 254
184 212 254
184 212 254
184 212 254
184 212 254
184 212 254
184 212 254
184 212 254
184 212 254
184 212 254
184 212 254
184 212 254
184 212 254
184 212 254
184 212 254
184 212 254
184 212 254
184 212 254
184 212 254
184 212 254
185 213 254
185 213 254
185 213 254
185 213 254
185 213 254
185 213 254
185 213 254
185 213 254
185 213 254
185 213 254
185 213 254
185 213 254
185 213 254
185 213 254
185 213 254
185 213 254
185 213 254
185 213 254
185 213 254
185 213 254
185 213 254
185 213 254
185 213 254
185 213 254
185 213 254
185 213 254
185 213 254
185 213 254
185 213 254
185 213 254
185 213 254
185 213 254
185 213 254
185 213 254
185 213 254
185 213 254
185 213 254
185 213 254
185 213 254
185 213 254
185 213 254
185 213 254
185 213 254
185 213 254
185 213 254
185 213 254
185 213 254
185 213 254
185 213 254
185 213 254
184 212 254
184 212 254
184 212 254
184 212 254
184 212 254
184 212 254
184 212 254
184 212 254
184 212 254
184 212 254
184 212 254
184 212 254
184 212 254
184 212 254
184 212 254
184 212 254
184 212 254
184 212 254
184 212 254
184 212 254
184 212 254
184 212 254
184 212 254
184 212 254
184 212 254
184 212 254
184 212 254
184 212 254
184 212 254
184 212 254
184 212 254
184 212 254
184 212 254
184 212 254
184 212 254
183 212 254
183 212 254
183 212 254
183 212 254
183 212 254
183 212 254
183 212 254
183 212 254
183 212 254
183 212 254
183 212 254
183 212 254
183 212 254
183 212 254
183 212 254
183 212 254
183 212 254
183 212 254
183 212 254
183 212 254
183 211 254
183 211 254
183 211 254
183 211 254
183 211 254
183 211 254
183 211 254
183 211 254
183 211 254
183 211 254
182 211 254
182 211 254
182 211 254
182 211 254
182 211 254
182 211 254
182 211 254
182 211 254
182 211 254
182 211 254
182 211 254
182 211 254
182 211 254
182 211 254
182 211 254
182 211 254
182 211 254
182 211 254
182 211 254
182 211 254
182 211 254
182 211 254
182 211 254
182 211 254
182 211 254
182 211 254
181 211 254
181 211 254
181 211 254
181 211 254
181 211 254
181 211 254
181 211 254
181 211 254
181 211 254
181 210 254
181 210 254
181 210 254
181 210 254
181 210 254
181 210 254
181 210 254
35 42 51
10 13 17
11 14 18
11 14 18
11 14 18
12 15 19
10 13 16
10 13 17
11 14 17
11 14 18
11 13 17
11 14 18
11 14 18
10 12 16
12 14 18
10 13 16
11 13 17
11 13 16
11 13 17
12 15 19
10 12 16
11 14 18
12 14 18
12 15 20
11 14 18
12 15 19
12 15 19
12 15 19
12 15 19
12 15 19
11 13 17
11 14 17
11 14 18
11 13 17
11 14 18
12 15 19
12 14 18
12 15 19
11 13 17
11 13 17
11 14 17
11 13 17
9 12 15
11 14 18
11 14 18
10 12 16
11 14 18
11 13 17
11 14 17
11 14 18
11 13 17
9 11 14
10 13 16
13 15 19
9 12 15
10 12 16
10 12 16
10 12 16
12 15 19
11 14 17
11 14 18
10 12 16
12 15 19
10 12 16
11 14 17
10 13 16
10 13 16
11 13 17
11 13 17
9 12 15
12 14 19
11 13 17
10 13 16
10 13 16
13 16 20
12 15 19
11 13 17
11 14 18
11 14 18
11 13 17
11 14 17
11 13 16
11 14 18
11 14 17
9 11 15
10 12 15
10 13 16
11 14 18
12 15 19
11 14 18
12 14 18
11 13 17
10 12 15
11 13 17
11 14 18
10 13 16
11 14 18
10 12 15
10 13 17
12 15 19
12 15 19
10 12 16
10 13 16
11 14 18
9 12 15
10 12 16
12 14 18
11 13 17
11 14 18
11 13 17
11 14 19
11 14 18
11 13 16
12 15 19
12 14 19
11 13 17
11 14 18
11 14 18
11 13 17
12 14 18
11 13 17
12 15 19
12 15 19
42 50 61
181 210 254
181 210 254
181 210 254
181 210 254
181 210 254
181 210 254
181 210 254
181 211 254
181 211 254
181 211 254
181 211 254
181 211 254
181 211 254
181 211 254
181 211 254
182 211 254
182 211 254
182 211 254
182 211 254
182 211 254
182 211 254
182 211 254
182 211 254
182 211 254
182 211 254
182 211 254
182 211 254
182 211 254
182 211 254
182 211 254
182 211 254
182 211 254
182 211 254
182 211 254
182 211 254
182 211 254
182 211 254
182 211 254
182 211 254
182 211 254
182 211 254
182 211 254
183 211 254
183 211 254
183 211 254
183 211 254
183 211 254
183 211 254
183 211 254
183 211 254
183 211 254
183 212 254
183 212 254
183 212 254
183 212 254
183 212 254
183 212 254
183 212 254
183 212 254
183 212 254
183 212 254
183 212 254
183 212 254
183 212 254
183 212 254
183 212 254
183 212 254
183 212 254
183 212 254
183 212 254
183 212 254
183 212 254
184 212 254
184 212 254
184 212 254
184 212 254
184 212 254
184 212 254
184 212 254
184 212 254
184 212 254
184 212 254
184 212 254
184 212 254
184 212 254
184 212 254
184 212 254
184 212 254
184 212 254
184 212 254
184 212 254
184 212 254
184 212 254
184 212 254
184 212 254
184 212 254
184 212 254
184 212 254
184 212 254
184 212 254
184 212 254
184 212 254
184 212 254
184 212 254
184 212 254
184 212 254
184 212 254
184 212 254
185 213 254
185 213 254
185 213 254
185 213 254
185 213 254
185 213 254
185 213 254
185 213 254
185 213 254
185 213 254
185 213 254
185 213 254
185 213 254
185 213 254
185 213 254
185 213 254
185 213 254
185 213 254
185 213 254
185 213 254
185 213 254
185 213 254
185 213 254
185 213 254
185 213 254
185 213 254
185 213 254
185 213 254
185 213 254
185 213 254
185 213 254
185 213 254
185 213 254
185 213 254
185 213 254
185 213 254
185 213 254
185 213 254
185 213 254
185 213 254
185 213 254
185 213 254
185 213 254
185 213 254
185 213 254
185 213 254
185 213 254
185 213 254
185 213 254
185 213 254
185 213 254
185 213 254
185 213 254
185 213 254
185 213 254
185 213 254
185 213 254
185 213 254
185 213 254
185 213 254
185 213 254
185 213 254
185 213 254
185 213 254
185 213 254
185 213 254
185 213 254
185 213 254
185 213 254
185 213 254
185 213 254
185 213 254
185 213 254
184 212 254
184 212 254
184 212 254
184 212 254
184 212 254
184 212 254
184 212 254
184 212 254
184 212 254
184 212 254
184 212 254
184 212 254
184 212 254
184 212 254
184 212 254
184 212 254
184 212 254
184 212 254
184 212 254
184 212 254
184 212 254
184 212 254
184 212 254
184 212 254
184 212 254
184 212 254
184 212 254
184 212 254
184 212 254
184 212 254
184 212 254
184 212 254
184 212 254
184 212 254
183 212 254
183 212 254
183 212 254
183 212 254
183 212 254
183 212 254
183 212 254
183 212 254
183 212 254
183 212 254
183 212 254
183 212 254
183 212 254
183 212 254
183 212 254
183 212 254
183 212 254
183 212 254
183 212 254
183 212 254
183 212 254
183 211 254
183 211 254
183 211 254
183 211 254
183 211 254
183 211 254
183 211 254
183 211 254
183 211 254
183 211 254
182 211 254
182 211 254
182 211 254
182 211 254
182 211 254
182 211 254
182 211 254
182 211 254
182 211 254
182 211 254
182 211 254
182 211 254
182 211 254
182 211 254
182 211 254
182 211 254
182 211 254
182 211 254
182 211 254
182 211 254
182 211 254
182 211 254
182 211 254
182 211 254
182 211 254
182 211 254
182 211 254
181 211 254
181 211 254
168 195 235
10 13 16
10 13 17
11 14 17
12 15 19
12 15 19
10 12 16
12 15 19
11 13 17
10 12 15
11 14 17
11 14 18
11 14 17
12 15 19
11 14 17
12 14 18
11 14 18
11 14 18
12 15 19
11 13 17
12 14 19
10 13 16
11 13 17
10 13 16
11 13 17
12 15 19
10 13 16
12 14 19
12 15 19
10 12 16
11 13 17
13 15 19
11 13 17
10 12 15
10 12 16
10 13 17
12 15 19
11 14 18
12 14 18
11 13 17
10 12 16
11 13 17
11 14 18
11 13 17
12 14 18
10 13 16
11 13 17
10 12 16
10 13 16
10 12 16
12 14 18
10 12 16
11 14 17
12 14 18
12 15 19
11 14 18
10 13 17
10 12 15
11 14 17
10 12 16
10 13 16
10 12 16
11 13 17
11 13 17
11 14 17
11 14 17
11 14 18
10 13 16
10 13 16
10 12 15
11 14 17
11 14 17
10 12 15
10 12 15
11 14 18
11 14 18
10 12 16
11 13 17
11 13 17
11 13 17
10 13 16
11 13 16
11 14 17
11 14 18
11 13 17
11 14 18
12 14 19
11 13 17
10 13 16
11 13 17
11 13 17
11 14 18
12 15 19
12 15 19
11 14 18
10 12 16
10 13 17
11 14 18
11 14 19
11 14 18
10 12 16
11 13 17
11 14 17
11 13 17
10 13 17
11 14 18
11 14 18
11 14 18
9 11 15
10 12 15
12 15 19
10 12 16
11 13 17
10 12 16
10 12 16
11 14 18
12 15 19
11 14 18
11 13 16
11 13 17
12 15 19
10 12 16
10 13 16
13 16 20
11 14 18
151 176 213
181 211 254
182 211 254
182 211 254
182 211 254
182 211 254
182 211 254
182 211 254
182 211 254
182 211 254
182 211 254
182 211 254
182 211 254
182 211 254
182 211 254
182 211 254
182 211 254
182 211 254
182 211 254
182 211 254
182 211 254
182 211 254
182 211 254
182 211 254
182 211 254
182 211 254
182 211 254
182 211 254
182 211 254
182 211 254
183 211 254
183 211 254
183 211 254
183 211 254
183 211 254
183 211 254
183 211 254
183 211 254
183 211 254
183 211 254
183 212 254
183 212 254
183 212 254
183 212 254
183 212 254
183 212 254
183 212 254
183 212 254
183 212 254
183 212 254
183 212 254
183 212 254
183 212 254
183 212 254
183 212 254
183 212 254
183 212 254
183 212 254
183 212 254
183 212 254
183 212 254
184 212 254
184 212 254
184 212 254
184 212 254
184 212 254
184 212 254
184 212 254
184 212 254
184 212 254
184 212 254
184 212 254
184 212 254
184 212 254
184 212 254
184 212 254
184 212 254
184 212 254
184 212 254
184 212 254
184 212 254
184 212 254
184 212 254
184 212 254
184 212 254
184 212 254
184 212 254
184 212 254
184 212 254
184 212 254
184 212 254
184 212 254
184 212 254
184 212 254
184 212 254
185 213 254
185 213 254
185 213 254
185 213 254
185 213 254
185 213 254
185 213 254
185 213 254
185 213 254
185 213 254
185 213 254
185 213 254
185 213 254
185 213 254
185 213 254
185 213 254
185 213 254
185 213 254
185 213 254
185 213 254
185 213 254
185 213 254
185 213 254
185 213 254
185 213 254
185 213 254
185 213 254
185 213 254
185 213 254
185 213 254
185 213 254
185 213 254
185 213 254
185 213 254
185 213 254
185 213 254
185 213 254
185 213 254
185 213 254
185 213 254
185 213 254
185 213 254
185 213 254
186 213 254
186 213 254
186 213 254
186 213 254
186 213 254
186 213 254
186 213 254
186 213 254
186 213 254
186 213 254
186 213 254
186 213 254
186 213 254
185 213 254
185 213 254
185 213 254
185 213 254
185 213 254
185 213 254
185 213 254
185 213 254
185 213 254
185 213 254
185 213 254
185 213 254
185 213 254
185 213 254
185 213 254
185 213 254
185 213 254
185 213 254
185 213 254
185 213 254
185 213 254
185 213 254
185 213 254
185 213 254
185 213 254
185 213 254
185 213 254
185 213 254
185 213 254
185 213 254
185 213 254
185 213 254
185 213 254
185 213 254
185 213 254
185 213 254
185 213 254
185 213 254
185 213 254
185 213 254
185 213 254
185 213 254
185 213 254
184 212 254
184 212 254
184 212 254
184 212 254
184 212 254
184 212 254
184 212 254
184 212 254
184 212 254
184 212 254
184 212 254
184 212 254
184 212 254
184 212 254
184 212 254
184 212 254
184 212 254
184 212 254
184 212 254
184 212 254
184 212 254
184 212 254
184 212 254
184 212 254
184 212 254
184 212 254
184 212 254
184 212 254
184 212 254
184 212 254
184 212 254
184 212 254
184 212 254
184 212 254
183 212 254
183 212 254
183 212 254
183 212 254
183 212 254
183 212 254
183 212 254
183 212 254
183 212 254
183 212 254
183 212 254
183 212 254
183 212 254
183 212 254
183 212 254
183 212 254
183 212 254
183 212 254
183 212 254
183 212 254
183 211 254
183 211 254
183 211 254
183 211 254
183 211 254
183 211 254
183 211 254
183 211 254
183 211 254
183 211 254
183 211 254
182 211 254
182 211 254
182 211 254
182 211 254
182 211 254
182 211 254
182 211 254
182 211 254
182 211 254
182 211 254
182 211 254
182 211 254
182 211 254
182 211 254
182 211 254
182 211 254
124 144 174
11 13 17
12 14 19
13 15 19
12 14 18
10 12 16
10 13 16
11 13 17
12 14 18
12 14 18
10 13 17
12 15 19
12 15 19
11 14 17
11 14 18
11 13 17
11 14 18
11 14 18
10 13 16
11 14 18
11 13 17
11 13 17
10 13 16
11 13 18
10 13 17
11 13 17
10 13 16
11 14 17
11 14 17
11 13 17
11 13 16
11 13 16
11 13 17
10 12 16
10 12 16
11 13 17
12 14 18
12 15 19
11 14 18
11 14 17
11 14 17
11 13 17
11 14 17
12 14 18
11 14 17
11 14 17
11 13 17
10 12 16
11 13 17
10 12 16
12 14 18
10 13 16
12 14 19
11 13 17
11 13 17
11 14 17
10 13 16
11 14 18
12 14 18
10 13 16
11 13 17
10 13 16
12 15 19
11 13 17
10 13 16
10 13 17
11 14 18
12 15 19
10 13 16
11 14 18
10 13 16
10 12 15
11 13 17
12 15 19
11 14 18
12 14 18
10 13 16
11 14 18
8 10 14
12 15 19
11 14 18
12 14 18
10 13 16
11 14 17
10 12 16
10 13 16
11 14 18
11 13 17
11 14 17
11 14 18
10 13 16
11 14 18
12 14 19
11 13 17
12 15 19
11 14 18
11 13 17
12 14 18
12 15 19
9 11 15
13 15 19
10 13 16
11 14 18
11 13 17
11 13 17
11 14 17
13 15 20
11 13 17
10 12 16
10 13 17
11 14 17
11 14 17
12 15 19
11 13 16
12 15 19
11 13 17
11 13 17
11 14 17
11 13 17
10 12 15
11 13 17
12 15 19
11 14 17
10 13 16
12 14 18
111 129 157
182 211 254
182 211 254
182 211 254
182 211 254
182 211 254
182 211 254
182 211 254
182 211 254
182 211 254
182 211 254
182 211 254
182 211 254
182 211 254
182 211 254
182 211 254
182 211 254
182 211 254
183 211 254
183 211 254
183 211 254
183 211 254
183 211 254
183 211 254
183 211 254
183 211 254
183 211 254
183 212 254
183 212 254
183 212 254
183 212 254
183 212 254
183 212 254
183 212 254
183 212 254
183 212 254
183 212 254
183 212 254
183 212 254
183 212 254
183 212 254
183 212 254
183 212 254
183 212 254
183 212 254
183 212 254
183 212 254
184 212 254
184 212 254
184 212 254
184 212 254
184 212 254
184 212 254
184 212 254
184 212 254
184 212 254
184 212 254
184 212 254
184 212 254
184 212 254
184 212 254
184 212 254
184 212 254
184 212 254
184 212 254
184 212 254
184 212 254
184 212 254
184 212 254
184 212 254
184 212 254
184 212 254
184 212 254
184 212 254
184 212 254
184 212 254
184 212 254
184 212 254
184 212 254
184 212 254
184 212 254
184 212 254
185 213 254
185 213 254
185 213 254
185 213 254
185 213 254
185 213 254
185 213 254
185 213 254
185 213 254
185 213 254
185 213 254
185 213 254
185 213 254
185 213 254
185 213 254
185 213 254
185 213 254
185 213 254
185 213 254
185 213 254
185 213 254
185 213 254
185 213 254
185 213 254
185 213 254
185 213 254
185 213 254
185 213 254
185 213 254
185 213 254
185 213 254
185 213 254
185 213 254
185 213 254
185 213 254
185 213 254
185 213 254
185 213 254
185 213 254
185 213 254
185 213 254
185 213 254
186 213 254
186 213 254
186 213 254
186 213 254
186 213 254
186 213 254
186 213 254
186 213 254
186 213 254
186 213 254
186 213 254
186 213 254
186 213 254
186 213 254
186 213 254
186 213 254
186 213 254
186 213 254
186 213 254
186 213 254
186 213 254
186 213 254
186 213 254
186 213 254
186 213 254
186 213 254
186 213 254
186 213 254
186 213 254
186 213 254
186 213 254
186 213 254
186 213 254
186 213 254
186 213 254
186 213 254
186 213 254
186 213 254
186 213 254
186 213 254
186 213 254
186 213 254
185 213 254
185 213 254
185 213 254
185 213 254
185 213 254
185 213 254
185 213 254
185 213 254
185 213 254
185 213 254
185 213 254
185 213 254
185 213 254
185 213 254
185 213 254
185 213 254
185 213 254
185 213 254
185 213 254
185 213 254
185 213 254
185 213 254
185 213 254
185 213 254
185 213 254
185 213 254
185 213 254
185 213 254
185 213 254
185 213 254
185 213 254
185 213 254
185 213 254
185 213 254
185 213 254
185 213 254
185 213 254
185 213 254
185 213 254
185 213 254
185 213 254
184 212 254
184 212 254
184 212 254
184 212 254
184 212 254
184 212 254
184 212 254
184 212 254
184 212 254
184 212 254
184 212 254
184 212 254
184 212 254
184 212 254
184 212 254
184 212 254
184 212 254
184 212 254
184 212 254
184 212 254
184 212 254
184 212 254
184 212 254
184 212 254
184 212 254
184 212 254
184 212 254
184 212 254
184 212 254
184 212 254
184 212 254
184 212 254
184 212 254
184 212 254
183 212 254
183 212 254
183 212 254
183 212 254
183 212 254
183 212 254
183 212 254
183 212 254
183 212 254
183 212 254
183 212 254
183 212 254
183 212 254
183 212 254
183 212 254
183 212 254
183 212 254
183 212 254
183 212 254
183 212 254
183 212 254
183 211 254
183 211 254
183 211 254
183 211 254
183 211 254
183 211 254
183 211 254
183 211 254
183 211 254
183 211 254
182 211 254
182 211 254
182 211 254
65 76 92
11 14 18
11 13 17
12 14 18
12 14 18
10 13 17
12 15 19
11 13 17
9 12 15
11 14 18
10 13 16
11 13 17
10 12 16
11 13 17
10 12 16
10 13 17
10 13 16
11 14 18
12 15 19
11 14 18
11 14 17
11 14 17
11 14 18
12 14 18
12 15 19
11 13 17
11 14 18
10 13 17
12 14 18
11 14 17
11 14 18
11 13 17
12 14 18
10 13 17
10 12 16
11 13 16
9 11 14
11 13 17
10 12 16
11 14 17
12 14 19
11 14 18
11 14 18
11 14 17
9 12 15
10 12 16
10 13 16
11 14 17
11 13 17
10 13 16
10 12 15
11 13 17
10 13 16
10 12 16
10 13 16
12 14 18
10 13 17
11 14 18
10 13 16
12 15 19
11 13 16
10 13 16
12 14 18
11 13 17
10 13 16
10 13 16
11 13 17
11 14 18
11 14 18
11 13 17
11 13 17
12 14 18
12 14 18
12 14 18
12 14 18
11 13 16
10 12 15
11 13 16
12 14 18
12 14 19
10 12 16
11 13 17
11 14 18
10 12 15
11 13 17
10 13 16
11 14 18
12 15 19
12 15 19
12 14 18
10 12 16
11 13 17
9 11 15
11 14 18
10 13 16
11 13 17
11 13 17
11 14 18
9 12 15
11 14 17
10 12 16
13 16 20
10 12 15
11 13 17
12 14 18
12 15 19
10 12 16
11 14 18
9 11 15
9 11 14
10 12 16
11 14 18
12 14 18
11 13 16
11 13 17
10 13 16
10 12 16
11 13 17
9 12 15
11 13 17
11 14 18
11 13 17
10 13 17
10 13 16
10 12 16
76 89 108
182 211 254
182 211 254
182 211 254
183 211 254
183 211 254
183 211 254
183 211 254
183 211 254
183 211 254
183 211 254
183 211 254
183 211 254
183 211 254
183 212 254
183 212 254
183 212 254
183 212 254
183 212 254
183 212 254
183 212 254
183 212 254
183 212 254
183 212 254
183 212 254
183 212 254
183 212 254
183 212 254
183 212 254
183 212 254
183 212 254
183 212 254
183 212 254
183 212 254
183 212 254
184 212 254
184 212 254
184 212 254
184 212 254
184 212 254
184 212 254
184 212 254
184 212 254
184 212 254
184 212 254
184 212 254
184 212 254
184 212 254
184 212 254
184 212 254
184 212 254
184 212 254
184 212 254
184 212 254
184 212 254
184 212 254
184 212 254
184 212 254
184 212 254
184 212 254
184 212 254
184 212 254
184 212 254
184 212 254
184 212 254
184 212 254
184 212 254
184 212 254
185 213 254
185 213 254
185 213 254
185 213 254
185 213 254
185 213 254
185 213 254
185 213 254
185 213 254
185 213 254
185 213 254
185 213 254
185 213 254
185 213 254
185 213 254
185 213 254
185 213 254
185 213 254
185 213 254
185 213 254
185 213 254
185 213 254
185 213 254
185 213 254
185 213 254
185 213 254
185 213 254
185 213 254
185 213 254
185 213 254
185 213 254
185 213 254
185 213 254
185 213 254
185 213 254
185 213 254
185 213 254
185 213 254
185 213 254
185 213 254
185 213 254
185 213 254
186 213 254
186 213 254
186 213 254
186 213 254
186 213 254
186 213 254
186 213 254
186 213 254
186 213 254
186 213 254
186 213 254
186 213 254
186 213 254
186 213 254
186 213 254
186 213 254
186 213 254
186 213 254
186 213 254
186 213 254
186 213 254
186 213 254
186 213 254
186 213 254
186 213 254
186 213 254
186 213 254
186 213 254
186 214 254
186 214 254
186 214 254
186 214 254
186 214 254
186 214 254
186 214 254
186 214 254
186 214 254
186 213 254
186 213 254
186 213 254
186 213 254
186 213 254
186 213 254
186 213 254
186 213 254
186 213 254
186 213 254
186 213 254
186 213 254
186 213 254
186 213 254
186 213 254
186 213 254
186 213 254
186 213 254
186 213 254
186 213 254
186 213 254
186 213 254
186 213 254
186 213 254
186 213 254
186 213 254
186 213 254
186 213 254
186 213 254
186 213 254
186 213 254
186 213 254
186 213 254
186 213 254
185 213 254
185 213 254
185 213 254
185 213 254
185 213 254
185 213 254
185 213 254
185 213 254
185 213 254
185 213 254
185 213 254
185 213 254
185 213 254
185 213 254
185 213 254
185 213 254
185 213 254
185 213 254
185 213 254
185 213 254
185 213 254
185 213 254
185 213 254
185 213 254
185 213 254
185 213 254
185 213 254
185 213 254
185 213 254
185 213 254
185 213 254
185 213 254
185 213 254
185 213 254
185 213 254
185 213 254
185 213 254
185 213 254
185 213 254
184 212 254
184 212 254
184 212 254
184 212 254
184 212 254
184 212 254
184 212 254
184 212 254
184 212 254
184 212 254
184 212 254
184 212 254
184 212 254
184 212 254
184 212 254
184 212 254
184 212 254
184 212 254
184 212 254
184 212 254
184 212 254
184 212 254
184 212 254
184 212 254
184 212 254
184 212 254
184 212 254
184 212 254
184 212 254
184 212 254
184 212 254
184 212 254
184 212 254
184 212 254
184 212 254
183 212 254
183 212 254
183 212 254
183 212 254
183 212 254
183 212 254
183 212 254
183 212 254
183 212 254
183 212 254
183 212 254
183 212 254
183 212 254
183 212 254
183 212 254
183 212 254
183 212 254
183 212 254
183 212 254
183 212 254
32 37 46
11 13 17
12 14 18
11 13 17
10 12 16
11 14 17
12 15 19
11 14 17
12 14 18
11 14 17
11 13 17
12 15 19
11 14 17
11 13 17
11 14 18
11 13 16
11 13 17
11 13 17
11 13 17
11 14 17
11 13 17
11 13 17
10 12 15
10 12 16
11 13 17
11 14 18
10 13 16
11 14 18
11 14 17
10 12 15
10 12 16
11 13 17
12 14 19
10 12 15
10 12 16
10 12 16
10 13 17
11 13 16
12 15 19
9 12 15
10 12 16
11 14 18
9 11 14
11 14 18
11 13 17
11 14 18
11 13 17
10 12 16
10 12 15
11 14 17
10 13 17
10 12 15
11 14 18
12 14 18
12 14 18
11 13 17
11 14 17
10 13 16
11 14 17
9 12 15
10 12 15
10 12 15
11 13 17
11 14 18
10 12 16
10 12 16
11 13 17
9 11 14
11 13 17
10 12 16
11 13 16
11 14 18
9 11 15
12 14 19
10 13 16
9 11 15
11 13 17
12 14 18
12 14 18
10 12 16
11 14 18
12 14 18
12 15 18
10 13 17
11 13 17
11 13 17
10 13 16
11 13 17
12 15 19
11 14 17
10 13 17
10 13 16
11 14 17
10 12 16
11 13 16
11 14 18
10 13 16
11 14 18
10 12 16
10 12 16
12 15 19
11 14 18
10 12 16
11 13 16
9 11 15
12 15 19
10 13 16
10 12 15
12 14 19
11 14 18
12 14 19
10 13 17
10 12 16
11 14 18
11 14 17
11 14 18
10 13 16
11 14 18
11 13 18
11 13 17
11 13 17
11 14 18
9 12 15
10 13 16
11 13 17
31 36 44
183 212 254
183 212 254
183 212 254
183 212 254
183 212 254
183 212 254
183 212 254
183 212 254
183 212 254
183 212 254
183 212 254
183 212 254
183 212 254
183 212 254
183 212 254
183 212 254
183 212 254
183 212 254
183 212 254
183 212 254
184 212 254
184 212 254
184 212 254
184 212 254
184 212 254
184 212 254
184 212 254
184 212 254
184 212 254
184 212 254
184 212 254
184 212 254
184 212 254
184 212 254
184 212 254
184 212 254
184 212 254
184 212 254
184 212 254
184 212 254
184 212 254
184 212 254
184 212 254
184 212 254
184 212 254
184 212 254
184 212 254
184 212 254
184 212 254
184 212 254
184 212 254
184 212 254
184 212 254
184 212 254
185 213 254
185 213 254
185 213 254
185 213 254
185 213 254
185 213 254
185 213 254
185 213 254
185 213 254
185 213 254
185 213 254
185 213 254
185 213 254
185 213 254
185 213 254
185 213 254
185 213 254
185 213 254
185 213 254
185 213 254
185 213 254
185 213 254
185 213 254
185 213 254
185 213 254
185 213 254
185 213 254
185 213 254
185 213 254
185 213 254
185 213 254
185 213 254
185 213 254
185 213 254
185 213 254
185 213 254
185 213 254
185 213 254
185 213 254
185 213 254
185 213 254
186 213 254
186 213 254
186 213 254
186 213 254
186 213 254
186 213 254
186 213 254
186 213 254
186 213 254
186 213 254
186 213 254
186 213 254
186 213 254
186 213 254
186 213 254
186 213 254
186 213 254
186 213 254
186 213 254
186 213 254
186 213 254
186 213 254
186 213 254
186 213 254
186 213 254
186 213 254
186 213 254
186 213 254
186 213 254
186 213 254
186 213 254
186 213 254
186 213 254
186 213 254
186 214 254
186 214 254
186 214 254
186 214 254
186 214 254
186 214 254
186 214 254
186 214 254
187 214 254
187 214 254
187 214 254
187 214 254
187 214 254
186 214 254
186 214 254
186 214 254
186 214 254
186 214 254
186 214 254
186 214 254
186 214 254
186 214 254
186 214 254
186 214 254
186 214 254
186 214 254
186 214 254
186 214 254
186 214 254
186 214 254
186 214 254
186 214 254
186 214 254
186 214 254
186 213 254
186 213 254
186 213 254
186 213 254
186 213 254
186 213 254
186 213 254
186 213 254
186 213 254
186 213 254
186 213 254
186 213 254
186 213 254
186 213 254
186 213 254
186 213 254
186 213 254
186 213 254
186 213 254
186 213 254
186 213 254
186 213 254
186 213 254
186 213 254
186 213 254
186 213 254
186 213 254
186 213 254
186 213 254
186 213 254
186 213 254
186 213 254
185 213 254
185 213 254
185 213 254
185 213 254
185 213 254
185 213 254
185 213 254
185 213 254
185 213 254
185 213 254
185 213 254
185 213 254
185 213 254
185 213 254
185 213 254
185 213 254
185 213 254
185 213 254
185 213 254
185 213 254
185 213 254
185 213 254
185 213 254
185 213 254
185 213 254
185 213 254
185 213 254
185 213 254
185 213 254
185 213 254
185 213 254
185 213 254
185 213 254
185 213 254
185 213 254
185 213 254
185 213 254
185 213 254
185 213 254
185 213 254
184 212 254
184 212 254
184 212 254
184 212 254
184 212 254
184 212 254
184 212 254
184 212 254
184 212 254
184 212 254
184 212 254
184 212 254
184 212 254
184 212 254
184 212 254
184 212 254
184 212 254
184 212 254
184 212 254
184 212 254
184 212 254
184 212 254
184 212 254
184 212 254
184 212 254
184 212 254
184 212 254
184 212 254
184 212 254
184 212 254
184 212 254
184 212 254
184 212 254
184 212 254
183 212 254
183 212 254
183 212 254
183 212 254
158 182 219
10 12 16
11 14 18
10 12 15
11 14 18
10 12 15
11 14 17
10 12 16
10 12 16
9 11 15
10 12 16
11 13 16
10 12 16
12 15 19
11 13 17
11 13 17
11 13 17
11 13 17
10 13 16
10 12 16
10 12 16
10 13 16
11 14 18
11 13 17
10 13 16
11 14 18
10 12 15
11 13 16
10 12 16
11 13 17
11 13 17
9 12 15
10 12 16
11 13 17
10 12 15
11 14 17
10 12 16
10 13 16
10 13 16
10 13 16
10 13 16
11 14 17
10 12 16
13 15 19
11 13 16
12 14 18
9 12 15
11 14 18
12 14 18
11 13 17
11 13 16
9 11 15
10 12 16
10 13 17
11 14 17
10 13 16
11 13 17
11 14 17
10 13 16
11 14 18
10 12 16
9 11 14
11 14 18
11 14 17
11 14 18
12 14 18
10 12 16
9 12 15
11 14 18
12 15 19
10 13 17
12 14 18
10 12 15
10 13 16
10 12 16
11 13 16
10 12 16
9 11 14
11 13 17
9 11 14
10 13 16
11 13 17
11 13 17
11 14 17
10 12 16
10 13 16
11 14 18
11 14 17
11 13 17
9 11 14
10 13 16
11 13 17
10 12 16
11 13 17
10 12 16
11 13 17
11 13 17
10 13 17
11 14 17
11 13 17
10 13 16
10 13 16
11 14 18
10 13 16
12 14 18
11 14 18
10 12 16
10 12 16
10 12 16
11 14 18
10 12 15
10 13 16
11 13 17
10 12 16
11 14 18
12 15 19
11 14 18
10 12 16
11 13 17
11 13 17
12 14 18
11 14 17
11 13 17
12 14 18
10 13 16
12 15 19
11 14 18
140 162 195
183 212 254
183 212 254
183 212 254
184 212 254
184 212 254
184 212 254
184 212 254
184 212 254
184 212 254
184 212 254
184 212 254
184 212 254
184 212 254
184 212 254
184 212 254
184 212 254
184 212 254
184 212 254
184 212 254
184 212 254
184 212 254
184 212 254
184 212 254
184 212 254
184 212 254
184 212 254
184 212 254
184 212 254
184 212 254
184 212 254
184 212 254
184 212 254
184 212 254
184 212 254
184 212 254
184 212 254
184 212 254
184 212 254
185 213 254
185 213 254
185 213 254
185 213 254
185 213 254
185 213 254
185 213 254
185 213 254
185 213 254
185 213 254
185 213 254
185 213 254
185 213 254
185 213 254
185 213 254
185 213 254
185 213 254
185 213 254
185 213 254
185 213 254
185 213 254
185 213 254
185 213 254
185 213 254
185 213 254
185 213 254
185 213 254
185 213 254
185 213 254
185 213 254
185 213 254
185 213 254
185 213 254
185 213 254
185 213 254
185 213 254
185 213 254
185 213 254
185 213 254
185 213 254
186 213 254
186 213 254
186 213 254
186 213 254
186 213 254
186 213 254
186 213 254
186 213 254
186 213 254
186 213 254
186 213 254
186 213 254
186 213 254
186 213 254
186 213 254
186 213 254
186 213 254
186 213 254
186 213 254
186 213 254
186 213 254
186 213 254
186 213 254
186 213 254
186 213 254
186 213 254
186 213 254
186 213 254
186 213 254
186 213 254
186 213 254
186 213 254
186 213 254
186 213 254
186 214 254
186 214 254
186 214 254
186 214 254
186 214 254
186 214 254
186 214 254
186 214 254
186 214 254
186 214 254
186 214 254
186 214 254
186 214 254
186 214 254
186 214 254
186 214 254
186 214 254
186 214 254
187 214 254
187 214 254
187 214 254
187 214 254
187 214 254
187 214 254
187 214 254
187 214 254
187 214 254
187 214 254
187 214 254
187 214 254
187 214 254
187 214 254
187 214 254
187 214 254
187 214 254
187 214 254
187 214 254
187 214 254
187 214 254
187 214 254
187 214 254
187 214 254
187 214 254
187 214 254
187 214 254
187 214 254
187 214 254
186 214 254
186 214 254
186 214 254
186 214 254
186 214 254
186 214 254
186 214 254
186 214 254
186 214 254
186 214 254
186 214 254
186 214 254
186 214 254
186 214 254
186 214 254
186 214 254
186 214 254
186 214 254
186 214 254
186 213 254
186 213 254
186 213 254
186 213 254
186 213 254
186 213 254
186 213 254
186 213 254
186 213 254
186 213 254
186 213 254
186 213 254
186 213 254
186 213 254
186 213 254
186 213 254
186 213 254
186 213 254
186 213 254
186 213 254
186 213 254
186 213 254
186 213 254
186 213 254
186 213 254
186 213 254
186 213 254
186 213 254
186 213 254
186 213 254
186 213 254
186 213 254
185 213 254
185 213 254
185 213 254
185 213 254
185 213 254
185 213 254
185 213 254
185 213 254
185 213 254
185 213 254
185 213 254
185 213 254
185 213 254
185 213 254
185 213 254
185 213 254
185 213 254
185 213 254
185 213 254
185 213 254
185 213 254
185 213 254
185 213 254
185 213 254
185 213 254
185 213 254
185 213 254
185 213 254
185 213 254
185 213 254
185 213 254
185 213 254
185 213 254
185 213 254
185 213 254
185 213 254
185 213 254
185 213 254
185 213 254
184 212 254
184 212 254
184 212 254
184 212 254
184 212 254
184 212 254
184 212 254
184 212 254
184 212 254
184 212 254
184 212 254
184 212 254
184 212 254
184 212 254
184 212 254
184 212 254
184 212 254
184 212 254
184 212 254
184 212 254
184 212 254
184 212 254
184 212 254
128 148 179
11 14 17
12 14 18
10 12 15
11 13 17
11 14 18
11 14 18
11 13 17
12 15 19
11 13 17
9 11 15
11 13 16
10 12 15
9 12 15
11 14 18
10 12 16
10 12 16
11 14 18
11 13 16
12 14 18
10 12 15
12 14 18
11 14 18
12 14 18
10 12 16
11 13 16
10 12 15
11 14 17
11 14 17
9 11 15
10 12 15
10 12 16
10 13 16
9 12 15
9 11 14
10 12 16
10 13 16
10 12 15
10 13 16
10 12 16
10 12 16
11 14 18
10 12 16
11 14 18
10 13 16
12 15 19
11 14 17
11 13 17
11 14 18
10 13 16
11 13 17
12 14 18
10 13 16
10 13 16
11 14 18
11 14 17
12 14 18
11 13 17
10 12 16
10 13 16
11 13 17
10 13 16
11 13 17
11 13 16
11 13 17
10 12 16
10 13 16
10 12 15
11 13 17
9 11 14
9 12 15
10 13 16
10 12 16
12 14 18
10 12 16
12 15 19
11 14 17
10 13 17
10 13 16
10 13 16
10 12 15
11 13 17
10 12 15
12 15 19
11 14 18
11 14 18
10 12 16
10 12 16
11 13 17
11 14 17
11 14 18
12 15 19
11 14 17
10 12 16
11 14 18
11 13 17
11 14 18
10 13 16
11 13 17
10 12 16
10 12 16
11 13 17
11 13 17
11 14 18
10 13 17
11 13 17
9 11 15
11 13 17
10 13 16
10 13 16
10 12 16
11 13 17
9 12 15
11 14 18
11 14 17
12 14 19
10 12 16
10 12 16
11 13 17
10 12 16
11 14 18
11 14 18
11 14 17
10 13 16
12 14 18
10 13 16
10 13 17
101 117 141
184 212 254
184 212 254
184 212 254
184 212 254
184 212 254
184 212 254
184 212 254
184 212 254
184 212 254
184 212 254
184 212 254
184 212 254
184 212 254
184 212 254
184 212 254
184 212 254
184 212 254
184 212 254
184 212 254
184 212 254
184 212 254
184 212 254
184 212 254
185 213 254
185 213 254
185 213 254
185 213 254
185 213 254
185 213 254
185 213 254
185 213 254
185 213 254
185 213 254
185 213 254
185 213 254
185 213 254
185 213 254
185 213 254
185 213 254
185 213 254
185 213 254
185 213 254
185 213 254
185 213 254
185 213 254
185 213 254
185 213 254
185 213 254
185 213 254
185 213 254
185 213 254
185 213 254
185 213 254
185 213 254
185 213 254
185 213 254
185 213 254
185 213 254
185 213 254
185 213 254
185 213 254
185 213 254
186 213 254
186 213 254
186 213 254
186 213 254
186 213 254
186 213 254
186 213 254
186 213 254
186 213 254
186 213 254
186 213 254
186 213 254
186 213 254
186 213 254
186 213 254
186 213 254
186 213 254
186 213 254
186 213 254
186 213 254
186 213 254
186 213 254
186 213 254
186 213 254
186 213 254
186 213 254
186 213 254
186 213 254
186 213 254
186 213 254
186 213 254
186 213 254
186 214 254
186 214 254
186 214 254
186 214 254
186 214 254
186 214 254
186 214 254
186 214 254
186 214 254
186 214 254
186 214 254
186 214 254
186 214 254
186 214 254
186 214 254
186 214 254
186 214 254
186 214 254
187 214 254
187 214 254
187 214 254
187 214 254
187 214 254
187 214 254
187 214 254
187 214 254
187 214 254
187 214 254
187 214 254
187 214 254
187 214 254
187 214 254
187 214 254
187 214 254
187 214 254
187 214 254
187 214 254
187 214 254
187 214 254
187 214 254
187 214 254
187 214 254
187 214 254
187 214 254
187 214 254
187 214 254
187 214 254
187 214 254
187 214 254
187 214 254
187 214 254
187 214 254
187 214 254
187 214 254
187 214 254
187 214 254
187 214 254
187 214 254
187 214 254
187 214 254
187 214 254
187 214 254
187 214 254
187 214 254
187 214 254
187 214 254
187 214 254
187 214 254
187 214 254
187 214 254
187 214 254
187 214 254
187 214 254
187 214 254
187 214 254
187 214 254
187 214 254
187 214 254
187 214 254
187 214 254
187 214 254
187 214 254
187 214 254
186 214 254
186 214 254
186 214 254
186 214 254
186 214 254
186 214 254
186 214 254
186 214 254
186 214 254
186 214 254
186 214 254
186 214 254
186 214 254
186 214 254
186 214 254
186 214 254
186 214 254
186 213 254
186 214 254
186 213 254
186 213 254
186 213 254
186 213 254
186 213 254
186 213 254
186 213 254
186 213 254
186 213 254
186 213 254
186 213 254
186 213 254
186 213 254
186 213 254
186 213 254
186 213 254
186 213 254
186 213 254
186 213 254
186 213 254
186 213 254
186 213 254
186 213 254
186 213 254
186 213 254
186 213 254
186 213 254
186 213 254
186 213 254
186 213 254
185 213 254
185 213 254
185 213 254
185 213 254
185 213 254
185 213 254
185 213 254
185 213 254
185 213 254
185 213 254
185 213 254
185 213 254
185 213 254
185 213 254
185 213 254
185 213 254
185 213 254
185 213 254
185 213 254
185 213 254
185 213 254
185 213 254
185 213 254
185 213 254
185 213 254
185 213 254
185 213 254
185 213 254
185 213 254
185 213 254
185 213 254
185 213 254
185 213 254
185 213 254
185 213 254
185 213 254
185 213 254
185 213 254
185 213 254
185 213 254
185 213 254
184 212 254
184 212 254
184 212 254
184 212 254
184 212 254
67 78 94
11 14 18
9 11 14
10 12 16
11 13 17
12 14 18
12 14 18
12 15 19
11 13 17
11 13 17
10 12 15
11 14 18
11 13 17
11 13 17
10 13 16
9 11 15
10 13 16
12 14 18
11 14 18
10 12 15
11 14 17
11 13 17
9 12 15
10 13 16
11 14 18
12 15 18
12 14 18
10 12 16
10 13 16
10 13 16
11 14 17
9 12 15
10 12 16
11 13 16
12 14 18
9 12 15
11 14 17
14 16 21
9 12 15
11 13 17
10 12 15
11 13 17
10 12 16
10 13 16
11 13 17
10 12 16
11 13 17
11 14 18
11 13 16
11 13 17
11 13 17
11 13 17
11 13 17
10 13 16
10 12 15
10 12 16
8 10 13
10 13 16
10 12 15
10 12 16
9 11 14
11 14 17
11 13 17
10 12 16
10 12 16
11 13 16
11 13 17
10 12 16
10 13 16
11 13 17
9 11 14
11 13 16
12 14 18
9 11 15
9 12 15
9 12 15
11 14 17
11 13 17
11 14 18
11 13 17
12 15 19
9 12 15
11 13 17
9 11 14
11 14 18
10 13 16
12 15 19
10 13 16
10 13 16
9 12 15
10 13 16
11 13 16
10 13 16
12 14 18
10 12 15
9 11 15
11 13 17
10 12 16
11 13 17
11 13 17
12 14 18
10 12 16
11 13 17
10 12 16
11 13 17
11 14 17
10 12 16
10 13 16
10 12 15
9 11 15
12 14 18
10 13 16
12 14 19
11 14 18
11 13 17
11 13 17
11 13 17
11 14 17
10 12 16
11 14 18
11 13 17
12 15 19
11 13 17
9 11 15
9 11 15
9 11 14
10 12 16
88 101 122
184 212 254
184 212 254
184 212 254
184 212 254
184 212 254
185 213 254
185 213 254
185 213 254
185 213 254
185 213 254
185 213 254
185 213 254
185 213 254
185 213 254
185 213 254
185 213 254
185 213 254
185 213 254
185 213 254
185 213 254
185 213 254
185 213 254
185 213 254
185 213 254
185 213 254
185 213 254
185 213 254
185 213 254
185 213 254
185 213 254
185 213 254
185 213 254
185 213 254
185 213 254
185 213 254
185 213 254
185 213 254
185 213 254
185 213 254
185 213 254
185 213 254
185 213 254
185 213 254
185 213 254
185 213 254
185 213 254
186 213 254
186 213 254
186 213 254
186 213 254
186 213 254
186 213 254
186 213 254
186 213 254
186 213 254
186 213 254
186 213 254
186 213 254
186 213 254
186 213 254
186 213 254
186 213 254
186 213 254
186 213 254
186 213 254
186 213 254
186 213 254
186 213 254
186 213 254
186 213 254
186 213 254
186 213 254
186 213 254
186 213 254
186 213 254
186 213 254
186 213 254
186 214 254
186 214 254
186 214 254
186 214 254
186 214 254
186 214 254
186 214 254
186 214 254
186 214 254
186 214 254
186 214 254
186 214 254
186 214 254
186 214 254
186 214 254
186 214 254
186 214 254
186 214 254
187 214 254
187 214 254
187 214 254
187 214 254
187 214 254
187 214 254
187 214 254
187 214 254
187 214 254
187 214 254
187 214 254
187 214 254
187 214 254
187 214 254
187 214 254
187 214 254
187 214 254
187 214 254
187 214 254
187 214 254
187 214 254
187 214 254
187 214 254
187 214 254
187 214 254
187 214 254
187 214 254
187 214 254
187 214 254
187 214 254
187 214 254
187 214 254
187 214 254
187 214 254
187 214 254
187 214 254
187 214 254
187 214 254
187 214 254
187 214 254
187 214 254
187 214 254
187 214 254
187 214 254
187 214 254
187 214 254
187 214 254
187 214 254
187 214 254
187 214 254
187 214 254
187 214 254
187 214 254
187 214 254
187 214 254
187 214 254
187 214 254
187 214 254
187 214 254
187 214 254
187 214 254
187 214 254
187 214 254
187 214 254
187 214 254
187 214 254
187 214 254
187 214 254
187 214 254
187 214 254
187 214 254
187 214 254
187 214 254
187 214 254
187 214 254
187 214 254
187 214 254
187 214 254
187 214 254
187 214 254
187 214 254
187 214 254
187 214 254
187 214 254
187 214 254
187 214 254
187 214 254
187 214 254
187 214 254
187 214 254
187 214 254
187 214 254
187 214 254
187 214 254
187 214 254
187 214 254
187 214 254
187 214 254
187 214 254
187 214 254
187 214 254
186 214 254
186 214 254
186 214 254
186 214 254
186 214 254
186 214 254
186 214 254
186 214 254
186 214 254
186 214 254
186 214 254
186 214 254
186 214 254
186 214 254
186 214 254
186 214 254
186 214 254
186 214 254
186 213 254
186 213 254
186 213 254
186 213 254
186 213 254
186 213 254
186 213 254
186 213 254
186 213 254
186 213 254
186 213 254
186 213 254
186 213 254
186 213 254
186 213 254
186 213 254
186 213 254
186 213 254
186 213 254
186 213 254
186 213 254
186 213 254
186 213 254
186 213 254
186 213 254
186 213 254
186 213 254
186 213 254
186 213 254
185 213 254
186 213 254
185 213 254
185 213 254
185 213 254
185 213 254
185 213 254
185 213 254
185 213 254
185 213 254
185 213 254
185 213 254
185 213 254
185 213 254
185 213 254
185 213 254
185 213 254
185 213 254
185 213 254
185 213 254
185 213 254
185 213 254
185 213 254
185 213 254
185 213 254
185 213 254
185 213 254
185 213 254
185 213 254
46 53 65
10 13 16
10 12 15
12 14 18
11 13 16
11 14 18
12 15 19
11 14 18
10 13 16
11 14 18
12 14 19
11 13 17
10 12 15
10 13 16
9 11 14
9 11 15
10 12 15
10 12 16
10 12 16
11 13 17
12 15 19
9 11 13
11 13 17
11 13 16
11 13 17
11 13 17
12 14 18
9 11 14
9 12 15
10 12 16
11 14 17
10 13 16
12 14 18
11 13 17
10 12 15
10 12 15
11 13 17
11 13 17
9 11 14
10 12 15
12 14 18
10 12 16
9 11 14
10 12 16
11 14 18
9 11 15
11 14 18
10 13 16
10 12 15
11 14 18
12 14 18
10 12 16
11 13 16
11 14 17
11 13 17
9 11 13
9 11 15
11 14 17
11 13 16
11 13 17
11 13 17
9 11 14
11 13 17
11 13 17
10 12 15
12 15 19
10 13 16
11 13 17
11 13 17
9 12 15
10 13 17
9 12 15
11 13 17
11 13 16
10 12 15
11 14 17
9 11 14
10 12 15
11 13 17
10 13 16
10 12 15
11 14 17
11 13 17
11 14 17
11 13 17
11 13 17
10 12 15
11 14 17
10 12 16
10 12 15
12 14 18
10 12 15
11 13 17
10 12 15
9 11 15
11 13 17
12 14 19
9 11 14
10 12 16
11 13 17
10 13 16
10 12 16
10 13 16
11 14 18
11 14 17
10 12 16
11 13 17
10 13 16
10 12 16
11 13 17
12 15 19
10 12 15
10 12 15
11 13 17
9 12 15
12 15 19
10 13 16
10 12 16
10 13 16
9 12 15
10 13 17
11 13 16
12 14 18
10 13 16
11 13 17
11 13 17
11 14 17
42 49 60
185 213 254
185 213 254
185 213 254
185 213 254
185 213 254
185 213 254
185 213 254
185 213 254
185 213 254
185 213 254
185 213 254
185 213 254
185 213 254
185 213 254
185 213 254
185 213 254
185 213 254
185 213 254
185 213 254
185 213 254
185 213 254
185 213 254
185 213 254
185 213 254
185 213 254
185 213 254
185 213 254
185 213 254
186 213 254
186 213 254
186 213 254
186 213 254
186 213 254
186 213 254
186 213 254
186 213 254
186 213 254
186 213 254
186 213 254
186 213 254
186 213 254
186 213 254
186 213 254
186 213 254
186 213 254
186 213 254
186 213 254
186 213 254
186 213 254
186 213 254
186 213 254
186 213 254
186 213 254
186 213 254
186 213 254
186 213 254
186 213 254
186 213 254
186 213 254
186 214 254
186 214 254
186 214 254
186 214 254
186 214 254
186 214 254
186 214 254
186 214 254
186 214 254
186 214 254
186 214 254
186 214 254
186 214 254
186 214 254
186 214 254
186 214 254
187 214 254
187 214 254
187 214 254
187 214 254
187 214 254
187 214 254
187 214 254
187 214 254
187 214 254
187 214 254
187 214 254
187 214 254
187 214 254
187 214 254
187 214 254
187 214 254
187 214 254
187 214 254
187 214 254
187 214 254
187 214 254
187 214 254
187 214 254
187 214 254
187 214 254
187 214 254
187 214 254
187 214 254
187 214 254
187 214 254
187 214 254
187 214 254
187 214 254
187 214 254
187 214 254
187 214 254
187 214 254
187 214 254
187 214 254
187 214 254
187 214 254
187 214 254
187 214 254
187 214 254
187 214 254
187 214 254
187 214 254
187 214 254
187 214 254
187 214 254
187 214 254
187 214 254
187 214 254
187 214 254
187 214 254
187 214 254
187 214 254
187 214 254
187 214 254
187 214 254
187 214 254
188 214 254
188 214 254
188 214 254
188 214 254
188 214 254
188 214 254
188 214 254
188 214 254
188 214 254
188 214 254
188 214 254
188 214 254
188 214 254
188 214 254
188 214 254
187 214 254
188 214 254
187 214 254
187 214 254
187 214 254
187 214 254
187 214 254
187 214 254
187 214 254
187 214 254
187 214 254
187 214 254
187 214 254
187 214 254
187 214 254
187 214 254
187 214 254
187 214 254
187 214 254
187 214 254
187 214 254
187 214 254
187 214 254
187 214 254
187 214 254
187 214 254
187 214 254
187 214 254
187 214 254
187 214 254
187 214 254
187 214 254
187 214 254
187 214 254
187 214 254
187 214 254
187 214 254
187 214 254
187 214 254
187 214 254
187 214 254
187 214 254
187 214 254
187 214 254
187 214 254
187 214 254
187 214 254
187 214 254
187 214 254
187 214 254
187 214 254
187 214 254
187 214 254
187 214 254
187 214 254
187 214 254
187 214 254
187 214 254
187 214 254
187 214 254
187 214 254
187 214 254
187 214 254
187 214 254
187 214 254
186 214 254
186 214 254
186 214 254
186 214 254
186 214 254
186 214 254
186 214 254
186 214 254
186 214 254
186 214 254
186 214 254
186 214 254
186 214 254
186 214 254
186 214 254
186 214 254
186 213 254
186 213 254
186 213 254
186 213 254
186 213 254
186 213 254
186 213 254
186 213 254
186 213 254
186 213 254
186 213 254
186 213 254
186 213 254
186 213 254
186 213 254
186 213 254
186 213 254
186 213 254
186 213 254
186 213 254
186 213 254
186 213 254
186 213 254
186 213 254
186 213 254
186 213 254
186 213 254
186 213 254
186 213 254
186 213 254
186 213 254
186 213 254
185 213 254
185 213 254
185 213 254
185 213 254
185 213 254
185 213 254
185 213 254
182 209 250
11 14 18
10 13 16
11 14 17
13 15 20
10 12 15
12 14 18
12 15 19
10 13 16
11 13 17
11 13 17
10 12 15
11 13 17
10 13 16
11 13 17
11 14 18
9 11 14
9 12 15
11 13 17
10 12 16
10 12 15
11 13 17
11 13 17
10 12 15
10 13 16
12 14 18
11 13 16
9 12 15
9 11 14
10 12 16
11 14 18
11 14 17
11 13 17
11 13 17
11 13 17
9 11 14
10 12 15
9 11 15
9 12 15
9 12 15
11 14 17
11 14 18
10 13 16
10 12 16
11 14 18
10 13 16
10 13 16
9 11 14
11 13 17
11 14 17
11 13 17
9 11 13
10 12 16
10 12 16
11 14 17
10 13 16
10 12 16
11 14 18
11 13 17
10 12 16
10 13 16
12 14 18
10 12 16
10 12 16
11 14 17
10 12 16
11 13 17
10 13 16
11 13 17
10 12 16
10 12 15
10 13 17
11 13 16
11 13 17
10 12 16
10 12 16
11 13 16
10 12 16
10 12 16
10 12 16
10 12 16
12 15 19
10 13 16
10 13 16
10 12 15
10 12 16
10 12 16
11 14 18
9 11 14
11 13 17
9 11 14
11 13 17
10 12 16
11 13 17
10 12 16
11 14 18
10 12 15
10 12 16
10 13 16
12 14 18
9 11 14
10 12 16
11 14 17
11 14 18
10 12 15
10 13 16
11 13 17
10 12 16
10 13 16
11 13 17
10 13 16
11 14 18
10 12 16
10 13 16
11 13 17
11 13 17
11 13 17
11 13 17
10 12 15
11 13 17
9 11 14
11 13 17
10 12 15
11 13 17
11 14 17
11 14 18
11 14 18
10 13 16
13 16 20
179 205 245
185 213 254
185 213 254
185 213 254
185 213 254
185 213 254
185 213 254
186 213 254
186 213 254
186 213 254
186 213 254
186 213 254
186 213 254
186 213 254
186 213 254
186 213 254
186 213 254
186 213 254
186 213 254
186 213 254
186 213 254
186 213 254
186 213 254
186 213 254
186 213 254
186 213 254
186 213 254
186 213 254
186 213 254
186 213 254
186 213 254
186 213 254
186 213 254
186 213 254
186 213 254
186 213 254
186 213 254
186 213 254
186 213 254
186 214 254
186 214 254
186 214 254
186 214 254
186 214 254
186 214 254
186 214 254
186 214 254
186 214 254
186 214 254
186 214 254
186 214 254
186 214 254
186 214 254
186 214 254
186 214 254
186 214 254
187 214 254
186 214 254
187 214 254
187 214 254
187 214 254
187 214 254
187 214 254
187 214 254
187 214 254
187 214 254
187 214 254
187 214 254
187 214 254
187 214 254
187 214 254
187 214 254
187 214 254
187 214 254
187 214 254
187 214 254
187 214 254
187 214 254
187 214 254
187 214 254
187 214 254
187 214 254
187 214 254
187 214 254
187 214 254
187 214 254
187 214 254
187 214 254
187 214 254
187 214 254
187 214 254
187 214 254
187 214 254
187 214 254
187 214 254
187 214 254
187 214 254
187 214 254
187 214 254
187 214 254
187 214 254
187 214 254
187 214 254
187 214 254
187 214 254
187 214 254
187 214 254
187 214 254
187 214 254
187 214 254
187 214 254
187 214 254
187 214 254
187 214 254
187 214 254
187 214 254
187 214 254
187 214 254
187 214 254
188 214 254
188 214 254
188 214 254
188 214 254
188 214 254
188 214 254
188 214 254
188 214 254
188 214 254
188 214 254
188 214 254
188 214 254
188 214 254
188 214 254
188 214 254
188 214 254
188 214 254
188 215 254
188 215 254
188 215 254
188 215 254
188 215 254
188 215 254
188 215 254
188 215 254
188 215 254
188 215 254
188 215 254
188 215 254
188 215 254
188 215 254
188 214 254
188 214 254
188 214 254
188 214 254
188 214 254
188 214 254
188 214 254
188 214 254
188 214 254
188 214 254
188 214 254
188 214 254
188 214 254
188 214 254
188 214 254
188 214 254
188 214 254
188 214 254
188 214 254
188 214 254
188 214 254
188 214 254
188 214 254
188 214 254
188 214 254
188 214 254
187 214 254
187 214 254
187 214 254
187 214 254
187 214 254
187 214 254
187 214 254
187 214 254
187 214 254
187 214 254
187 214 254
187 214 254
187 214 254
187 214 254
187 214 254
187 214 254
187 214 254
187 214 254
187 214 254
187 214 254
187 214 254
187 214 254
187 214 254
187 214 254
187 214 254
187 214 254
187 214 254
187 214 254
187 214 254
187 214 254
187 214 254
187 214 254
187 214 254
187 214 254
187 214 254
187 214 254
187 214 254
187 214 254
187 214 254
187 214 254
187 214 254
187 214 254
187 214 254
187 214 254
187 214 254
187 214 254
187 214 254
187 214 254
187 214 254
187 214 254
187 214 254
187 214 254
187 214 254
187 214 254
187 214 254
187 214 254
187 214 254
187 214 254
187 214 254
187 214 254
186 214 254
186 214 254
187 214 254
186 214 254
186 214 254
186 214 254
186 214 254
186 214 254
186 214 254
186 214 254
186 214 254
186 214 254
186 214 254
186 214 254
186 214 254
186 214 254
186 214 254
186 214 254
186 213 254
186 213 254
186 213 254
186 213 254
186 213 254
186 213 254
186 213 254
186 213 254
186 213 254
186 213 254
186 213 254
186 213 254
186 213 254
186 213 254
186 213 254
186 213 254
186 213 254
144 165 197
11 13 17
10 12 16
11 14 17
11 13 17
10 12 15
10 12 16
10 12 16
11 14 18
9 12 15
11 13 16
9 12 15
11 13 17
12 14 18
11 13 16
9 12 15
11 14 17
12 14 18
10 12 16
11 13 16
11 13 17
11 14 18
11 14 18
11 13 17
10 12 16
11 13 17
11 13 17
10 13 16
10 12 15
10 13 17
11 13 17
8 10 13
10 13 16
11 13 17
9 11 14
11 13 16
10 12 15
12 14 18
11 13 17
10 12 15
9 12 15
10 12 15
11 14 17
11 14 17
10 13 16
10 12 16
9 11 14
10 12 16
10 12 16
11 13 16
10 13 16
10 12 15
10 12 16
10 12 16
10 12 15
11 14 17
10 12 16
10 12 15
10 12 16
10 12 15
10 13 16
10 12 16
9 11 14
11 13 17
10 12 16
10 12 16
10 13 16
11 14 18
10 12 16
10 12 16
10 12 16
10 12 15
10 12 16
11 13 17
11 14 17
12 14 18
11 13 17
10 12 15
9 12 15
9 11 15
11 13 17
12 14 17
9 11 14
9 12 15
10 13 16
11 13 17
10 12 16
10 12 15
10 13 16
12 14 18
10 13 17
11 13 17
11 13 17
10 13 16
10 12 15
10 13 16
11 13 17
10 12 16
11 14 18
10 12 16
9 12 15
10 12 16
11 13 17
11 14 17
10 12 15
11 14 17
11 14 18
11 13 17
11 14 18
11 14 18
10 12 16
9 11 14
11 14 17
10 13 16
10 12 15
11 13 17
11 14 17
10 12 16
10 12 16
11 13 17
9 12 15
10 12 15
10 13 16
10 12 15
9 11 14
10 12 15
10 12 15
11 14 18
10 12 16
158 181 217
186 213 254
186 213 254
186 213 254
186 213 254
186 213 254
186 213 254
186 213 254
186 213 254
186 213 254
186 213 254
186 213 254
186 213 254
186 213 254
186 213 254
186 213 254
186 213 254
186 214 254
186 214 254
186 214 254
186 214 254
186 214 254
186 214 254
186 214 254
186 214 254
186 214 254
186 214 254
186 214 254
186 214 254
186 214 254
186 214 254
186 214 254
186 214 254
186 214 254
186 214 254
187 214 254
187 214 254
187 214 254
187 214 254
187 214 254
187 214 254
187 214 254
187 214 254
187 214 254
187 214 254
187 214 254
187 214 254
187 214 254
187 214 254
187 214 254
187 214 254
187 214 254
187 214 254
187 214 254
187 214 254
187 214 254
187 214 254
187 214 254
187 214 254
187 214 254
187 214 254
187 214 254
187 214 254
187 214 254
187 214 254
187 214 254
187 214 254
187 214 254
187 214 254
187 214 254
187 214 254
187 214 254
187 214 254
187 214 254
187 214 254
187 214 254
187 214 254
187 214 254
187 214 254
187 214 254
187 214 254
187 214 254
187 214 254
187 214 254
187 214 254
187 214 254
187 214 254
187 214 254
187 214 254
187 214 254
187 214 254
187 214 254
187 214 254
187 214 254
187 214 254
187 214 254
187 214 254
188 214 254
188 214 254
188 214 254
188 214 254
188 214 254
188 214 254
188 214 254
188 214 254
188 214 254
188 214 254
188 214 254
188 214 254
188 214 254
188 214 254
188 214 254
188 214 254
188 214 254
188 214 254
188 214 254
188 214 254
188 214 254
188 214 254
188 214 254
188 214 254
188 214 254
188 214 254
188 215 254
188 215 254
188 215 254
188 215 254
188 215 254
188 215 254
188 215 254
188 215 254
188 215 254
188 215 254
188 215 254
188 215 254
188 215 254
188 215 254
188 215 254
188 215 254
188 215 254
188 215 254
188 215 254
188 215 254
188 215 254
188 215 254
188 215 254
188 215 254
188 215 254
188 215 254
188 215 254
188 215 254
188 215 254
188 215 254
188 215 254
188 215 254
188 215 254
188 215 254
188 215 254
188 215 254
188 215 254
188 215 254
188 215 254
188 215 254
188 215 254
188 215 254
188 215 254
188 215 254
188 215 254
188 215 254
188 215 254
188 215 254
188 215 254
188 215 254
188 215 254
188 215 254
188 214 254
188 214 254
188 214 254
188 214 254
188 214 254
188 214 254
188 214 254
188 214 254
188 214 254
188 214 254
188 214 254
188 214 254
188 214 254
188 214 254
188 214 254
188 214 254
188 214 254
188 214 254
188 214 254
188 214 254
188 214 254
188 214 254
188 214 254
188 214 254
188 214 254
187 214 254
187 214 254
187 214 254
187 214 254
187 214 254
187 214 254
187 214 254
187 214 254
187 214 254
187 214 254
187 214 254
187 214 254
187 214 254
187 214 254
187 214 254
187 214 254
187 214 254
187 214 254
187 214 254
187 214 254
187 214 254
187 214 254
187 214 254
187 214 254
187 214 254
187 214 254
187 214 254
187 214 254
187 214 254
187 214 254
187 214 254
187 214 254
187 214 254
187 214 254
187 214 254
187 214 254
187 214 254
187 214 254
187 214 254
187 214 254
187 214 254
187 214 254
187 214 254
187 214 254
187 214 254
187 214 254
187 214 254
187 214 254
187 214 254
187 214 254
187 214 254
187 214 254
187 214 254
187 214 254
187 214 254
187 214 254
187 214 254
187 214 254
187 214 254
187 214 254
187 214 254
186 214 254
186 214 254
186 214 254
186 214 254
186 214 254
186 214 254
186 214 254
186 214 254
186 214 254
186 214 254
132 151 181
11 14 17
10 13 16
10 12 15
10 12 16
10 12 15
10 13 16
10 12 16
10 12 15
11 13 16
10 13 16
10 12 16
10 13 16
10 12 16
9 11 15
10 12 16
10 12 15
10 13 16
10 12 15
11 14 18
11 13 17
10 12 16
10 12 16
10 13 16
10 12 16
11 13 17
10 12 16
10 12 15
9 11 15
10 13 16
10 13 16
11 13 17
9 12 15
9 11 14
10 12 15
9 12 15
9 12 15
9 11 14
10 12 15
10 13 16
10 13 16
9 11 15
11 13 17
10 12 16
12 15 19
9 12 15
9 11 14
11 13 16
10 13 16
10 12 15
10 12 16
10 12 15
10 13 16
10 12 16
9 11 14
9 11 14
11 13 17
10 13 16
9 11 15
11 14 18
10 13 16
9 11 14
12 14 18
9 12 15
11 14 17
10 12 15
10 12 16
9 12 15
9 11 15
9 11 14
10 13 16
10 12 16
11 13 17
11 13 16
10 12 15
11 13 17
10 12 15
10 12 15
10 13 16
10 12 16
10 12 15
11 13 16
11 13 17
10 13 17
10 12 16
11 14 18
10 13 16
11 13 17
12 15 19
11 13 17
9 12 15
12 15 19
9 11 14
11 13 17
10 13 16
10 12 16
11 13 17
11 13 17
9 11 14
10 13 16
9 12 15
11 13 16
10 12 16
10 12 16
9 11 14
11 14 17
10 12 16
11 14 17
10 12 15
10 12 15
10 13 16
10 12 15
10 12 16
10 12 16
10 12 16
9 11 14
10 12 15
9 11 14
11 13 17
9 11 14
11 13 16
10 12 16
10 12 15
11 13 17
10 13 16
9 12 15
9 11 15
11 14 17
9 11 15
122 140 167
186 214 254
186 214 254
186 214 254
186 214 254
186 214 254
186 214 254
186 214 254
186 214 254
186 214 254
187 214 254
187 214 254
187 214 254
187 214 254
187 214 254
187 214 254
187 214 254
187 214 254
187 214 254
187 214 254
187 214 254
187 214 254
187 214 254
187 214 254
187 214 254
187 214 254
187 214 254
187 214 254
187 214 254
187 214 254
187 214 254
187 214 254
187 214 254
187 214 254
187 214 254
187 214 254
187 214 254
187 214 254
187 214 254
187 214 254
187 214 254
187 214 254
187 214 254
187 214 254
187 214 254
187 214 254
187 214 254
187 214 254
187 214 254
187 214 254
187 214 254
187 214 254
187 214 254
187 214 254
187 214 254
187 214 254
187 214 254
187 214 254
187 214 254
187 214 254
187 214 254
187 214 254
187 214 254
187 214 254
187 214 254
187 214 254
187 214 254
187 214 254
187 214 254
187 214 254
187 214 254
188 214 254
188 214 254
188 214 254
188 214 254
188 214 254
188 214 254
188 214 254
188 214 254
188 214 254
188 214 254
188 214 254
188 214 254
188 214 254
188 214 254
188 214 254
188 214 254
188 214 254
188 214 254
188 214 254
188 214 254
188 214 254
188 214 254
188 214 254
188 214 254
188 214 254
188 214 254
188 214 254
188 214 254
188 215 254
188 215 254
188 215 254
188 215 254
188 215 254
188 215 254
188 215 254
188 215 254
188 215 254
188 215 254
188 215 254
188 215 254
188 215 254
188 215 254
188 215 254
188 215 254
188 215 254
188 215 254
188 215 254
188 215 254
188 215 254
188 215 254
188 215 254
188 215 254
188 215 254
188 215 254
188 215 254
188 215 254
188 215 254
188 215 254
188 215 254
188 215 254
188 215 254
188 215 254
188 215 254
188 215 254
188 215 254
189 215 254
189 215 254
189 215 254
189 215 254
188 215 254
188 215 254
188 215 254
188 215 254
188 215 254
188 215 254
188 215 254
188 215 254
188 215 254
188 215 254
188 215 254
188 215 254
188 215 254
188 215 254
188 215 254
188 215 254
188 215 254
188 215 254
188 215 254
188 215 254
188 215 254
188 215 254
188 215 254
188 215 254
188 215 254
188 215 254
188 215 254
188 215 254
188 215 254
188 215 254
188 215 254
188 215 254
188 215 254
188 215 254
188 215 254
188 215 254
188 215 254
188 215 254
188 215 254
188 215 254
188 215 254
188 215 254
188 215 254
188 215 254
188 215 254
188 215 254
188 215 254
188 215 254
188 215 254
188 215 254
188 215 254
188 215 254
188 215 254
188 215 254
188 215 254
188 215 254
188 215 254
188 215 254
188 215 254
188 215 254
188 215 254
188 215 254
188 214 254
188 214 254
188 214 254
188 214 254
188 214 254
188 214 254
188 214 254
188 214 254
188 214 254
188 214 254
188 214 254
188 214 254
188 214 254
188 214 254
188 214 254
188 214 254
188 214 254
188 214 254
188 214 254
188 214 254
188 214 254
188 214 254
188 214 254
188 214 254
187 214 254
187 214 254
187 214 254
187 214 254
187 214 254
187 214 254
187 214 254
187 214 254
187 214 254
187 214 254
187 214 254
187 214 254
187 214 254
187 214 254
187 214 254
187 214 254
187 214 254
187 214 254
187 214 254
187 214 254
187 214 254
187 214 254
187 214 254
187 214 254
187 214 254
187 214 254
187 214 254
187 214 254
187 214 254
187 214 254
187 214 254
187 214 254
187 214 254
187 214 254
187 214 254
187 214 254
187 214 254
187 214 254
187 214 254
187 214 254
187 214 254
187 214 254
187 214 254
187 214 254
187 214 254
97 112 134
11 14 17
10 13 16
10 13 17
9 11 14
10 12 16
11 14 18
10 12 16
11 13 17
10 13 16
11 14 18
11 14 17
10 12 16
10 12 16
10 12 16
8 10 13
11 13 17
10 12 15
9 11 14
10 13 16
10 12 15
10 13 16
10 12 16
11 13 17
9 11 14
10 13 16
10 12 16
10 12 15
11 13 17
11 13 17
9 11 14
11 13 17
12 14 18
8 10 13
10 12 15
11 13 16
11 13 17
11 14 18
9 12 15
11 14 18
10 13 16
10 12 16
9 11 14
10 12 15
10 13 17
11 13 16
9 11 14
10 12 16
10 12 15
8 10 13
12 14 18
9 11 14
9 12 15
10 12 15
11 14 18
11 13 17
11 13 17
10 12 16
11 13 17
12 14 18
9 12 15
10 12 15
9 12 15
10 12 16
8 10 13
10 12 16
10 12 16
9 11 14
9 12 15
10 13 16
12 15 19
9 11 15
11 14 17
10 12 15
8 10 13
11 13 16
11 13 16
10 13 16
11 13 17
10 12 15
10 13 16
10 12 15
10 12 16
10 12 16
12 15 19
9 12 15
10 12 16
11 14 17
10 12 15
12 14 18
10 12 15
10 13 16
10 12 15
9 11 15
10 12 15
9 11 15
10 12 15
11 13 17
9 11 14
10 12 16
9 12 15
10 13 16
10 13 16
10 12 15
10 13 16
11 14 18
11 13 17
11 14 17
11 13 17
11 14 17
10 12 16
10 13 16
11 14 18
10 12 16
10 12 16
11 13 17
12 14 18
10 12 16
11 13 17
11 13 17
11 14 18
10 12 16
11 13 17
9 11 15
10 12 15
10 12 16
10 12 15
11 13 17
11 13 17
114 131 156
187 214 254
187 214 254
187 214 254
187 214 254
187 214 254
187 214 254
187 214 254
187 214 254
187 214 254
187 214 254
187 214 254
187 214 254
187 214 254
187 214 254
187 214 254
187 214 254
187 214 254
187 214 254
187 214 254
187 214 254
187 214 254
187 214 254
187 214 254
187 214 254
187 214 254
187 214 254
187 214 254
187 214 254
187 214 254
187 214 254
187 214 254
187 214 254
187 214 254
187 214 254
187 214 254
187 214 254
187 214 254
187 214 254
187 214 254
187 214 254
187 214 254
187 214 254
187 214 254
187 214 254
187 214 254
188 214 254
188 214 254
188 214 254
188 214 254
188 214 254
188 214 254
188 214 254
188 214 254
188 214 254
188 214 254
188 214 254
188 214 254
188 214 254
188 214 254
188 214 254
188 214 254
188 214 254
188 214 254
188 214 254
188 214 254
188 214 254
188 214 254
188 214 254
188 215 254
188 215 254
188 215 254
188 215 254
188 215 254
188 215 254
188 215 254
188 215 254
188 215 254
188 215 254
188 215 254
188 215 254
188 215 254
188 215 254
188 215 254
188 215 254
188 215 254
188 215 254
188 215 254
188 215 254
188 215 254
188 215 254
188 215 254
188 215 254
188 215 254
188 215 254
188 215 254
188 215 254
188 215 254
188 215 254
188 215 254
188 215 254
188 215 254
188 215 254
188 215 254
188 215 254
188 215 254
188 215 254
188 215 254
188 215 254
188 215 254
188 215 254
188 215 254
188 215 254
188 215 254
188 215 254
188 215 254
188 215 254
188 215 254
188 215 254
188 215 254
188 215 254
188 215 254
188 215 254
188 215 254
188 215 254
188 215 254
188 215 254
188 215 254
188 215 254
188 215 254
188 215 254
188 215 254
188 215 254
189 215 254
189 215 254
189 215 254
189 215 254
189 215 254
189 215 254
189 215 254
189 215 254
189 215 254
189 215 254
189 215 254
189 215 254
189 215 254
189 215 254
189 215 254
189 215 254
189 215 254
189 215 254
189 215 254
189 215 254
189 215 254
189 215 254
189 215 254
189 215 254
189 215 254
189 215 254
189 215 254
189 215 254
189 215 254
189 215 254
189 215 254
189 215 254
189 215 254
189 215 254
189 215 254
189 215 254
189 215 254
189 215 254
189 215 254
189 215 254
188 215 254
188 215 254
188 215 254
188 215 254
188 215 254
188 215 254
188 215 254
188 215 254
188 215 254
188 215 254
188 215 254
188 215 254
188 215 254
188 215 254
188 215 254
188 215 254
188 215 254
188 215 254
188 215 254
188 215 254
188 215 254
188 215 254
188 215 254
188 215 254
188 215 254
188 215 254
188 215 254
188 215 254
188 215 254
188 215 254
188 215 254
188 215 254
188 215 254
188 215 254
188 215 254
188 215 254
188 215 254
188 215 254
188 215 254
188 215 254
188 215 254
188 215 254
188 215 254
188 215 254
188 215 254
188 215 254
188 215 254
188 215 254
188 215 254
188 215 254
188 215 254
188 215 254
188 215 254
188 215 254
188 215 254
188 215 254
188 215 254
188 215 254
188 215 254
188 214 254
188 215 254
188 214 254
188 214 254
188 214 254
188 214 254
188 214 254
188 214 254
188 214 254
188 214 254
188 214 254
188 214 254
188 214 254
188 214 254
188 214 254
188 214 254
188 214 254
188 214 254
188 214 254
188 214 254
188 214 254
188 214 254
188 214 254
188 214 254
188 214 254
187 214 254
188 214 254
187 214 254
187 214 254
187 214 254
187 214 254
187 214 254
187 214 254
187 214 254
187 214 254
187 214 254
187 214 254
187 214 254
187 214 254
84 96 115
10 13 16
11 14 18
9 12 15
11 14 18
11 14 18
9 11 14
10 12 15
9 12 15
11 14 18
10 12 15
10 13 16
10 13 16
10 12 16
10 13 16
10 12 15
10 12 15
9 11 14
9 11 14
10 12 15
10 12 16
11 13 17
10 12 16
9 11 14
10 12 16
9 11 14
10 12 15
10 12 15
10 13 16
11 14 17
9 11 14
10 12 15
10 12 15
10 13 16
10 12 16
10 12 16
11 13 16
11 13 17
10 13 16
11 13 16
10 13 16
10 12 15
10 12 15
10 12 16
10 12 15
10 13 16
9 11 14
10 12 16
11 14 17
11 14 18
9 11 14
11 13 17
11 13 16
10 13 16
10 13 16
10 12 16
10 12 16
10 13 16
8 10 13
11 14 18
10 12 16
10 12 15
10 12 15
10 12 16
11 13 17
10 12 16
10 13 16
9 11 14
10 13 16
9 11 15
10 13 16
9 12 15
10 12 16
10 13 16
10 12 15
10 12 16
9 11 15
9 11 14
9 11 14
12 14 18
11 13 17
9 11 15
10 12 16
10 12 15
10 12 16
10 13 16
9 11 14
10 12 15
9 11 14
11 13 17
10 13 16
12 15 19
9 12 15
11 13 16
9 11 15
11 13 17
11 13 17
11 13 17
9 11 14
9 11 14
10 12 15
10 13 16
10 12 15
9 11 14
10 12 15
9 12 15
10 12 16
10 12 15
10 12 15
11 13 17
10 13 16
11 13 16
9 11 14
11 13 17
9 11 15
11 13 17
10 12 15
10 12 16
10 12 16
11 13 17
11 13 17
11 14 17
10 13 16
11 14 17
10 12 16
10 12 16
10 12 15
10 12 15
11 14 18
105 121 144
187 214 254
187 214 254
187 214 254
187 214 254
187 214 254
187 214 254
187 214 254
187 214 254
187 214 254
187 214 254
187 214 254
187 214 254
187 214 254
187 214 254
188 214 254
188 214 254
188 214 254
188 214 254
188 214 254
188 214 254
188 214 254
188 214 254
188 214 254
188 214 254
188 214 254
188 214 254
188 214 254
188 214 254
188 214 254
188 214 254
188 214 254
188 214 254
188 214 254
188 214 254
188 214 254
188 214 254
188 214 254
188 214 254
188 214 254
188 215 254
188 215 254
188 215 254
188 215 254
188 215 254
188 215 254
188 215 254
188 215 254
188 215 254
188 215 254
188 215 254
188 215 254
188 215 254
188 215 254
188 215 254
188 215 254
188 215 254
188 215 254
188 215 254
188 215 254
188 215 254
188 215 254
188 215 254
188 215 254
188 215 254
188 215 254
188 215 254
188 215 254
188 215 254
188 215 254
188 215 254
188 215 254
188 215 254
188 215 254
188 215 254
188 215 254
188 215 254
188 215 254
188 215 254
188 215 254
188 215 254
188 215 254
188 215 254
188 215 254
188 215 254
188 215 254
188 215 254
188 215 254
188 215 254
188 215 254
188 215 254
188 215 254
188 215 254
188 215 254
188 215 254
188 215 254
188 215 254
188 215 254
188 215 254
189 215 254
189 215 254
189 215 254
189 215 254
189 215 254
189 215 254
189 215 254
189 215 254
189 215 254
189 215 254
189 215 254
189 215 254
189 215 254
189 215 254
189 215 254
189 215 254
189 215 254
189 215 254
189 215 254
189 215 254
189 215 254
189 215 254
189 215 254
189 215 254
189 215 254
189 215 254
189 215 254
189 215 254
189 215 254
189 215 254
189 215 254
189 215 254
189 215 254
189 215 254
189 215 254
189 215 254
189 215 254
189 215 254
189 215 254
189 215 254
189 215 254
189 215 254
189 215 254
189 215 254
189 215 254
189 215 254
189 215 254
189 215 254
189 215 254
189 215 254
189 215 254
189 215 254
189 215 254
189 215 254
189 215 254
189 215 254
189 215 254
189 215 254
189 215 254
189 215 254
189 215 254
189 215 254
189 215 254
189 215 254
189 215 254
189 215 254
189 215 254
189 215 254
189 215 254
189 215 254
189 215 254
189 215 254
189 215 254
189 215 254
189 215 254
189 215 254
189 215 254
189 215 254
189 215 254
189 215 254
189 215 254
189 215 254
189 215 254
189 215 254
189 215 254
189 215 254
189 215 254
189 215 254
189 215 254
189 215 254
189 215 254
189 215 254
189 215 254
189 215 254
189 215 254
189 215 254
189 215 254
189 215 254
189 215 254
189 215 254
189 215 254
189 215 254
189 215 254
189 215 254
189 215 254
189 215 254
189 215 254
189 215 254
189 215 254
189 215 254
189 215 254
188 215 254
188 215 254
188 215 254
188 215 254
188 215 254
188 215 254
188 215 254
188 215 254
188 215 254
188 215 254
188 215 254
188 215 254
188 215 254
188 215 254
188 215 254
188 215 254
188 215 254
188 215 254
188 215 254
188 215 254
188 215 254
188 215 254
188 215 254
188 215 254
188 215 254
188 215 254
188 215 254
188 215 254
188 215 254
188 215 254
188 215 254
188 215 254
188 215 254
188 215 254
188 215 254
188 215 254
188 215 254
188 215 254
188 215 254
188 215 254
188 215 254
188 215 254
188 215 254
188 215 254
188 215 254
188 215 254
188 215 254
188 215 254
188 215 254
188 215 254
188 215 254
188 215 254
188 215 254
188 215 254
188 215 254
188 215 254
188 214 254
188 215 254
188 214 254
188 214 254
188 214 254
76 87 104
8 10 13
11 13 17
10 12 15
9 12 15
11 13 17
9 11 15
9 11 14
10 12 16
10 12 15
10 13 16
10 12 16
10 12 15
12 14 18
9 12 15
9 11 15
9 12 15
10 12 16
10 12 15
10 13 16
9 12 15
11 14 17
10 12 15
9 11 14
10 12 16
11 13 17
11 13 17
9 11 14
11 13 17
10 12 16
8 10 13
10 12 15
11 13 17
10 12 16
8 10 13
10 12 16
10 12 16
9 11 14
10 12 15
9 11 14
10 12 15
8 10 13
10 12 16
10 12 15
10 13 16
10 13 16
10 12 16
11 13 17
9 11 13
10 13 16
9 11 14
11 14 17
11 13 16
10 12 15
9 11 14
11 13 17
10 13 16
10 12 16
10 12 15
11 14 17
10 12 15
11 14 18
9 11 14
9 11 14
9 11 15
11 13 16
10 12 16
7 8 11
11 13 17
10 13 16
11 14 17
9 12 15
9 11 14
11 13 17
11 13 17
11 13 16
9 11 15
10 13 16
10 12 16
11 13 16
11 13 16
10 12 15
9 11 14
10 12 15
9 12 15
11 14 17
8 10 13
8 9 12
11 14 18
10 12 16
10 13 16
9 12 15
11 13 16
10 13 16
9 12 15
9 11 14
9 12 15
10 12 16
10 13 16
10 12 16
9 12 15
9 11 13
11 14 17
11 13 17
9 11 14
11 13 16
10 12 15
11 13 17
11 14 18
9 12 15
10 12 15
10 13 16
9 11 14
9 11 14
11 13 16
10 12 16
9 12 15
11 14 17
10 12 15
9 11 14
11 14 18
10 13 16
10 12 16
10 12 16
11 13 17
11 13 17
8 10 13
12 14 18
10 12 16
72 83 99
188 214 254
188 215 254
188 214 254
188 215 254
188 215 254
188 215 254
188 215 254
188 215 254
188 215 254
188 215 254
188 215 254
188 215 254
188 215 254
188 215 254
188 215 254
188 215 254
188 215 254
188 215 254
188 215 254
188 215 254
188 215 254
188 215 254
188 215 254
188 215 254
188 215 254
188 215 254
188 215 254
188 215 254
188 215 254
188 215 254
188 215 254
188 215 254
188 215 254
188 215 254
188 215 254
188 215 254
188 215 254
188 215 254
188 215 254
188 215 254
188 215 254
188 215 254
188 215 254
188 215 254
188 215 254
188 215 254
188 215 254
188 215 254
188 215 254
188 215 254
188 215 254
188 215 254
188 215 254
188 215 254
188 215 254
188 215 254
188 215 254
188 215 254
188 215 254
188 215 254
188 215 254
188 215 254
189 215 254
189 215 254
189 215 254
189 215 254
189 215 254
189 215 254
189 215 254
189 215 254
189 215 254
189 215 254
189 215 254
189 215 254
189 215 254
189 215 254
189 215 254
189 215 254
189 215 254
189 215 254
189 215 254
189 215 254
189 215 254
189 215 254
189 215 254
189 215 254
189 215 254
189 215 254
189 215 254
189 215 254
189 215 254
189 215 254
189 215 254
189 215 254
189 215 254
189 215 254
189 215 254
189 215 254
189 215 254
189 215 254
189 215 254
189 215 254
189 215 254
189 215 254
189 215 254
189 215 254
189 215 254
189 215 254
189 215 254
189 215 254
189 215 254
189 215 254
189 215 254
189 215 254
189 215 254
189 215 254
189 215 254
189 215 254
189 215 254
189 215 254
189 215 254
189 215 254
189 215 254
189 215 254
189 215 254
189 215 254
189 215 254
189 215 254
189 215 254
189 215 254
189 215 254
189 215 254
189 215 254
189 215 254
189 215 254
189 215 254
189 215 254
189 215 254
189 215 254
189 215 254
189 215 254
189 215 254
189 215 254
189 215 254
189 215 254
189 215 254
189 215 254
189 215 254
189 215 254
189 215 254
189 215 254
189 215 254
189 215 254
189 215 254
189 215 254
189 215 254
189 215 254
189 215 254
189 215 254
189 215 254
189 215 254
189 215 254
189 215 254
189 215 254
189 215 254
189 215 254
189 215 254
189 215 254
189 215 254
189 215 254
189 215 254
189 215 254
189 215 254
189 215 254
189 215 254
189 215 254
189 215 254
189 215 254
189 215 254
189 215 254
189 215 254
189 215 254
189 215 254
189 215 254
189 215 254
189 215 254
189 215 254
189 215 254
189 215 254
189 215 254
189 215 254
189 215 254
189 215 254
189 215 254
189 215 254
189 215 254
189 215 254
189 215 254
189 215 254
189 215 254
189 215 254
189 215 254
189 215 254
189 215 254
189 215 254
189 215 254
189 215 254
189 215 254
189 215 254
189 215 254
189 215 254
189 215 254
189 215 254
189 215 254
189 215 254
189 215 254
189 215 254
189 215 254
189 215 254
189 215 254
189 215 254
189 215 254
189 215 254
189 215 254
189 215 254
189 215 254
189 215 254
189 215 254
189 215 254
189 215 254
189 215 254
189 215 254
189 215 254
189 215 254
189 215 254
189 215 254
189 215 254
189 215 254
189 215 254
189 215 254
189 215 254
189 215 254
189 215 254
189 215 254
189 215 254
189 215 254
189 215 254
189 215 254
189 215 254
189 215 254
188 215 254
188 215 254
188 215 254
188 215 254
188 215 254
188 215 254
188 215 254
188 215 254
188 215 254
188 215 254
188 215 254
188 215 254
188 215 254
188 215 254
188 215 254
188 215 254
188 215 254
188 215 254
188 215 254
188 215 254
46 53 64
10 12 16
9 10 13
11 13 16
10 12 15
11 14 18
11 13 17
10 12 15
11 13 16
10 12 16
10 12 16
10 12 15
9 11 14
10 12 16
11 13 17
11 13 16
10 12 16
9 11 14
11 13 17
10 12 15
10 13 16
9 11 13
10 13 16
10 12 16
8 10 13
10 12 15
11 13 16
10 12 15
10 13 16
9 11 14
12 14 18
10 13 16
11 13 17
10 13 16
10 12 16
11 13 17
11 14 18
9 11 14
11 13 16
9 12 15
10 12 15
9 11 14
10 13 16
10 12 16
10 13 16
10 12 15
11 13 17
10 12 15
10 12 15
10 12 16
9 12 15
10 12 16
10 12 15
10 12 15
10 12 15
11 14 18
10 13 16
10 12 16
11 13 17
10 12 16
9 11 14
10 12 15
10 12 15
11 13 17
11 13 17
9 11 14
9 11 15
11 13 17
10 13 16
10 12 15
10 12 15
10 12 15
10 13 16
8 10 13
8 10 12
10 12 16
11 13 17
9 11 14
9 11 14
9 11 15
11 13 16
10 12 16
10 12 16
8 10 13
11 13 17
11 14 18
9 11 14
11 13 17
10 12 16
9 11 14
10 12 16
11 13 17
10 13 16
11 14 17
9 11 15
9 12 15
10 12 16
11 14 18
9 11 14
11 13 16
11 13 17
9 11 14
11 13 16
11 14 18
9 11 15
9 12 15
9 11 15
9 11 15
10 13 16
9 12 15
10 12 16
10 12 15
10 12 16
9 11 14
10 12 15
11 13 16
9 11 14
10 12 15
10 13 16
11 13 17
9 11 14
12 15 18
11 13 16
12 14 18
9 11 15
10 12 16
10 13 16
9 12 15
11 13 17
50 57 69
188 215 254
188 215 254
188 215 254
188 215 254
188 215 254
188 215 254
188 215 254
188 215 254
188 215 254
188 215 254
188 215 254
188 215 254
188 215 254
188 215 254
188 215 254
188 215 254
188 215 254
188 215 254
188 215 254
188 215 254
188 215 254
189 215 254
189 215 254
189 215 254
189 215 254
189 215 254
189 215 254
189 215 254
189 215 254
189 215 254
189 215 254
189 215 254
189 215 254
189 215 254
189 215 254
189 215 254
189 215 254
189 215 254
189 215 254
189 215 254
189 215 254
189 215 254
189 215 254
189 215 254
189 215 254
189 215 254
189 215 254
189 215 254
189 215 254
189 215 254
189 215 254
189 215 254
189 215 254
189 215 254
189 215 254
189 215 254
189 215 254
189 215 254
189 215 254
189 215 254
189 215 254
189 215 254
189 215 254
189 215 254
189 215 254
189 215 254
189 215 254
189 215 254
189 215 254
189 215 254
189 215 254
189 215 254
189 215 254
189 215 254
189 215 254
189 215 254
189 215 254
189 215 254
189 215 254
189 215 254
189 215 254
189 215 254
189 215 254
189 215 254
189 215 254
189 215 254
189 215 254
189 215 254
189 215 254
189 215 254
189 215 254
189 215 254
189 215 254
189 215 254
189 215 254
189 215 254
189 215 254
189 215 254
189 215 254
189 215 254
189 215 254
189 215 254
189 215 254
189 215 254
189 215 254
189 215 254
189 215 254
189 215 254
189 215 254
189 215 254
189 215 254
189 215 254
189 215 254
189 215 254
189 215 254
189 215 254
189 215 254
189 215 254
189 215 254
189 215 254
189 215 254
189 215 254
189 215 254
189 215 254
189 215 254
189 215 254
189 215 254
189 215 254
189 215 254
189 215 254
189 215 254
189 215 254
189 215 254
189 215 254
189 215 254
190 216 254
190 216 254
190 216 254
190 216 254
190 216 254
190 216 254
190 216 254
190 216 254
190 216 254
190 216 254
190 216 254
190 216 254
190 216 254
190 216 254
190 216 254
190 216 254
190 216 254
190 216 254
190 216 254
190 216 254
190 216 254
190 216 254
190 216 254
190 216 254
190 216 254
190 216 254
190 216 254
189 215 254
190 216 254
189 215 254
190 216 254
190 216 254
189 215 254
189 215 254
189 215 254
189 215 254
189 215 254
189 215 254
189 215 254
189 215 254
189 215 254
189 215 254
189 215 254
189 215 254
189 215 254
189 215 254
189 215 254
189 215 254
189 215 254
189 215 254
189 215 254
189 215 254
189 215 254
189 215 254
189 215 254
189 215 254
189 215 254
189 215 254
189 215 254
189 215 254
189 215 254
189 215 254
189 215 254
189 215 254
189 215 254
189 215 254
189 215 254
189 215 254
189 215 254
189 215 254
189 215 254
189 215 254
189 215 254
189 215 254
189 215 254
189 215 254
189 215 254
189 215 254
189 215 254
189 215 254
189 215 254
189 215 254
189 215 254
189 215 254
189 215 254
189 215 254
189 215 254
189 215 254
189 215 254
189 215 254
189 215 254
189 215 254
189 215 254
189 215 254
189 215 254
189 215 254
189 215 254
189 215 254
189 215 254
189 215 254
189 215 254
189 215 254
189 215 254
189 215 254
189 215 254
189 215 254
189 215 254
189 215 254
189 215 254
189 215 254
189 215 254
189 215 254
189 215 254
189 215 254
189 215 254
189 215 254
189 215 254
189 215 254
189 215 254
189 215 254
189 215 254
189 215 254
189 215 254
189 215 254
189 215 254
189 215 254
189 215 254
189 215 254
189 215 254
189 215 254
189 215 254
189 215 254
189 215 254
189 215 254
189 215 254
44 50 61
10 12 16
9 11 14
10 12 15
11 13 17
9 11 14
10 12 15
11 13 16
9 11 15
12 14 18
8 10 12
10 12 16
12 14 18
9 12 15
11 13 17
9 11 14
9 11 14
10 12 16
10 12 15
9 11 15
10 12 15
10 12 15
8 10 13
10 13 16
10 12 15
10 12 16
10 12 16
10 12 15
9 11 14
10 12 16
10 12 15
9 11 14
9 11 14
9 11 14
10 12 15
10 12 16
9 11 14
11 13 17
9 11 15
10 12 16
10 12 15
11 13 16
11 13 17
10 12 15
10 12 15
9 12 15
10 13 16
10 12 15
11 13 17
10 12 16
9 11 15
11 13 17
8 10 13
12 15 19
9 11 14
9 11 15
10 13 16
11 14 17
10 13 16
10 12 16
10 13 16
10 12 15
10 13 16
9 11 14
9 11 14
10 12 15
10 12 16
9 11 14
9 11 14
11 13 17
10 12 15
10 12 15
11 13 17
9 11 15
8 10 12
12 14 17
10 13 16
10 12 15
10 13 16
10 12 15
8 10 13
9 11 14
10 12 15
10 13 16
10 13 16
10 13 16
11 13 17
9 11 14
10 12 16
10 12 15
10 12 16
9 11 14
11 14 17
10 12 16
10 12 15
10 12 16
10 12 15
9 11 14
10 12 16
9 12 15
10 12 16
10 12 15
11 13 16
9 11 14
8 10 13
10 12 16
10 13 16
10 12 15
10 12 15
10 13 16
10 12 15
10 12 16
10 12 16
10 12 16
10 12 15
10 13 16
11 13 17
11 13 17
11 13 17
9 11 14
8 10 13
9 12 15
9 11 14
10 12 15
11 13 17
11 13 17
10 12 15
9 11 14
9 11 15
36 42 50
189 215 254
189 215 254
189 215 254
189 215 254
189 215 254
189 215 254
189 215 254
189 215 254
189 215 254
189 215 254
189 215 254
189 215 254
189 215 254
189 215 254
189 215 254
189 215 254
189 215 254
189 215 254
189 215 254
189 215 254
189 215 254
189 215 254
189 215 254
189 215 254
189 215 254
189 215 254
189 215 254
189 215 254
189 215 254
189 215 254
189 215 254
189 215 254
189 215 254
189 215 254
189 215 254
189 215 254
189 215 254
189 215 254
189 215 254
189 215 254
189 215 254
189 215 254
189 215 254
189 215 254
189 215 254
189 215 254
189 215 254
189 215 254
189 215 254
189 215 254
189 215 254
189 215 254
189 215 254
189 215 254
189 215 254
189 215 254
189 215 254
189 215 254
189 215 254
189 215 254
189 215 254
189 215 254
189 215 254
189 215 254
189 215 254
189 215 254
189 215 254
189 215 254
189 215 254
189 215 254
189 215 254
189 215 254
189 215 254
189 215 254
189 215 254
189 215 254
189 215 254
189 215 254
189 215 254
189 215 254
189 215 254
189 215 254
189 215 254
189 215 254
189 215 254
189 215 254
189 215 254
189 215 254
189 215 254
189 215 254
189 215 254
189 215 254
189 215 254
189 215 254
189 215 254
189 215 254
189 215 254
189 215 254
189 215 254
189 215 254
189 215 254
189 215 254
189 215 254
190 216 254
190 216 254
190 216 254
190 216 254
190 216 254
190 216 254
190 216 254
190 216 254
190 216 254
190 216 254
190 216 254
190 216 254
190 216 254
190 216 254
190 216 254
190 216 254
190 216 254
190 216 254
190 216 254
190 216 254
190 216 254
190 216 254
190 216 254
190 216 254
190 216 254
190 216 254
190 216 254
190 216 254
190 216 254
190 216 254
190 216 254
190 216 254
190 216 254
190 216 254
190 216 254
190 216 254
190 216 254
190 216 254
190 216 254
190 216 254
190 216 254
190 216 254
190 216 254
190 216 254
190 216 254
190 216 254
190 216 254
190 216 254
190 216 254
190 216 254
190 216 254
190 216 254
190 216 254
190 216 254
190 216 254
190 216 254
190 216 254
190 216 254
190 216 254
190 216 254
190 216 254
190 216 254
190 216 254
190 216 254
190 216 254
190 216 254
190 216 254
190 216 254
190 216 254
190 216 254
190 216 254
190 216 254
190 216 254
190 216 254
190 216 254
190 216 254
190 216 254
190 216 254
190 216 254
190 216 254
190 216 254
190 216 254
190 216 254
190 216 254
190 216 254
190 216 254
190 216 254
190 216 254
190 216 254
190 216 254
190 216 254
190 216 254
190 216 254
190 216 254
190 216 254
190 216 254
190 216 254
190 216 254
190 216 254
190 216 254
190 216 254
190 216 254
190 216 254
190 216 254
190 216 254
190 216 254
190 216 254
190 216 254
190 216 254
190 216 254
190 216 254
190 216 254
190 216 254
190 216 254
190 216 254
190 216 254
190 216 254
190 216 254
190 216 254
190 216 254
190 216 254
190 216 254
190 216 254
190 216 254
189 215 254
190 216 254
190 216 254
190 216 254
189 215 254
189 215 254
189 215 254
189 215 254
189 215 254
189 215 254
189 215 254
189 215 254
189 215 254
189 215 254
189 215 254
189 215 254
189 215 254
189 215 254
189 215 254
189 215 254
189 215 254
189 215 254
189 215 254
189 215 254
189 215 254
189 215 254
189 215 254
189 215 254
189 215 254
189 215 254
189 215 254
189 215 254
189 215 254
189 215 254
189 215 254
189 215 254
189 215 254
189 215 254
189 215 254
189 215 254
189 215 254
189 215 254
189 215 254
26 30 36
11 13 17
10 12 16
10 13 16
11 13 17
9 11 15
8 10 13
9 11 14
10 12 15
9 11 14
9 11 14
9 11 14
9 11 14
9 11 15
10 12 15
11 14 17
9 12 15
10 12 15
8 10 12
10 12 15
10 12 15
11 14 18
9 11 14
11 14 18
8 9 12
10 12 15
10 12 16
10 12 16
9 12 15
11 13 17
9 11 15
9 12 15
10 12 15
9 11 14
11 13 16
9 11 13
10 12 16
10 12 15
9 12 15
9 11 14
11 13 17
9 12 15
11 13 16
11 13 17
11 13 17
8 10 13
11 13 17
10 13 16
10 12 15
9 11 14
10 12 16
10 13 16
9 11 14
10 12 16
9 12 15
10 12 16
10 12 16
11 14 18
9 11 13
11 13 17
10 12 16
11 13 17
10 12 15
10 12 15
10 13 16
10 13 16
10 12 16
11 13 16
11 13 17
10 13 16
10 12 15
10 12 15
10 12 16
11 13 17
10 13 16
11 13 17
9 11 15
9 12 15
11 14 17
9 11 14
10 12 15
10 12 16
10 12 15
9 11 15
9 11 15
9 12 16
10 12 15
9 11 14
11 13 16
10 12 16
10 13 16
10 12 15
9 11 14
9 11 14
10 12 15
10 12 16
10 13 16
10 12 15
9 12 15
10 12 16
10 12 15
10 12 15
11 13 16
10 12 16
9 11 14
11 13 16
11 14 17
11 13 17
9 11 14
10 12 16
11 13 16
9 11 14
11 13 17
10 13 16
10 13 16
9 12 15
9 11 14
9 11 14
11 13 16
10 12 15
11 14 17
10 12 16
10 12 15
10 13 16
10 13 16
10 13 16
11 13 16
10 12 16
11 13 16
29 34 42
189 215 254
189 215 254
189 215 254
189 215 254
189 215 254
189 215 254
189 215 254
189 215 254
189 215 254
189 215 254
189 215 254
189 215 254
189 215 254
189 215 254
189 215 254
189 215 254
189 215 254
189 215 254
189 215 254
189 215 254
189 215 254
189 215 254
189 215 254
189 215 254
189 215 254
189 215 254
189 215 254
189 215 254
189 215 254
189 215 254
189 215 254
189 215 254
189 215 254
189 215 254
189 215 254
189 215 254
190 216 254
189 215 254
190 216 254
189 215 254
189 215 254
190 216 254
190 216 254
190 216 254
190 216 254
190 216 254
190 216 254
190 216 254
190 216 254
190 216 254
190 216 254
190 216 254
190 216 254
190 216 254
190 216 254
190 216 254
190 216 254
190 216 254
190 216 254
190 216 254
190 216 254
190 216 254
190 216 254
190 216 254
190 216 254
190 216 254
190 216 254
190 216 254
190 216 254
190 216 254
190 216 254
190 216 254
190 216 254
190 216 254
190 216 254
190 216 254
190 216 254
190 216 254
190 216 254
190 216 254
190 216 254
190 216 254
190 216 254
190 216 254
190 216 254
190 216 254
190 216 254
190 216 254
190 216 254
190 216 254
190 216 254
190 216 254
190 216 254
190 216 254
190 216 254
190 216 254
190 216 254
190 216 254
190 216 254
190 216 254
190 216 254
190 216 254
190 216 254
190 216 254
190 216 254
190 216 254
190 216 254
190 216 254
190 216 254
190 216 254
190 216 254
190 216 254
190 216 254
190 216 254
190 216 254
190 216 254
190 216 254
190 216 254
190 216 254
190 216 254
190 216 254
190 216 254
190 216 254
190 216 254
190 216 254
190 216 254
190 216 254
190 216 254
190 216 254
190 216 254
190 216 254
190 216 254
190 216 254
190 216 254
190 216 254
190 216 254
190 216 254
190 216 254
190 216 254
190 216 254
190 216 254
190 216 254
190 216 254
190 216 254
190 216 254
190 216 254
190 216 254
190 216 254
190 216 254
190 216 254
190 216 254
190 216 254
190 216 254
190 216 254
190 216 254
190 216 254
190 216 254
190 216 254
190 216 254
190 216 254
190 216 254
190 216 254
190 216 254
190 216 254
190 216 254
190 216 254
190 216 254
190 216 254
190 216 254
190 216 254
190 216 254
190 216 254
190 216 254
190 216 254
190 216 254
190 216 254
190 216 254
190 216 254
190 216 254
190 216 254
190 216 254
190 216 254
190 216 254
190 216 254
190 216 254
190 216 254
190 216 254
190 216 254
190 216 254
190 216 254
190 216 254
190 216 254
190 216 254
190 216 254
190 216 254
190 216 254
190 216 254
190 216 254
190 216 254
190 216 254
190 216 254
190 216 254
190 216 254
190 216 254
190 216 254
190 216 254
190 216 254
190 216 254
190 216 254
190 216 254
190 216 254
190 216 254
190 216 254
190 216 254
190 216 254
190 216 254
190 216 254
190 216 254
190 216 254
190 216 254
190 216 254
190 216 254
190 216 254
190 216 254
190 216 254
190 216 254
190 216 254
190 216 254
190 216 254
190 216 254
190 216 254
190 216 254
190 216 254
190 216 254
190 216 254
190 216 254
190 216 254
190 216 254
190 216 254
190 216 254
190 216 254
190 216 254
190 216 254
190 216 254
190 216 254
190 216 254
190 216 254
190 216 254
190 216 254
190 216 254
190 216 254
190 216 254
190 216 254
190 216 254
190 216 254
190 216 254
190 216 254
190 216 254
190 216 254
190 216 254
190 216 254
190 216 254
190 216 254
190 216 254
190 216 254
190 216 254
190 216 254
190 216 254
190 216 254
190 216 254
32 38 45
10 12 15
11 13 16
10 12 15
9 11 15
8 10 13
9 10 13
8 10 13
12 14 17
10 12 15
11 13 17
10 12 16
10 12 15
12 14 18
9 11 14
11 13 16
10 12 15
10 12 15
10 12 16
10 12 15
9 12 15
9 11 14
10 12 16
11 13 17
10 12 15
9 12 15
10 12 15
10 12 15
11 13 17
10 12 15
10 12 15
11 13 17
10 12 16
10 13 16
9 11 15
10 12 15
10 12 15
10 12 16
9 11 14
9 11 14
9 11 14
9 11 15
10 13 16
10 13 16
8 10 13
11 13 17
10 12 15
11 13 16
9 11 14
10 12 15
11 13 16
11 13 16
10 12 16
9 11 15
9 11 14
9 11 14
9 11 14
9 11 14
9 11 14
10 12 16
10 12 15
10 12 16
10 12 15
10 13 16
11 14 18
11 13 17
10 12 16
9 11 13
10 12 16
11 14 17
9 11 14
12 14 18
10 12 16
9 11 15
10 12 16
10 12 15
10 12 15
11 13 17
11 13 17
9 11 15
9 11 14
9 11 14
9 11 14
9 10 13
10 12 15
10 13 16
9 11 14
10 13 16
10 12 16
9 11 14
10 12 15
10 13 16
11 14 17
10 12 16
9 11 14
10 12 15
10 12 15
10 12 15
10 13 16
9 11 15
10 12 16
9 11 14
11 13 17
9 11 15
8 10 13
11 13 17
10 12 16
11 14 18
9 11 14
9 11 15
10 12 16
9 11 13
10 12 16
10 12 15
9 11 15
11 13 17
8 10 14
9 11 14
9 11 15
9 11 14
10 12 15
10 12 15
10 12 15
10 13 16
9 11 15
10 12 15
9 11 14
10 12 16
10 12 16
30 34 41
190 216 254
190 216 254
190 216 254
190 216 254
190 216 254
190 216 254
190 216 254
190 216 254
190 216 254
190 216 254
190 216 254
190 216 254
190 216 254
190 216 254
190 216 254
190 216 254
190 216 254
190 216 254
190 216 254
190 216 254
190 216 254
190 216 254
190 216 254
190 216 254
190 216 254
190 216 254
190 216 254
190 216 254
190 216 254
190 216 254
190 216 254
190 216 254
190 216 254
190 216 254
190 216 254
190 216 254
190 216 254
190 216 254
190 216 254
190 216 254
190 216 254
190 216 254
190 216 254
190 216 254
190 216 254
190 216 254
190 216 254
190 216 254
190 216 254
190 216 254
190 216 254
190 216 254
190 216 254
190 216 254
190 216 254
190 216 254
190 216 254
190 216 254
190 216 254
190 216 254
190 216 254
190 216 254
190 216 254
190 216 254
190 216 254
190 216 254
190 216 254
190 216 254
190 216 254
190 216 254
190 216 254
190 216 254
190 216 254
190 216 254
190 216 254
190 216 254
190 216 254
190 216 254
190 216 254
190 216 254
190 216 254
190 216 254
190 216 254
190 216 254
190 216 254
190 216 254
190 216 254
190 216 254
190 216 254
190 216 254
190 216 254
190 216 254
190 216 254
190 216 254
190 216 254
190 216 254
190 216 254
190 216 254
190 216 254
190 216 254
190 216 254
190 216 254
190 216 254
190 216 254
190 216 254
190 216 254
190 216 254
190 216 254
190 216 254
190 216 254
190 216 254
190 216 254
190 216 254
190 216 254
190 216 254
190 216 254
190 216 254
190 216 254
190 216 254
190 216 254
190 216 254
190 216 254
190 216 254
190 216 254
190 216 254
190 216 254
190 216 254
190 216 254
190 216 254
190 216 254
190 216 254
190 216 254
190 216 254
190 216 254
190 216 254
190 216 254
190 216 254
190 216 254
190 216 254
190 216 254
190 216 254
190 216 254
190 216 254
190 216 254
190 216 254
190 216 254
190 216 254
190 216 254
190 216 254
190 216 254
190 216 254
190 216 254
190 216 254
190 216 254
190 216 254
190 216 254
190 216 254
190 216 254
190 216 254
190 216 254
190 216 254
190 216 254
190 216 254
190 216 254
190 216 254
190 216 254
190 216 254
190 216 254
190 216 254
190 216 254
190 216 254
190 216 254
190 216 254
190 216 254
190 216 254
190 216 254
190 216 254
190 216 254
190 216 254
190 216 254
190 216 254
190 216 254
190 216 254
190 216 254
190 216 254
190 216 254
190 216 254
190 216 254
190 216 254
190 216 254
190 216 254
190 216 254
190 216 254
190 216 254
190 216 254
190 216 254
190 216 254
190 216 254
190 216 254
190 216 254
190 216 254
190 216 254
190 216 254
190 216 254
190 216 254
190 216 254
190 216 254
190 216 254
190 216 254
190 216 254
190 216 254
190 216 254
190 216 254
190 216 254
190 216 254
190 216 254
190 216 254
190 216 254
190 216 254
190 216 254
190 216 254
190 216 254
190 216 254
190 216 254
190 216 254
190 216 254
190 216 254
190 216 254
190 216 254
190 216 254
190 216 254
190 216 254
190 216 254
190 216 254
190 216 254
190 216 254
190 216 254
190 216 254
190 216 254
190 216 254
190 216 254
190 216 254
190 216 254
190 216 254
190 216 254
190 216 254
190 216 254
190 216 254
190 216 254
190 216 254
190 216 254
190 216 254
190 216 254
190 216 254
190 216 254
190 216 254
190 216 254
190 216 254
190 216 254
190 216 254
190 216 254
190 216 254
190 216 254
190 216 254
190 216 254
190 216 254
190 216 254
190 216 254
190 216 254
190 216 254
17 20 25
11 13 17
10 12 16
9 11 15
10 12 15
10 12 15
12 14 18
10 12 16
9 12 15
11 14 17
8 10 13
10 12 16
10 12 15
10 13 16
10 12 15
9 11 14
9 11 14
8 10 13
10 12 16
10 12 16
9 11 14
9 11 15
10 12 15
9 11 14
9 11 14
9 12 15
9 12 15
9 12 15
8 10 13
11 13 16
9 11 14
10 12 15
10 12 15
9 11 15
10 13 16
10 13 16
10 12 15
9 11 14
10 12 15
8 10 13
10 13 16
10 12 16
10 12 16
10 12 16
9 11 15
10 13 16
10 12 15
8 10 13
11 13 16
9 11 15
10 12 15
10 13 16
10 12 15
10 12 15
10 12 16
11 13 17
9 12 15
9 12 15
11 13 17
10 12 15
10 12 15
9 11 14
8 10 13
10 13 16
9 11 14
10 12 15
12 15 19
10 12 16
10 12 16
9 11 14
11 13 16
10 12 15
9 11 14
9 11 15
11 13 17
10 12 15
9 11 14
11 13 17
11 13 17
10 12 16
9 11 14
10 12 15
11 13 16
9 12 15
10 12 16
11 14 17
10 12 16
10 12 15
10 13 16
8 10 13
10 12 15
10 12 15
9 11 14
8 10 13
8 10 13
10 12 15
10 12 15
9 11 15
10 12 15
11 14 17
10 12 15
10 13 16
10 12 16
11 13 16
10 12 15
10 12 16
8 10 13
10 12 16
10 12 15
12 14 17
10 13 16
11 13 16
8 10 13
10 12 15
10 12 15
11 13 17
9 11 14
9 11 13
11 13 17
11 13 16
9 12 15
9 12 15
10 12 16
9 11 13
9 11 14
10 12 15
9 11 14
11 14 17
11 14 18
19 23 28
190 216 254
190 216 254
190 216 254
190 216 254
190 216 254
190 216 254
190 216 254
190 216 254
190 216 254
190 216 254
190 216 254
190 216 254
190 216 254
190 216 254
190 216 254
190 216 254
190 216 254
190 216 254
190 216 254
190 216 254
190 216 254
190 216 254
190 216 254
190 216 254
190 216 254
190 216 254
190 216 254
190 216 254
190 216 254
190 216 254
190 216 254
190 216 254
190 216 254
190 216 254
190 216 254
190 216 254
190 216 254
190 216 254
190 216 254
190 216 254
190 216 254
190 216 254
190 216 254
190 216 254
190 216 254
190 216 254
190 216 254
190 216 254
190 216 254
190 216 254
190 216 254
190 216 254
190 216 254
190 216 254
190 216 254
190 216 254
190 216 254
190 216 254
190 216 254
190 216 254
190 216 254
190 216 254
190 216 254
190 216 254
190 216 254
190 216 254
190 216 254
190 216 254
190 216 254
190 216 254
190 216 254
190 216 254
190 216 254
190 216 254
190 216 254
190 216 254
190 216 254
190 216 254
190 216 254
190 216 254
190 216 254
190 216 254
190 216 254
190 216 254
190 216 254
190 216 254
190 216 254
190 216 254
190 216 254
190 216 254
190 216 254
190 216 254
190 216 254
190 216 254
190 216 254
190 216 254
190 216 254
190 216 254
190 216 254
190 216 254
190 216 254
190 216 254
190 216 254
190 216 254
190 216 254
190 216 254
190 216 254
190 216 254
190 216 254
190 216 254
190 216 254
190 216 254
190 216 254
190 216 254
190 216 254
190 216 254
190 216 254
190 216 254
190 216 254
190 216 254
190 216 254
190 216 254
190 216 254
190 216 254
190 216 254
190 216 254
190 216 254
190 216 254
190 216 254
190 216 254
190 216 254
190 216 254
190 216 254
190 216 254
190 216 254
191 216 254
191 216 254
191 216 254
191 216 254
191 216 254
191 216 254
191 216 254
191 216 254
191 216 254
191 216 254
191 216 254
191 216 254
191 216 254
191 216 254
191 216 254
191 216 254
191 216 254
191 216 254
191 216 254
191 216 254
191 216 254
191 216 254
191 216 254
191 216 254
191 216 254
191 216 254
191 216 254
191 216 254
191 216 254
191 216 254
191 216 254
191 216 254
191 216 254
191 216 254
191 216 254
191 216 254
191 216 254
191 216 254
191 216 254
191 216 254
191 216 254
191 216 254
191 216 254
191 216 254
191 216 254
191 216 254
191 216 254
191 216 254
191 216 254
191 216 254
191 216 254
191 216 254
191 216 254
191 216 254
191 216 254
191 216 254
191 216 254
191 216 254
191 216 254
191 216 254
191 216 254
191 216 254
191 216 254
191 216 254
191 216 254
191 216 254
191 216 254
191 216 254
191 216 254
191 216 254
191 216 254
191 216 254
191 216 254
191 216 254
191 216 254
191 216 254
191 216 254
191 216 254
191 216 254
191 216 254
191 216 254
191 216 254
191 216 254
191 216 254
191 216 254
191 216 254
191 216 254
191 216 254
191 216 254
191 216 254
191 216 254
191 216 254
191 216 254
191 216 254
191 216 254
191 216 254
191 216 254
191 216 254
191 216 254
191 216 254
191 216 254
191 216 254
191 216 254
191 216 254
191 216 254
191 216 254
191 216 254
191 216 254
191 216 254
191 216 254
191 216 254
191 216 254
191 216 254
191 216 254
191 216 254
191 216 254
191 216 254
191 216 254
191 216 254
191 216 254
191 216 254
191 216 254
191 216 254
191 216 254
191 216 254
191 216 254
191 216 254
191 216 254
191 216 254
191 216 254
191 216 254
191 216 254
191 216 254
191 216 254
191 216 254
22 26 31
10 12 15
11 14 17
8 10 13
10 12 15
10 13 16
9 11 14
10 13 16
10 12 16
12 14 18
11 13 17
10 12 15
10 13 16
9 11 14
8 10 13
9 11 14
10 12 15
8 10 13
9 11 15
10 13 16
8 10 13
9 11 14
10 12 16
8 10 13
10 12 15
10 12 15
10 12 16
9 11 14
8 10 13
11 13 17
10 12 16
10 12 16
10 12 15
10 12 16
9 12 15
9 11 14
10 12 15
9 11 14
10 12 16
9 11 15
8 10 13
9 11 14
11 13 17
10 12 15
9 11 14
8 10 13
9 11 14
9 11 15
9 11 14
9 12 15
11 13 16
10 12 16
9 11 14
9 11 15
9 11 14
11 13 17
10 13 16
11 13 16
10 12 15
10 13 16
10 12 16
10 12 15
10 13 16
10 13 16
8 10 13
10 12 15
10 12 15
10 12 16
9 11 15
9 11 14
11 14 18
11 13 16
9 11 14
10 12 16
11 13 17
10 12 16
10 12 15
9 11 14
9 12 15
11 13 17
10 12 16
10 12 15
9 11 15
10 12 15
9 11 14
9 11 14
8 10 13
11 13 16
9 11 14
11 13 17
10 12 15
9 11 14
10 12 15
9 11 14
10 12 15
7 9 12
10 12 15
10 12 15
9 11 14
11 13 16
11 13 16
10 12 16
10 12 16
12 14 18
12 14 18
8 10 13
10 12 15
10 12 15
11 13 17
9 11 14
10 12 15
9 11 15
9 11 14
9 10 13
9 11 15
10 12 16
10 12 15
9 11 14
9 11 15
10 12 15
9 11 14
11 13 17
9 11 14
9 11 15
11 13 17
11 13 16
11 13 16
11 13 17
9 11 14
18 22 27
191 216 254
191 216 254
191 216 254
191 216 254
191 216 254
191 216 254
191 216 254
191 216 254
191 216 254
191 216 254
191 216 254
191 216 254
191 216 254
191 216 254
191 216 254
191 216 254
191 216 254
191 216 254
191 216 254
191 216 254
191 216 254
191 216 254
191 216 254
191 216 254
191 216 254
191 216 254
191 216 254
191 216 254
191 216 254
191 216 254
191 216 254
191 216 254
191 216 254
191 216 254
191 216 254
191 216 254
191 216 254
191 216 254
191 216 254
191 216 254
191 216 254
191 216 254
191 216 254
191 216 254
191 216 254
191 216 254
191 216 254
191 216 254
191 216 254
191 216 254
191 216 254
191 216 254
191 216 254
191 216 254
191 216 254
191 216 254
191 216 254
191 216 254
191 216 254
191 216 254
191 216 254
191 216 254
191 216 254
191 216 254
191 216 254
191 216 254
191 216 254
191 216 254
191 216 254
191 216 254
191 216 254
191 216 254
191 216 254
191 216 254
191 216 254
191 216 254
191 216 254
191 216 254
191 216 254
191 216 254
191 216 254
191 216 254
191 216 254
191 216 254
191 216 254
191 216 254
191 216 254
191 216 254
191 216 254
191 216 254
191 216 254
191 216 254
191 216 254
191 216 254
191 216 254
191 216 254
191 216 254
191 216 254
191 216 254
191 216 254
191 216 254
191 216 254
191 216 254
191 216 254
191 216 254
191 216 254
191 216 254
191 216 254
191 216 254
191 216 254
191 216 254
191 216 254
191 216 254
191 216 254
191 216 254
191 216 254
191 216 254
191 216 254
191 216 254
191 216 254
191 216 254
191 216 254
191 216 254
191 216 254
191 216 254
191 216 254
191 216 254
191 216 254
191 216 254
191 216 254
191 216 254
191 216 254
191 216 254
191 216 254
191 216 254
191 216 254
191 216 254
191 216 254
191 216 254
191 216 254
191 216 254
191 216 254
191 216 254
191 216 254
191 216 254
191 216 254
191 216 254
191 216 254
191 216 254
191 216 254
191 216 254
191 216 254
191 216 254
191 216 254
191 216 254
191 216 254
191 216 254
191 216 254
191 216 254
191 216 254
191 216 254
191 216 254
191 216 254
191 216 254
191 216 254
191 216 254
191 216 254
191 216 254
191 216 254
191 216 254
191 216 254
191 216 254
191 216 254
191 216 254
191 216 254
191 216 254
191 216 254
191 216 254
191 216 254
191 216 254
191 216 254
191 216 254
191 216 254
191 216 254
191 216 254
191 216 254
191 216 254
191 216 254
191 216 254
191 216 254
191 216 254
191 216 254
191 216 254
191 216 254
191 216 254
191 216 254
191 216 254
191 216 254
191 216 254
191 216 254
191 216 254
191 216 254
191 216 254
191 216 254
191 216 254
191 216 254
191 216 254
191 216 254
191 216 254
191 216 254
191 216 254
191 216 254
191 216 254
191 216 254
191 216 254
191 216 254
191 216 254
191 216 254
191 216 254
191 216 254
191 216 254
191 216 254
191 216 254
191 216 254
191 216 254
191 216 254
191 216 254
191 216 254
191 216 254
191 217 254
191 217 254
191 217 254
191 216 254
191 217 254
191 217 254
191 216 254
191 216 254
191 217 254
191 217 254
191 217 254
191 217 254
191 217 254
191 217 254
191 217 254
191 217 254
191 217 254
191 216 254
191 217 254
191 217 254
191 217 254
191 217 254
191 217 254
191 217 254
191 217 254
191 217 254
191 217 254
191 217 254
191 217 254
191 217 254
191 217 254
191 217 254
191 217 254
191 217 254
191 217 254
191 217 254
191 217 254
191 217 254
191 217 254
191 217 254
191 217 254
30 35 42
9 10 13
11 13 17
10 12 15
10 12 15
8 10 12
9 11 14
9 11 14
10 12 15
9 11 14
10 12 15
10 12 16
10 12 15
10 12 16
10 12 16
10 13 16
10 12 16
9 11 14
11 13 16
10 12 16
9 12 15
9 11 14
11 13 17
10 12 15
8 10 12
9 10 13
9 10 13
9 11 14
9 12 15
11 14 18
9 11 14
10 12 15
10 12 15
9 11 15
8 10 12
8 10 13
10 12 15
9 11 14
8 10 13
10 13 16
9 11 14
10 13 16
9 11 14
9 12 15
10 12 15
10 12 16
10 12 15
10 12 16
9 11 15
10 12 16
10 12 16
10 12 15
9 11 14
8 10 12
9 11 14
10 12 15
8 10 13
9 11 14
10 12 15
11 13 17
11 13 16
8 10 12
8 10 13
10 13 16
9 11 14
8 10 13
9 11 14
10 12 15
9 11 14
10 12 15
10 12 15
10 12 16
9 11 14
8 10 13
9 11 14
9 11 14
10 12 15
10 13 16
9 11 14
9 10 13
9 11 13
9 11 14
8 10 13
11 13 16
10 12 16
10 12 15
11 13 17
8 10 13
10 12 15
9 11 15
10 12 16
9 12 15
9 11 14
9 11 14
10 12 16
10 13 16
9 11 15
9 11 14
10 12 16
8 10 13
10 12 16
9 11 14
9 11 14
10 13 16
10 12 16
9 11 14
10 12 15
10 12 15
10 12 16
9 11 15
10 12 15
9 11 14
9 11 14
9 11 15
10 12 15
10 12 15
9 12 15
10 12 15
11 13 16
10 12 15
8 10 13
9 11 15
9 12 15
10 12 15
9 11 14
11 14 17
10 13 16
9 11 14
10 12 16
20 23 29
191 217 254
191 217 254
191 217 254
191 217 254
191 217 254
191 217 254
191 217 254
191 217 254
191 217 254
191 217 254
191 217 254
191 217 254
191 217 254
191 217 254
191 217 254
191 217 254
191 217 254
191 217 254
191 217 254
191 217 254
191 217 254
191 217 254
191 217 254
191 217 254
191 217 254
191 217 254
191 217 254
191 217 254
191 217 254
191 217 254
191 217 254
191 217 254
191 217 254
191 217 254
191 217 254
191 217 254
191 217 254
191 216 254
191 217 254
191 217 254
191 217 254
191 217 254
191 216 254
191 216 254
191 217 254
191 216 254
191 217 254
191 216 254
191 216 254
191 216 254
191 216 254
191 216 254
191 216 254
191 216 254
191 216 254
191 216 254
191 216 254
191 216 254
191 216 254
191 216 254
191 216 254
191 216 254
191 216 254
191 216 254
191 216 254
191 216 254
191 216 254
191 216 254
191 216 254
191 216 254
191 216 254
191 216 254
191 216 254
191 216 254
191 216 254
191 216 254
191 216 254
191 216 254
191 216 254
191 216 254
191 216 254
191 216 254
191 216 254
191 216 254
191 216 254
191 216 254
191 216 254
191 216 254
191 216 254
191 216 254
191 216 254
191 216 254
191 216 254
191 216 254
191 216 254
191 216 254
191 216 254
191 216 254
191 216 254
191 216 254
191 216 254
191 216 254
191 216 254
191 216 254
191 216 254
191 216 254
191 216 254
191 216 254
191 216 254
191 216 254
191 216 254
191 216 254
191 216 254
191 216 254
191 216 254
191 216 254
191 216 254
191 216 254
191 216 254
191 216 254
191 216 254
191 216 254
191 216 254
191 216 254
191 216 254
191 216 254
191 216 254
191 216 254
191 216 254
191 216 254
191 216 254
191 216 254
191 216 254
191 216 254
191 216 254
191 217 254
191 217 254
191 217 254
191 217 254
191 217 254
191 217 254
191 217 254
191 217 254
191 217 254
191 217 254
191 217 254
191 217 254
191 217 254
191 217 254
191 217 254
191 217 254
191 217 254
191 217 254
191 217 254
191 217 254
191 217 254
191 217 254
191 217 254
191 217 254
191 217 254
191 217 254
191 217 254
191 217 254
191 217 254
191 217 254
191 217 254
191 217 254
191 217 254
191 217 254
191 217 254
191 217 254
191 217 254
191 217 254
191 217 254
191 217 254
191 217 254
191 217 254
191 217 254
191 217 254
191 217 254
191 217 254
191 217 254
191 217 254
191 217 254
191 217 254
191 217 254
191 217 254
191 217 254
191 217 254
191 217 254
191 217 254
191 217 254
191 217 254
191 217 254
191 217 254
191 217 254
191 217 254
191 217 254
191 217 254
191 217 254
191 217 254
191 217 254
191 217 254
191 217 254
192 217 254
191 217 254
191 217 254
191 217 254
191 217 254
192 217 254
192 217 254
191 217 254
192 217 254
192 217 254
192 217 254
192 217 254
192 217 254
192 217 254
192 217 254
192 217 254
192 217 254
192 217 254
192 217 254
192 217 254
192 217 254
192 217 254
192 217 254
192 217 254
192 217 254
192 217 254
192 217 254
192 217 254
192 217 254
192 217 254
192 217 254
192 217 254
192 217 254
192 217 254
192 217 254
192 217 254
192 217 254
192 217 254
192 217 254
192 217 254
192 217 254
192 217 254
192 217 254
192 217 254
192 217 254
192 217 254
192 217 254
192 217 254
192 217 254
192 217 254
192 217 254
192 217 254
192 217 254
192 217 254
192 217 254
192 217 254
192 217 254
192 217 254
192 217 254
192 217 254
192 217 254
192 217 254
192 217 254
192 217 254
192 217 254
192 217 254
23 26 32
10 12 16
8 10 13
10 12 16
10 13 16
10 13 16
11 14 17
9 11 14
9 11 14
10 12 15
10 12 15
9 11 14
10 12 15
9 11 14
9 11 14
9 11 14
9 11 14
9 11 14
10 12 15
9 11 14
9 11 14
9 11 14
11 13 16
9 11 14
11 14 17
11 13 17
10 13 16
10 12 15
9 11 15
10 12 15
9 11 14
8 10 13
10 12 15
11 14 17
9 11 14
9 10 13
10 12 15
10 12 15
9 12 15
10 13 17
8 10 13
9 11 14
9 11 14
8 10 13
10 12 15
10 13 16
9 11 14
10 12 15
9 11 14
9 11 14
9 12 15
8 10 13
11 13 16
10 12 15
7 8 11
9 11 14
9 11 13
10 13 16
9 11 14
8 10 12
9 11 14
9 12 15
9 11 14
11 13 17
9 11 14
10 12 15
9 12 15
10 13 16
9 12 15
9 12 15
9 11 14
10 13 16
10 12 15
11 13 16
10 12 15
9 11 14
9 11 14
9 11 14
10 12 16
10 12 15
9 11 14
9 11 14
10 13 16
8 10 13
9 11 14
9 11 13
9 11 15
8 11 14
10 12 15
10 12 16
11 13 16
8 10 13
11 13 17
11 13 16
10 13 16
10 13 16
9 11 14
9 11 15
8 10 13
11 13 17
10 13 16
10 12 15
9 11 14
10 12 16
11 13 16
10 12 16
10 12 15
10 11 14
9 11 14
10 12 15
9 12 15
10 12 15
11 13 16
10 12 16
9 11 14
9 11 14
10 13 16
8 10 13
10 12 15
9 11 14
11 13 16
8 10 12
8 10 12
9 12 15
10 12 16
12 15 18
8 10 13
10 12 15
10 13 16
24 28 34
192 217 254
192 217 254
192 217 254
192 217 254
192 217 254
192 217 254
192 217 254
192 217 254
192 217 254
192 217 254
192 217 254
192 217 254
192 217 254
192 217 254
192 217 254
192 217 254
192 217 254
192 217 254
192 217 254
192 217 254
192 217 254
192 217 254
192 217 254
192 217 254
192 217 254
192 217 254
192 217 254
192 217 254
192 217 254
192 217 254
192 217 254
192 217 254
192 217 254
192 217 254
192 217 254
192 217 254
192 217 254
192 217 254
192 217 254
192 217 254
192 217 254
192 217 254
192 217 254
192 217 254
192 217 254
192 217 254
192 217 254
192 217 254
192 217 254
192 217 254
192 217 254
192 217 254
192 217 254
192 217 254
192 217 254
192 217 254
192 217 254
192 217 254
192 217 254
192 217 254
192 217 254
192 217 254
191 217 254
191 217 254
191 217 254
192 217 254
192 217 254
192 217 254
191 217 254
191 217 254
191 217 254
191 217 254
191 217 254
191 217 254
191 217 254
191 217 254
191 217 254
191 217 254
191 217 254
191 217 254
191 217 254
191 217 254
191 217 254
191 217 254
191 217 254
191 217 254
191 217 254
191 217 254
191 217 254
191 217 254
191 217 254
191 217 254
191 217 254
191 217 254
191 217 254
191 217 254
191 217 254
191 217 254
191 217 254
191 217 254
191 217 254
191 217 254
191 217 254
191 217 254
191 217 254
191 217 254
191 217 254
191 217 254
191 217 254
191 217 254
191 217 254
191 217 254
191 217 254
191 217 254
191 217 254
191 217 254
191 217 254
191 217 254
191 217 254
191 217 254
191 217 254
191 217 254
191 217 254
191 217 254
191 217 254
191 217 254
191 217 254
191 217 254
191 217 254
191 217 254
191 217 254
191 217 254
191 217 254
191 217 254
191 217 254
192 217 254
192 217 254
192 217 254
192 217 254
192 217 254
192 217 254
192 217 254
192 217 254
192 217 254
192 217 254
192 217 254
192 217 254
192 217 254
192 217 254
192 217 254
192 217 254
192 217 254
192 217 254
192 217 254
192 217 254
192 217 254
192 217 254
192 217 254
192 217 254
192 217 254
192 217 254
192 217 254
192 217 254
192 217 254
192 217 254
192 217 254
192 217 254
192 217 254
192 217 254
192 217 254
192 217 254
192 217 254
192 217 254
192 217 254
192 217 254
192 217 254
192 217 254
192 217 254
192 217 254
192 217 254
192 217 254
192 217 254
192 217 254
192 217 254
192 217 254
192 217 254
192 217 254
192 217 254
192 217 254
192 217 254
192 217 254
192 217 254
192 217 254
192 217 254
192 217 254
192 217 254
192 217 254
192 217 254
192 217 254
192 217 254
192 217 254
192 217 254
192 217 254
192 217 254
192 217 254
192 217 254
192 217 254
192 217 254
192 217 254
192 217 254
192 217 254
192 217 254
192 217 254
192 217 254
192 217 254
192 217 254
192 217 254
192 217 254
192 217 254
192 217 254
192 217 254
192 217 254
192 217 254
192 217 254
192 217 254
192 217 254
192 217 254
192 217 254
192 217 254
192 217 254
192 217 254
192 217 254
192 217 254
192 217 254
192 217 254
192 217 254
192 217 254
192 217 254
192 217 254
192 217 254
192 217 254
192 217 254
192 217 254
192 217 254
192 217 254
192 217 254
192 217 254
192 217 254
192 217 254
192 217 254
192 217 254
192 217 254
192 217 254
192 217 254
192 217 254
192 217 254
192 217 254
192 217 254
192 217 254
192 217 254
192 217 254
192 217 254
192 217 254
192 217 254
192 217 254
192 217 254
192 217 254
192 217 254
192 217 254
192 217 254
36 41 49
10 12 15
8 10 13
10 12 15
10 12 16
10 11 14
10 12 15
10 12 15
11 13 17
9 11 15
8 10 13
9 12 15
9 11 15
10 13 16
8 10 13
9 11 14
9 11 14
9 11 14
8 10 13
11 13 17
9 11 14
10 13 16
9 11 13
11 13 17
10 12 16
8 10 12
9 11 14
8 10 13
9 11 14
10 12 15
9 11 14
8 10 13
10 12 15
10 12 15
9 12 15
10 12 15
9 11 14
9 11 13
10 13 16
11 13 17
9 11 14
9 11 14
9 11 14
8 9 12
10 12 16
11 13 16
10 12 15
10 13 16
9 11 13
8 10 13
10 12 15
8 10 13
9 11 14
9 12 15
9 12 15
9 11 13
10 12 16
10 12 15
10 12 15
9 12 15
9 12 15
11 13 17
9 11 15
9 11 14
7 9 12
9 11 14
10 12 16
10 12 16
10 12 15
9 11 14
10 12 15
9 11 14
8 10 13
9 11 14
10 12 15
9 11 14
10 13 16
10 12 15
9 11 14
9 12 15
10 12 16
9 11 14
10 12 15
10 12 15
10 12 16
11 13 16
9 11 14
9 11 14
10 12 15
10 12 16
9 11 15
10 12 15
9 11 13
8 10 13
9 10 13
11 13 17
9 11 14
9 11 14
10 12 15
9 11 14
10 12 15
10 12 15
9 11 14
9 11 14
8 10 12
10 12 15
9 11 14
8 10 13
10 12 16
9 11 14
9 11 14
10 12 15
9 11 15
9 11 13
9 11 14
10 12 15
11 13 17
8 10 12
9 11 14
9 11 14
9 11 14
11 13 16
8 10 13
9 11 14
7 9 11
10 12 16
11 13 16
10 13 16
8 10 13
37 42 50
192 217 254
192 217 254
192 217 254
192 217 254
192 217 254
192 217 254
192 217 254
192 217 254
192 217 254
192 217 254
192 217 254
192 217 254
192 217 254
192 217 254
192 217 254
192 217 254
192 217 254
192 217 254
192 217 254
192 217 254
192 217 254
192 217 254
192 217 254
192 217 254
192 217 254
192 217 254
192 217 254
192 217 254
192 217 254
192 217 254
192 217 254
192 217 254
192 217 254
192 217 254
192 217 254
192 217 254
192 217 254
192 217 254
192 217 254
192 217 254
192 217 254
192 217 254
192 217 254
192 217 254
192 217 254
192 217 254
192 217 254
192 217 254
192 217 254
192 217 254
192 217 254
192 217 254
192 217 254
192 217 254
192 217 254
192 217 254
192 217 254
192 217 254
192 217 254
192 217 254
192 217 254
192 217 254
192 217 254
192 217 254
192 217 254
192 217 254
192 217 254
192 217 254
192 217 254
192 217 254
192 217 254
192 217 254
192 217 254
192 217 254
192 217 254
192 217 254
192 217 254
192 217 254
192 217 254
192 217 254
192 217 254
192 217 254
192 217 254
192 217 254
192 217 254
192 217 254
192 217 254
192 217 254
192 217 254
192 217 254
192 217 254
192 217 254
192 217 254
192 217 254
192 217 254
192 217 254
192 217 254
192 217 254
192 217 254
192 217 254
192 217 254
192 217 254
192 217 254
192 217 254
192 217 254
192 217 254
192 217 254
192 217 254
192 217 254
192 217 254
192 217 254
192 217 254
192 217 254
192 217 254
192 217 254
192 217 254
192 217 254
192 217 254
192 217 254
192 217 254
192 217 254
192 217 254
192 217 254
192 217 254
192 217 254
192 217 254
192 217 254
192 217 254
192 217 254
192 217 254
192 217 254
192 217 254
192 217 254
192 217 254
192 217 254
192 217 254
192 217 254
192 217 254
192 217 254
192 217 254
192 217 254
192 217 254
192 217 254
192 217 254
192 217 254
192 217 254
192 217 254
192 217 254
192 217 254
192 217 254
192 217 254
192 217 254
192 217 254
192 217 254
192 217 254
192 217 254
192 217 254
192 217 254
192 217 254
192 217 254
192 217 254
192 217 254
192 217 254
192 217 254
192 217 254
192 217 254
192 217 254
192 217 254
192 217 254
192 217 254
192 217 254
192 217 254
192 217 254
192 217 254
192 217 254
192 217 254
192 217 254
192 217 254
192 217 254
192 217 254
192 217 254
192 217 254
192 217 254
192 217 254
192 217 254
192 217 254
192 217 254
192 217 254
192 217 254
192 217 254
192 217 254
192 217 254
192 217 254
192 217 254
192 217 254
192 217 254
192 217 254
192 217 254
192 217 254
192 217 254
192 217 254
192 217 254
192 217 254
192 217 254
192 217 254
192 217 254
192 217 254
192 217 254
192 217 254
192 217 254
192 217 254
192 217 254
192 217 254
192 217 254
192 217 254
192 217 254
192 217 254
192 217 254
192 217 254
192 217 254
192 217 254
192 217 254
192 217 254
192 217 254
192 217 254
192 217 254
192 217 254
192 217 254
192 217 254
192 217 254
192 217 254
192 217 254
192 217 254
192 217 254
192 217 254
192 217 254
192 217 254
192 217 254
192 217 254
192 217 254
192 217 254
192 217 254
192 217 254
192 217 254
193 217 254
193 217 254
193 217 254
193 217 254
193 217 254
193 217 254
193 217 254
193 217 254
193 217 254
193 217 254
193 217 254
193 217 254
193 217 254
193 217 254
193 217 254
193 217 254
193 217 254
193 217 254
193 217 254
193 217 254
193 217 254
193 217 254
193 217 254
193 217 254
193 217 254
193 217 254
48 55 65
10 12 15
9 11 15
10 12 16
9 11 14
8 10 13
10 12 15
10 12 15
9 11 14
9 11 14
9 11 14
9 11 14
11 13 17
9 12 15
10 12 16
10 12 15
10 12 15
9 12 15
9 11 14
10 12 15
10 12 15
10 12 15
10 12 16
9 12 15
9 11 14
8 10 13
9 11 14
9 11 14
10 13 16
9 11 14
9 11 14
10 12 16
10 12 16
10 12 15
9 11 15
11 13 16
9 11 14
11 13 16
8 10 13
9 11 13
9 11 15
8 10 13
9 12 15
10 12 15
10 12 15
9 11 14
10 13 16
8 10 13
7 8 11
9 11 14
8 10 13
9 11 14
10 12 16
9 11 14
10 12 15
10 12 15
8 10 13
9 11 15
9 11 14
9 11 13
9 11 14
10 13 16
10 13 16
9 11 14
9 11 14
9 11 14
10 12 16
10 12 16
10 12 16
9 11 14
9 11 14
10 12 16
9 11 14
8 10 12
9 11 13
9 12 15
11 13 16
9 11 14
9 11 15
8 10 13
10 12 15
9 11 14
9 11 14
9 10 13
10 13 16
9 10 13
9 12 15
10 12 16
11 13 17
11 13 17
9 11 14
10 13 16
10 12 15
9 11 14
8 10 13
10 12 15
10 13 16
9 11 14
9 11 14
10 13 16
10 12 16
8 10 13
9 11 14
9 11 14
8 10 13
10 12 15
10 12 16
10 12 16
8 10 13
9 12 15
8 10 13
9 11 13
11 13 16
8 10 13
8 10 13
9 11 15
10 12 15
8 10 13
9 11 14
10 12 15
9 10 13
8 9 12
9 10 13
9 12 15
10 13 16
7 9 11
8 10 13
9 11 14
9 11 14
44 50 60
193 217 254
193 217 254
193 217 254
193 217 254
193 217 254
193 217 254
193 217 254
193 217 254
193 217 254
193 217 254
193 217 254
193 217 254
193 217 254
193 217 254
193 217 254
193 217 254
193 217 254
193 217 254
193 217 254
193 217 254
193 217 254
193 217 254
193 217 254
193 217 254
193 217 254
193 217 254
192 217 254
192 217 254
193 217 254
193 217 254
192 217 254
192 217 254
192 217 254
192 217 254
192 217 254
192 217 254
192 217 254
192 217 254
192 217 254
192 217 254
192 217 254
192 217 254
192 217 254
192 217 254
192 217 254
192 217 254
192 217 254
192 217 254
192 217 254
192 217 254
192 217 254
192 217 254
192 217 254
192 217 254
192 217 254
192 217 254
192 217 254
192 217 254
192 217 254
192 217 254
192 217 254
192 217 254
192 217 254
192 217 254
192 217 254
192 217 254
192 217 254
192 217 254
192 217 254
192 217 254
192 217 254
192 217 254
192 217 254
192 217 254
192 217 254
192 217 254
192 217 254
192 217 254
192 217 254
192 217 254
192 217 254
192 217 254
192 217 254
192 217 254
192 217 254
192 217 254
192 217 254
192 217 254
192 217 254
192 217 254
192 217 254
192 217 254
192 217 254
192 217 254
192 217 254
192 217 254
192 217 254
192 217 254
192 217 254
192 217 254
192 217 254
192 217 254
192 217 254
192 217 254
192 217 254
192 217 254
192 217 254
192 217 254
192 217 254
192 217 254
192 217 254
192 217 254
192 217 254
192 217 254
192 217 254
192 217 254
192 217 254
192 217 254
192 217 254
192 217 254
192 217 254
192 217 254
192 217 254
192 217 254
192 217 254
192 217 254
192 217 254
192 217 254
192 217 254
192 217 254
192 217 254
192 217 254
192 217 254
192 217 254
192 217 254
192 217 254
192 217 254
192 217 254
192 217 254
192 217 254
192 217 254
192 217 254
192 217 254
192 217 254
192 217 254
192 217 254
192 217 254
192 217 254
192 217 254
192 217 254
192 217 254
192 217 254
192 217 254
192 217 254
192 217 254
192 217 254
192 217 254
192 217 254
192 217 254
192 217 254
192 217 254
192 217 254
192 217 254
192 217 254
192 217 254
192 217 254
192 217 254
192 217 254
192 217 254
192 217 254
192 217 254
192 217 254
192 217 254
192 217 254
192 217 254
192 217 254
192 217 254
192 217 254
192 217 254
192 217 254
192 217 254
192 217 254
192 217 254
192 217 254
192 217 254
192 217 254
192 217 254
192 217 254
192 217 254
192 217 254
192 217 254
193 217 254
192 217 254
193 217 254
193 217 254
193 217 254
193 217 254
193 217 254
193 217 254
193 217 254
193 217 254
193 217 254
193 217 254
193 217 254
193 217 254
193 217 254
193 217 254
193 217 254
193 217 254
193 217 254
193 217 254
193 217 254
193 217 254
193 217 254
193 217 254
193 217 254
193 217 254
193 217 254
193 217 254
193 217 254
193 217 254
193 217 254
193 217 254
193 217 254
193 217 254
193 217 254
193 217 254
193 217 254
193 217 254
193 217 254
193 217 254
193 217 254
193 218 254
193 218 254
193 218 254
193 218 254
193 218 254
193 218 254
193 218 254
193 218 254
193 218 254
193 218 254
193 218 254
193 218 254
193 218 254
193 218 254
193 218 254
193 218 254
193 218 254
193 218 254
193 218 254
193 218 254
193 218 254
193 218 254
193 218 254
193 218 254
193 218 254
193 218 254
193 218 254
193 218 254
193 218 254
193 218 254
193 218 254
193 218 254
193 218 254
193 218 254
193 218 254
193 218 254
193 218 254
193 218 254
65 74 87
9 11 14
10 12 15
9 10 13
8 9 12
8 10 13
10 12 15
9 10 13
8 10 13
10 13 16
10 13 16
8 10 13
9 11 14
9 11 13
8 10 12
8 10 13
11 13 16
9 11 14
9 11 15
10 13 16
9 11 14
9 11 15
9 11 13
9 11 14
8 10 13
10 12 15
10 12 15
10 12 15
9 11 14
9 11 14
9 11 15
9 11 14
10 12 15
10 13 16
9 11 14
9 11 14
9 11 14
9 11 15
10 12 16
9 11 13
9 11 14
9 11 13
10 13 16
10 13 16
9 11 14
9 11 14
9 11 14
11 13 16
9 11 14
9 11 14
9 11 14
9 11 13
7 9 12
10 12 15
8 10 13
10 12 15
9 10 13
8 10 13
9 11 14
10 12 15
10 12 15
10 12 15
9 11 14
8 10 13
10 12 15
10 12 16
10 12 16
10 12 15
9 11 14
9 11 14
8 10 13
10 12 16
9 11 14
9 11 14
9 11 14
10 12 15
10 12 15
10 12 15
9 11 14
9 12 15
9 11 14
10 12 15
10 12 15
9 11 14
10 13 16
8 10 13
9 11 14
9 11 14
9 10 13
9 10 13
9 11 14
10 12 15
10 12 15
8 10 13
9 11 14
9 12 15
8 10 13
10 12 15
9 11 14
11 13 17
9 11 14
10 12 15
9 11 14
10 12 15
8 10 13
10 12 15
10 12 15
8 10 12
9 11 14
8 9 12
10 13 16
8 10 13
10 12 15
9 11 14
9 11 14
10 12 14
9 11 14
10 12 15
9 11 14
10 12 15
10 12 15
9 11 14
9 11 15
9 11 14
9 11 14
8 10 13
9 11 14
10 13 16
8 10 13
58 66 78
193 218 254
193 218 254
193 218 254
193 218 254
193 218 254
193 218 254
193 218 254
193 218 254
193 218 254
193 218 254
193 218 254
193 218 254
193 218 254
193 218 254
193 218 254
193 218 254
193 218 254
193 218 254
193 218 254
193 218 254
193 218 254
193 218 254
193 218 254
193 218 254
193 218 254
193 218 254
193 218 254
193 218 254
193 218 254
193 218 254
193 218 254
193 218 254
193 218 254
193 218 254
193 218 254
193 218 254
193 218 254
193 218 254
193 218 254
193 218 254
193 217 254
193 217 254
193 217 254
193 217 254
193 217 254
193 217 254
193 217 254
193 217 254
193 217 254
193 217 254
193 217 254
193 217 254
193 217 254
193 217 254
193 217 254
193 217 254
193 217 254
193 217 254
193 217 254
193 217 254
193 217 254
193 217 254
193 217 254
193 217 254
193 217 254
193 217 254
193 217 254
193 217 254
193 217 254
193 217 254
193 217 254
193 217 254
193 217 254
193 217 254
193 217 254
193 217 254
193 217 254
193 217 254
192 217 254
192 217 254
192 217 254
192 217 254
192 217 254
192 217 254
192 217 254
192 217 254
192 217 254
192 217 254
192 217 254
192 217 254
192 217 254
192 217 254
192 217 254
192 217 254
192 217 254
192 217 254
192 217 254
192 217 254
192 217 254
192 217 254
192 217 254
192 217 254
192 217 254
192 217 254
192 217 254
192 217 254
192 217 254
192 217 254
192 217 254
192 217 254
192 217 254
192 217 254
192 217 254
192 217 254
192 217 254
192 217 254
192 217 254
192 217 254
192 217 254
192 217 254
192 217 254
192 217 254
192 217 254
192 217 254
192 217 254
192 217 254
192 217 254
192 217 254
192 217 254
192 217 254
192 217 254
192 217 254
192 217 254
192 217 254
192 217 254
192 217 254
192 217 254
192 217 254
192 217 254
192 217 254
192 217 254
192 217 254
192 217 254
192 217 254
192 217 254
192 217 254
192 217 254
192 217 254
193 217 254
193 217 254
193 217 254
193 217 254
193 217 254
193 217 254
193 217 254
193 217 254
193 217 254
193 217 254
193 217 254
193 217 254
193 217 254
193 217 254
193 217 254
193 217 254
193 217 254
193 217 254
193 217 254
193 217 254
193 217 254
193 217 254
193 217 254
193 217 254
193 217 254
193 217 254
193 217 254
193 217 254
193 217 254
193 217 254
193 217 254
193 217 254
193 217 254
193 217 254
193 217 254
193 217 254
193 217 254
193 217 254
193 217 254
193 217 254
193 217 254
193 218 254
193 218 254
193 218 254
193 218 254
193 218 254
193 218 254
193 218 254
193 218 254
193 218 254
193 218 254
193 218 254
193 218 254
193 218 254
193 218 254
193 218 254
193 218 254
193 218 254
193 218 254
193 218 254
193 218 254
193 218 254
193 218 254
193 218 254
193 218 254
193 218 254
193 218 254
193 218 254
193 218 254
193 218 254
193 218 254
193 218 254
193 218 254
193 218 254
193 218 254
193 218 254
193 218 254
193 218 254
193 218 254
193 218 254
193 218 254
193 218 254
193 218 254
193 218 254
193 218 254
193 218 254
193 218 254
193 218 254
193 218 254
193 218 254
193 218 254
193 218 254
193 218 254
193 218 254
193 218 254
193 218 254
193 218 254
193 218 254
193 218 254
193 218 254
193 218 254
193 218 254
193 218 254
193 218 254
193 218 254
193 218 254
194 218 254
193 218 254
194 218 254
194 218 254
194 218 254
194 218 254
194 218 254
194 218 254
194 218 254
194 218 254
194 218 254
194 218 254
194 218 254
194 218 254
194 218 254
194 218 254
71 80 95
8 10 12
9 10 13
9 11 14
9 11 15
9 11 13
8 10 13
9 12 15
8 10 13
9 11 14
10 12 15
9 11 14
8 10 13
9 11 14
9 11 14
10 12 16
9 11 14
8 10 13
11 13 17
11 13 17
9 11 14
8 10 13
9 12 15
9 11 14
10 12 15
10 12 16
11 13 16
12 14 18
11 13 16
9 11 14
9 11 14
9 11 15
10 12 15
9 11 13
10 12 15
8 10 13
10 12 16
9 11 14
9 11 15
8 10 13
8 10 13
10 12 16
10 12 16
9 11 14
10 12 16
10 12 16
9 11 14
9 11 13
8 9 12
10 12 16
9 11 14
9 11 14
10 12 15
8 10 13
10 12 15
9 11 14
10 12 15
8 10 13
9 11 14
9 11 15
9 11 14
10 12 16
9 11 14
9 11 13
10 12 16
9 11 14
9 10 13
9 11 14
10 12 15
10 12 15
10 13 16
10 12 15
9 11 14
8 10 13
9 10 13
9 11 14
8 10 13
9 11 14
9 12 15
8 10 13
10 12 16
8 10 13
9 11 14
8 10 12
10 12 15
10 12 15
9 11 14
11 13 16
9 11 14
9 11 14
9 11 14
9 12 15
9 11 14
8 10 13
8 9 12
8 10 13
10 12 15
10 12 15
10 13 16
8 10 13
9 11 14
9 11 14
11 13 16
9 11 14
10 12 15
11 13 17
9 12 15
9 11 14
8 10 13
8 10 12
10 13 16
9 11 14
9 11 13
9 11 13
8 10 13
10 12 15
9 11 14
9 11 14
9 12 15
9 11 14
9 11 14
9 11 14
10 12 15
9 10 13
9 11 14
10 12 15
9 11 14
9 11 14
10 13 16
81 92 108
194 218 254
194 218 254
194 218 254
194 218 254
194 218 254
194 218 254
194 218 254
194 218 254
194 218 254
194 218 254
194 218 254
194 218 254
194 218 254
194 218 254
194 218 254
194 218 254
193 218 254
193 218 254
193 218 254
193 218 254
193 218 254
193 218 254
193 218 254
193 218 254
193 218 254
193 218 254
193 218 254
193 218 254
193 218 254
193 218 254
193 218 254
193 218 254
193 218 254
193 218 254
193 218 254
193 218 254
193 218 254
193 218 254
193 218 254
193 218 254
193 218 254
193 218 254
193 218 254
193 218 254
193 218 254
193 218 254
193 218 254
193 218 254
193 218 254
193 218 254
193 218 254
193 218 254
193 218 254
193 218 254
193 218 254
193 218 254
193 218 254
193 218 254
193 218 254
193 218 254
193 218 254
193 218 254
193 218 254
193 218 254
193 218 254
193 218 254
193 218 254
193 218 254
193 218 254
193 218 254
193 218 254
193 218 254
193 218 254
193 218 254
193 218 254
193 218 254
193 218 254
193 218 254
193 218 254
193 218 254
193 217 254
193 217 254
193 217 254
193 217 254
193 217 254
193 217 254
193 217 254
193 217 254
193 217 254
193 217 254
193 217 254
193 217 254
193 217 254
193 217 254
193 217 254
193 217 254
193 217 254
193 217 254
193 217 254
193 217 254
193 217 254
193 217 254
193 217 254
193 217 254
193 217 254
193 217 254
193 217 254
193 217 254
193 217 254
193 217 254
193 217 254
193 217 254
193 217 254
193 217 254
193 217 254
193 217 254
193 217 254
193 217 254
193 217 254
193 217 254
193 217 254
193 217 254
192 217 254
192 217 254
192 217 254
192 217 254
192 217 254
192 217 254
192 217 254
192 217 254
192 217 254
192 217 254
192 217 254
192 217 254
192 217 254
193 217 254
193 217 254
193 217 254
193 217 254
193 217 254
193 217 254
193 217 254
193 217 254
193 217 254
193 217 254
193 217 254
193 217 254
193 217 254
193 217 254
193 217 254
193 217 254
193 217 254
193 218 254
193 218 254
193 218 254
193 218 254
193 218 254
193 218 254
193 218 254
193 218 254
193 218 254
193 218 254
193 218 254
193 218 254
193 218 254
193 218 254
193 218 254
193 218 254
193 218 254
193 218 254
193 218 254
193 218 254
193 218 254
193 218 254
193 218 254
193 218 254
193 218 254
193 218 254
193 218 254
193 218 254
193 218 254
193 218 254
193 218 254
193 218 254
193 218 254
193 218 254
193 218 254
193 218 254
193 218 254
193 218 254
193 218 254
193 218 254
193 218 254
193 218 254
193 218 254
193 218 254
193 218 254
193 218 254
193 218 254
193 218 254
193 218 254
193 218 254
193 218 254
193 218 254
193 218 254
193 218 254
193 218 254
193 218 254
193 218 254
193 218 254
193 218 254
193 218 254
193 218 254
193 218 254
193 218 254
193 218 254
193 218 254
193 218 254
193 218 254
194 218 254
194 218 254
194 218 254
194 218 254
194 218 254
194 218 254
194 218 254
194 218 254
194 218 254
194 218 254
194 218 254
194 218 254
194 218 254
194 218 254
194 218 254
194 218 254
194 218 254
194 218 254
194 218 254
194 218 254
194 218 254
194 218 254
194 218 254
194 218 254
194 218 254
194 218 254
194 218 254
194 218 254
194 218 254
194 218 254
194 218 254
194 218 254
194 218 254
194 218 254
194 218 254
194 218 254
194 218 254
194 218 254
194 218 254
194 218 254
194 218 254
194 218 254
194 218 254
194 218 254
194 218 254
194 218 254
194 218 254
194 218 254
194 218 254
194 218 254
194 218 254
100 113 132
9 11 14
9 12 15
9 11 14
8 10 13
8 10 13
9 11 14
9 11 14
9 11 13
8 10 12
10 12 16
10 13 16
9 11 15
9 11 14
10 12 15
7 9 12
10 12 15
9 11 14
9 11 14
8 10 13
9 11 14
10 12 15
9 11 14
10 12 15
9 11 14
9 11 14
9 11 14
9 11 14
9 10 13
10 12 15
9 11 14
9 11 14
9 11 14
8 10 13
9 10 13
9 11 14
10 12 15
11 13 16
10 12 15
9 11 14
9 11 14
9 10 13
11 13 16
10 12 16
10 12 15
8 10 13
9 11 15
9 11 14
8 10 12
8 10 13
9 12 15
9 12 15
9 11 14
9 11 13
8 10 13
9 11 14
11 13 17
9 11 14
10 13 16
9 11 14
9 11 14
9 11 14
9 11 14
9 11 14
10 12 15
9 11 14
9 11 15
9 11 14
9 11 14
10 12 15
8 10 13
8 10 13
9 10 13
9 11 14
11 13 16
9 11 14
8 10 13
10 12 15
8 10 13
9 11 13
9 11 13
8 10 13
9 11 14
9 11 14
9 11 14
10 12 15
8 10 13
9 11 15
10 12 15
9 11 14
9 10 13
10 12 15
11 13 16
7 9 12
9 11 14
9 12 15
8 10 13
8 10 13
8 10 13
8 10 12
11 13 17
9 11 14
9 11 14
9 11 14
9 10 13
10 12 15
9 11 14
8 10 13
8 10 13
9 11 15
9 11 15
9 11 14
9 11 14
9 11 14
8 10 13
8 10 13
8 10 13
9 11 15
9 11 14
9 11 15
8 10 13
10 12 15
10 12 15
9 11 14
9 11 15
11 13 16
10 12 15
9 11 14
10 13 16
96 109 127
194 218 254
194 218 254
194 218 254
194 218 254
194 218 254
194 218 254
194 218 254
194 218 254
194 218 254
194 218 254
194 218 254
194 218 254
194 218 254
194 218 254
194 218 254
194 218 254
194 218 254
194 218 254
194 218 254
194 218 254
194 218 254
194 218 254
194 218 254
194 218 254
194 218 254
194 218 254
194 218 254
194 218 254
194 218 254
194 218 254
194 218 254
194 218 254
194 218 254
194 218 254
194 218 254
194 218 254
194 218 254
194 218 254
194 218 254
194 218 254
194 218 254
194 218 254
194 218 254
194 218 254
194 218 254
194 218 254
194 218 254
194 218 254
194 218 254
194 218 254
194 218 254
193 218 254
194 218 254
193 218 254
193 218 254
193 218 254
193 218 254
193 218 254
193 218 254
193 218 254
193 218 254
193 218 254
193 218 254
193 218 254
193 218 254
193 218 254
193 218 254
193 218 254
193 218 254
193 218 254
193 218 254
193 218 254
193 218 254
193 218 254
193 218 254
193 218 254
193 218 254
193 218 254
193 218 254
193 218 254
193 218 254
193 218 254
193 218 254
193 218 254
193 218 254
193 218 254
193 218 254
193 218 254
193 218 254
193 218 254
193 218 254
193 218 254
193 218 254
193 218 254
193 218 254
193 218 254
193 218 254
193 218 254
193 218 254
193 218 254
193 218 254
193 218 254
193 218 254
193 218 254
193 218 254
193 218 254
193 218 254
193 218 254
193 218 254
193 218 254
193 218 254
193 218 254
193 218 254
193 218 254
193 218 254
193 218 254
193 218 254
193 217 254
193 218 254
193 217 254
193 217 254
193 217 254
193 217 254
193 217 254
193 217 254
193 217 254
193 217 254
193 217 254
193 217 254
193 217 254
193 217 254
193 217 254
193 217 254
193 217 254
193 217 254
193 218 254
193 218 254
193 218 254
193 218 254
193 218 254
193 218 254
193 218 254
193 218 254
193 218 254
193 218 254
193 218 254
193 218 254
193 218 254
193 218 254
193 218 254
193 218 254
193 218 254
193 218 254
193 218 254
193 218 254
193 218 254
193 218 254
193 218 254
193 218 254
193 218 254
193 218 254
193 218 254
193 218 254
193 218 254
193 218 254
193 218 254
193 218 254
193 218 254
193 218 254
193 218 254
193 218 254
193 218 254
193 218 254
193 218 254
193 218 254
193 218 254
193 218 254
193 218 254
193 218 254
193 218 254
193 218 254
193 218 254
193 218 254
193 218 254
193 218 254
193 218 254
193 218 254
193 218 254
194 218 254
194 218 254
194 218 254
194 218 254
194 218 254
194 218 254
194 218 254
194 218 254
194 218 254
194 218 254
194 218 254
194 218 254
194 218 254
194 218 254
194 218 254
194 218 254
194 218 254
194 218 254
194 218 254
194 218 254
194 218 254
194 218 254
194 218 254
194 218 254
194 218 254
194 218 254
194 218 254
194 218 254
194 218 254
194 218 254
194 218 254
194 218 254
194 218 254
194 218 254
194 218 254
194 218 254
194 218 254
194 218 254
194 218 254
194 218 254
194 218 254
194 218 254
194 218 254
194 218 254
194 218 254
194 218 254
194 218 254
194 218 254
194 218 254
194 218 254
194 218 254
194 218 254
194 218 254
194 218 254
194 218 254
194 218 254
194 218 254
194 218 254
194 218 254
194 218 254
194 218 254
194 218 254
194 218 254
194 218 254
194 218 254
194 218 254
194 218 254
194 218 254
194 218 254
194 218 254
194 218 254
194 218 254
195 219 254
195 219 254
195 219 254
195 219 254
195 219 254
195 219 254
195 219 254
195 219 254
195 219 254
195 219 254
103 116 135
7 9 11
9 11 15
7 9 12
10 12 15
9 10 13
8 10 13
9 11 14
9 10 13
9 11 14
11 13 16
8 10 13
7 9 12
9 11 14
9 10 13
9 11 14
9 11 14
9 10 13
10 12 15
8 10 13
10 13 16
9 10 13
10 12 16
8 10 13
9 11 15
9 11 15
9 11 15
9 11 14
9 10 13
10 12 16
9 10 13
9 11 13
9 12 15
9 11 14
9 11 13
10 12 15
9 11 14
10 12 16
8 10 13
7 9 12
8 10 13
9 10 13
9 11 14
9 11 14
10 12 15
10 12 16
11 13 17
9 11 14
9 10 13
9 12 15
9 11 14
8 10 13
9 12 15
11 13 16
9 11 14
9 11 15
9 11 14
9 11 15
9 11 14
10 12 15
9 10 13
8 10 13
8 10 13
8 10 12
10 13 16
10 12 15
10 12 16
9 11 14
8 10 13
9 11 13
10 12 15
9 11 14
9 11 14
8 10 13
10 12 15
8 10 12
10 12 15
10 12 15
8 10 13
9 11 14
9 11 15
9 11 14
8 10 13
8 10 13
8 10 13
9 11 14
10 12 15
10 12 15
9 12 15
9 11 14
9 11 14
10 12 15
8 10 12
9 11 14
9 11 14
9 11 14
9 11 14
9 10 13
9 11 14
10 12 15
8 10 12
10 12 15
9 11 15
9 11 14
9 12 15
9 11 14
8 9 12
9 11 14
9 10 13
8 10 12
7 9 11
10 12 16
9 10 13
9 11 15
9 11 14
9 10 13
9 12 15
8 10 13
10 12 15
10 13 16
9 11 14
11 13 17
9 11 14
10 12 15
9 11 15
8 10 13
9 11 14
9 11 15
8 10 12
110 124 144
195 219 254
195 219 254
195 219 254
195 219 254
195 219 254
195 219 254
195 219 254
195 219 254
195 219 254
195 219 254
195 219 254
194 218 254
194 218 254
194 218 254
194 218 254
194 218 254
194 218 254
194 218 254
194 218 254
194 218 254
194 218 254
194 218 254
194 218 254
194 218 254
194 218 254
194 218 254
194 218 254
194 218 254
194 218 254
194 218 254
194 218 254
194 218 254
194 218 254
194 218 254
194 218 254
194 218 254
194 218 254
194 218 254
194 218 254
194 218 254
194 218 254
194 218 254
194 218 254
194 218 254
194 218 254
194 218 254
194 218 254
194 218 254
194 218 254
194 218 254
194 218 254
194 218 254
194 218 254
194 218 254
194 218 254
194 218 254
194 218 254
194 218 254
194 218 254
194 218 254
194 218 254
194 218 254
194 218 254
194 218 254
194 218 254
194 218 254
194 218 254
194 218 254
194 218 254
194 218 254
194 218 254
194 218 254
194 218 254
194 218 254
194 218 254
194 218 254
194 218 254
194 218 254
194 218 254
194 218 254
194 218 254
194 218 254
193 218 254
193 218 254
193 218 254
193 218 254
193 218 254
193 218 254
193 218 254
193 218 254
193 218 254
193 218 254
193 218 254
193 218 254
193 218 254
193 218 254
193 218 254
193 218 254
193 218 254
193 218 254
193 218 254
193 218 254
193 218 254
193 218 254
193 218 254
193 218 254
193 218 254
193 218 254
193 218 254
193 218 254
193 218 254
193 218 254
193 218 254
193 218 254
193 218 254
193 218 254
193 218 254
193 218 254
193 218 254
193 218 254
193 218 254
193 218 254
193 218 254
193 218 254
193 218 254
193 218 254
193 218 254
193 218 254
193 218 254
193 218 254
193 218 254
193 218 254
193 218 254
193 218 254
193 218 254
193 218 254
193 218 254
193 218 254
193 218 254
193 218 254
193 218 254
193 218 254
193 218 254
193 218 254
193 218 254
193 218 254
193 218 254
193 218 254
193 218 254
193 218 254
193 218 254
193 218 254
193 218 254
193 218 254
193 218 254
193 218 254
193 218 254
193 218 254
193 218 254
194 218 254
194 218 254
194 218 254
194 218 254
194 218 254
194 218 254
194 218 254
194 218 254
194 218 254
194 218 254
194 218 254
194 218 254
194 218 254
194 218 254
194 218 254
194 218 254
194 218 254
194 218 254
194 218 254
194 218 254
194 218 254
194 218 254
194 218 254
194 218 254
194 218 254
194 218 254
194 218 254
194 218 254
194 218 254
194 218 254
194 218 254
194 218 254
194 218 254
194 218 254
194 218 254
194 218 254
194 218 254
194 218 254
194 218 254
194 218 254
194 218 254
194 218 254
194 218 254
194 218 254
194 218 254
194 218 254
194 218 254
194 218 254
194 218 254
194 218 254
194 218 254
194 218 254
194 218 254
194 218 254
194 218 254
194 218 254
194 218 254
194 218 254
194 218 254
194 218 254
194 218 254
194 218 254
194 218 254
194 218 254
194 218 254
194 218 254
194 218 254
194 218 254
194 218 254
194 218 254
194 218 254
194 218 254
194 218 254
195 219 254
195 219 254
195 219 254
195 219 254
195 219 254
195 219 254
195 219 254
195 219 254
195 219 254
195 219 254
195 219 254
195 219 254
195 219 254
195 219 254
195 219 254
195 219 254
195 219 254
195 219 254
195 219 254
195 219 254
195 219 254
195 219 254
195 219 254
195 219 254
195 219 254
195 219 254
195 219 254
195 219 254
195 219 254
195 219 254
195 219 254
195 219 254
195 219 254
195 219 254
195 219 254
195 219 254
195 219 254
195 219 254
143 161 187
7 9 11
9 12 15
8 10 13
8 10 12
8 10 13
10 12 16
8 10 13
9 11 15
8 10 13
9 11 15
9 11 13
10 12 15
9 11 14
9 11 14
9 12 15
9 11 14
9 11 14
9 11 13
8 10 13
9 11 14
8 10 13
8 10 13
8 10 12
8 10 13
8 10 12
8 10 12
9 11 14
10 13 16
9 12 15
9 11 14
10 12 15
8 10 12
9 11 14
9 11 14
10 12 15
9 11 13
10 12 15
9 10 13
9 10 13
10 12 15
9 11 14
9 11 14
9 12 15
9 11 14
9 12 15
10 12 15
8 10 13
8 11 14
8 10 13
8 10 13
8 10 13
8 10 13
8 10 12
11 13 17
9 10 13
8 10 13
9 11 14
9 11 14
10 12 15
8 10 13
8 10 13
9 11 14
10 13 16
8 10 12
9 10 13
8 10 13
9 11 14
10 12 15
9 11 15
11 13 17
9 12 15
10 13 16
9 12 15
8 10 13
10 12 15
10 12 15
9 11 14
8 10 13
10 12 15
8 10 13
8 10 12
8 10 12
10 13 16
9 11 14
9 11 14
8 10 13
10 12 15
8 10 13
8 10 12
9 10 13
8 10 12
8 10 13
10 12 16
9 11 14
8 10 13
8 10 13
9 12 15
10 13 16
11 13 17
10 13 16
10 12 15
8 10 13
11 13 17
10 12 15
10 12 15
8 10 13
9 11 14
7 9 12
8 9 12
11 13 17
9 11 14
8 9 12
8 10 12
9 11 14
8 9 12
10 12 16
9 11 14
9 11 14
9 11 14
8 10 13
8 10 13
10 12 16
8 9 12
9 11 13
9 11 14
9 11 14
8 10 12
8 10 13
120 135 157
195 219 254
195 219 254
195 219 254
195 219 254
195 219 254
195 219 254
195 219 254
195 219 254
195 219 254
195 219 254
195 219 254
195 219 254
195 219 254
195 219 254
195 219 254
195 219 254
195 219 254
195 219 254
195 219 254
195 219 254
195 219 254
195 219 254
195 219 254
195 219 254
195 219 254
195 219 254
195 219 254
195 219 254
195 219 254
195 219 254
195 219 254
195 219 254
195 219 254
195 219 254
195 219 254
195 219 254
195 219 254
195 219 254
194 218 254
194 218 254
194 218 254
194 218 254
194 218 254
194 218 254
194 218 254
194 218 254
194 218 254
194 218 254
194 218 254
194 218 254
194 218 254
194 218 254
194 218 254
194 218 254
194 218 254
194 218 254
194 218 254
194 218 254
194 218 254
194 218 254
194 218 254
194 218 254
194 218 254
194 218 254
194 218 254
194 218 254
194 218 254
194 218 254
194 218 254
194 218 254
194 218 254
194 218 254
194 218 254
194 218 254
194 218 254
194 218 254
194 218 254
194 218 254
194 218 254
194 218 254
194 218 254
194 218 254
194 218 254
194 218 254
194 218 254
194 218 254
194 218 254
194 218 254
194 218 254
194 218 254
194 218 254
194 218 254
194 218 254
194 218 254
194 218 254
194 218 254
194 218 254
194 218 254
194 218 254
194 218 254
194 218 254
194 218 254
194 218 254
194 218 254
194 218 254
194 218 254
194 218 254
194 218 254
194 218 254
194 218 254
194 218 254
193 218 254
193 218 254
193 218 254
193 218 254
193 218 254
193 218 254
193 218 254
193 218 254
193 218 254
193 218 254
193 218 254
193 218 254
193 218 254
193 218 254
193 218 254
193 218 254
193 218 254
193 218 254
193 218 254
193 218 254
193 218 254
193 218 254
193 218 254
193 218 254
194 218 254
194 218 254
194 218 254
194 218 254
194 218 254
194 218 254
194 218 254
194 218 254
194 218 254
194 218 254
194 218 254
194 218 254
194 218 254
194 218 254
194 218 254
194 218 254
194 218 254
194 218 254
194 218 254
194 218 254
194 218 254
194 218 254
194 218 254
194 218 254
194 218 254
194 218 254
194 218 254
194 218 254
194 218 254
194 218 254
194 218 254
194 218 254
194 218 254
194 218 254
194 218 254
194 218 254
194 218 254
194 218 254
194 218 254
194 218 254
194 218 254
194 218 254
194 218 254
194 218 254
194 218 254
194 218 254
194 218 254
194 218 254
194 218 254
194 218 254
194 218 254
194 218 254
194 218 254
194 218 254
194 218 254
194 218 254
194 218 254
194 218 254
194 218 254
194 218 254
194 218 254
194 218 254
194 218 254
194 218 254
194 218 254
194 218 254
194 218 254
194 218 254
194 218 254
194 218 254
194 218 254
194 218 254
194 218 254
195 219 254
195 219 254
195 219 254
195 219 254
195 219 254
195 219 254
195 219 254
195 219 254
195 219 254
195 219 254
195 219 254
195 219 254
195 219 254
195 219 254
195 219 254
195 219 254
195 219 254
195 219 254
195 219 254
195 219 254
195 219 254
195 219 254
195 219 254
195 219 254
195 219 254
195 219 254
195 219 254
195 219 254
195 219 254
195 219 254
195 219 254
195 219 254
195 219 254
195 219 254
195 219 254
195 219 254
195 219 254
195 219 254
195 219 254
195 219 254
195 219 254
195 219 254
195 219 254
195 219 254
195 219 254
195 219 254
195 219 254
195 219 254
195 219 254
195 219 254
195 219 254
195 219 254
195 219 254
195 219 254
196 219 254
196 219 254
196 219 254
196 219 254
196 219 254
196 219 254
196 219 254
196 219 254
159 178 207
8 10 13
8 10 13
8 9 12
8 10 13
8 10 13
10 12 15
10 12 15
9 11 13
9 11 14
9 11 14
10 12 15
9 11 14
10 12 15
10 13 16
8 10 13
9 11 13
9 11 14
9 11 15
9 11 14
10 12 16
9 11 14
8 10 13
7 8 11
9 11 14
10 12 15
8 9 12
8 10 12
9 11 14
9 11 14
10 12 15
9 12 15
9 11 14
8 10 13
9 11 14
11 13 16
9 11 14
9 11 14
8 10 13
9 12 15
8 10 13
9 11 14
10 12 15
10 12 16
9 11 14
9 11 14
8 10 13
9 11 14
9 11 14
8 10 13
8 10 13
9 11 14
8 10 13
8 10 13
9 10 13
9 11 14
9 11 15
9 12 15
9 11 14
8 10 13
8 10 13
8 10 13
9 11 13
10 12 16
10 12 15
9 11 14
10 12 15
10 12 16
9 11 14
10 13 16
8 9 12
8 10 13
9 11 14
9 10 13
9 11 15
9 11 14
10 12 16
8 10 12
10 12 15
11 13 16
10 12 15
9 11 14
8 10 13
9 10 13
9 11 14
8 10 12
9 11 14
8 10 12
8 10 13
9 11 14
7 9 12
10 12 15
8 10 12
9 11 14
9 11 13
9 11 14
9 11 14
9 11 14
10 12 15
8 10 13
10 12 15
10 12 15
9 11 14
8 10 13
8 10 13
8 10 13
10 12 16
9 11 14
9 11 13
10 12 15
9 11 14
10 12 15
8 10 12
7 9 12
9 11 14
8 10 13
8 10 12
8 10 13
10 11 14
9 11 14
9 11 14
9 11 13
9 11 13
8 10 13
8 10 13
9 10 13
8 10 12
8 10 13
7 8 10
158 177 206
196 219 254
196 219 254
196 219 254
196 219 254
196 219 254
196 219 254
196 219 254
195 219 254
195 219 254
195 219 254
195 219 254
195 219 254
195 219 254
195 219 254
195 219 254
195 219 254
195 219 254
195 219 254
195 219 254
195 219 254
195 219 254
195 219 254
195 219 254
195 219 254
195 219 254
195 219 254
195 219 254
195 219 254
195 219 254
195 219 254
195 219 254
195 219 254
195 219 254
195 219 254
195 219 254
195 219 254
195 219 254
195 219 254
195 219 254
195 219 254
195 219 254
195 219 254
195 219 254
195 219 254
195 219 254
195 219 254
195 219 254
195 219 254
195 219 254
195 219 254
195 219 254
195 219 254
195 219 254
195 219 254
195 219 254
195 219 254
195 219 254
195 219 254
195 219 254
195 219 254
195 219 254
195 219 254
194 218 254
194 218 254
194 218 254
194 218 254
194 218 254
194 218 254
194 218 254
194 218 254
194 218 254
194 218 254
194 218 254
194 218 254
194 218 254
194 218 254
194 218 254
194 218 254
194 218 254
194 218 254
194 218 254
194 218 254
194 218 254
194 218 254
194 218 254
194 218 254
194 218 254
194 218 254
194 218 254
194 218 254
194 218 254
194 218 254
194 218 254
194 218 254
194 218 254
194 218 254
194 218 254
194 218 254
194 218 254
194 218 254
194 218 254
194 218 254
194 218 254
194 218 254
194 218 254
194 218 254
194 218 254
194 218 254
194 218 254
194 218 254
194 218 254
194 218 254
194 218 254
194 218 254
194 218 254
194 218 254
194 218 254
194 218 254
194 218 254
194 218 254
194 218 254
194 218 254
194 218 254
194 218 254
194 218 254
194 218 254
194 218 254
194 218 254
194 218 254
194 218 254
194 218 254
194 218 254
194 218 254
194 218 254
194 218 254
194 218 254
194 218 254
194 218 254
194 218 254
194 218 254
194 218 254
194 218 254
194 218 254
194 218 254
194 218 254
194 218 254
194 218 254
194 218 254
194 218 254
194 218 254
194 218 254
194 218 254
194 218 254
194 218 254
194 218 254
194 218 254
194 218 254
194 218 254
194 218 254
194 218 254
194 218 254
194 218 254
194 218 254
194 218 254
194 218 254
194 218 254
194 218 254
194 218 254
194 218 254
194 218 254
194 218 254
194 218 254
194 218 254
194 218 254
194 218 254
194 218 254
194 218 254
194 218 254
194 218 254
194 218 254
194 218 254
194 218 254
194 218 254
194 218 254
194 218 254
194 218 254
195 219 254
195 219 254
195 219 254
195 219 254
195 219 254
195 219 254
195 219 254
195 219 254
195 219 254
195 219 254
195 219 254
195 219 254
195 219 254
195 219 254
195 219 254
195 219 254
195 219 254
195 219 254
195 219 254
195 219 254
195 219 254
195 219 254
195 219 254
195 219 254
195 219 254
195 219 254
195 219 254
195 219 254
195 219 254
195 219 254
195 219 254
195 219 254
195 219 254
195 219 254
195 219 254
195 219 254
195 219 254
195 219 254
195 219 254
195 219 254
195 219 254
195 219 254
195 219 254
195 219 254
195 219 254
195 219 254
195 219 254
195 219 254
195 219 254
195 219 254
195 219 254
195 219 254
195 219 254
195 219 254
196 219 254
196 219 254
196 219 254
196 219 254
196 219 254
196 219 254
196 219 254
196 219 254
196 219 254
196 219 254
196 219 254
196 219 254
196 219 254
196 219 254
196 219 254
196 219 254
196 219 254
196 219 254
196 219 254
196 219 254
196 219 254
196 219 254
196 219 254
196 219 254
196 219 254
196 219 254
196 219 254
196 219 254
196 219 254
196 219 254
192 215 250
10 13 16
8 10 12
8 10 13
9 11 13
8 10 13
8 10 13
9 11 15
8 10 12
9 11 15
10 12 15
8 10 13
10 13 16
9 11 13
9 11 14
9 11 14
9 11 14
9 11 14
8 10 12
9 11 14
9 11 15
8 9 12
8 10 13
10 12 15
7 9 11
8 10 13
9 11 13
10 12 15
10 12 15
8 10 13
10 12 15
9 11 14
9 11 14
8 10 13
8 9 12
9 11 14
10 12 15
9 11 14
9 11 15
9 11 13
9 11 14
9 10 13
9 11 15
9 11 14
10 12 15
9 12 15
9 11 15
10 12 15
9 11 14
10 12 15
8 9 12
8 9 12
9 11 13
9 11 14
9 11 14
10 12 15
9 11 14
9 11 14
8 10 13
10 12 15
9 11 14
9 12 15
10 12 16
9 11 14
10 13 16
9 11 14
10 12 15
10 12 16
8 10 12
9 11 13
8 10 12
9 11 13
9 11 14
9 11 14
9 11 14
9 10 13
9 11 13
10 12 15
9 11 14
10 12 15
10 12 15
8 10 13
9 11 14
9 11 15
9 11 14
8 10 13
10 12 16
9 11 14
8 10 13
9 11 14
8 10 13
8 9 12
8 10 13
11 13 17
9 12 15
9 11 14
8 10 12
9 11 15
9 11 14
8 10 13
8 10 12
8 10 13
9 11 14
9 11 15
8 10 12
9 11 14
7 9 11
9 11 14
8 10 12
8 10 12
9 11 14
7 9 11
9 10 13
10 12 15
8 10 13
8 10 12
8 10 13
11 13 16
10 13 16
9 11 13
10 12 15
9 11 14
9 11 14
8 10 12
9 11 14
10 12 15
9 11 14
8 10 12
14 17 21
190 213 247
196 219 254
196 219 254
196 219 254
196 219 254
196 219 254
196 219 254
196 219 254
196 219 254
196 219 254
196 219 254
196 219 254
196 219 254
196 219 254
196 219 254
196 219 254
196 219 254
196 219 254
196 219 254
196 219 254
196 219 254
196 219 254
196 219 254
196 219 254
196 219 254
196 219 254
196 219 254
196 219 254
196 219 254
196 219 254
196 219 254
195 219 254
195 219 254
195 219 254
195 219 254
195 219 254
195 219 254
195 219 254
195 219 254
195 219 254
195 219 254
195 219 254
195 219 254
195 219 254
195 219 254
195 219 254
195 219 254
195 219 254
195 219 254
195 219 254
195 219 254
195 219 254
195 219 254
195 219 254
195 219 254
195 219 254
195 219 254
195 219 254
195 219 254
195 219 254
195 219 254
195 219 254
195 219 254
195 219 254
195 219 254
195 219 254
195 219 254
195 219 254
195 219 254
195 219 254
195 219 254
195 219 254
195 219 254
195 219 254
195 219 254
195 219 254
195 219 254
195 219 254
195 219 254
195 219 254
195 219 254
195 219 254
195 219 254
195 219 254
195 219 254
194 218 254
194 218 254
194 218 254
194 218 254
194 218 254
194 218 254
194 218 254
194 218 254
194 218 254
194 218 254
194 218 254
194 218 254
194 218 254
194 218 254
194 218 254
194 218 254
194 218 254
194 218 254
194 218 254
194 218 254
194 218 254
194 218 254
194 218 254
194 218 254
194 218 254
194 218 254
194 218 254
194 218 254
194 218 254
194 218 254
194 218 254
194 218 254
194 218 254
194 218 254
194 218 254
194 218 254
194 218 254
194 218 254
194 218 254
194 218 254
194 218 254
194 218 254
194 218 254
194 218 254
194 218 254
194 218 254
194 218 254
194 218 254
194 218 254
194 218 254
194 218 254
194 218 254
194 218 254
194 218 254
194 218 254
194 218 254
194 218 254
194 218 254
194 218 254
194 218 254
194 218 254
194 218 254
194 218 254
194 218 254
194 218 254
194 218 254
194 218 254
194 218 254
194 218 254
194 218 254
194 218 254
194 218 254
194 218 254
194 218 254
194 218 254
194 218 254
194 218 254
194 218 254
194 218 254
194 218 254
194 218 254
194 218 254
195 219 254
195 219 254
195 219 254
195 219 254
195 219 254
195 219 254
195 219 254
195 219 254
195 219 254
195 219 254
195 219 254
195 219 254
195 219 254
195 219 254
195 219 254
195 219 254
195 219 254
195 219 254
195 219 254
195 219 254
195 219 254
195 219 254
195 219 254
195 219 254
195 219 254
195 219 254
195 219 254
195 219 254
195 219 254
195 219 254
195 219 254
195 219 254
195 219 254
195 219 254
195 219 254
195 219 254
195 219 254
195 219 254
195 219 254
195 219 254
195 219 254
195 219 254
195 219 254
195 219 254
195 219 254
195 219 254
195 219 254
195 219 254
195 219 254
195 219 254
195 219 254
195 219 254
195 219 254
195 219 254
196 219 254
196 219 254
196 219 254
196 219 254
196 219 254
196 219 254
196 219 254
196 219 254
196 219 254
196 219 254
196 219 254
196 219 254
196 219 254
196 219 254
196 219 254
196 219 254
196 219 254
196 219 254
196 219 254
196 219 254
196 219 254
196 219 254
196 219 254
196 219 254
196 219 254
196 219 254
196 219 254
196 219 254
196 219 254
196 219 254
196 220 254
196 220 254
196 220 254
196 220 254
196 220 254
196 220 254
196 220 254
196 220 254
196 220 254
196 220 254
185 208 241
182 204 236
169 189 220
155 173 202
157 176 204
124 139 163
135 151 176
122 137 160
100 113 133
100 113 133
85 97 115
19 23 28
8 10 13
8 10 13
8 10 12
8 10 13
9 11 14
7 9 12
9 11 14
9 11 14
8 10 13
9 11 13
10 12 15
8 9 12
8 10 12
8 10 13
8 10 13
9 11 13
10 12 15
8 10 12
7 8 10
7 9 12
9 11 14
9 11 13
8 10 13
8 10 13
9 11 14
10 13 16
9 10 13
8 10 13
10 12 15
9 11 14
9 11 14
9 11 14
8 10 13
8 10 13
8 10 13
10 12 15
8 10 12
9 10 13
9 11 14
9 11 15
10 12 15
8 10 12
9 10 13
8 10 13
8 10 13
9 11 14
9 11 14
8 10 12
10 12 15
8 10 13
10 12 15
9 11 14
8 10 13
8 10 13
10 11 14
9 11 14
9 12 15
10 11 14
9 11 13
8 9 12
9 11 14
7 9 11
9 10 13
8 10 13
9 11 14
9 11 14
9 11 14
8 10 13
8 10 12
8 9 12
9 11 14
9 11 14
9 11 14
10 12 16
8 10 13
8 10 13
8 10 13
10 12 15
9 11 14
9 11 14
9 11 14
9 11 14
11 13 16
10 12 15
9 11 13
8 10 13
8 10 13
9 11 14
10 12 16
10 12 15
9 11 13
9 11 14
8 10 13
9 10 13
9 11 13
10 12 16
10 12 15
8 10 13
8 9 12
8 10 13
10 12 16
8 10 13
9 11 13
9 11 14
8 10 13
10 12 15
9 11 14
9 11 14
8 10 13
8 9 12
9 11 14
8 10 13
8 10 13
9 11 13
9 11 14
9 10 13
8 10 12
9 11 14
10 12 15
8 10 13
9 11 14
8 10 12
9 11 14
9 11 14
8 10 13
8 10 12
13 15 19
91 103 121
111 125 147
113 127 149
123 139 163
129 145 170
120 135 158
144 161 188
167 187 218
153 171 199
178 200 232
189 212 245
196 220 254
196 220 254
196 220 254
196 220 254
196 220 254
196 220 254
196 220 254
196 220 254
196 220 254
196 219 254
196 219 254
196 219 254
196 219 254
196 219 254
196 219 254
196 219 254
196 219 254
196 219 254
196 219 254
196 219 254
196 219 254
196 219 254
196 219 254
196 219 254
196 219 254
196 219 254
196 219 254
196 219 254
196 219 254
196 219 254
196 219 254
196 219 254
196 219 254
196 219 254
196 219 254
196 219 254
196 219 254
196 219 254
196 219 254
195 219 254
195 219 254
195 219 254
195 219 254
195 219 254
195 219 254
195 219 254
195 219 254
195 219 254
195 219 254
195 219 254
195 219 254
195 219 254
195 219 254
195 219 254
195 219 254
195 219 254
195 219 254
195 219 254
195 219 254
195 219 254
195 219 254
195 219 254
195 219 254
195 219 254
195 219 254
195 219 254
195 219 254
195 219 254
195 219 254
195 219 254
195 219 254
195 219 254
195 219 254
195 219 254
195 219 254
195 219 254
195 219 254
195 219 254
195 219 254
195 219 254
195 219 254
195 219 254
195 219 254
195 219 254
195 219 254
195 219 254
195 219 254
195 219 254
195 219 254
195 219 254
195 219 254
195 219 254
195 219 254
195 219 254
194 218 254
195 219 254
194 218 254
194 218 254
194 218 254
194 218 254
194 218 254
194 218 254
194 218 254
194 218 254
194 218 254
194 218 254
194 218 254
194 218 254
194 218 254
194 218 254
194 218 254
194 218 254
194 218 254
194 218 254
194 218 254
194 218 254
194 218 254
194 218 254
194 218 254
194 218 254
194 218 254
194 218 254
194 218 254
194 218 254
194 218 254
194 218 254
194 218 254
194 218 254
194 218 254
194 218 254
194 218 254
194 218 254
194 218 254
194 218 254
194 218 254
195 219 254
195 219 254
195 219 254
195 219 254
195 219 254
195 219 254
195 219 254
195 219 254
195 219 254
195 219 254
195 219 254
195 219 254
195 219 254
195 219 254
195 219 254
195 219 254
195 219 254
195 219 254
195 219 254
195 219 254
195 219 254
195 219 254
195 219 254
195 219 254
195 219 254
195 219 254
195 219 254
195 219 254
195 219 254
195 219 254
195 219 254
195 219 254
195 219 254
195 219 254
195 219 254
195 219 254
195 219 254
195 219 254
195 219 254
195 219 254
195 219 254
195 219 254
195 219 254
195 219 254
195 219 254
195 219 254
195 219 254
195 219 254
195 219 254
195 219 254
195 219 254
195 219 254
195 219 254
195 219 254
195 219 254
195 219 254
195 219 254
196 219 254
196 219 254
196 219 254
196 219 254
196 219 254
196 219 254
196 219 254
196 219 254
196 219 254
196 219 254
196 219 254
196 219 254
196 219 254
196 219 254
196 219 254
196 219 254
196 219 254
196 219 254
196 219 254
196 219 254
196 219 254
196 219 254
196 219 254
196 219 254
196 219 254
196 219 254
196 219 254
196 219 254
196 219 254
196 219 254
196 220 254
196 220 254
196 220 254
196 220 254
196 220 254
196 220 254
196 220 254
196 220 254
196 220 254
196 220 254
196 220 254
186 208 241
164 183 213
162 181 211
153 171 199
138 155 181
142 159 186
105 119 140
118 133 156
109 123 144
87 99 117
87 99 117
58 67 80
67 77 92
40 47 57
31 37 46
29 35 43
16 21 27
15 19 25
14 18 25
14 19 25
14 18 25
14 18 25
14 18 25
14 19 25
14 18 25
15 19 25
14 19 25
14 18 25
10 12 16
8 10 13
8 10 12
7 9 11
8 10 13
8 10 12
9 10 13
9 11 14
9 11 14
9 12 15
9 10 13
9 11 14
8 10 13
8 10 12
8 10 12
7 9 11
7 9 12
8 10 13
9 11 14
8 10 13
9 11 14
9 11 14
9 11 13
8 10 13
8 10 13
9 10 13
8 10 13
9 10 13
8 10 13
9 11 14
9 11 14
8 10 13
9 11 14
9 11 14
9 11 14
9 11 14
10 12 15
8 10 13
8 10 13
9 11 14
9 11 13
10 12 15
8 10 13
9 11 13
10 12 15
10 12 15
8 10 12
9 11 14
9 10 13
10 12 15
8 10 13
9 10 13
10 12 14
8 10 13
9 12 15
8 10 13
10 12 16
9 11 14
9 10 13
9 11 14
9 11 14
9 11 14
8 10 13
7 9 11
8 10 13
9 11 14
9 11 13
9 11 14
10 12 15
9 11 15
8 9 12
9 11 14
8 10 13
11 13 17
8 10 13
9 10 13
9 11 15
9 11 14
9 10 13
10 12 15
9 11 14
9 10 13
9 11 14
8 10 13
11 13 16
8 10 13
9 11 14
8 10 12
7 9 12
9 11 14
8 10 13
9 11 14
8 9 12
9 10 13
9 11 13
7 9 12
8 10 12
9 11 14
10 12 15
7 9 12
8 10 13
8 10 13
9 11 14
9 11 14
9 11 15
10 12 15
10 12 15
9 12 15
8 10 13
9 10 13
9 11 14
8 10 13
8 10 13
9 10 13
8 10 12
8 10 13
10 12 15
8 10 13
8 10 13
9 11 14
7 9 11
9 12 15
8 10 12
8 10 12
9 10 13
9 11 13
8 10 12
11 14 19
14 19 25
14 19 25
14 18 25
14 19 25
14 19 25
14 18 25
14 19 25
15 19 25
14 19 25
14 19 25
14 19 25
18 23 29
25 31 39
35 41 50
44 51 62
67 77 92
69 79 94
62 71 85
89 101 119
89 101 119
115 129 151
122 137 160
140 157 183
153 171 199
158 177 206
167 188 218
173 194 225
191 214 248
196 220 254
196 220 254
196 220 254
196 220 254
196 220 254
196 220 254
196 220 254
196 220 254
196 220 254
196 220 254
196 220 254
196 219 254
196 219 254
196 219 254
196 219 254
196 219 254
196 219 254
196 219 254
196 219 254
196 219 254
196 219 254
196 219 254
196 219 254
196 219 254
196 219 254
196 219 254
196 219 254
196 219 254
196 219 254
196 219 254
196 219 254
196 219 254
196 219 254
196 219 254
196 219 254
196 219 254
196 219 254
196 219 254
196 219 254
196 219 254
196 219 254
195 219 254
195 219 254
195 219 254
195 219 254
195 219 254
195 219 254
195 219 254
195 219 254
195 219 254
195 219 254
195 219 254
195 219 254
195 219 254
195 219 254
195 219 254
195 219 254
195 219 254
195 219 254
195 219 254
195 219 254
195 219 254
195 219 254
195 219 254
195 219 254
195 219 254
195 219 254
195 219 254
195 219 254
195 219 254
195 219 254
195 219 254
195 219 254
195 219 254
195 219 254
195 219 254
195 219 254
195 219 254
195 219 254
195 219 254
195 219 254
195 219 254
195 219 254
195 219 254
195 219 254
195 219 254
195 219 254
195 219 254
195 219 254
195 219 254
195 219 254
195 219 254
195 219 254
195 219 254
195 219 254
195 219 254
195 219 254
195 219 254
195 219 254
194 218 254
194 218 254
194 218 254
194 218 254
194 218 254
194 218 254
194 218 254
194 218 254
194 218 254
195 219 254
195 219 254
195 219 254
195 219 254
195 219 254
195 219 254
195 219 254
195 219 254
195 219 254
195 219 254
195 219 254
195 219 254
195 219 254
195 219 254
195 219 254
195 219 254
195 219 254
195 219 254
195 219 254
195 219 254
195 219 254
195 219 254
195 219 254
195 219 254
195 219 254
195 219 254
195 219 254
195 219 254
195 219 254
195 219 254
195 219 254
195 219 254
195 219 254
195 219 254
195 219 254
195 219 254
195 219 254
195 219 254
195 219 254
195 219 254
195 219 254
195 219 254
195 219 254
195 219 254
195 219 254
195 219 254
195 219 254
195 219 254
195 219 254
195 219 254
196 219 254
196 219 254
196 219 254
196 219 254
196 219 254
196 219 254
196 219 254
196 219 254
196 219 254
196 219 254
196 219 254
196 219 254
196 219 254
196 219 254
196 219 254
196 219 254
196 219 254
196 219 254
196 219 254
196 219 254
196 219 254
196 219 254
196 219 254
196 219 254
196 219 254
196 219 254
196 219 254
196 219 254
196 219 254
196 219 254
196 220 254
196 220 254
196 220 254
196 220 254
196 220 254
196 220 254
196 220 254
196 220 254
196 220 254
196 220 254
196 220 254
196 220 254
196 220 254
195 218 252
175 196 227
156 175 204
147 165 193
147 165 193
116 131 154
133 149 174
94 107 126
80 91 108
78 89 105
49 57 69
58 67 80
38 45 55
27 33 41
20 25 32
14 19 25
14 19 25
14 19 25
14 19 25
14 19 25
14 19 25
14 18 25
14 19 25
15 19 25
14 19 25
14 19 25
14 19 25
14 19 25
14 19 25
14 18 25
14 19 25
14 19 25
14 19 25
14 19 25
14 19 25
14 19 25
14 19 25
14 19 25
14 19 25
14 19 25
15 19 25
15 19 25
14 18 25
12 15 20
9 11 14
8 10 13
8 10 13
8 10 13
9 11 14
9 11 14
8 10 12
9 11 14
9 11 14
11 13 16
9 11 14
8 10 13
10 12 15
8 10 12
8 10 13
9 11 14
8 10 13
8 10 13
10 12 15
9 10 13
9 11 14
9 11 13
8 10 13
9 11 14
8 10 13
9 11 13
9 11 14
10 12 15
8 10 12
10 12 15
10 12 15
10 12 15
9 10 13
9 11 14
9 11 14
10 12 15
8 10 13
9 10 13
8 10 13
10 12 15
8 10 13
10 12 15
8 10 12
9 11 14
8 9 12
7 9 11
8 10 12
8 10 13
8 10 12
10 12 15
7 8 10
8 9 12
8 10 13
8 9 12
8 10 13
9 11 13
8 10 13
10 12 15
10 12 15
8 9 12
8 9 12
8 9 12
8 10 12
8 10 13
8 10 13
11 13 16
10 12 15
9 10 13
8 10 13
8 10 13
8 10 13
9 11 13
9 10 13
9 11 14
9 11 14
10 12 15
9 11 14
8 10 13
9 11 13
9 10 13
9 11 14
9 12 15
7 9 11
9 11 14
9 11 14
9 11 14
9 11 14
9 11 14
9 11 14
8 10 13
9 11 14
9 11 13
9 11 14
9 11 14
8 10 12
8 10 13
8 10 13
8 9 12
8 9 12
8 10 13
9 11 14
8 10 13
8 10 13
10 12 15
9 11 15
9 10 13
8 10 13
10 12 15
9 10 13
8 10 13
10 12 15
9 11 14
8 10 12
8 9 12
8 10 12
8 10 13
8 10 12
8 10 12
7 9 11
9 11 13
7 9 11
9 11 14
7 9 11
8 10 13
7 9 11
8 10 12
13 16 21
14 19 25
14 18 25
14 19 25
14 18 25
15 19 25
14 18 25
14 19 25
15 19 25
15 19 25
14 19 25
14 18 25
14 18 25
15 19 25
14 19 25
14 19 25
14 19 25
14 19 25
14 19 25
14 19 25
15 19 25
14 18 25
14 19 25
14 19 25
15 19 25
14 19 25
14 19 25
14 18 25
14 19 25
18 23 30
31 37 46
34 41 50
56 65 78
65 75 89
78 89 105
91 103 121
116 131 154
105 119 140
131 147 172
131 147 172
151 169 197
167 188 218
178 200 232
186 208 241
196 220 254
196 220 254
196 220 254
196 220 254
196 220 254
196 220 254
196 220 254
196 220 254
196 220 254
196 220 254
196 220 254
196 220 254
196 219 254
196 219 254
196 219 254
196 219 254
196 219 254
196 219 254
196 219 254
196 219 254
196 219 254
196 219 254
196 219 254
196 219 254
196 219 254
196 219 254
196 219 254
196 219 254
196 219 254
196 219 254
196 219 254
196 219 254
196 219 254
196 219 254
196 219 254
196 219 254
196 219 254
196 219 254
196 219 254
196 219 254
196 219 254
196 219 254
196 219 254
195 219 254
195 219 254
195 219 254
195 219 254
195 219 254
195 219 254
195 219 254
195 219 254
195 219 254
195 219 254
195 219 254
195 219 254
195 219 254
195 219 254
195 219 254
195 219 254
195 219 254
195 219 254
195 219 254
195 219 254
195 219 254
195 219 254
195 219 254
195 219 254
195 219 254
195 219 254
195 219 254
195 219 254
195 219 254
195 219 254
195 219 254
195 219 254
195 219 254
195 219 254
195 219 254
195 219 254
195 219 254
195 219 254
195 219 254
195 219 254
195 219 254
195 219 254
195 219 254
195 219 254
195 219 254
195 219 254
195 219 254
195 219 254
195 219 254
195 219 254
195 219 254
195 219 254
195 219 254
195 219 254
195 219 254
195 219 254
195 219 254
195 219 254
195 219 254
195 219 254
195 219 254
195 219 254
195 219 254
195 219 254
195 219 254
195 219 254
195 219 254
195 219 254
195 219 254
195 219 254
195 219 254
195 219 254
195 219 254
195 219 254
195 219 254
195 219 254
195 219 254
195 219 254
195 219 254
195 219 254
195 219 254
195 219 254
195 219 254
195 219 254
196 219 254
196 219 254
196 219 254
196 219 254
196 219 254
196 219 254
196 219 254
196 219 254
196 219 254
196 219 254
196 219 254
196 219 254
196 219 254
196 219 254
196 219 254
196 219 254
196 219 254
196 219 254
196 219 254
196 219 254
196 219 254
196 219 254
196 219 254
196 219 254
196 219 254
196 219 254
196 219 254
196 219 254
196 219 254
196 219 254
196 219 254
196 220 254
196 220 254
196 220 254
196 220 254
196 220 254
196 220 254
196 220 254
196 220 254
196 220 254
196 220 254
196 220 254
196 220 254
196 220 254
196 220 254
191 214 248
182 204 236
155 173 202
153 172 199
147 165 193
136 153 179
104 117 137
93 105 124
85 97 115
65 75 89
60 69 82
45 53 64
38 45 55
21 27 34
14 19 25
14 19 25
14 18 25
14 18 25
14 19 25
15 19 25
14 19 25
14 19 25
14 19 25
15 19 25
14 19 25
15 19 25
14 19 25
14 19 25
14 19 25
14 18 25
14 18 25
14 19 25
14 19 25
15 19 25
14 19 25
14 19 25
14 19 25
14 19 25
14 18 25
15 19 25
14 19 25
14 19 25
14 19 25
15 19 25
14 18 25
15 19 25
15 19 25
14 19 25
14 19 25
14 18 25
14 19 25
14 18 25
14 19 25
15 19 25
14 19 25
14 19 25
14 18 25
14 18 24
9 11 13
8 9 12
9 11 14
8 10 13
8 10 13
8 10 13
9 11 14
8 10 13
8 10 13
9 11 14
9 11 13
7 9 12
7 9 12
10 13 16
9 11 14
8 10 13
9 11 13
9 10 13
8 9 12
11 13 16
8 10 13
9 11 14
9 11 14
8 10 13
8 10 13
9 11 14
9 11 14
9 11 14
9 10 13
8 10 13
9 11 14
8 10 13
8 9 12
8 9 12
9 10 13
8 10 12
9 11 13
9 11 15
9 11 14
9 11 13
9 11 14
9 10 13
10 12 15
10 12 15
9 11 13
9 11 14
9 10 13
7 9 12
7 9 12
8 10 13
9 11 14
9 11 14
9 11 14
8 9 12
10 12 15
7 9 11
9 11 14
9 11 14
9 11 14
9 11 13
9 11 14
9 10 13
8 10 13
10 13 16
7 9 11
9 11 15
10 12 15
9 11 14
8 9 12
9 11 14
8 10 13
9 10 13
8 10 12
8 10 13
8 9 12
9 11 14
8 10 13
9 10 13
8 9 12
9 11 14
8 10 12
8 10 13
9 11 14
8 10 13
8 10 12
8 10 13
9 11 13
10 12 15
8 10 13
11 14 17
8 10 13
10 12 15
8 10 12
8 10 13
9 11 14
7 9 12
8 10 12
9 11 14
8 10 12
9 10 13
8 10 12
9 11 13
7 9 11
8 10 12
8 10 12
9 10 13
8 10 13
9 11 14
9 11 14
8 9 12
8 9 12
8 10 12
8 9 12
9 12 15
10 12 15
8 10 13
9 10 13
9 10 13
9 11 14
8 10 13
8 10 13
8 10 13
9 11 13
8 10 13
8 10 13
9 11 13
13 17 22
15 19 25
14 19 25
14 19 25
14 19 25
14 19 25
14 19 25
14 19 25
14 18 25
14 19 25
15 19 25
14 19 25
15 19 25
14 19 25
14 19 25
14 19 25
14 18 25
14 19 25
14 19 25
15 19 25
15 19 25
14 19 25
15 19 25
14 19 25
14 19 25
14 19 25
14 18 25
14 19 25
14 18 25
15 19 25
14 19 25
14 19 25
15 19 25
15 19 25
14 19 25
15 19 25
15 19 25
14 19 25
15 19 25
14 19 25
14 19 25
14 19 25
14 19 25
15 19 25
16 21 27
31 37 46
58 67 80
53 61 73
55 63 75
87 99 117
85 97 115
109 123 144
113 127 149
144 161 188
158 177 206
164 184 213
175 196 227
184 206 238
196 220 254
196 220 254
196 220 254
196 220 254
196 220 254
196 220 254
196 220 254
196 220 254
196 220 254
196 220 254
196 220 254
196 220 254
196 220 254
196 220 254
196 219 254
196 219 254
196 219 254
196 219 254
196 219 254
196 219 254
196 219 254
196 219 254
196 219 254
196 219 254
196 219 254
196 219 254
196 219 254
196 219 254
196 219 254
196 219 254
196 219 254
196 219 254
196 219 254
196 219 254
196 219 254
196 219 254
196 219 254
196 219 254
196 219 254
196 219 254
196 219 254
196 219 254
196 219 254
196 219 254
196 219 254
195 219 254
195 219 254
195 219 254
195 219 254
195 219 254
195 219 254
195 219 254
195 219 254
195 219 254
195 219 254
195 219 254
195 219 254
195 219 254
195 219 254
195 219 254
195 219 254
195 219 254
195 219 254
195 219 254
195 219 254
195 219 254
195 219 254
195 219 254
195 219 254
195 219 254
195 219 254
195 219 254
195 219 254
195 219 254
195 219 254
195 219 254
195 219 254
195 219 254
195 219 254
195 219 254
195 219 254
195 219 254
195 219 254
195 219 254
195 219 254
195 219 254
195 219 254
195 219 254
195 219 254
195 219 254
195 219 254
195 219 254
195 219 254
195 219 254
195 219 254
195 219 254
196 219 254
196 219 254
196 219 254
196 219 254
196 219 254
196 219 254
196 219 254
196 219 254
196 219 254
196 219 254
196 219 254
196 219 254
196 219 254
196 219 254
196 219 254
196 219 254
196 219 254
196 219 254
196 219 254
196 219 254
196 219 254
196 219 254
196 219 254
196 219 254
196 219 254
196 219 254
196 219 254
196 219 254
196 219 254
196 219 254
196 219 254
196 219 254
196 219 254
196 220 254
196 220 254
196 220 254
196 220 254
196 220 254
196 220 254
196 220 254
196 220 254
196 220 254
196 220 254
196 220 254
196 220 254
196 220 254
196 220 254
197 220 254
197 220 254
187 210 243
164 184 213
142 159 186
146 163 190
135 151 176
107 121 142
107 121 142
95 107 126
62 71 85
64 73 87
45 53 64
33 39 48
23 29 36
14 19 25
14 18 25
14 19 25
15 19 25
14 19 25
14 19 25
15 19 25
14 19 25
14 19 25
14 19 25
14 18 25
15 19 25
14 19 25
14 19 25
14 19 25
14 19 25
14 19 25
15 19 25
14 19 25
14 19 25
14 19 25
14 18 25
14 19 25
14 19 25
14 19 25
14 19 25
14 19 25
14 18 25
14 18 25
14 19 25
14 18 25
15 19 25
14 19 25
14 19 25
15 19 25
14 19 25
14 19 25
15 19 25
14 19 25
15 19 25
14 19 25
14 19 25
14 19 25
15 19 25
14 18 25
14 18 25
15 19 25
14 18 25
14 19 25
14 18 25
14 19 25
15 19 25
14 18 25
14 19 25
15 19 25
14 18 25
14 18 25
14 19 25
8 10 13
8 9 12
9 12 15
8 10 13
8 10 12
8 10 13
10 12 15
8 10 13
8 9 12
8 10 13
8 10 13
8 10 13
9 11 14
8 9 12
9 11 13
8 9 12
8 10 12
9 10 13
8 10 13
7 9 12
9 10 13
8 10 13
9 11 14
8 9 12
9 11 13
9 10 13
10 12 15
9 11 14
9 11 14
8 9 12
8 10 13
9 11 15
7 9 11
8 10 12
9 11 14
9 11 14
9 11 14
8 10 13
10 12 15
9 11 13
8 10 13
9 11 14
7 9 12
9 11 14
9 11 14
9 11 14
9 11 13
8 10 13
7 9 12
9 11 13
9 11 14
8 9 12
9 11 13
9 11 13
10 12 15
8 10 13
8 10 12
8 10 13
8 10 12
7 9 11
9 11 14
8 10 13
8 10 13
9 11 14
8 10 13
10 12 15
8 10 13
10 12 15
7 9 11
9 11 14
7 9 12
10 12 15
9 11 14
7 8 10
9 11 15
8 10 12
9 11 13
8 10 13
10 12 15
8 9 12
8 10 13
9 11 14
8 10 13
10 12 15
10 12 15
9 11 14
8 9 12
8 9 12
9 11 14
8 10 13
10 12 15
8 10 12
7 9 12
7 9 12
8 10 12
7 9 12
8 10 12
9 11 14
7 8 11
10 12 15
8 9 12
8 10 13
9 11 14
8 10 13
7 9 12
7 9 11
9 10 13
10 12 15
8 10 12
9 11 14
9 11 13
8 10 12
8 10 13
7 9 11
8 10 13
9 11 14
8 10 13
8 10 13
8 10 13
8 10 13
8 9 12
10 12 15
10 12 16
8 10 13
8 10 13
6 8 10
14 19 25
14 19 25
14 19 25
15 19 25
14 18 25
14 18 25
14 19 25
14 18 25
14 18 25
14 18 25
15 19 25
14 18 25
14 18 25
15 19 25
14 19 25
14 18 25
15 19 25
14 19 25
14 19 25
14 19 25
15 19 25
14 19 25
14 19 25
14 19 25
14 19 25
14 18 25
14 19 25
14 19 25
14 19 25
14 19 25
14 19 25
15 19 25
15 19 25
14 19 25
15 19 25
14 19 25
14 18 25
14 19 25
15 19 25
14 19 25
14 19 25
14 19 25
15 19 25
15 19 25
14 19 25
14 19 25
14 19 25
14 18 25
14 19 25
14 19 25
14 19 25
15 19 25
15 19 25
14 19 25
14 19 25
14 19 25
14 19 25
14 19 25
20 25 32
29 35 43
49 57 68
58 67 80
69 79 94
100 113 133
89 101 119
120 135 158
111 125 147
137 153 179
166 186 215
178 200 232
182 204 236
197 220 254
197 220 254
197 220 254
196 220 254
196 220 254
196 220 254
196 220 254
196 220 254
196 220 254
196 220 254
196 220 254
196 220 254
196 220 254
196 220 254
196 220 254
196 220 254
196 219 254
196 219 254
196 219 254
196 219 254
196 219 254
196 219 254
196 219 254
196 219 254
196 219 254
196 219 254
196 219 254
196 219 254
196 219 254
196 219 254
196 219 254
196 219 254
196 219 254
196 219 254
196 219 254
196 219 254
196 219 254
196 219 254
196 219 254
196 219 254
196 219 254
196 219 254
196 219 254
196 219 254
196 219 254
196 219 254
196 219 254
196 219 254
195 219 254
195 219 254
195 219 254
195 219 254
195 219 254
195 219 254
195 219 254
195 219 254
195 219 254
195 219 254
195 219 254
195 219 254
195 219 254
195 219 254
195 219 254
195 219 254
195 219 254
195 219 254
195 219 254
195 219 254
195 219 254
196 219 254
196 219 254
196 219 254
196 219 254
196 219 254
196 219 254
196 219 254
196 219 254
196 219 254
196 219 254
196 219 254
196 219 254
196 219 254
196 219 254
196 219 254
196 219 254
196 219 254
196 219 254
196 219 254
196 219 254
196 219 254
196 219 254
196 219 254
196 219 254
196 219 254
196 219 254
196 219 254
196 219 254
196 219 254
196 219 254
196 219 254
196 219 254
196 220 254
196 220 254
196 220 254
196 220 254
196 220 254
196 220 254
196 220 254
196 220 254
196 220 254
196 220 254
196 220 254
196 220 254
196 220 254
196 220 254
196 220 254
197 220 254
197 220 254
197 220 254
180 202 234
178 200 232
157 176 204
144 161 188
127 143 167
116 131 154
102 115 135
80 91 108
71 81 96
65 75 89
47 55 66
34 41 50
15 19 25
15 19 25
15 19 25
14 18 25
15 19 25
14 19 25
15 19 25
14 19 25
14 19 25
14 19 25
14 18 25
14 19 25
14 19 25
14 18 25
14 19 25
14 18 25
14 19 25
14 18 25
14 18 25
15 19 25
14 19 25
14 18 25
14 19 25
14 19 25
15 19 25
14 19 25
14 19 25
14 18 25
14 19 25
14 19 25
14 19 25
14 19 25
14 19 25
14 18 25
14 19 25
15 19 25
14 19 25
14 18 25
14 19 25
15 19 25
14 19 25
14 19 25
15 19 25
14 19 25
14 19 25
15 19 25
14 19 25
14 19 25
14 19 25
14 19 25
14 19 25
14 19 25
14 19 25
14 19 25
14 19 25
14 19 25
14 19 25
15 19 25
14 19 25
15 19 25
14 19 25
15 19 25
14 19 25
14 18 25
14 19 25
14 19 25
15 19 25
14 18 25
14 18 25
14 19 25
14 19 25
15 19 25
10 12 15
8 9 12
9 11 14
9 11 14
7 9 11
9 11 14
8 9 12
8 10 13
8 9 12
8 10 12
8 10 13
8 10 13
8 10 13
7 9 11
8 10 12
10 12 15
9 11 13
8 10 13
9 11 14
7 9 11
8 10 12
8 9 11
11 13 16
10 12 15
8 9 12
9 11 13
8 10 13
8 10 13
8 10 12
9 11 14
9 11 14
7 8 11
9 10 13
7 9 11
9 11 14
9 11 13
9 11 14
9 11 13
8 9 12
7 9 11
9 11 14
9 11 14
9 11 14
9 11 14
9 11 13
9 11 14
8 10 12
9 10 13
9 11 14
8 9 12
8 10 13
8 9 12
9 11 14
10 12 15
9 11 14
9 11 14
9 11 14
10 12 15
9 11 14
8 10 12
9 11 14
8 9 12
8 10 13
9 11 14
8 10 12
7 8 11
9 11 13
9 11 14
10 12 15
9 10 13
8 10 12
9 11 14
8 10 12
9 11 14
9 11 14
6 8 10
8 10 13
9 11 13
8 10 12
10 12 15
9 11 13
8 10 13
8 10 13
8 9 12
9 11 14
9 11 14
8 10 13
7 9 12
8 10 12
8 10 13
8 10 12
10 12 15
9 11 14
11 13 17
7 9 12
9 11 13
10 11 14
9 11 14
7 9 12
8 10 13
8 10 13
8 10 12
8 10 13
8 10 13
7 9 11
9 11 14
8 10 12
9 11 13
9 11 14
8 10 12
9 11 14
8 10 13
8 10 13
9 10 13
8 10 12
9 10 13
9 11 14
10 12 15
9 11 14
8 10 13
8 10 12
9 11 14
8 10 12
9 11 14
8 10 13
11 14 18
14 19 25
15 19 25
14 19 25
14 19 25
15 19 25
14 19 25
15 19 25
15 19 25
14 19 25
14 19 25
14 19 25
14 19 25
14 18 25
14 18 25
15 19 25
15 19 25
14 18 25
14 19 25
14 19 25
15 19 25
14 19 25
14 19 25
14 18 25
14 19 25
14 19 25
14 19 25
14 19 25
15 19 25
14 19 25
14 18 25
14 19 25
14 19 25
15 19 25
14 19 25
14 19 25
14 19 25
14 19 25
14 19 25
14 19 25
15 19 25
14 18 25
15 19 25
14 18 25
14 19 25
15 19 25
14 19 25
14 19 25
14 19 25
15 19 25
14 18 25
14 19 25
14 18 25
14 19 25
14 19 25
14 19 25
14 19 25
14 18 25
15 19 25
14 19 25
15 19 25
14 19 25
15 19 25
14 19 25
14 19 25
14 19 25
14 19 25
15 19 25
14 19 25
14 19 25
14 19 25
14 19 25
16 21 27
38 45 55
49 57 68
62 71 85
71 81 96
85 97 115
94 107 126
116 131 154
140 157 183
153 172 199
167 188 218
178 200 232
195 218 252
197 220 254
197 220 254
197 220 254
196 220 254
196 220 254
196 220 254
196 220 254
196 220 254
196 220 254
196 220 254
196 220 254
196 220 254
196 220 254
196 220 254
196 220 254
196 220 254
196 220 254
196 220 254
196 219 254
196 219 254
196 219 254
196 219 254
196 219 254
196 219 254
196 219 254
196 219 254
196 219 254
196 219 254
196 219 254
196 219 254
196 219 254
196 219 254
196 219 254
196 219 254
196 219 254
196 219 254
196 219 254
196 219 254
196 219 254
196 219 254
196 219 254
196 219 254
196 219 254
196 219 254
196 219 254
196 219 254
196 219 254
196 219 254
196 219 254
196 219 254
196 219 254
195 219 254
195 219 254
196 219 254
196 219 254
196 219 254
196 219 254
196 219 254
196 219 254
196 219 254
196 219 254
196 219 254
196 219 254
196 219 254
196 219 254
196 219 254
196 219 254
196 219 254
196 219 254
196 219 254
196 219 254
196 219 254
196 219 254
196 219 254
196 219 254
196 220 254
196 220 254
196 220 254
196 220 254
196 220 254
196 220 254
196 220 254
196 220 254
196 220 254
196 220 254
196 220 254
196 220 254
196 220 254
196 220 254
197 220 254
197 220 254
197 220 254
197 220 254
197 220 254
182 204 236
171 192 222
160 179 209
146 163 190
124 139 163
116 131 154
89 101 119
78 89 105
60 69 82
55 63 75
42 49 59
31 37 46
14 19 25
14 19 25
14 19 25
14 19 25
14 18 25
14 19 25
14 18 25
14 19 25
15 19 25
15 19 25
14 19 25
14 19 25
15 19 25
14 19 25
14 19 25
14 19 25
14 19 25
14 19 25
14 18 25
15 19 25
14 19 25
14 19 25
14 19 25
14 19 25
14 19 25
14 19 25
14 19 25
15 19 25
14 19 25
14 19 25
14 19 25
14 19 25
14 19 25
15 19 25
14 19 25
14 19 25
14 19 25
14 18 25
14 19 25
14 19 25
14 19 25
14 19 25
14 18 25
14 19 25
14 19 25
14 19 25
14 18 25
14 18 25
14 18 25
15 19 25
14 19 25
14 19 25
15 19 25
14 19 25
14 19 25
14 19 25
14 19 25
14 19 25
14 19 25
14 19 25
14 19 25
14 19 25
14 19 25
14 19 25
14 19 25
14 19 25
14 19 25
14 19 25
14 19 25
14 19 25
14 19 25
14 19 25
14 19 25
14 19 25
14 19 25
14 19 25
14 18 25
14 19 25
14 19 25
14 18 25
14 19 25
14 19 25
15 19 25
14 19 25
12 15 20
9 11 14
8 9 12
8 9 12
8 10 12
7 8 11
9 11 13
7 9 12
9 11 14
9 11 14
7 8 11
9 11 14
7 9 11
7 8 11
7 9 12
9 11 14
9 10 13
9 11 13
9 11 14
7 9 11
8 10 13
9 11 14
8 10 12
7 9 11
7 9 11
9 10 13
8 9 12
8 9 12
8 10 12
8 9 12
8 10 13
9 11 14
9 11 13
8 10 12
8 10 13
8 10 12
8 9 12
8 10 12
10 12 15
8 10 13
8 10 12
8 9 12
9 11 14
9 11 15
8 10 13
9 10 13
8 10 13
8 9 12
9 11 14
8 10 12
9 11 14
9 11 14
10 13 16
8 10 13
8 10 12
8 10 13
7 9 12
8 10 13
8 10 13
8 10 13
9 11 14
9 10 13
8 10 13
8 10 13
9 11 15
9 11 14
8 9 12
8 10 13
8 10 12
9 11 14
9 11 13
9 11 14
9 11 14
9 11 13
10 11 14
7 9 11
8 9 12
7 9 12
8 10 13
7 9 11
7 9 12
9 11 13
9 11 14
8 10 13
9 10 13
8 10 12
9 11 14
8 10 13
9 11 14
8 10 13
8 10 13
8 10 13
8 9 12
8 10 12
9 11 14
9 11 14
8 10 13
7 9 12
9 11 14
8 10 13
8 10 13
9 11 13
8 9 12
7 9 12
8 10 12
9 11 14
7 9 12
8 10 12
8 9 12
8 9 12
8 10 12
8 9 12
9 11 14
8 10 13
8 10 12
8 10 13
8 10 12
7 8 11
9 10 13
8 9 12
10 12 15
8 10 13
8 10 12
8 10 12
8 10 13
13 16 21
14 18 25
14 19 25
14 18 25
14 19 25
14 19 25
14 19 25
14 19 25
14 19 25
15 19 25
14 19 25
15 19 25
14 19 25
14 18 25
14 19 25
14 18 25
14 19 25
14 18 25
14 19 25
14 19 25
14 19 25
14 18 25
14 18 25
14 19 25
14 18 25
14 19 25
14 18 25
14 19 25
14 19 25
14 19 25
15 19 25
15 19 25
14 19 25
15 19 25
14 19 25
14 19 25
14 18 25
15 19 25
14 18 25
14 19 25
14 19 25
15 19 25
14 18 25
14 19 25
14 19 25
14 19 25
14 19 25
14 19 25
14 19 25
14 19 25
14 18 25
14 19 25
15 19 25
14 19 25
14 19 25
14 19 25
15 19 25
14 18 25
14 19 25
14 19 25
14 19 25
14 19 25
14 18 25
14 19 25
14 19 25
14 18 25
14 18 25
15 19 25
14 19 25
15 19 25
14 19 25
14 19 25
15 19 25
15 19 25
14 19 25
14 19 25
14 18 25
14 19 25
14 19 25
14 19 25
15 19 25
14 18 25
14 19 25
14 19 25
14 19 25
18 23 30
34 41 50
49 57 69
63 73 87
71 81 96
86 97 115
106 119 140
135 151 176
117 131 154
149 167 195
166 186 215
188 210 243
195 218 252
197 220 254
197 220 254
197 220 254
196 220 254
196 220 254
196 220 254
196 220 254
196 220 254
196 220 254
196 220 254
196 220 254
196 220 254
196 220 254
196 220 254
196 220 254
196 220 254
196 220 254
196 220 254
196 219 254
196 219 254
196 219 254
196 219 254
196 219 254
196 219 254
196 219 254
196 219 254
196 219 254
196 219 254
196 219 254
196 219 254
196 219 254
196 219 254
196 219 254
196 219 254
196 219 254
196 219 254
196 219 254
196 219 254
196 219 254
196 219 254
196 219 254
196 219 254
196 219 254
196 219 254
196 219 254
196 219 254
196 219 254
196 220 254
196 220 254
196 220 254
196 220 254
196 220 254
196 220 254
196 220 254
196 220 254
196 220 254
196 220 254
196 220 254
196 220 254
196 220 254
196 220 254
196 220 254
196 220 254
197 220 254
197 220 254
197 220 254
197 220 254
197 220 254
197 220 254
186 208 241
166 186 215
140 157 183
151 169 197
106 119 140
106 119 140
87 99 117
82 93 110
75 85 101
40 47 57
31 37 46
18 23 30
15 19 25
14 19 25
14 19 25
14 19 25
14 19 25
14 18 25
14 19 25
14 18 25
14 18 25
14 19 25
14 19 25
14 19 25
14 18 25
14 19 25
14 19 25
14 19 25
14 18 25
14 19 25
14 19 25
14 19 25
14 19 25
14 19 25
14 19 25
14 19 25
14 19 25
15 19 25
14 19 25
14 19 25
14 18 25
14 19 25
14 19 25
14 19 25
15 19 25
15 19 25
14 19 25
14 19 25
15 19 25
14 19 25
14 19 25
14 19 25
14 19 25
14 19 25
14 19 25
15 19 25
14 18 25
14 19 25
14 19 25
14 18 25
14 19 25
14 19 25
15 19 25
14 19 25
14 18 25
15 19 25
14 18 25
14 18 25
14 19 25
14 19 25
14 19 25
14 18 25
14 19 25
15 19 25
14 19 25
14 18 25
14 19 25
14 19 25
14 18 25
15 19 25
14 18 25
14 19 25
14 19 25
14 19 25
14 19 25
14 19 25
15 19 25
14 19 25
14 19 25
14 18 25
14 19 25
14 19 25
14 18 24
14 19 25
14 18 25
14 19 25
14 19 25
14 18 25
14 19 25
15 19 25
14 18 25
14 18 25
14 18 25
14 18 25
15 19 25
15 19 25
14 19 25
14 19 25
13 17 23
6 7 9
9 10 13
10 12 15
8 10 12
7 9 11
8 10 13
8 10 12
9 11 13
7 9 11
7 9 11
9 11 14
8 10 13
7 9 11
8 10 12
8 9 12
10 12 15
8 10 13
9 11 14
9 10 13
7 9 12
7 9 11
9 11 13
8 10 12
9 11 14
8 10 13
7 9 11
8 10 13
7 8 10
7 9 11
10 12 15
8 9 12
8 9 12
8 10 12
7 9 12
9 11 14
7 8 10
9 11 13
9 11 14
10 12 15
8 10 13
8 10 13
8 10 12
10 12 15
9 11 13
8 10 13
8 10 13
7 8 10
8 9 12
8 10 12
8 10 13
9 11 14
8 10 13
8 10 12
8 10 12
7 9 11
8 10 12
8 10 13
10 12 15
7 9 11
9 11 14
8 10 12
9 10 13
8 10 12
8 10 12
9 11 14
8 9 12
10 12 15
8 10 13
9 10 13
9 11 14
8 10 12
8 10 13
9 11 14
8 9 12
7 9 11
8 9 12
8 10 13
9 11 14
8 9 12
8 10 13
10 12 15
8 9 12
9 10 13
7 9 11
7 8 11
9 11 14
8 9 12
9 11 14
9 11 14
7 9 12
8 10 13
9 11 14
8 10 13
8 10 13
7 9 11
8 10 13
9 10 13
8 9 12
8 9 12
9 11 15
8 9 12
9 11 13
8 10 12
8 10 13
8 10 13
8 10 12
8 10 12
8 10 13
8 10 13
9 11 14
9 11 14
8 9 12
8 10 13
8 10 13
9 10 13
7 9 12
8 9 12
8 9 12
9 11 13
8 9 12
7 9 11
10 12 15
8 10 13
8 10 12
13 17 23
14 19 25
14 19 25
14 19 25
14 18 25
14 18 25
14 18 25
14 18 25
14 19 25
14 19 25
14 18 25
15 19 25
14 19 25
14 19 25
14 19 25
14 19 25
14 19 25
14 18 25
14 18 25
14 19 25
15 19 25
14 19 25
14 19 25
14 18 25
14 19 25
14 19 25
15 19 25
14 19 25
15 19 25
15 19 25
14 19 25
14 19 25
14 18 25
14 19 25
14 19 25
14 19 25
14 19 25
14 19 25
14 19 25
14 19 25
14 19 25
14 19 25
14 19 25
14 19 25
14 18 25
14 19 25
14 19 25
14 18 25
15 19 25
14 19 25
14 19 25
14 18 25
14 19 25
14 19 25
15 19 25
14 18 25
14 19 25
15 19 25
15 19 25
14 19 25
14 19 25
15 19 25
15 19 25
14 19 25
14 19 25
14 19 25
14 19 25
14 18 25
14 19 25
14 19 25
14 19 25
14 19 25
14 19 25
14 19 25
14 19 25
14 19 25
14 18 25
14 19 25
14 19 25
14 19 25
14 19 25
15 19 25
14 19 25
14 19 25
14 19 25
14 18 25
14 19 25
14 19 25
14 19 25
14 18 25
14 19 25
15 19 25
14 19 25
14 19 25
14 19 25
15 19 25
14 19 25
20 25 32
25 31 39
60 69 82
62 71 85
71 81 96
82 93 110
109 123 144
120 135 158
147 165 193
149 168 195
171 192 222
182 204 236
197 220 254
197 220 254
197 220 254
197 220 254
197 220 254
197 220 254
196 220 254
196 220 254
196 220 254
196 220 254
196 220 254
196 220 254
196 220 254
196 220 254
196 220 254
196 220 254
196 220 254
196 220 254
196 220 254
196 220 254
196 220 254
196 220 254
196 219 254
196 219 254
196 219 254
196 219 254
196 219 254
196 219 254
196 219 254
196 220 254
196 220 254
196 220 254
196 220 254
196 220 254
196 220 254
196 220 254
196 220 254
196 220 254
196 220 254
197 220 254
197 220 254
197 220 254
197 220 254
197 220 254
197 220 254
197 220 254
188 210 243
177 198 229
171 192 222
144 162 188
126 141 165
96 109 128
93 105 124
69 79 94
54 63 75
51 59 71
25 31 39
22 27 34
14 19 25
14 19 25
15 19 25
14 19 25
14 19 25
14 18 25
14 19 25
14 18 25
14 19 25
14 19 25
14 18 25
14 19 25
14 19 25
14 19 25
15 19 25
14 19 25
14 18 25
14 19 25
14 19 25
15 19 25
14 19 25
14 19 25
14 19 25
15 19 25
14 19 25
14 19 25
14 19 25
15 19 25
15 19 25
14 19 25
14 18 25
14 19 25
14 19 25
14 18 25
14 19 25
15 19 25
15 19 25
14 19 25
14 19 25
14 19 25
15 19 25
14 19 25
14 19 25
14 19 25
14 18 25
14 19 25
14 19 25
14 19 25
14 19 25
15 19 25
14 18 25
14 18 25
14 19 25
14 19 25
14 19 25
14 19 25
14 19 25
15 19 25
14 18 25
14 19 25
14 19 25
14 18 25
14 18 25
14 18 25
14 18 25
14 19 25
14 19 25
14 18 25
14 19 25
14 19 25
14 19 25
14 19 25
15 19 25
14 18 25
14 19 25
14 19 25
14 18 25
14 18 25
14 18 25
14 19 25
14 19 25
14 19 25
14 18 25
14 18 25
15 19 25
15 19 25
14 19 25
14 19 25
14 19 25
14 18 25
14 19 25
14 19 25
14 18 24
15 19 25
14 18 25
14 19 25
14 19 25
14 18 25
15 19 25
14 19 25
14 19 25
14 19 25
14 19 25
14 19 25
14 18 25
14 19 25
14 18 25
14 18 25
14 19 25
8 10 13
7 9 11
9 11 14
8 10 13
7 9 11
8 9 12
8 10 13
8 10 12
7 9 11
8 10 13
8 9 12
9 11 14
7 9 11
8 10 13
9 11 14
8 10 12
8 9 12
8 10 13
7 8 10
9 11 13
9 11 14
8 10 13
8 10 12
7 8 11
7 9 12
10 12 15
8 10 13
8 10 13
8 10 13
7 8 10
8 9 12
8 10 12
10 12 15
9 11 14
9 11 14
9 11 15
8 10 12
8 9 12
7 9 11
7 8 10
8 10 12
8 10 12
7 8 11
8 10 13
8 10 12
8 9 12
8 10 12
7 8 10
7 8 11
8 10 13
8 9 12
10 12 15
8 10 12
9 11 13
10 12 15
8 10 12
9 11 14
8 10 13
8 10 13
8 9 12
9 11 14
8 10 13
8 10 12
9 11 14
8 9 12
8 9 12
8 10 13
7 8 10
8 10 12
9 11 14
7 9 11
9 11 13
9 11 14
9 10 13
9 11 14
10 12 15
7 9 11
7 9 12
9 11 14
7 9 12
7 9 11
10 12 15
8 10 13
9 11 14
8 10 13
10 12 16
9 10 13
8 10 12
8 10 13
7 9 11
9 11 14
7 9 11
8 9 12
7 9 11
9 11 14
9 10 13
7 8 11
9 11 14
8 10 12
7 9 12
8 10 13
7 9 12
10 12 15
8 9 12
9 11 13
10 12 15
8 10 12
8 9 12
7 9 11
7 9 12
8 10 13
9 10 13
9 11 14
8 10 12
8 10 13
7 9 11
8 10 13
7 8 10
8 9 12
8 9 12
7 8 11
8 10 12
7 9 12
9 12 15
14 19 25
14 19 25
14 18 25
14 19 25
14 18 25
14 18 24
14 18 24
14 18 25
14 19 25
14 18 25
14 19 25
14 19 25
14 18 25
15 19 25
14 19 25
14 19 25
14 19 25
14 19 25
14 18 25
14 19 25
14 18 25
14 19 25
14 19 25
14 18 24
14 19 25
14 19 25
14 19 25
14 19 25
14 19 25
14 19 25
14 18 25
14 19 25
15 19 25
15 19 25
14 18 25
14 19 25
14 19 25
14 19 25
14 19 25
14 19 25
15 19 25
14 19 25
14 19 25
14 18 25
14 19 25
14 19 25
14 19 25
14 19 25
14 19 25
15 19 25
14 19 25
15 19 25
14 19 25
14 18 25
14 19 25
14 19 25
14 18 25
14 19 25
14 19 25
14 19 25
14 19 25
15 19 25
15 19 25
15 19 25
15 19 25
14 19 25
14 19 25
14 19 25
14 18 25
14 19 25
14 18 25
14 19 25
14 18 25
14 19 25
14 19 25
14 19 25
15 19 25
15 19 25
14 19 25
14 18 25
14 19 25
15 19 25
14 18 25
15 19 25
14 19 25
14 19 25
14 18 25
14 18 25
14 19 25
15 19 25
14 19 25
15 19 25
15 19 25
14 19 25
14 19 25
14 18 25
14 19 25
14 19 25
14 19 25
14 19 25
14 19 25
14 19 25
15 19 25
14 19 25
15 19 25
14 19 25
14 18 25
14 19 25
14 19 25
16 21 27
33 39 48
51 59 71
71 81 96
87 99 117
100 113 133
122 137 160
133 149 174
120 135 158
146 163 190
156 176 204
184 206 238
197 220 254
197 220 254
197 220 254
197 220 254
197 220 254
197 220 254
197 220 254
196 220 254
196 220 254
196 220 254
196 220 254
196 220 254
196 220 254
196 220 254
196 220 254
196 220 254
196 220 254
197 220 254
197 220 254
197 220 254
197 220 254
197 220 254
189 212 245
175 196 227
151 170 197
149 167 195
133 149 174
107 121 142
87 99 117
86 97 115
69 79 94
63 73 87
34 41 50
18 23 30
15 19 25
14 19 25
15 19 25
14 19 25
14 19 25
14 19 25
15 19 25
14 19 25
14 19 25
14 19 25
14 19 25
14 19 25
14 19 25
14 19 25
14 19 25
15 19 25
14 19 25
15 19 25
14 18 25
14 19 25
14 19 25
15 19 25
14 19 25
15 19 25
14 19 25
14 18 25
14 19 25
14 18 25
14 18 25
14 19 25
14 18 25
14 19 25
14 18 25
15 19 25
14 19 25
14 18 25
14 19 25
14 19 25
14 19 25
14 19 25
15 19 25
15 19 25
14 19 25
14 18 25
14 19 25
14 19 25
14 19 25
14 19 25
14 19 25
15 19 25
14 19 25
14 18 25
15 19 25
14 19 25
15 19 25
14 19 25
14 18 25
14 19 25
15 19 25
14 19 25
14 19 25
14 19 25
14 18 25
14 19 25
14 19 25
14 18 25
14 19 25
14 19 25
14 18 25
14 18 25
14 19 25
15 19 25
14 19 25
14 18 25
14 18 25
14 18 25
14 18 25
14 18 25
14 19 25
14 18 25
14 19 25
14 18 25
14 18 25
14 18 25
14 18 25
14 19 25
14 18 25
14 18 25
14 18 25
15 19 25
14 18 25
14 19 25
14 18 25
14 19 25
14 19 25
14 18 25
14 18 25
14 19 25
14 19 25
14 19 25
14 19 25
14 19 25
14 19 25
14 19 25
14 19 25
14 19 25
14 19 25
14 18 25
14 19 25
14 18 25
14 18 25
14 18 25
14 19 25
14 18 25
14 19 25
14 19 25
15 19 25
14 19 25
14 19 25
14 18 25
14 19 25
12 16 21
8 10 13
8 9 12
7 9 11
8 9 12
7 9 12
7 9 11
7 9 11
9 10 13
9 11 13
6 8 10
8 10 12
8 9 12
8 10 12
8 10 12
7 8 11
8 9 12
8 10 13
7 9 11
9 10 13
8 10 13
9 11 14
8 9 12
6 8 10
8 10 13
8 10 12
7 8 11
9 11 14
7 9 11
8 10 13
9 11 14
8 9 12
8 10 13
8 9 12
9 11 14
7 9 11
9 11 13
9 11 14
7 9 11
8 10 12
8 10 12
9 11 14
9 10 13
8 10 12
8 10 12
10 12 15
8 10 13
8 10 13
7 9 11
9 10 13
7 9 11
6 8 10
9 10 13
9 11 14
7 8 11
8 9 12
9 11 14
8 10 13
8 9 12
8 10 13
7 9 11
9 11 13
9 11 14
8 10 13
9 10 13
7 9 11
9 11 14
8 10 13
7 9 11
9 10 13
8 9 11
8 10 12
9 10 13
7 9 12
8 10 13
8 9 12
6 8 10
9 11 14
8 10 12
9 11 14
9 11 14
7 9 11
8 10 13
8 10 13
8 9 12
8 10 13
8 10 13
9 10 13
8 10 13
9 11 13
9 11 14
8 10 12
9 11 14
6 8 10
8 10 13
8 10 13
8 10 13
7 9 11
7 9 11
9 10 13
9 11 14
9 11 13
9 11 14
9 11 14
8 10 13
7 8 11
7 9 11
8 10 13
9 10 13
9 11 13
8 10 12
8 10 13
9 11 14
8 10 13
7 8 11
7 9 11
6 7 9
8 10 13
6 8 10
7 9 11
7 8 10
8 10 13
6 8 10
11 14 18
15 19 25
14 18 25
14 18 25
14 18 25
14 18 25
14 18 25
14 18 25
14 18 25
14 18 25
14 19 25
14 19 25
14 18 25
14 18 24
14 18 25
15 19 25
14 18 25
14 18 25
14 19 25
14 19 25
14 19 25
15 19 25
15 19 25
14 19 25
14 19 25
15 19 25
14 19 25
14 19 25
14 19 25
14 19 25
14 18 25
14 19 25
15 19 25
14 18 25
14 18 25
14 18 25
14 19 25
14 18 25
14 18 25
14 19 25
14 19 25
14 19 25
14 19 25
14 18 25
14 19 25
14 18 25
15 19 25
14 19 25
15 19 25
14 18 25
14 18 25
14 19 25
14 18 25
14 19 25
14 19 25
14 18 25
15 19 25
14 19 25
14 19 25
15 19 25
14 18 25
14 18 25
14 18 25
14 18 25
14 18 25
14 19 25
14 19 25
14 19 25
15 19 25
14 19 25
14 18 25
14 19 25
14 19 25
14 19 25
15 19 25
14 18 25
14 19 25
15 19 25
15 19 25
14 19 25
14 18 25
14 19 25
14 19 25
14 19 25
14 19 25
15 19 25
14 19 25
14 19 25
15 19 25
15 19 25
15 19 25
15 19 25
14 19 25
14 19 25
14 19 25
14 18 25
14 18 25
15 19 25
14 18 25
14 19 25
14 19 25
14 19 25
14 19 25
14 19 25
14 19 25
14 19 25
14 19 25
14 19 25
14 19 25
14 19 25
14 19 25
14 18 25
14 19 25
14 19 25
14 19 25
15 19 25
14 19 25
15 19 25
14 19 25
14 19 25
15 19 25
14 19 25
18 23 30
45 53 64
51 59 71
67 77 92
80 91 108
102 115 135
115 129 151
138 155 181
164 184 213
157 176 204
180 202 234
195 218 252
197 220 254
197 220 254
197 220 254
197 220 254
197 220 254
102 115 135
76 87 103
62 71 85
43 51 62
29 35 43
16 21 27
14 19 25
15 19 25
14 19 25
14 19 25
15 19 25
14 19 25
14 19 25
14 18 25
15 19 25
14 19 25
15 19 25
15 19 25
14 19 25
14 19 25
14 19 25
15 19 25
14 18 25
14 19 25
15 19 25
14 18 25
14 19 25
15 19 25
14 19 25
15 19 25
14 19 25
14 19 25
14 19 25
14 19 25
14 19 25
14 19 25
14 18 25
14 19 25
14 19 25
14 18 25
15 19 25
14 19 25
14 19 25
14 19 25
14 19 25
14 19 25
14 19 25
14 19 25
14 18 25
14 19 25
14 18 25
14 19 25
14 19 25
14 19 25
15 19 25
14 18 25
14 19 25
14 19 25
14 19 25
14 19 25
14 19 25
14 18 25
14 19 25
14 19 25
14 19 25
14 19 25
14 19 25
14 19 25
15 19 25
14 19 25
15 19 25
14 19 25
14 19 25
14 19 25
14 19 25
15 19 25
14 18 25
14 18 25
14 19 25
14 19 25
14 18 25
14 19 25
14 18 25
14 19 25
15 19 25
14 19 25
14 19 25
14 18 25
15 19 25
14 18 25
14 19 25
15 19 25
14 19 25
15 19 25
14 19 25
14 19 25
14 18 25
14 19 25
14 19 25
14 18 25
14 18 25
14 19 25
15 19 25
14 19 25
14 19 25
14 19 25
14 19 25
14 19 25
14 18 25
14 19 25
14 18 25
14 18 25
14 19 25
14 18 25
14 19 25
14 18 25
14 18 25
14 19 25
14 19 25
14 19 25
15 19 25
14 18 25
14 18 25
14 18 25
14 19 25
14 19 25
14 18 25
14 19 25
14 19 25
14 18 25
14 19 25
14 18 24
15 19 25
14 19 25
14 18 25
14 18 25
14 18 25
14 18 25
13 17 22
7 9 12
7 8 10
8 10 12
8 9 12
6 8 10
8 10 13
7 9 11
8 10 13
7 9 12
8 9 12
8 10 12
8 9 12
9 11 14
7 9 12
8 9 12
9 11 13
7 9 11
7 9 11
7 9 11
9 10 13
7 8 11
8 10 13
8 10 12
8 9 11
8 10 12
8 10 13
8 9 12
8 10 13
8 9 12
8 10 13
9 11 14
8 10 13
9 10 13
8 10 12
8 10 13
9 11 14
8 9 12
6 8 10
8 10 13
7 8 11
6 8 10
8 9 12
9 10 13
9 11 15
8 10 12
9 11 14
9 11 14
8 9 11
8 10 13
8 10 13
7 8 10
8 10 13
6 8 10
7 9 11
7 9 11
9 11 14
8 10 12
8 10 13
8 10 13
8 10 12
9 11 14
8 9 12
8 10 12
9 11 13
9 11 13
8 10 12
9 11 13
8 9 12
8 10 12
9 11 13
8 10 12
8 9 12
8 10 13
8 10 13
9 11 13
9 10 13
8 10 13
9 11 14
8 10 13
8 10 13
7 9 12
9 11 13
9 10 13
8 10 12
9 11 13
8 9 12
8 9 12
9 11 15
7 9 11
7 9 12
8 10 12
10 12 15
7 8 11
9 11 13
7 9 11
10 11 14
7 9 11
7 9 11
8 10 13
9 10 13
8 10 13
8 9 12
8 9 12
8 9 12
9 10 13
9 10 13
6 8 10
6 8 9
8 9 12
9 10 13
8 10 13
8 9 12
8 10 12
6 7 10
7 8 10
7 9 11
7 8 11
6 7 9
8 10 12
9 11 14
7 9 11
7 9 11
13 17 22
14 19 25
14 19 25
14 19 25
14 18 25
14 18 25
14 18 25
14 19 25
14 18 24
14 19 25
14 18 25
14 18 25
14 18 25
14 18 25
14 19 25
14 18 25
14 18 25
15 19 25
14 19 25
14 19 25
15 19 25
14 19 25
14 19 25
14 19 25
14 18 25
14 19 25
14 19 25
14 18 25
14 19 25
14 18 25
15 19 25
14 18 25
14 19 25
14 19 25
14 19 25
14 18 25
14 18 25
14 19 25
14 19 25
14 19 25
14 18 25
14 18 25
14 18 25
14 18 25
14 18 25
14 18 25
15 19 25
15 19 25
14 19 25
14 18 25
14 19 25
14 18 25
14 18 25
14 19 25
15 19 25
14 19 25
14 19 25
15 19 25
14 18 25
14 19 25
14 18 25
14 19 25
14 18 25
14 18 25
14 18 25
15 19 25
14 19 25
14 19 25
15 19 25
14 19 25
14 18 25
14 19 25
14 19 25
14 18 25
14 18 25
14 19 25
14 19 25
14 18 25
14 19 25
14 18 25
14 19 25
15 19 25
14 19 25
14 19 25
14 19 25
15 19 25
15 19 25
14 19 25
14 18 25
14 18 25
14 18 25
14 19 25
14 19 25
15 19 25
14 18 25
14 19 25
14 19 25
14 18 25
15 19 25
14 19 25
14 18 25
14 18 25
15 19 25
14 19 25
14 19 25
14 19 25
14 19 25
14 19 25
14 19 25
14 19 25
14 18 25
14 19 25
14 19 25
14 18 25
14 18 25
14 19 25
14 19 25
15 19 25
14 19 25
14 19 25
14 18 25
14 19 25
15 19 25
14 19 25
14 18 25
15 19 25
14 19 25
15 19 25
14 19 25
14 19 25
15 19 25
15 19 25
14 19 25
14 19 25
21 26 34
36 43 53
65 75 89
75 85 101
109 123 144
14 19 25
15 19 25
14 19 25
14 19 25
14 19 25
14 19 25
14 19 25
14 19 25
14 19 25
14 19 25
14 19 25
15 19 25
14 19 25
15 19 25
15 19 25
14 19 25
14 19 25
14 19 25
14 19 25
14 19 25
14 19 25
14 19 25
14 18 25
14 18 25
14 19 25
14 19 25
14 19 25
14 19 25
14 19 25
14 19 25
14 19 25
14 18 25
14 19 25
15 19 25
14 19 25
14 19 25
14 18 25
14 19 25
14 19 25
14 19 25
14 19 25
14 19 25
14 19 25
14 19 25
14 18 25
14 19 25
14 19 25
14 19 25
14 19 25
14 19 25
14 19 25
14 19 25
14 19 25
14 18 25
14 19 25
14 19 25
15 19 25
15 19 25
14 18 25
14 19 25
14 18 25
14 19 25
14 18 25
14 18 25
14 18 25
14 18 25
14 18 25
15 19 25
14 18 25
14 19 25
14 18 25
14 18 25
14 19 25
14 19 25
14 19 25
15 19 25
14 18 25
14 19 25
14 18 25
15 19 25
15 19 25
14 19 25
14 19 25
15 19 25
14 19 25
15 19 25
14 18 25
14 19 25
14 19 25
14 19 25
14 19 25
14 18 25
14 19 25
15 19 25
14 19 25
14 19 25
14 19 25
14 18 25
14 18 25
14 19 25
14 19 25
14 19 25
14 19 25
14 19 25
14 18 25
14 19 25
14 19 25
14 19 25
14 19 25
14 19 25
14 18 25
14 19 25
14 18 25
14 18 25
14 19 25
14 19 25
14 19 25
14 19 25
14 18 25
14 18 25
14 19 25
14 18 25
14 18 25
14 19 25
14 18 25
14 19 25
15 19 25
15 19 25
15 19 25
14 19 25
14 18 25
14 18 25
14 18 25
14 19 25
14 19 25
14 18 25
15 19 25
14 18 25
14 18 25
8 11 14
7 9 11
9 10 13
8 10 13
8 10 12
7 9 11
8 9 11
7 8 10
8 10 12
8 10 13
7 9 11
8 10 13
8 10 12
7 8 11
8 10 12
8 10 12
9 10 13
7 8 11
7 8 11
7 9 11
9 10 13
8 9 12
7 9 11
7 8 10
9 11 14
9 11 14
8 10 12
9 10 13
7 9 12
9 11 14
9 11 14
8 10 12
8 10 12
8 10 12
8 9 12
8 10 13
7 9 12
9 11 13
9 11 13
9 11 14
8 10 12
8 10 12
8 10 13
8 10 12
7 8 11
10 12 15
8 10 13
9 11 14
8 10 12
9 10 13
7 9 11
8 9 11
9 11 13
9 11 14
7 8 10
7 9 11
9 11 14
9 11 14
9 10 13
9 11 14
8 9 12
7 9 11
9 11 14
9 11 14
8 10 13
10 12 15
7 9 12
9 10 13
7 9 11
7 9 11
8 9 12
8 10 13
8 10 13
8 9 12
7 8 11
7 9 11
7 8 10
7 9 11
8 10 13
8 10 13
8 9 11
8 10 12
8 9 12
8 10 13
8 10 12
7 8 11
9 11 14
8 10 13
7 8 11
8 9 12
8 10 12
7 9 11
8 9 12
8 10 12
8 10 12
8 10 13
9 11 13
8 10 13
8 10 12
7 9 11
7 8 11
8 10 13
8 9 12
8 10 13
8 9 12
7 9 11
7 8 11
7 9 11
8 9 12
8 9 12
8 9 12
6 8 10
7 9 11
8 9 12
7 9 11
8 10 12
7 8 11
8 9 12
8 10 13
8 9 12
9 11 13
9 11 15
14 18 24
14 19 25
14 19 25
14 18 25
14 18 25
14 19 25
14 18 25
14 18 25
14 19 25
14 19 25
14 18 25
14 18 25
14 19 25
14 18 25
15 19 25
14 18 25
14 19 25
15 19 25
15 19 25
14 18 25
14 18 25
14 18 25
14 18 25
14 19 25
14 18 25
14 18 25
15 19 25
14 18 25
14 19 25
15 19 25
14 19 25
14 19 25
14 19 25
14 19 25
14 19 25
14 18 25
14 18 24
14 19 25
14 18 25
14 19 25
14 19 25
15 19 25
14 18 25
14 19 25
14 18 25
15 19 25
14 19 25
15 19 25
15 19 25
14 18 25
14 19 25
14 18 25
14 19 25
14 18 25
14 19 25
14 19 25
14 18 25
14 19 25
14 18 25
14 18 25
14 19 25
14 19 25
14 19 25
15 19 25
14 18 25
14 19 25
14 19 25
14 19 25
14 19 25
14 18 25
14 18 25
14 19 25
14 18 25
14 19 25
14 19 25
14 19 25
14 19 25
14 19 25
14 19 25
14 19 25
14 19 25
14 19 25
14 19 25
15 19 25
14 19 25
14 18 25
14 19 25
14 18 25
14 19 25
14 19 25
14 19 25
14 19 25
14 19 25
15 19 25
14 19 25
14 19 25
14 19 25
14 19 25
15 19 25
14 19 25
14 19 25
15 19 25
14 19 25
14 18 25
14 19 25
14 19 25
14 19 25
14 19 25
14 19 25
15 19 25
14 19 25
15 19 25
14 19 25
14 19 25
15 19 25
14 19 25
14 19 25
15 19 25
14 19 25
14 18 25
14 19 25
14 18 25
14 19 25
15 19 25
15 19 25
14 18 25
14 19 25
14 19 25
14 19 25
15 19 25
14 19 25
14 19 25
15 19 25
14 19 25
14 19 25
14 19 25
14 19 25
14 19 25
15 19 25
14 19 25
14 19 25
14 19 25
14 19 25
14 19 25
14 18 25
14 18 25
14 19 25
14 19 25
14 18 25
15 19 25
14 19 25
14 18 25
15 19 25
14 19 25
14 19 25
15 19 25
14 18 25
15 19 25
14 19 25
14 18 25
14 18 25
14 18 25
14 19 25
15 19 25
14 19 25
14 19 25
14 19 25
14 18 25
14 19 25
14 19 25
15 19 25
14 19 25
15 19 25
15 19 25
14 19 25
15 19 25
14 18 25
14 19 25
14 18 25
14 19 25
14 18 25
14 19 25
14 19 25
14 19 25
14 19 25
14 19 25
14 19 25
14 19 25
15 19 25
15 19 25
14 18 25
14 18 25
14 19 25
14 19 25
14 19 25
14 18 25
14 19 25
15 19 25
14 18 25
14 19 25
14 18 25
14 19 25
14 19 25
14 18 25
14 19 25
14 18 25
14 18 25
14 19 25
14 19 25
15 19 25
14 19 25
14 18 25
15 19 25
14 19 25
14 19 25
14 19 25
14 18 25
14 19 25
14 18 25
14 19 25
14 18 25
14 19 25
14 19 25
14 19 25
14 18 25
14 19 25
15 19 25
14 19 25
14 19 25
14 18 25
14 18 25
15 19 25
14 18 24
15 19 25
14 19 25
14 19 25
14 18 25
15 19 25
14 18 25
14 19 25
14 19 25
14 19 25
14 18 25
14 18 25
14 18 25
14 18 25
14 19 25
14 19 25
14 19 25
14 19 25
14 18 25
14 19 25
14 18 25
14 18 25
15 19 25
14 19 25
14 18 25
14 18 24
14 19 25
14 18 24
14 19 25
14 19 25
14 18 25
14 18 25
14 18 24
14 18 25
14 18 24
14 18 25
14 18 25
14 18 25
14 18 25
14 18 24
14 18 25
14 18 25
14 18 24
14 18 25
14 18 25
14 18 24
11 14 19
7 8 11
8 10 12
8 9 11
9 11 13
7 9 11
8 10 12
7 8 11
9 11 13
8 10 13
7 8 11
8 9 12
6 8 9
7 9 11
6 7 10
7 9 12
6 8 10
7 9 11
8 9 11
8 9 12
7 9 11
8 10 12
9 11 14
6 8 9
7 8 11
8 10 12
7 9 11
8 9 12
7 9 11
9 11 13
7 9 12
8 10 13
8 10 13
7 9 11
8 10 12
8 10 12
8 10 13
7 9 11
8 10 12
8 10 13
8 10 12
9 11 13
7 8 11
9 11 14
8 9 12
9 11 13
7 9 11
8 10 13
8 10 13
7 8 10
9 11 14
8 10 13
9 11 14
7 9 12
8 10 12
9 11 14
10 12 15
8 9 12
7 9 11
9 11 13
8 10 13
9 11 13
9 10 13
9 11 13
9 11 14
8 10 13
9 11 14
8 10 12
8 10 12
10 12 16
9 10 13
7 8 11
8 9 12
8 10 12
7 8 11
8 10 13
8 10 12
8 10 12
9 11 14
8 9 12
8 10 13
8 9 12
7 9 11
9 11 14
7 9 11
8 9 12
7 9 11
9 10 13
8 9 12
8 9 11
10 12 15
8 10 13
8 10 12
8 10 13
7 9 11
8 10 13
8 9 12
9 10 13
7 8 11
8 9 12
10 11 14
8 10 13
8 9 12
8 9 12
9 10 13
7 9 11
9 10 13
8 10 12
7 9 11
9 10 13
7 8 10
8 9 12
9 11 14
8 10 13
7 9 11
6 7 9
8 9 12
8 10 13
8 10 12
6 8 10
8 9 12
12 15 20
14 18 24
14 18 25
15 19 25
14 18 24
14 18 25
14 18 25
14 19 25
14 18 25
14 18 25
14 18 25
14 18 24
14 18 25
14 18 25
14 18 25
14 18 25
14 18 25
14 19 25
14 19 25
15 19 25
14 18 25
14 19 25
14 18 24
15 19 25
14 19 25
14 18 25
14 19 25
14 18 25
14 18 25
14 18 25
14 19 25
15 19 25
14 18 25
14 19 25
14 18 25
14 19 25
15 19 25
14 19 25
14 18 25
14 19 25
14 19 25
15 19 25
14 19 25
14 19 25
15 19 25
14 18 25
14 18 25
14 18 25
14 19 25
14 18 25
14 19 25
14 18 25
14 18 25
15 19 25
15 19 25
15 19 25
15 19 25
14 19 25
14 19 25
14 19 25
15 19 25
14 19 25
14 18 25
15 19 25
14 18 25
14 19 25
14 19 25
14 19 25
14 19 25
14 19 25
14 19 25
15 19 25
15 19 25
14 19 25
14 19 25
14 19 25
14 19 25
14 19 25
14 19 25
14 19 25
14 18 25
14 18 25
14 19 25
14 19 25
14 19 25
14 19 25
14 19 25
15 19 25
14 18 25
14 18 25
14 18 25
14 19 25
14 19 25
14 19 25
15 19 25
14 18 25
14 19 25
14 19 25
14 19 25
14 19 25
14 19 25
15 19 25
14 19 25
14 19 25
14 19 25
14 19 25
14 19 25
14 19 25
14 19 25
14 19 25
14 18 25
14 19 25
14 19 25
14 18 25
14 19 25
14 19 25
14 18 25
14 19 25
14 19 25
14 19 25
14 19 25
14 19 25
14 19 25
15 19 25
15 19 25
14 19 25
14 19 25
14 19 25
14 19 25
14 19 25
15 19 25
14 18 25
15 19 25
14 19 25
15 19 25
14 19 25
14 19 25
14 19 25
15 19 25
15 19 25
14 19 25
14 19 25
14 19 25
14 19 25
15 19 25
14 19 25
14 19 25
15 19 25
14 19 25
15 19 25
15 19 25
14 19 25
14 19 25
14 19 25
14 19 25
14 19 25
14 18 25
14 19 25
14 19 25
14 18 25
14 18 25
14 18 25
14 19 25
14 18 25
14 19 25
14 19 25
14 18 25
14 19 25
14 19 25
14 19 25
15 19 25
14 19 25
14 19 25
14 19 25
14 19 25
14 19 25
14 19 25
14 19 25
14 19 25
14 19 25
14 19 25
14 19 25
14 19 25
14 19 25
14 18 25
14 19 25
14 19 25
14 19 25
14 19 25
14 19 25
15 19 25
14 18 25
14 19 25
14 19 25
14 18 25
14 19 25
15 19 25
14 19 25
14 19 25
15 19 25
14 18 25
14 19 25
14 18 25
14 19 25
14 19 25
14 18 25
14 19 25
14 19 25
14 19 25
15 19 25
14 18 25
15 19 25
14 18 25
14 19 25
14 18 25
14 19 25
14 19 25
14 18 24
14 19 25
14 18 25
14 19 25
14 18 25
14 19 25
14 19 25
14 19 25
14 18 25
14 19 25
14 19 25
14 19 25
14 19 25
14 18 25
14 18 25
14 18 25
14 19 25
14 18 25
14 19 25
14 19 25
15 19 25
14 18 25
14 18 25
14 18 25
14 19 25
14 19 25
14 19 25
15 19 25
14 18 25
14 18 25
14 18 25
14 19 25
14 19 25
14 18 25
14 19 25
14 19 25
14 19 25
14 19 25
14 18 25
14 19 25
14 19 25
14 18 25
14 18 24
14 18 25
14 18 25
14 18 24
14 19 25
14 19 25
14 18 25
14 19 25
14 18 25
14 18 25
14 19 25
14 18 24
14 18 25
14 19 25
14 18 25
14 18 24
14 18 25
14 18 24
14 18 24
14 18 25
14 18 25
6 8 10
6 8 10
8 10 12
7 8 10
7 8 10
8 9 12
7 9 11
8 10 12
8 10 13
9 11 13
7 8 10
8 9 12
6 8 10
9 10 13
7 8 10
8 9 12
7 9 11
7 9 11
7 9 12
8 10 12
6 7 10
8 9 12
6 8 10
8 9 12
8 10 13
8 9 12
7 9 11
9 11 14
7 9 12
8 10 13
8 9 12
7 9 11
7 9 11
7 9 11
8 10 13
8 10 12
7 9 11
6 8 10
8 10 12
8 10 12
7 9 11
9 11 14
9 11 13
8 10 13
7 9 11
8 9 12
6 8 10
8 9 12
8 10 12
8 10 12
7 9 11
7 8 10
9 11 14
8 10 12
8 9 12
6 7 9
7 8 11
7 9 11
7 9 11
9 10 13
7 9 11
8 10 12
9 11 14
8 9 12
8 9 12
8 9 12
7 9 11
8 10 13
7 9 11
7 8 10
9 11 14
9 11 13
8 10 12
9 11 14
8 9 11
7 9 11
9 11 14
8 10 12
7 9 11
7 9 11
9 11 14
10 12 15
9 11 14
8 10 13
7 9 12
8 10 12
8 9 12
9 11 14
8 10 12
7 9 12
8 10 13
8 10 13
8 10 12
8 10 13
7 9 11
7 8 11
7 9 11
8 10 13
9 11 14
9 10 13
6 8 10
8 9 12
7 9 11
8 10 13
9 11 14
8 10 12
6 7 9
7 9 11
8 9 12
8 10 12
8 9 12
6 8 10
8 10 12
8 9 12
6 7 9
7 9 11
8 10 12
8 9 12
5 6 8
9 11 14
14 18 24
14 18 25
14 18 25
14 18 25
14 18 25
14 18 25
14 18 25
14 19 25
14 19 25
14 18 24
14 19 25
14 18 25
14 18 25
14 18 25
14 19 25
14 19 25
14 19 25
14 18 24
14 18 24
14 18 25
14 19 25
14 18 24
14 18 25
14 18 25
14 18 25
14 19 25
15 19 25
14 18 25
14 19 25
14 18 25
14 18 25
14 19 25
15 19 25
14 18 25
14 19 25
14 18 25
14 19 25
14 18 25
14 18 25
14 19 25
14 18 25
14 19 25
14 18 25
14 18 25
14 18 25
14 19 25
15 19 25
14 19 25
14 19 25
15 19 25
14 18 25
14 19 25
14 19 25
15 19 25
14 18 25
14 19 25
14 19 25
14 18 25
14 18 25
14 19 25
15 19 25
14 19 25
14 18 25
14 19 25
14 18 25
15 19 25
14 19 25
14 19 25
14 19 25
14 19 25
14 19 25
14 19 25
14 18 25
14 18 25
14 18 25
14 18 25
14 19 25
14 19 25
14 18 25
14 19 25
15 19 25
14 19 25
14 19 25
15 19 25
14 19 25
14 18 25
14 19 25
14 18 25
14 19 25
14 19 25
14 19 25
14 18 25
14 19 25
15 19 25
15 19 25
14 19 25
14 19 25
14 19 25
14 19 25
15 19 25
14 19 25
15 19 25
14 18 25
14 19 25
15 19 25
14 19 25
15 19 25
14 19 25
15 19 25
14 19 25
14 19 25
14 18 25
14 19 25
14 19 25
15 19 25
14 18 25
14 19 25
14 19 25
14 19 25
14 19 25
14 19 25
14 19 25
15 19 25
14 19 25
15 19 25
14 19 25
14 19 25
14 19 25
14 19 25
14 19 25
14 19 25
14 19 25
14 18 25
14 19 25
14 19 25
14 18 25
14 19 25
14 19 25
14 19 25
14 18 25
14 19 25
14 19 25
15 19 25
15 19 25
14 19 25
14 19 25
14 19 25
14 19 25
14 19 25
15 19 25
14 19 25
15 19 25
14 19 25
14 19 25
14 19 25
14 19 25
14 19 25
14 19 25
14 19 25
14 19 25
14 18 25
15 19 25
14 19 25
14 18 25
14 19 25
14 19 25
14 19 25
14 19 25
14 19 25
15 19 25
15 19 25
14 18 25
14 19 25
14 19 25
14 18 25
14 19 25
15 19 25
14 18 25
14 19 25
14 18 25
14 19 25
14 19 25
14 19 25
14 19 25
14 18 25
14 19 25
15 19 25
14 18 25
14 18 25
15 19 25
14 19 25
14 19 25
14 18 25
14 18 25
14 19 25
14 19 25
14 18 25
15 19 25
14 18 25
14 18 25
14 18 25
14 19 25
14 18 25
14 19 25
14 18 25
14 19 25
14 19 25
15 19 25
14 19 25
14 19 25
14 19 25
14 19 25
14 19 25
14 19 25
14 18 25
15 19 25
14 19 25
14 19 25
14 19 25
15 19 25
14 19 25
14 19 25
14 19 25
14 19 25
14 18 24
14 19 25
14 19 25
14 19 25
14 18 25
15 19 25
14 19 25
14 18 24
14 18 25
14 19 25
14 19 25
14 18 24
14 18 25
14 18 25
14 19 25
14 19 25
14 19 25
14 19 25
14 19 25
14 18 25
14 18 25
14 18 25
14 18 25
14 18 25
15 19 25
14 19 25
14 19 25
14 19 25
14 19 25
14 19 25
14 19 25
14 18 24
14 18 25
14 18 25
14 18 25
14 18 25
14 18 24
14 18 24
14 18 25
14 18 25
14 18 25
14 19 25
14 18 25
14 18 25
14 19 25
14 18 25
14 18 25
14 18 25
14 19 25
14 18 24
14 19 25
14 18 25
14 18 25
14 18 24
14 18 24
14 18 24
11 14 18
7 9 11
6 7 9
7 8 10
7 9 12
8 10 12
7 9 11
7 9 12
9 11 13
7 8 10
8 10 13
7 9 11
8 10 13
8 9 12
8 9 12
7 9 11
7 9 12
7 8 11
8 10 12
7 9 11
6 8 10
8 10 12
7 8 11
7 8 11
8 9 12
8 10 12
6 8 10
8 10 13
6 8 10
8 10 12
7 9 11
9 11 14
8 9 12
8 10 12
8 9 12
7 9 11
8 10 13
8 10 12
8 10 12
8 10 13
8 10 12
8 10 12
8 10 12
7 9 11
8 10 13
6 7 9
9 11 14
6 7 9
8 10 13
7 9 11
8 10 13
8 9 12
8 10 13
7 9 12
8 9 12
7 8 10
7 8 11
9 10 13
7 9 11
9 11 13
9 11 13
7 9 11
8 10 13
6 8 10
8 10 12
8 10 13
7 9 11
8 10 12
8 10 12
8 10 12
8 10 12
9 10 13
8 10 13
8 9 12
7 8 10
8 9 12
8 10 13
9 11 14
8 9 12
8 10 12
7 9 12
8 10 12
7 9 11
9 11 14
8 10 12
9 11 14
9 10 13
9 11 14
9 11 13
9 10 13
8 10 12
7 9 11
8 9 12
8 10 13
9 11 14
8 10 12
9 11 14
7 8 11
8 10 13
7 9 11
6 8 10
6 7 9
8 10 12
7 9 11
6 8 10
9 11 13
8 9 12
8 10 13
8 10 13
7 9 11
8 10 12
7 9 11
8 9 11
9 10 13
8 9 12
7 8 11
6 8 10
6 7 9
6 7 9
12 15 19
14 18 24
14 19 25
14 19 25
15 19 25
14 18 24
14 18 24
14 18 24
14 18 24
14 18 25
14 19 25
14 19 25
14 18 25
14 19 25
14 18 25
14 18 24
14 18 25
14 18 25
14 19 25
14 18 25
14 18 25
15 19 25
15 19 25
14 18 25
14 18 25
14 18 25
14 19 25
14 18 25
14 18 25
14 19 25
14 18 25
14 19 25
14 18 24
14 18 25
14 19 25
14 18 25
14 18 25
14 18 24
14 18 24
14 19 25
14 18 25
14 19 25
14 19 25
14 18 25
14 19 25
14 18 25
14 18 25
14 19 25
14 18 25
14 18 24
14 18 25
14 19 25
14 18 25
14 18 25
14 18 25
14 19 25
14 18 25
14 18 25
14 19 25
14 19 25
14 18 24
14 19 25
15 19 25
14 18 25
14 18 25
14 18 25
14 19 25
14 18 24
15 19 25
15 19 25
14 19 25
14 18 25
15 19 25
14 18 25
14 19 25
15 19 25
14 19 25
15 19 25
15 19 25
14 18 25
14 18 25
15 19 25
14 19 25
14 19 25
14 18 25
14 18 25
14 19 25
14 18 25
14 19 25
14 19 25
14 19 25
14 19 25
14 18 25
15 19 25
14 19 25
14 19 25
14 18 25
14 18 25
14 19 25
14 18 25
14 19 25
14 19 25
14 18 25
14 19 25
14 18 25
15 19 25
15 19 25
15 19 25
14 19 25
14 18 25
14 19 25
14 19 25
14 19 25
14 19 25
14 18 25
14 19 25
14 19 25
14 18 25
15 19 25
14 19 25
14 19 25
14 19 25
15 19 25
14 19 25
14 19 25
15 19 25
14 19 25
14 18 25
14 19 25
14 19 25
14 18 25
14 19 25
14 19 25
14 19 25
14 19 25
14 18 25
14 18 25
14 19 25
14 18 25
14 19 25
14 19 25
14 18 25
14 18 25
14 19 25
14 18 25
14 19 25
14 19 25
14 19 25
14 19 25
14 19 25
14 18 25
15 19 25
14 19 25
14 19 25
14 19 25
14 18 25
14 19 25
14 19 25
14 19 25
14 18 25
15 19 25
14 19 25
14 18 25
14 19 25
14 19 25
14 19 25
14 19 25
14 18 25
14 19 25
14 18 24
14 19 25
14 19 25
14 19 25
14 18 25
14 19 25
14 18 25
14 18 25
15 19 25
14 19 25
14 18 25
14 19 25
14 19 25
14 18 25
14 19 25
15 19 25
14 19 25
14 19 25
14 18 25
14 19 25
14 19 25
14 19 25
15 19 25
14 19 25
14 18 25
14 18 25
14 19 25
15 19 25
15 19 25
14 19 25
14 19 25
14 18 25
14 19 25
14 18 25
14 19 25
14 19 25
14 18 25
15 19 25
14 19 25
14 18 25
14 18 25
14 19 25
14 19 25
14 19 25
14 18 25
14 19 25
14 19 25
14 19 25
14 19 25
14 19 25
14 18 25
14 19 25
14 18 25
14 19 25
14 18 25
15 19 25
14 18 25
14 18 25
14 18 25
14 18 24
14 19 25
14 19 25
14 18 25
14 19 25
14 19 25
14 19 25
14 18 25
14 19 25
14 18 25
14 18 25
14 18 24
14 19 25
14 18 24
14 18 25
14 18 25
14 19 25
14 19 25
14 18 25
14 18 25
14 19 25
14 19 25
14 19 25
14 19 25
14 18 24
14 19 25
14 18 25
14 19 25
14 18 25
15 19 25
14 18 25
14 18 25
14 18 25
14 18 25
14 18 24
14 18 25
14 18 25
14 18 25
14 18 25
14 18 25
14 18 25
14 18 24
14 19 25
14 18 24
14 18 25
14 18 24
14 18 25
14 18 25
14 18 25
14 18 24
14 18 24
14 18 25
14 18 25
13 17 23
7 9 11
8 10 12
6 8 10
8 10 12
7 9 11
8 10 13
7 8 10
8 9 12
8 9 12
8 10 12
7 9 11
7 9 11
8 9 12
9 11 13
8 10 12
6 8 10
8 9 12
8 10 13
8 10 13
8 10 13
7 8 10
8 9 12
7 9 11
7 8 10
8 9 12
8 10 12
7 8 11
7 9 11
7 9 11
8 10 12
7 9 11
8 10 12
7 9 11
7 9 11
8 10 13
6 8 10
7 8 11
8 9 12
8 9 12
9 11 14
7 8 11
8 10 13
7 8 10
8 9 12
8 9 12
9 11 13
8 10 13
7 8 10
8 10 13
6 7 9
9 11 14
8 10 12
9 11 14
7 9 11
7 9 12
8 10 13
8 9 12
8 10 13
6 8 10
8 9 12
8 10 13
7 9 11
7 9 12
8 10 13
8 10 13
7 9 12
7 9 11
7 8 10
7 9 11
6 8 10
7 9 11
8 10 13
8 10 12
7 9 11
8 9 12
8 10 13
7 8 11
8 10 12
8 9 12
8 10 13
8 10 13
8 10 12
7 9 11
9 11 14
7 9 11
8 10 12
8 10 12
6 8 10
7 9 11
8 9 12
7 9 12
9 10 13
8 10 13
8 10 12
9 11 14
7 8 10
7 8 11
8 10 12
7 9 11
8 10 13
7 8 10
8 10 13
8 9 12
6 7 9
7 8 10
8 9 12
8 10 12
7 8 10
9 10 13
7 9 11
8 10 12
7 8 10
7 9 11
7 8 10
6 7 9
8 9 11
7 8 10
6 8 10
13 18 24
14 18 24
13 18 24
14 18 25
14 18 24
14 18 24
14 18 25
14 18 25
14 18 25
14 18 24
14 18 24
14 18 24
14 18 24
14 18 25
14 18 25
14 19 25
14 18 25
14 18 25
14 18 24
15 19 25
14 19 25
14 18 25
14 18 25
14 18 25
14 19 25
14 18 24
15 19 25
14 18 24
14 19 25
14 19 25
14 19 25
14 18 25
15 19 25
14 18 24
14 18 25
14 19 25
14 18 25
14 18 25
14 18 25
14 18 25
14 19 25
14 18 25
14 19 25
14 19 25
14 18 25
14 19 25
14 18 24
14 18 25
14 18 25
14 19 25
15 19 25
14 19 25
14 18 25
14 19 25
15 19 25
14 19 25
14 19 25
14 19 25
14 19 25
14 18 25
14 18 25
14 19 25
14 18 25
14 18 25
15 19 25
15 19 25
14 18 25
14 19 25
14 19 25
14 18 25
14 19 25
14 18 25
14 19 25
14 18 25
14 19 25
15 19 25
14 19 25
14 18 25
14 19 25
14 19 25
14 18 25
14 18 24
14 18 24
14 19 25
14 19 25
14 19 25
14 18 25
14 19 25
14 19 25
14 19 25
14 19 25
14 19 25
15 19 25
14 19 25
14 19 25
14 19 25
14 18 25
15 19 25
14 19 25
14 19 25
14 19 25
14 18 25
14 19 25
14 19 25
14 19 25
14 19 25
15 19 25
14 19 25
14 19 25
14 19 25
14 18 25
15 19 25
14 18 25
14 19 25
14 18 25
15 19 25
14 19 25
14 19 25
14 19 25
14 18 25
14 18 25
15 19 25
14 18 25
14 19 25
15 19 25
14 19 25
14 19 25
14 18 25
14 19 25
15 19 25
14 19 25
14 19 25
15 19 25
15 19 25
14 19 25
14 19 25
14 19 25
14 19 25
14 19 25
14 19 25
14 18 25
14 19 25
14 19 25
15 19 25
14 19 25
14 19 25
14 18 25
14 18 25
14 19 25
14 19 25
15 19 25
14 19 25
14 19 25
15 19 25
14 19 25
14 18 25
14 19 25
15 19 25
14 18 25
14 19 25
14 19 25
14 18 25
14 19 25
14 19 25
14 18 25
15 19 25
14 19 25
14 19 25
15 19 25
14 18 25
14 19 25
14 19 25
14 18 25
15 19 25
14 18 25
14 18 25
14 19 25
14 18 25
14 18 25
14 18 25
14 18 25
15 19 25
14 19 25
14 18 24
14 19 25
15 19 25
15 19 25
15 19 25
14 18 25
14 18 25
14 19 25
14 19 25
14 19 25
15 19 25
15 19 25
14 19 25
14 19 25
14 19 25
14 18 25
14 19 25
15 19 25
14 19 25
14 19 25
14 18 25
14 19 25
14 18 25
14 19 25
14 19 25
14 19 25
14 18 25
14 19 25
14 19 25
14 18 25
14 19 25
14 19 25
15 19 25
14 18 24
14 18 25
14 18 25
14 19 25
14 19 25
14 19 25
14 19 25
14 18 25
14 19 25
14 19 25
14 19 25
14 18 25
14 18 25
14 19 25
14 18 25
14 19 25
14 18 25
14 19 25
14 19 25
14 18 25
15 19 25
14 19 25
14 18 25
14 19 25
14 19 25
14 18 24
14 18 25
14 19 25
14 19 25
15 19 25
14 18 24
14 19 25
14 18 24
14 18 25
14 18 25
14 18 25
14 18 24
14 18 25
14 19 25
14 18 25
14 18 25
14 18 25
14 18 25
14 18 25
14 18 24
14 19 25
14 18 24
14 18 25
14 18 24
14 18 24
14 19 25
15 19 25
14 18 24
14 18 25
14 18 24
14 18 24
14 18 24
14 18 24
14 18 24
14 18 25
14 18 24
14 18 25
14 18 25
14 18 24
14 18 24
14 18 24
9 12 16
7 8 10
7 9 11
9 11 14
9 11 13
6 8 10
8 10 12
6 8 10
8 10 13
9 10 13
8 10 12
6 8 10
6 7 9
8 10 12
7 8 10
7 9 11
8 10 12
7 8 11
8 10 13
6 8 10
8 9 12
7 9 11
7 9 11
8 10 13
7 9 11
8 10 12
7 9 11
8 9 12
8 10 12
7 9 11
8 10 12
8 10 13
6 8 10
6 8 10
9 10 13
9 11 14
8 10 12
8 9 12
8 10 12
6 8 10
7 9 11
8 10 13
8 10 12
7 9 11
8 9 12
8 9 12
7 8 11
9 11 14
7 9 11
7 9 11
7 8 11
7 9 12
7 9 11
7 9 11
9 11 13
8 10 12
8 9 12
7 8 11
6 8 10
8 9 12
7 9 11
8 10 13
7 9 11
9 10 13
8 10 13
8 9 11
7 8 10
8 10 13
6 8 10
7 9 11
9 11 13
7 8 10
8 10 12
6 8 10
8 10 13
8 10 13
8 9 12
8 9 12
7 8 10
8 10 12
9 11 14
8 10 12
8 10 13
9 11 13
9 10 13
7 9 11
8 9 12
7 9 11
6 7 9
8 10 12
8 9 12
7 9 11
8 10 13
8 9 12
6 8 10
7 8 11
6 8 10
5 6 8
7 9 11
8 9 12
7 9 11
8 10 13
7 9 11
9 11 13
7 9 11
7 8 10
8 10 13
8 9 12
7 8 10
7 8 11
7 9 12
9 11 14
7 9 11
9 10 13
6 7 9
7 9 11
7 8 10
10 13 17
14 18 24
14 18 24
14 18 24
14 19 25
14 18 24
14 18 24
14 18 24
14 18 24
14 18 25
14 18 25
14 18 24
14 18 25
14 19 25
14 18 25
14 18 24
14 18 25
14 18 25
14 19 25
14 19 25
14 19 25
14 18 25
14 18 25
14 18 24
14 18 24
14 18 24
14 18 25
14 18 24
14 18 24
14 18 25
14 18 25
14 18 25
14 19 25
14 19 25
14 19 25
14 18 25
14 18 24
15 19 25
14 18 25
14 19 25
14 19 25
14 19 25
14 18 25
14 19 25
14 18 25
14 19 25
14 19 25
14 18 25
14 18 25
14 18 25
14 18 25
14 19 25
14 18 25
14 19 25
14 18 25
14 18 25
14 19 25
14 19 25
14 19 25
14 18 25
14 19 25
14 19 25
14 19 25
14 19 25
14 19 25
14 19 25
14 18 24
14 19 25
14 18 25
14 19 25
15 19 25
14 18 25
14 18 25
15 19 25
14 18 25
14 19 25
14 18 25
14 18 25
14 19 25
14 19 25
14 18 25
14 19 25
14 18 25
14 19 25
14 19 25
14 19 25
14 19 25
14 19 25
14 19 25
14 19 25
14 19 25
14 19 25
14 18 25
15 19 25
14 18 25
14 18 24
15 19 25
14 18 25
14 19 25
14 19 25
14 18 25
15 19 25
14 19 25
15 19 25
14 19 25
14 19 25
14 19 25
14 19 25
14 18 25
14 18 25
15 19 25
14 19 25
14 18 25
15 19 25
14 19 25
14 19 25
14 18 25
14 19 25
14 19 25
14 19 25
14 19 25
14 18 25
14 19 25
14 18 25
14 19 25
14 19 25
14 19 25
15 19 25
14 19 25
14 19 25
14 19 25
14 19 25
14 19 25
14 19 25
14 18 25
15 19 25
14 19 25
14 19 25
15 19 25
14 19 25
15 19 25
14 19 25
14 19 25
15 19 25
14 19 25
14 18 25
14 19 25
15 19 25
14 19 25
15 19 25
14 18 25
14 19 25
14 19 25
14 18 25
15 19 25
15 19 25
14 19 25
14 18 25
14 19 25
14 18 25
14 18 25
15 19 25
14 18 25
14 19 25
14 19 25
15 19 25
14 19 25
14 19 25
14 19 25
14 19 25
14 18 25
14 19 25
14 19 25
15 19 25
14 19 25
14 18 25
14 18 25
15 19 25
14 19 25
15 19 25
14 18 25
14 19 25
14 19 25
14 18 25
15 19 25
14 19 25
14 19 25
14 19 25
15 19 25
14 18 25
14 19 25
15 19 25
14 18 25
14 18 25
14 19 25
14 18 25
14 19 25
14 19 25
14 18 25
14 19 25
14 19 25
15 19 25
14 18 25
14 19 25
14 18 25
14 18 25
14 18 25
14 19 25
14 19 25
14 19 25
14 19 25
14 19 25
14 18 25
14 18 25
14 18 25
14 19 25
14 19 25
14 19 25
15 19 25
14 18 25
14 18 25
14 18 25
14 18 25
14 19 25
14 18 25
14 18 24
14 18 25
14 18 25
14 19 25
14 18 25
14 19 25
14 19 25
14 18 25
15 19 25
14 18 25
14 18 24
14 19 25
14 19 25
15 19 25
14 18 25
14 18 24
14 18 25
14 19 25
14 18 25
14 18 25
14 18 24
14 19 25
14 18 25
14 18 25
14 18 24
15 19 25
14 19 25
14 18 25
14 19 25
14 18 25
14 19 25
14 18 25
14 18 24
14 18 25
14 19 25
15 19 25
14 18 25
14 19 25
14 18 24
14 18 25
14 18 25
14 18 24
14 18 25
14 18 24
14 18 25
14 18 25
13 17 23
14 18 24
14 18 24
14 18 24
14 18 24
15 19 25
14 18 24
14 18 24
14 18 24
14 18 24
14 18 25
14 18 24
12 16 22
7 8 11
7 9 11
6 8 10
7 8 10
7 9 11
7 8 10
6 7 9
7 8 10
6 8 10
7 9 11
6 7 9
6 7 9
8 10 12
8 10 13
8 10 12
7 8 10
7 9 11
7 9 11
6 8 10
7 9 11
7 9 11
8 10 12
5 6 8
7 9 11
7 9 11
7 8 11
7 9 12
7 8 10
8 9 12
8 10 13
8 9 12
6 8 10
5 7 8
8 9 12
8 10 12
7 9 11
9 11 13
8 10 13
7 8 11
7 9 11
9 11 13
8 9 12
7 8 11
6 7 9
8 9 12
8 9 12
7 8 10
6 7 9
9 11 14
7 9 11
8 9 12
7 9 11
7 8 11
8 10 12
9 10 13
8 10 13
7 8 11
6 8 10
9 11 14
9 10 13
7 9 11
8 9 12
7 9 11
8 9 12
8 9 12
7 8 11
8 10 13
7 8 10
7 9 11
7 9 12
7 9 11
7 9 11
8 10 12
8 9 12
8 10 12
7 8 11
10 12 15
8 10 12
9 11 13
8 9 12
7 9 11
8 10 12
8 10 12
8 10 12
8 9 12
7 8 10
7 8 10
9 11 14
8 9 12
8 10 13
9 10 13
8 10 13
6 8 10
7 9 11
8 10 12
8 10 12
8 9 11
8 10 13
6 7 9
6 7 9
7 9 11
7 9 11
8 10 13
8 10 12
7 9 11
7 9 11
5 6 8
6 8 10
7 9 12
7 9 11
7 9 11
7 8 10
6 7 9
6 8 10
8 9 11
6 7 9
13 17 22
14 18 24
14 18 24
14 18 25
14 18 24
14 18 25
14 19 25
14 18 24
13 17 23
14 18 25
14 18 24
14 19 25
14 18 24
14 18 25
14 18 25
14 18 24
14 18 24
14 18 24
14 18 25
14 18 25
14 18 24
14 18 24
14 18 24
14 18 25
14 18 25
14 18 24
14 18 25
14 18 25
14 18 25
14 18 25
14 18 24
14 18 25
14 19 25
14 19 25
14 19 25
14 18 25
14 18 25
14 18 25
14 19 25
14 18 25
14 19 25
14 18 25
14 18 25
14 18 25
14 19 25
14 18 25
14 19 25
14 18 25
14 18 25
14 18 25
14 18 25
14 19 25
15 19 25
15 19 25
14 19 25
14 19 25
14 18 25
14 18 25
14 19 25
14 19 25
14 19 25
15 19 25
14 19 25
15 19 25
14 19 25
14 19 25
14 18 25
14 18 24
14 19 25
14 19 25
14 19 25
14 19 25
15 19 25
15 19 25
14 18 25
14 18 25
14 19 25
14 19 25
14 19 25
14 19 25
14 19 25
14 19 25
14 18 25
14 19 25
14 18 25
15 19 25
14 19 25
15 19 25
14 18 25
14 19 25
14 18 25
15 19 25
14 18 25
15 19 25
14 18 25
14 19 25
14 19 25
14 18 25
14 19 25
14 18 25
14 19 25
14 18 25
14 19 25
15 19 25
14 19 25
14 19 25
15 19 25
14 19 25
14 19 25
14 18 25
15 19 25
14 18 25
14 19 25
15 19 25
14 19 25
14 19 25
14 19 25
14 18 25
14 18 25
14 18 25
14 18 25
14 19 25
14 19 25
14 18 25
14 18 25
14 18 25
15 19 25
15 19 25
14 19 25
14 19 25
14 19 25
14 19 25
14 19 25
14 19 25
14 19 25
14 18 25
14 19 25
15 19 25
15 19 25
14 18 25
14 18 25
14 18 25
14 19 25
14 19 25
14 19 25
14 19 25
14 19 25
14 19 25
14 19 25
14 18 25
14 18 25
14 19 25
14 19 25
14 19 25
14 19 25
14 18 25
14 19 25
14 19 25
15 19 25
14 19 25
14 19 25
14 19 25
14 19 25
14 19 25
14 18 25
14 19 25
14 19 25
14 19 25
14 19 25
14 19 25
14 19 25
14 19 25
14 19 25
14 19 25
15 19 25
14 19 25
14 19 25
14 18 25
14 18 25
14 18 25
14 19 25
14 18 25
14 19 25
14 18 25
14 19 25
14 19 25
15 19 25
14 19 25
14 19 25
15 19 25
14 19 25
14 18 25
14 19 25
14 19 25
14 19 25
14 19 25
14 19 25
14 19 25
14 18 25
15 19 25
14 19 25
14 19 25
14 18 25
14 19 25
14 19 25
14 18 25
14 18 24
14 19 25
14 18 25
15 19 25
14 19 25
14 18 25
14 19 25
14 18 25
14 19 25
14 19 25
14 18 24
14 18 25
15 19 25
14 18 25
14 18 25
15 19 25
14 18 25
14 19 25
14 19 25
14 18 25
14 19 25
14 18 25
14 18 25
14 18 24
14 19 25
14 19 25
14 18 25
14 18 25
14 18 25
14 18 24
14 19 25
14 19 25
14 18 25
14 18 25
14 18 25
14 18 25
14 18 25
14 18 24
14 18 25
14 19 25
14 18 24
14 18 25
14 18 25
14 18 24
14 19 25
14 18 24
14 18 24
14 18 25
14 18 24
14 18 24
14 18 25
14 18 24
14 18 24
14 19 25
14 18 24
14 18 24
14 18 24
14 18 25
14 18 24
14 18 24
14 18 25
14 18 25
14 18 24
14 18 24
14 18 24
13 18 24
14 18 24
14 18 24
13 17 24
14 18 25
14 18 24
14 18 24
14 18 24
13 17 23
14 19 25
14 18 24
14 18 25
14 18 24
9 12 15
6 7 9
7 9 11
8 9 12
8 9 12
8 9 11
6 8 10
7 8 10
8 9 12
8 9 11
7 9 11
7 9 11
7 9 11
7 9 11
8 9 12
6 7 9
7 9 11
5 7 8
7 9 11
7 9 11
8 10 12
6 8 10
8 10 12
7 9 12
8 9 12
9 11 13
8 9 11
6 7 10
8 10 12
6 8 10
4 6 7
7 8 11
6 8 10
8 9 12
9 11 13
8 10 12
8 9 12
8 9 12
7 8 11
8 10 12
7 9 11
6 7 9
8 9 12
9 10 13
7 8 11
6 7 9
8 10 12
6 7 9
7 8 10
8 9 12
8 10 12
8 10 13
8 10 12
7 9 11
6 8 10
8 10 13
7 8 11
6 8 10
8 10 12
8 9 11
8 9 12
7 9 11
8 9 12
8 10 12
8 10 12
8 9 12
9 10 13
8 10 12
9 11 13
7 9 11
7 9 11
8 10 13
7 9 11
8 10 13
8 10 12
7 9 11
7 9 11
9 11 13
7 9 11
6 8 10
8 10 12
8 10 13
8 9 12
7 9 11
9 10 13
8 10 13
6 8 10
7 8 11
8 9 12
8 10 12
8 9 12
8 10 12
7 8 10
6 7 9
7 9 11
8 9 12
9 11 14
6 8 10
8 10 12
8 9 11
8 9 12
7 9 11
7 8 10
6 8 10
7 8 10
6 7 9
7 9 11
8 10 12
9 10 13
7 9 11
7 8 10
7 8 11
7 9 11
7 8 10
5 6 8
9 11 15
14 17 23
13 17 23
14 17 23
13 17 23
14 18 25
14 18 25
14 18 24
13 17 23
14 19 25
14 18 24
14 18 24
14 18 24
14 18 24
14 18 24
14 18 24
14 18 24
14 18 25
14 18 25
14 18 25
14 18 24
14 18 24
14 18 25
14 18 25
13 17 24
14 18 25
14 18 24
14 18 24
14 18 25
14 18 24
14 18 24
14 18 24
14 18 25
14 18 25
14 18 25
14 18 24
14 18 25
14 18 25
14 19 25
14 18 25
14 18 25
14 19 25
14 18 25
14 18 25
14 18 25
14 19 25
14 18 25
14 18 25
14 18 25
14 19 25
14 18 25
14 18 25
14 19 25
15 19 25
15 19 25
14 19 25
14 19 25
14 18 25
14 19 25
14 19 25
14 18 25
14 18 25
14 18 25
14 18 25
14 19 25
14 19 25
14 18 25
14 18 24
14 18 25
14 19 25
15 19 25
14 18 25
14 18 25
14 19 25
14 18 25
14 19 25
14 19 25
14 19 25
14 19 25
14 19 25
14 18 24
14 18 25
14 18 25
14 18 25
14 18 25
14 18 25
14 19 25
14 19 25
14 18 25
14 18 24
15 19 25
14 19 25
15 19 25
14 19 25
14 18 25
15 19 25
14 19 25
14 18 25
14 19 25
15 19 25
14 19 25
14 18 25
14 19 25
14 19 25
14 19 25
14 19 25
14 18 25
14 19 25
14 19 25
15 19 25
14 19 25
14 19 25
14 19 25
14 18 25
14 19 25
14 19 25
14 19 25
14 18 25
14 18 25
15 19 25
14 19 25
14 18 25
15 19 25
14 19 25
14 19 25
14 18 25
14 19 25
15 19 25
15 19 25
14 18 25
14 19 25
14 19 25
14 19 25
14 19 25
14 19 25
15 19 25
14 18 25
14 19 25
14 19 25
14 18 25
14 18 25
15 19 25
14 19 25
14 18 25
14 19 25
14 18 25
14 19 25
14 19 25
14 19 25
14 19 25
14 19 25
15 19 25
14 19 25
14 19 25
14 19 25
14 18 25
14 19 25
14 19 25
14 19 25
14 19 25
14 19 25
14 19 25
14 19 25
14 19 25
14 18 25
15 19 25
14 19 25
14 18 25
14 19 25
14 18 25
14 19 25
14 19 25
14 19 25
14 18 25
14 19 25
14 18 25
14 19 25
14 18 25
14 19 25
14 19 25
15 19 25
14 19 25
14 19 25
15 19 25
14 18 25
14 18 25
14 18 25
14 18 25
14 19 25
14 18 25
14 19 25
14 19 25
14 19 25
14 19 25
14 18 25
14 19 25
14 19 25
14 18 25
14 18 25
14 19 25
15 19 25
14 19 25
14 19 25
14 18 24
14 18 24
14 19 25
14 19 25
14 19 25
14 18 25
14 18 25
15 19 25
14 18 25
14 18 25
14 19 25
14 18 25
14 18 25
14 19 25
14 18 25
14 18 24
14 18 24
14 18 25
14 19 25
14 18 25
14 18 25
15 19 25
14 18 25
14 18 24
14 19 25
14 19 25
14 18 24
14 19 25
14 18 25
14 18 25
14 19 25
14 18 25
14 18 25
14 18 25
14 18 25
14 18 25
14 18 25
15 19 25
14 19 25
14 19 25
15 19 25
14 19 25
14 18 25
14 19 25
14 18 24
14 18 24
14 18 24
14 18 25
14 18 25
14 18 25
14 18 25
14 18 24
14 18 24
14 18 24
14 18 25
14 18 24
14 18 24
14 18 24
14 18 24
14 18 24
14 18 25
14 18 25
14 18 25
14 18 25
15 19 25
14 18 24
14 18 25
14 18 24
14 18 25
14 18 24
14 18 24
14 18 25
14 18 25
14 18 25
13 18 24
14 18 24
14 18 24
14 18 24
14 18 24
14 18 24
14 18 24
14 18 24
13 17 22
8 9 12
7 9 11
7 8 10
6 8 10
6 7 9
7 9 11
7 8 11
6 7 9
8 9 12
7 9 12
8 10 12
7 8 10
7 8 10
7 8 11
7 8 10
7 8 10
7 9 11
8 10 12
7 9 11
7 9 11
7 8 11
7 8 10
7 9 12
6 7 9
7 9 11
8 10 12
8 10 12
6 8 10
7 9 11
7 9 11
8 9 12
9 10 13
6 7 9
8 9 12
8 9 12
7 9 11
7 9 11
8 9 12
8 10 12
8 10 12
7 8 11
9 11 14
8 10 12
8 10 13
7 9 11
7 8 10
7 9 11
6 7 9
7 8 10
8 9 12
8 9 12
8 9 11
8 9 12
8 10 12
5 6 8
8 10 12
7 9 11
7 9 12
7 8 11
8 10 12
7 9 11
8 10 13
7 9 11
7 9 11
7 9 11
7 9 11
8 10 12
7 8 10
8 9 12
7 9 12
8 9 12
7 9 11
8 9 12
8 9 12
6 7 9
6 8 10
7 9 11
8 9 12
7 9 11
7 8 11
7 8 10
8 9 12
8 10 12
8 10 13
6 7 9
8 9 11
6 7 9
8 10 12
8 9 12
7 8 11
6 8 10
7 8 10
7 9 11
6 8 10
8 9 12
7 8 11
8 10 13
7 8 11
8 9 11
5 6 8
7 8 10
7 8 11
8 9 12
7 9 11
7 8 10
8 10 12
8 9 11
8 9 11
6 7 9
7 8 10
5 7 8
6 7 9
7 9 11
6 7 10
13 17 23
14 18 24
14 18 25
13 17 23
14 18 24
14 18 25
14 18 24
14 18 24
14 18 25
13 17 23
14 18 24
13 17 23
14 18 25
14 18 24
14 18 24
14 18 25
14 18 25
14 18 25
14 18 24
14 18 24
14 19 25
14 18 24
14 18 24
14 18 25
14 18 24
14 18 24
14 18 24
14 18 25
14 18 25
14 18 25
13 18 24
14 18 25
14 18 24
14 18 25
14 18 25
14 18 24
14 19 25
14 19 25
14 18 25
14 18 25
14 18 25
14 18 24
14 19 25
14 18 25
14 18 24
14 18 25
14 18 25
14 18 24
14 18 25
14 18 25
14 19 25
14 18 24
14 19 25
14 19 25
14 18 25
14 18 24
14 18 25
14 18 24
14 18 25
14 18 25
14 18 25
14 18 25
14 18 25
14 19 25
14 19 25
14 18 25
14 19 25
14 18 25
14 18 25
14 19 25
14 18 25
14 19 25
14 18 24
14 18 25
14 18 25
14 18 25
14 18 25
14 19 25
14 19 25
14 18 24
15 19 25
14 19 25
15 19 25
15 19 25
14 19 25
14 19 25
14 19 25
14 19 25
14 18 25
14 18 24
14 19 25
14 18 24
14 18 25
14 19 25
14 19 25
14 18 25
14 19 25
14 19 25
14 19 25
14 18 25
14 19 25
14 18 25
14 19 25
15 19 25
14 18 25
14 19 25
14 19 25
14 18 25
14 19 25
14 19 25
14 18 25
14 19 25
14 19 25
14 18 25
14 19 25
14 19 25
14 19 25
14 19 25
14 19 25
14 19 25
14 19 25
14 18 25
14 19 25
15 19 25
14 19 25
14 18 25
14 19 25
14 19 25
14 18 25
15 19 25
14 19 25
14 18 25
14 18 25
14 18 25
14 19 25
14 18 25
14 19 25
14 19 25
14 19 25
14 18 25
14 19 25
14 19 25
14 18 25
15 19 25
14 19 25
14 18 25
14 18 25
14 18 25
15 19 25
14 19 25
14 19 25
15 19 25
15 19 25
14 19 25
14 19 25
14 19 25
14 19 25
14 19 25
14 18 25
14 19 25
14 19 25
14 19 25
14 19 25
14 18 25
15 19 25
14 19 25
14 19 25
14 18 25
14 18 25
14 19 25
14 19 25
14 19 25
14 19 25
14 18 25
14 18 25
14 19 25
14 19 25
14 19 25
14 19 25
14 18 25
14 19 25
14 19 25
14 19 25
14 19 25
14 19 25
14 18 25
14 18 25
14 19 25
14 19 25
14 19 25
14 18 25
14 18 25
14 18 24
14 18 25
14 19 25
14 18 25
14 19 25
14 18 25
14 19 25
14 18 25
14 18 25
14 19 25
14 18 25
15 19 25
14 19 25
14 18 25
14 19 25
14 18 24
14 18 25
14 18 25
14 19 25
14 19 25
14 18 25
14 18 25
14 18 25
14 18 25
14 19 25
14 19 25
14 18 25
14 19 25
14 18 25
14 19 25
14 18 25
14 19 25
14 18 25
14 19 25
14 18 25
14 18 24
14 18 24
14 18 24
14 19 25
14 18 25
14 18 25
14 18 24
14 18 24
14 18 25
14 19 25
14 18 25
14 18 25
14 18 24
14 19 25
13 18 24
14 18 25
14 18 25
14 18 25
14 18 24
14 18 24
14 18 25
14 18 24
14 19 25
14 18 24
14 18 25
14 19 25
14 18 24
14 18 25
14 18 24
14 19 25
14 18 24
14 18 24
14 18 24
14 18 24
14 18 24
14 18 24
14 18 24
14 18 24
14 18 24
14 18 25
14 18 25
13 18 24
14 18 24
14 18 25
14 18 25
14 18 24
14 18 24
14 18 25
14 18 24
14 18 24
14 18 24
14 18 24
13 17 23
14 18 25
14 18 24
14 18 24
14 18 24
14 18 24
14 18 24
9 11 14
6 7 9
5 7 8
7 8 10
7 9 11
7 9 11
7 9 11
7 8 10
7 9 11
7 9 11
7 8 10
8 10 13
7 8 10
7 9 11
7 8 10
7 8 10
6 7 9
7 9 11
8 9 12
6 8 10
6 7 9
8 9 12
7 9 11
8 9 12
7 9 11
6 7 9
7 8 11
6 8 10
7 8 11
7 8 10
8 10 12
6 7 9
7 8 11
7 8 10
8 9 12
7 9 11
6 8 10
6 8 10
6 7 10
8 9 12
7 9 12
7 9 11
6 8 10
6 7 10
7 9 11
7 9 11
8 10 12
8 9 12
7 8 11
6 7 9
6 8 10
6 7 9
7 8 10
7 9 11
6 7 9
6 8 10
7 9 11
6 7 10
8 10 12
6 7 9
8 10 12
7 9 11
6 7 9
8 10 13
8 9 12
7 8 11
8 10 12
7 8 10
7 8 11
8 10 13
8 9 12
8 9 11
7 8 11
8 10 13
8 10 13
8 9 12
7 8 10
9 11 13
7 9 11
7 8 10
8 9 12
7 8 10
7 8 11
7 8 10
8 9 12
6 8 10
8 10 13
9 10 13
6 8 10
6 8 10
6 7 9
6 8 10
6 8 10
7 8 10
7 9 11
7 8 10
8 9 12
8 10 13
7 8 11
7 9 11
6 7 9
8 9 12
6 7 9
6 8 10
7 8 10
6 7 9
7 8 11
7 8 10
7 9 11
8 9 12
7 8 11
7 9 11
6 8 10
9 12 16
14 18 24
13 17 23
14 18 24
13 17 23
12 16 22
14 18 25
14 18 25
14 18 24
14 18 24
14 18 24
14 18 24
14 18 24
14 18 24
14 18 24
14 18 24
14 18 25
13 17 23
14 18 24
14 18 24
14 18 24
14 18 25
14 18 24
14 18 24
14 19 25
14 18 24
14 18 24
13 18 24
14 18 24
14 19 25
14 18 24
14 18 24
14 18 24
14 18 24
14 18 25
14 18 25
14 18 24
14 18 25
14 18 25
14 18 25
14 18 24
14 19 25
14 18 24
14 18 25
14 18 25
15 19 25
14 18 24
14 18 25
14 18 24
14 18 25
14 18 25
14 18 25
14 19 25
14 18 25
14 18 24
15 19 25
14 18 25
14 18 24
14 19 25
14 18 25
14 19 25
14 18 25
14 18 25
14 18 25
14 18 25
14 18 25
14 19 25
14 19 25
14 18 25
14 18 25
14 19 25
14 18 25
14 18 25
14 18 25
14 18 24
14 19 25
14 19 25
14 19 25
14 18 25
14 19 25
14 18 25
14 18 25
15 19 25
14 19 25
15 19 25
14 18 25
14 18 25
14 19 25
14 19 25
14 18 25
14 19 25
14 19 25
14 19 25
15 19 25
14 18 24
14 19 25
14 18 25
15 19 25
14 18 25
14 18 25
14 19 25
14 19 25
14 18 25
14 18 25
14 18 25
14 19 25
14 19 25
14 18 25
14 19 25
14 18 25
14 19 25
14 19 25
14 18 25
14 18 25
14 18 25
14 18 25
14 19 25
14 19 25
15 19 25
14 18 25
14 19 25
14 19 25
14 19 25
14 18 25
14 19 25
14 18 25
14 18 25
14 18 25
14 18 25
14 19 25
14 18 25
14 19 25
15 19 25
15 19 25
14 18 25
14 19 25
14 18 25
14 19 25
14 18 25
14 19 25
14 18 25
15 19 25
15 19 25
14 19 25
14 19 25
14 18 25
14 19 25
14 19 25
14 18 25
15 19 25
14 19 25
14 19 25
14 19 25
14 19 25
14 19 25
14 18 25
14 19 25
14 19 25
14 19 25
14 18 25
14 18 25
14 18 24
14 19 25
14 19 25
14 18 25
14 19 25
14 18 25
14 19 25
14 19 25
14 19 25
14 19 25
14 19 25
14 18 25
14 18 24
14 19 25
14 19 25
14 18 25
14 19 25
14 18 25
14 19 25
14 19 25
14 18 25
14 19 25
14 19 25
14 19 25
14 19 25
15 19 25
14 18 25
14 19 25
14 19 25
14 18 25
14 18 25
14 18 24
14 18 25
14 18 25
14 19 25
15 19 25
14 19 25
14 18 25
14 19 25
14 18 25
14 18 25
14 18 25
14 18 25
14 18 25
14 18 25
14 18 24
14 18 25
14 18 25
14 19 25
14 19 25
14 18 25
14 19 25
14 18 25
14 18 25
14 18 25
14 18 25
14 18 25
14 19 25
14 18 24
14 18 25
14 19 25
14 18 24
14 19 25
14 19 25
14 18 24
14 18 25
14 19 25
14 18 24
14 18 24
14 19 25
14 19 25
14 18 25
14 19 25
14 18 24
14 18 25
14 18 24
14 18 25
14 18 25
14 18 25
14 18 25
14 19 25
14 18 25
14 18 25
15 19 25
14 18 25
14 18 24
14 18 24
14 18 25
14 18 24
14 18 25
14 18 25
14 18 24
14 18 24
14 18 24
14 18 24
14 18 25
14 18 24
14 18 24
14 18 24
14 18 24
13 17 23
14 18 24
14 18 24
14 18 25
14 18 24
14 18 24
14 18 24
14 18 25
14 18 24
14 18 24
14 19 25
14 18 24
14 18 24
13 17 23
13 18 24
14 18 25
13 17 23
14 18 24
13 17 23
13 17 24
13 17 23
13 17 23
14 18 24
14 18 24
14 18 24
14 18 24
12 15 21
7 9 11
6 7 9
6 8 10
6 8 9
6 8 10
6 7 10
7 8 10
6 7 9
6 8 9
7 8 10
7 9 11
5 7 8
7 8 11
8 9 12
8 10 12
7 8 10
7 9 11
7 9 11
9 10 13
8 10 12
6 8 10
8 10 12
8 10 13
6 7 9
7 9 11
6 7 9
7 9 11
7 9 11
7 9 11
7 9 11
7 9 11
8 10 12
8 10 13
7 9 11
8 9 12
7 9 11
7 9 11
9 10 13
6 7 9
8 10 12
9 10 13
8 10 12
7 8 11
6 7 9
7 8 11
5 7 9
9 10 13
7 8 11
7 9 11
7 8 10
9 11 13
7 8 10
8 9 12
7 8 10
7 9 11
7 9 11
8 9 12
7 8 11
7 8 10
8 9 12
7 9 11
6 7 9
8 10 12
7 9 11
7 8 11
6 8 10
8 10 13
6 7 9
7 9 11
7 9 11
6 8 10
7 9 11
7 8 10
8 9 12
7 9 11
7 8 11
8 9 12
8 9 12
8 9 12
6 8 10
5 7 9
8 10 13
8 10 13
7 8 10
7 8 10
7 8 11
7 9 11
7 8 10
8 10 13
7 9 11
7 9 11
5 6 8
6 8 9
7 8 10
7 8 11
7 8 11
6 7 9
7 8 10
7 9 11
8 9 12
6 7 9
7 8 11
6 8 10
8 10 13
7 8 11
8 9 12
7 8 10
8 10 12
7 8 10
7 8 11
6 7 9
6 8 10
13 17 23
13 17 23
13 17 24
14 18 24
13 17 24
14 17 23
13 17 23
14 18 24
13 17 23
13 17 24
14 18 24
14 18 24
14 18 25
13 17 23
14 19 25
14 18 24
14 18 24
14 18 24
14 18 24
14 18 25
14 18 24
13 18 24
14 18 24
13 18 24
14 18 24
14 18 24
14 18 24
14 18 24
14 18 25
14 18 25
14 18 24
14 18 24
14 18 24
14 18 25
14 18 25
14 18 24
14 18 25
14 18 24
14 18 24
14 18 24
14 18 25
14 18 25
14 18 25
14 18 24
14 18 25
14 18 24
14 18 24
14 18 25
14 19 25
14 18 25
14 19 25
14 19 25
14 18 24
14 18 25
14 19 25
14 18 25
14 18 24
14 18 24
14 18 25
14 18 25
14 18 24
14 19 25
14 18 25
14 18 25
14 19 25
14 18 25
14 18 25
14 19 25
15 19 25
14 19 25
14 19 25
14 18 25
14 19 25
14 19 25
14 18 25
14 19 25
14 18 25
14 18 25
14 18 24
14 18 25
14 19 25
14 19 25
14 19 25
14 18 25
14 18 25
14 19 25
14 19 25
14 18 24
14 18 25
14 19 25
14 19 25
14 18 25
14 19 25
14 18 25
14 19 25
14 18 25
14 18 24
14 18 25
14 18 25
15 19 25
14 19 25
15 19 25
14 18 25
14 18 25
14 19 25
14 18 25
14 19 25
14 19 25
15 19 25
14 19 25
15 19 25
14 18 25
14 18 25
14 18 25
14 19 25
14 18 25
14 19 25
15 19 25
14 19 25
14 19 25
14 19 25
14 19 25
14 18 24
14 18 25
14 19 25
14 18 25
14 19 25
14 19 25
14 19 25
15 19 25
14 19 25
14 18 25
14 19 25
14 19 25
15 19 25
14 19 25
14 18 25
14 19 25
14 19 25
14 19 25
14 19 25
15 19 25
14 19 25
14 18 25
15 19 25
14 19 25
14 18 25
14 19 25
14 19 25
14 19 25
14 18 25
15 19 25
14 18 25
15 19 25
14 19 25
14 19 25
14 19 25
15 19 25
14 19 25
14 19 25
14 19 25
14 18 25
14 19 25
15 19 25
14 18 25
14 18 25
14 19 25
14 18 25
14 19 25
15 19 25
14 19 25
14 18 25
14 19 25
14 19 25
14 18 25
14 19 25
14 18 25
14 18 25
14 19 25
14 18 25
14 19 25
14 18 24
14 19 25
14 19 25
14 19 25
15 19 25
14 18 25
14 19 25
14 19 25
14 19 25
14 18 25
14 19 25
14 19 25
14 18 25
15 19 25
14 19 25
14 19 25
14 18 25
14 19 25
14 19 25
14 18 25
14 18 25
14 18 25
14 19 25
14 18 25
14 19 25
14 18 25
14 18 25
14 18 25
14 18 25
14 18 25
14 19 25
14 19 25
14 18 25
14 18 25
14 19 25
14 18 24
14 18 25
14 18 25
14 18 25
14 19 25
14 19 25
14 18 24
14 18 25
14 19 25
14 18 25
14 18 25
14 18 24
15 19 25
14 18 25
14 18 24
14 18 24
14 18 24
14 18 24
14 18 25
14 18 25
14 18 24
14 18 25
14 18 24
14 18 25
14 19 25
14 18 25
13 18 24
14 18 25
14 18 24
14 18 24
14 19 25
14 18 24
13 17 23
13 17 24
14 18 24
14 18 24
14 18 25
13 18 24
14 18 25
14 18 24
14 18 24
14 19 25
14 18 24
13 17 23
14 18 24
14 18 25
14 18 25
14 18 24
14 18 24
14 18 24
14 18 24
14 18 24
14 18 24
14 18 25
13 16 22
14 18 24
13 17 23
14 18 24
13 17 23
14 18 24
14 18 24
13 17 23
12 16 22
14 18 24
14 18 24
14 18 24
13 17 23
14 18 24
14 18 24
13 17 24
14 18 24
13 17 23
10 14 18
5 6 8
7 8 11
7 9 11
7 8 10
6 7 9
8 9 11
7 9 11
7 8 11
7 8 10
8 10 12
7 8 11
7 8 11
7 8 11
6 7 9
6 8 10
7 9 11
5 7 8
8 9 12
7 8 10
7 9 11
6 8 10
8 9 12
7 9 11
6 7 9
6 8 10
8 9 12
8 9 12
6 7 9
8 9 11
8 9 12
7 8 11
7 8 11
8 9 12
8 9 12
7 9 11
7 9 11
9 11 14
7 8 11
5 6 8
6 7 9
7 8 11
7 9 11
7 9 11
8 10 12
7 8 10
6 7 9
7 9 11
6 8 10
6 8 10
7 9 11
6 8 10
7 8 10
6 7 9
7 9 11
8 9 12
7 9 11
6 7 9
7 9 12
7 9 11
7 9 11
7 8 11
6 8 10
7 9 11
6 8 10
6 7 9
7 8 10
7 8 11
8 10 12
7 8 11
7 8 10
6 8 10
7 8 11
7 9 11
8 9 12
7 8 10
6 8 10
7 9 11
7 8 11
7 8 10
7 9 11
6 7 9
6 7 9
9 10 13
6 7 9
7 8 10
7 8 10
8 10 12
7 9 11
6 8 10
7 8 10
7 8 11
8 9 12
8 9 12
6 7 9
7 8 10
6 8 10
7 9 11
6 8 10
7 8 10
7 8 11
8 9 12
7 8 10
7 9 11
6 8 10
6 7 9
8 9 12
7 9 11
6 7 9
6 8 10
6 7 9
11 15 20
13 17 23
13 17 23
13 18 24
13 17 23
13 17 23
14 18 24
13 17 24
13 17 23
13 17 23
13 17 24
14 18 24
14 18 24
14 18 24
13 17 23
14 18 24
14 18 24
14 18 24
14 18 25
13 17 24
14 18 24
14 18 24
14 18 24
14 18 24
14 18 24
14 18 24
13 17 23
13 17 24
14 18 24
13 17 23
14 18 25
14 18 25
14 18 24
14 18 24
14 18 25
14 18 25
14 18 24
14 18 24
14 18 24
14 18 25
14 18 25
14 18 25
14 18 25
14 18 25
14 18 24
14 19 25
14 18 25
14 18 24
14 18 25
14 18 25
14 18 24
14 18 24
14 18 25
14 18 25
14 18 24
14 18 24
14 19 25
14 18 24
14 18 25
14 18 25
14 18 25
14 18 25
14 19 25
14 19 25
14 19 25
14 18 24
14 19 25
14 19 25
14 18 24
14 18 24
14 18 25
14 18 24
14 19 25
14 18 24
14 19 25
15 19 25
14 18 25
14 18 24
14 19 25
14 19 25
15 19 25
15 19 25
14 19 25
14 19 25
14 18 25
14 18 25
14 18 24
14 18 24
15 19 25
14 18 25
14 18 25
14 19 25
14 19 25
14 18 25
15 19 25
14 19 25
14 18 25
14 19 25
14 18 25
14 18 25
14 19 25
14 18 25
14 19 25
15 19 25
14 18 24
14 18 25
14 18 25
15 19 25
14 18 25
15 19 25
14 19 25
15 19 25
14 18 25
14 19 25
14 19 25
14 19 25
14 19 25
14 18 25
14 18 25
15 19 25
14 19 25
14 18 24
14 19 25
14 18 25
14 19 25
14 19 25
14 18 25
14 18 25
14 18 25
14 19 25
14 19 25
15 19 25
14 19 25
14 18 25
14 19 25
14 19 25
14 19 25
14 19 25
15 19 25
14 19 25
14 19 25
14 18 25
14 19 25
15 19 25
14 18 25
14 18 25
14 18 25
14 19 25
15 19 25
14 19 25
14 19 25
14 19 25
14 19 25
15 19 25
14 18 25
15 19 25
14 18 25
15 19 25
14 18 25
14 18 25
14 19 25
14 19 25
14 19 25
14 18 25
14 19 25
14 19 25
14 18 25
14 18 25
14 19 25
14 19 25
14 19 25
14 19 25
14 19 25
14 19 25
15 19 25
14 19 25
15 19 25
14 18 25
14 19 25
14 19 25
14 18 25
14 18 25
14 19 25
14 19 25
14 18 24
14 18 25
14 18 25
14 18 25
14 19 25
14 18 25
14 18 25
14 18 25
14 18 25
14 19 25
14 18 24
14 18 25
14 18 25
14 18 25
14 19 25
14 18 25
14 19 25
14 18 25
14 18 25
15 19 25
14 19 25
14 18 25
14 18 25
14 19 25
14 18 25
14 19 25
14 18 24
14 19 25
14 19 25
14 18 25
14 19 25
14 19 25
14 18 25
14 18 24
14 18 25
14 18 25
14 18 24
14 18 25
14 19 25
14 18 25
14 18 25
14 18 24
14 18 25
14 18 25
14 18 24
14 18 25
14 19 25
14 18 24
14 18 25
14 18 25
14 18 24
14 18 25
14 18 25
14 19 25
14 18 25
14 18 24
14 18 25
14 18 24
14 18 24
15 19 25
14 18 24
13 17 23
14 18 24
14 18 24
14 18 24
14 18 25
14 18 25
14 18 25
14 18 24
14 18 24
14 19 25
14 18 24
14 18 25
14 19 25
14 18 24
14 18 24
13 18 24
14 18 24
13 18 24
13 17 23
14 18 24
14 18 24
14 18 24
14 18 24
13 17 24
14 18 24
13 17 23
14 19 25
14 18 24
13 17 24
14 18 24
14 18 24
13 17 23
14 18 24
13 17 23
13 17 23
14 18 24
13 17 23
14 18 24
13 17 24
13 17 24
13 17 23
13 16 22
14 18 24
14 18 24
13 16 22
9 12 15
6 7 9
6 7 9
5 7 9
5 7 8
8 9 11
5 7 8
8 10 12
6 8 10
7 8 11
8 10 12
6 7 9
6 7 9
8 9 12
8 10 12
8 9 12
7 9 11
8 10 12
8 9 11
5 6 8
7 8 10
6 8 10
6 7 9
6 8 10
7 9 11
6 7 9
7 8 10
6 8 10
7 8 11
7 8 11
7 8 10
7 8 10
6 8 10
6 7 10
7 8 11
6 8 10
6 7 9
6 8 10
5 6 8
7 9 11
6 7 9
7 9 11
6 7 9
7 9 11
6 8 10
7 8 11
7 8 11
7 8 10
8 10 13
7 9 11
8 9 12
8 9 12
7 9 11
7 9 11
7 8 10
6 7 9
8 10 13
7 9 11
7 8 10
6 8 10
7 9 11
6 8 10
8 9 12
7 8 10
8 9 12
7 8 10
7 9 11
9 11 14
7 8 11
7 8 11
8 10 12
6 8 10
8 9 12
7 9 11
6 7 9
7 8 11
7 8 11
6 8 10
7 8 11
9 10 13
8 10 12
8 10 12
8 9 12
8 9 11
8 10 12
8 10 12
7 8 10
8 10 13
7 9 11
7 9 11
6 8 10
6 7 9
7 8 10
6 7 9
8 9 12
8 10 12
5 7 8
6 7 9
6 7 9
6 7 9
7 9 11
6 7 9
8 9 12
7 8 10
6 7 9
5 6 8
5 6 8
5 7 8
7 9 11
8 10 13
13 17 23
13 17 23
13 17 24
13 17 22
14 18 24
13 17 23
13 16 22
13 17 23
13 17 23
13 17 23
12 16 22
13 17 24
13 17 23
13 17 23
14 18 24
13 17 23
14 18 24
13 17 23
14 18 24
14 18 25
14 18 24
14 18 24
14 18 24
14 18 24
14 18 24
14 18 24
14 19 25
14 18 25
13 18 24
14 18 25
14 18 24
14 18 24
14 18 24
13 17 24
14 18 25
14 18 24
14 18 24
14 18 24
14 19 25
15 19 25
14 18 24
14 18 24
14 18 23
14 19 25
14 18 25
14 19 25
14 18 25
13 18 24
14 18 24
14 18 24
14 19 25
14 18 25
14 18 25
14 18 25
14 18 25
15 19 25
14 18 24
14 18 25
14 18 25
14 18 24
14 18 24
14 18 25
14 19 25
14 18 25
14 18 25
14 18 25
14 18 25
14 18 24
14 19 25
14 18 25
14 18 25
14 18 25
14 18 24
14 18 25
15 19 25
14 18 24
14 19 25
14 19 25
14 18 25
14 18 25
15 19 25
14 18 25
14 18 25
14 18 25
14 18 24
14 18 24
14 18 25
14 19 25
14 18 25
14 18 24
14 18 24
14 18 25
14 18 25
14 19 25
14 19 25
14 19 25
14 18 25
14 18 24
14 18 25
14 18 25
14 19 25
14 18 25
14 18 25
14 18 25
14 18 25
14 19 25
14 18 25
14 18 25
14 19 25
14 19 25
14 19 25
14 19 25
14 19 25
14 18 25
14 19 25
14 19 25
14 18 25
14 18 25
15 19 25
14 19 25
14 19 25
14 18 25
14 19 25
14 19 25
14 18 25
14 19 25
14 18 25
14 19 25
14 18 25
15 19 25
14 18 25
14 19 25
14 19 25
14 18 25
14 18 25
14 19 25
14 19 25
14 19 25
14 19 25
14 18 25
14 19 25
14 19 25
14 19 25
14 19 25
14 19 25
14 18 25
14 18 25
14 19 25
14 19 25
15 19 25
14 18 25
14 18 25
14 19 25
14 19 25
14 18 25
14 18 25
14 19 25
14 19 25
14 18 25
14 18 25
14 18 25
14 19 25
15 19 25
14 18 25
15 19 25
14 19 25
15 19 25
14 19 25
15 19 25
14 19 25
14 19 25
14 19 25
14 19 25
14 19 25
15 19 25
14 18 25
14 19 25
14 19 25
14 19 25
14 19 25
14 19 25
14 19 25
14 19 25
14 19 25
14 18 24
14 18 25
14 18 25
14 19 25
14 19 25
14 19 25
14 19 25
14 19 25
14 19 25
14 19 25
14 18 24
14 18 25
14 18 24
14 18 25
14 19 25
14 18 25
14 19 25
14 19 25
14 18 25
14 19 25
14 18 25
14 18 25
14 18 25
15 19 25
14 18 25
14 18 25
14 19 25
14 19 25
14 18 25
14 18 24
14 19 25
14 19 25
14 18 25
14 18 24
14 18 25
14 18 25
14 18 25
14 18 24
14 19 25
14 18 24
14 19 25
14 19 25
14 18 25
14 18 25
14 18 25
14 18 24
14 18 24
14 18 25
14 18 24
14 18 25
14 18 24
14 18 25
14 18 24
14 18 24
14 18 25
14 19 25
14 18 25
14 18 24
14 18 25
14 18 25
14 18 24
14 19 25
14 18 24
14 18 25
14 18 25
14 18 24
14 18 24
13 18 24
14 18 24
14 18 24
13 17 23
14 18 24
14 18 24
13 18 24
14 18 24
14 18 24
14 18 24
14 18 24
14 18 24
14 18 24
13 17 24
14 18 25
13 17 24
14 18 24
14 18 24
13 17 23
13 17 24
13 18 24
14 18 24
13 17 23
14 18 24
14 18 24
14 18 24
13 16 22
13 17 23
13 18 24
13 17 23
13 17 24
13 17 23
14 18 24
13 17 23
13 16 22
13 17 24
12 16 22
13 17 24
13 17 23
14 18 24
6 7 9
5 7 9
6 7 9
6 8 10
7 8 10
6 7 9
8 9 11
7 8 10
7 8 10
5 6 8
9 11 13
6 8 10
6 7 9
6 8 10
7 8 10
7 8 10
7 8 10
6 8 10
6 8 10
7 8 11
9 10 13
6 7 9
5 7 8
6 8 10
7 9 12
7 8 11
7 8 10
7 8 11
7 8 10
7 8 10
7 9 11
8 10 12
6 8 10
7 9 11
7 9 11
6 7 10
8 9 12
8 9 11
7 9 11
7 9 11
7 8 10
6 7 9
7 8 11
6 7 10
7 8 10
7 8 10
7 8 10
7 8 10
7 9 11
5 7 8
6 8 10
7 8 10
7 9 11
6 8 10
6 7 9
7 8 11
7 8 11
7 8 10
7 8 10
7 8 10
7 9 12
7 9 11
8 9 12
6 7 9
6 7 9
6 7 9
7 8 10
7 8 10
7 8 11
8 9 11
7 9 11
6 7 9
5 6 8
7 9 11
7 8 10
8 10 13
7 9 11
7 8 10
6 8 10
8 9 12
7 8 10
6 7 9
6 7 9
7 9 11
8 10 12
6 8 10
6 7 9
6 8 10
6 8 10
7 9 11
7 9 11
7 9 11
7 9 11
6 8 10
6 7 9
5 6 8
7 8 10
7 9 11
6 7 10
7 8 10
7 8 10
8 9 11
6 7 9
8 9 12
7 9 11
6 7 9
6 7 9
5 6 8
12 15 21
13 17 23
13 17 23
13 16 22
14 18 24
13 17 23
13 17 23
14 18 24
13 17 23
13 17 23
13 17 22
14 18 24
14 18 24
14 18 24
13 17 23
13 17 23
14 18 23
13 17 23
13 17 24
13 17 23
14 18 24
14 18 24
14 18 24
13 18 24
14 18 24
13 17 24
13 17 23
14 18 24
14 18 24
14 18 24
14 18 24
14 18 24
14 18 25
14 18 24
14 18 25
14 18 24
14 18 24
13 18 24
14 18 24
14 18 25
14 18 24
13 18 24
13 18 24
14 18 24
14 18 25
14 18 25
14 18 25
14 18 24
14 18 24
14 18 24
14 18 24
14 18 24
14 18 25
14 18 24
14 18 25
14 18 25
14 18 25
14 18 24
14 18 24
15 19 25
14 18 25
14 18 25
14 18 25
14 18 25
14 18 25
14 19 25
14 18 24
14 18 25
14 19 25
14 18 25
14 18 25
14 18 25
15 19 25
14 19 25
14 19 25
14 19 25
14 18 24
14 18 25
14 19 25
14 18 24
14 18 24
14 19 25
14 18 25
14 19 25
14 18 25
14 18 25
14 18 24
14 18 24
14 19 25
14 18 25
14 18 25
14 18 25
14 19 25
14 18 25
14 18 25
14 18 25
14 18 25
14 18 24
14 18 24
14 19 25
14 18 25
14 19 25
14 19 25
14 18 24
14 19 25
14 18 25
14 19 25
14 19 25
14 18 25
14 19 25
14 19 25
14 19 25
14 18 25
14 19 25
14 18 25
14 18 25
15 19 25
14 18 25
14 19 25
14 18 25
14 19 25
14 18 24
14 19 25
14 19 25
14 19 25
14 18 25
14 19 25
14 18 25
15 19 25
14 19 25
14 19 25
14 19 25
14 19 25
14 19 25
15 19 25
14 18 25
14 18 25
14 19 25
14 19 25
14 19 25
14 18 25
14 18 25
14 19 25
14 19 25
15 19 25
14 19 25
14 19 25
14 19 25
14 19 25
14 19 25
14 19 25
14 19 25
14 18 25
14 18 25
14 19 25
14 19 25
14 19 25
14 18 25
15 19 25
14 19 25
14 18 25
14 18 24
14 18 25
14 19 25
14 18 25
14 18 25
14 18 25
14 19 25
14 18 25
14 19 25
14 19 25
15 19 25
14 18 25
14 19 25
14 18 25
14 18 25
14 18 25
14 19 25
15 19 25
14 18 25
14 18 25
14 18 25
14 18 25
14 18 24
14 19 25
14 18 24
14 19 25
14 19 25
14 19 25
14 19 25
14 18 25
14 18 25
14 18 25
14 18 25
14 19 25
14 19 25
14 19 25
14 18 24
14 18 25
14 19 25
14 18 25
14 18 25
14 18 25
14 18 25
14 18 25
14 19 25
14 18 25
14 18 25
14 18 25
15 19 25
14 19 25
14 18 24
14 18 25
14 18 24
14 18 25
14 19 25
14 18 25
13 17 23
14 18 25
14 18 24
14 18 25
14 18 25
14 18 24
14 18 24
15 19 25
14 18 24
14 18 24
14 19 25
14 18 25
14 18 25
14 18 24
14 18 24
14 18 24
14 18 25
14 18 24
14 18 24
14 18 24
14 18 24
14 18 25
14 18 24
14 18 25
13 18 24
14 18 24
14 18 24
14 18 25
13 17 23
14 18 24
14 18 25
14 18 24
14 18 25
14 18 24
13 18 24
14 18 24
14 18 24
14 18 25
14 18 24
14 18 24
13 17 23
14 18 24
14 18 24
13 17 23
14 18 25
14 18 25
14 18 24
14 18 24
13 18 24
14 18 25
13 17 23
13 18 24
14 18 24
14 18 24
14 18 24
13 18 24
14 18 24
13 17 23
13 17 23
14 18 24
13 17 24
12 16 21
13 17 23
12 16 22
14 18 24
13 17 24
13 17 23
13 17 22
13 17 23
13 17 22
13 17 23
13 17 22
13 17 23
13 17 23
12 15 21
10 13 17
6 8 10
6 7 9
6 7 9
7 8 10
7 8 10
7 9 11
8 10 12
5 6 8
6 7 9
7 8 10
5 6 8
6 8 10
5 7 8
6 8 10
7 8 11
5 6 8
5 7 9
7 8 10
6 8 10
8 10 12
6 8 10
7 9 11
7 9 11
6 7 9
5 7 9
5 7 9
8 10 12
7 9 11
8 9 12
8 9 12
7 9 11
7 9 11
6 8 10
7 8 11
7 8 10
7 8 10
7 8 11
7 8 10
7 8 10
6 8 10
8 10 13
5 7 9
6 7 9
7 8 11
7 9 11
7 9 11
8 9 12
6 8 10
8 10 12
7 8 11
7 8 11
9 10 13
7 8 11
6 7 9
7 9 11
8 9 11
7 8 11
6 8 10
7 9 12
6 7 9
6 7 9
7 8 10
6 7 9
7 8 10
8 9 11
7 8 10
8 10 13
5 6 8
6 7 9
6 7 9
9 11 14
7 9 11
7 8 11
8 10 12
6 7 9
7 8 11
6 7 9
6 7 9
8 9 12
7 9 11
6 7 9
5 6 8
7 9 11
8 10 12
6 8 10
6 8 10
7 8 11
7 9 11
7 8 10
6 8 10
7 9 11
5 7 8
7 8 11
6 7 9
6 7 9
7 8 10
5 7 9
7 9 11
5 6 8
6 8 10
7 9 12
6 7 9
5 6 8
6 7 9
7 8 10
6 7 9
10 12 16
13 16 21
12 16 21
13 17 23
13 17 23
13 16 22
13 17 23
13 17 23
14 18 24
13 17 23
13 17 23
13 17 23
13 17 23
14 18 24
13 17 23
13 17 23
13 17 23
13 17 23
13 17 23
14 18 25
13 17 24
13 17 23
14 18 24
13 17 23
14 18 24
13 17 23
13 17 23
14 18 24
13 17 23
14 18 24
14 18 24
14 17 23
13 17 23
14 18 24
14 18 24
14 18 24
14 18 24
13 17 23
14 17 23
13 17 24
14 18 25
14 18 24
14 18 24
13 17 23
14 18 24
14 18 24
14 18 24
14 18 24
14 18 25
14 18 25
14 18 24
14 18 24
13 17 24
14 18 24
14 18 24
14 18 25
14 19 25
14 18 24
15 19 25
14 18 24
14 19 25
14 18 25
14 19 25
14 18 25
14 18 25
13 18 24
14 18 25
14 18 25
14 18 24
14 19 25
14 18 24
14 18 25
14 19 25
14 18 25
14 18 25
14 18 25
14 19 25
14 18 25
14 18 25
14 19 25
14 18 25
14 18 25
14 18 24
14 18 25
14 19 25
14 18 25
14 18 25
14 19 25
14 19 25
14 18 24
14 18 25
14 19 25
14 18 25
14 18 24
14 19 25
14 18 25
14 18 24
14 19 25
14 19 25
14 19 25
14 18 25
14 18 24
14 18 25
14 18 24
15 19 25
14 19 25
14 18 24
14 18 25
14 18 24
14 19 25
14 18 25
14 18 25
14 19 25
14 18 25
14 18 25
14 18 25
14 18 25
14 18 25
14 19 25
14 18 25
14 19 25
15 19 25
14 19 25
14 19 25
14 19 25
14 19 25
14 18 25
14 19 25
14 18 25
15 19 25
14 19 25
14 18 25
14 19 25
14 19 25
14 18 25
14 19 25
14 18 25
14 19 25
14 19 25
14 19 25
14 19 25
14 19 25
14 19 25
15 19 25
14 19 25
14 19 25
14 19 25
14 18 25
14 19 25
14 18 25
14 18 24
14 19 25
14 18 25
14 19 25
14 18 25
15 19 25
14 18 25
14 19 25
15 19 25
14 18 25
14 19 25
14 19 25
14 18 25
14 18 25
14 18 25
14 18 25
14 18 25
14 19 25
14 18 25
14 19 25
14 18 25
14 18 25
14 18 25
15 19 25
14 18 25
15 19 25
14 18 25
14 18 25
14 18 25
14 19 25
14 18 25
14 18 25
14 19 25
14 18 25
14 18 25
14 19 25
14 19 25
14 18 25
14 18 25
14 19 25
14 18 25
14 18 25
14 19 25
14 18 24
14 18 25
14 19 25
14 19 25
14 19 25
14 18 24
14 18 24
14 18 25
14 18 25
14 18 24
14 18 25
14 18 24
14 18 25
15 19 25
14 18 25
14 19 25
14 19 25
14 18 24
14 18 24
14 18 25
14 18 24
14 18 24
14 18 25
14 18 25
14 18 25
14 18 25
14 19 25
14 18 25
14 18 24
14 18 24
14 19 25
14 18 24
14 18 25
14 19 25
13 18 24
14 19 25
14 19 25
14 18 25
14 19 25
14 18 25
14 18 25
14 18 24
14 18 25
13 17 24
14 18 24
14 19 25
14 18 24
14 18 24
14 18 24
14 18 24
14 18 24
14 18 24
14 18 24
13 18 24
14 18 25
13 17 24
14 18 24
14 18 24
14 18 24
13 17 23
15 19 25
14 18 25
13 17 24
14 18 25
14 18 24
13 17 24
13 17 24
14 18 24
13 17 23
14 18 25
13 17 24
13 17 24
13 17 23
13 17 24
13 17 23
13 18 24
13 17 23
13 16 22
14 18 24
13 17 24
13 17 23
13 17 23
13 17 23
12 16 21
12 16 21
13 17 24
13 16 22
13 16 22
13 17 23
14 18 24
12 16 22
13 18 24
13 17 24
13 17 23
13 16 22
13 17 22
13 16 22
12 16 22
12 16 21
12 15 21
13 16 22
7 9 12
6 8 10
7 8 10
7 8 10
6 7 9
5 6 8
7 8 11
5 6 8
6 8 10
7 9 11
7 8 11
5 7 8
5 6 8
6 7 9
7 9 11
5 7 9
7 9 11
8 9 12
8 9 11
8 10 12
8 9 11
7 8 10
7 8 10
6 7 9
7 8 10
6 8 10
5 6 8
7 9 11
7 8 10
6 8 10
5 6 8
7 8 11
7 9 11
6 7 9
6 7 9
6 8 10
6 8 10
7 8 11
7 8 11
6 7 9
6 8 10
5 7 9
6 8 10
6 7 9
6 8 10
6 7 9
5 6 8
6 8 10
7 9 11
6 7 9
6 8 10
6 7 9
7 8 10
7 9 11
7 8 10
6 7 9
6 8 10
6 7 9
7 8 10
6 8 10
7 8 10
7 9 11
7 8 11
7 9 11
6 7 9
7 8 10
6 7 9
6 8 10
7 8 11
7 9 12
7 8 10
7 8 10
7 9 11
7 8 10
7 8 10
7 8 11
7 9 11
7 9 11
6 7 9
7 8 10
7 8 10
7 8 10
5 6 8
6 7 9
7 8 10
6 7 9
6 8 10
8 9 12
5 6 8
6 8 10
6 7 9
7 9 11
6 8 10
5 7 8
6 8 10
6 8 10
7 9 11
6 7 9
7 8 10
7 9 11
7 9 11
4 5 6
7 9 11
5 6 8
5 6 8
7 9 12
12 16 22
13 16 22
12 16 21
13 17 22
12 15 21
13 17 23
13 17 23
13 17 23
12 16 22
13 16 22
13 17 22
12 16 22
13 16 22
13 17 23
13 17 22
12 16 22
13 17 23
14 18 24
13 17 22
13 17 23
14 18 24
13 17 23
13 17 23
13 17 23
13 17 23
13 17 23
13 17 22
14 18 24
14 18 24
13 17 24
13 17 23
14 18 24
14 18 24
14 18 24
13 18 24
14 18 24
14 18 24
14 18 24
14 18 24
14 18 24
14 18 24
14 18 24
14 18 24
14 18 24
14 18 24
14 18 24
14 18 24
14 18 24
14 18 24
14 18 24
14 18 24
14 18 24
13 18 24
14 18 25
14 18 25
14 18 25
14 18 25
14 18 24
14 18 25
14 18 25
14 18 25
14 18 24
14 18 24
14 18 24
14 18 24
14 18 24
14 18 25
14 18 25
14 18 25
14 18 25
14 19 25
14 19 25
14 18 25
14 18 25
14 18 24
14 18 25
14 19 25
14 18 25
14 18 25
14 18 25
14 18 25
14 18 25
14 19 25
14 18 25
14 18 24
14 18 25
14 18 25
14 19 25
14 18 25
14 18 25
14 18 24
14 19 25
14 19 25
14 18 25
14 18 25
14 19 25
14 19 25
14 18 25
14 18 24
14 19 25
15 19 25
14 19 25
14 18 25
14 18 25
14 18 25
14 18 24
15 19 25
14 18 25
14 19 25
14 19 25
14 18 25
14 18 25
15 19 25
14 18 25
14 18 25
14 19 25
14 19 25
14 18 25
14 18 25
14 18 25
15 19 25
14 19 25
14 18 24
14 18 25
14 18 25
14 18 24
15 19 25
14 18 25
14 18 25
14 19 25
14 18 25
14 18 25
14 19 25
14 19 25
14 18 25
14 18 24
14 19 25
15 19 25
14 19 25
14 18 25
14 18 25
14 19 25
14 19 25
14 19 25
14 19 25
15 19 25
14 18 25
14 18 25
14 19 25
14 18 25
14 18 25
14 19 25
14 19 25
14 19 25
14 18 25
15 19 25
14 18 25
14 19 25
14 18 25
14 18 25
15 19 25
15 19 25
15 19 25
14 18 25
14 19 25
15 19 25
14 18 25
15 19 25
14 18 25
15 19 25
14 18 25
14 18 25
14 19 25
14 18 25
14 19 25
14 18 24
14 18 25
14 18 25
14 19 25
14 19 25
14 18 25
14 19 25
14 18 25
14 18 25
14 19 25
14 19 25
14 19 25
14 19 25
14 18 25
14 18 25
14 18 25
15 19 25
14 18 25
14 19 25
14 18 24
15 19 25
14 19 25
14 19 25
14 18 25
14 18 25
14 18 25
14 18 25
14 19 25
14 18 25
14 18 24
14 19 25
14 18 25
14 19 25
15 19 25
14 19 25
14 18 25
14 18 24
14 18 24
14 18 25
14 18 25
14 18 24
14 18 24
14 19 25
14 18 24
14 18 24
14 18 24
14 18 25
14 19 25
14 18 24
14 18 25
14 18 24
14 18 24
14 18 25
13 18 24
14 19 25
14 18 24
14 18 24
14 18 25
13 18 24
14 18 24
14 19 25
14 18 24
14 18 24
14 18 24
14 18 24
14 18 25
14 18 24
14 18 24
14 18 24
14 18 24
14 18 24
14 18 25
14 18 24
14 18 25
14 18 24
14 18 24
14 18 24
14 18 24
14 18 24
14 18 24
14 18 24
14 18 24
13 17 22
13 17 23
14 18 24
14 18 25
13 17 23
14 18 24
13 17 23
14 18 24
14 18 24
13 18 24
14 18 24
13 17 23
13 17 23
13 17 23
13 17 23
13 17 24
13 17 23
12 16 21
14 18 24
13 17 23
14 18 24
13 17 23
13 17 23
13 16 22
13 17 23
12 16 22
13 17 23
13 17 23
13 16 22
13 17 22
13 16 22
14 18 24
13 17 22
13 17 23
13 17 23
13 16 22
13 16 22
12 15 20
7 9 11
5 6 8
6 7 9
6 7 9
6 7 9
7 9 11
6 7 9
6 7 9
6 7 9
7 8 10
9 10 13
6 7 9
6 8 10
8 10 12
7 9 11
6 7 9
6 7 9
6 7 9
7 9 11
7 9 11
6 8 10
7 8 10
7 9 11
6 7 9
5 6 8
6 7 9
7 9 11
6 8 9
7 8 10
7 8 10
6 8 10
6 7 9
7 8 10
8 9 11
7 8 10
6 7 9
6 7 9
6 7 9
7 9 11
6 7 9
7 8 10
8 10 13
6 7 9
6 7 9
6 8 10
7 8 10
7 8 10
7 8 11
7 8 10
7 8 10
7 8 10
7 8 10
6 7 9
6 7 9
6 8 10
5 7 8
6 7 9
6 7 9
7 9 11
6 8 10
6 7 9
7 9 11
7 9 11
5 6 7
6 8 10
7 8 11
7 9 11
7 8 10
7 8 11
7 8 10
6 8 10
7 9 11
7 9 11
8 9 11
7 9 11
7 9 11
6 8 10
7 8 10
6 8 10
8 9 11
6 7 9
7 8 10
8 9 11
7 8 11
7 8 11
7 8 10
7 9 11
6 7 9
6 8 10
6 8 10
5 7 8
7 8 10
7 8 11
6 8 10
6 7 9
6 7 9
5 6 7
7 8 10
7 9 11
6 7 9
5 6 8
5 6 8
5 6 8
8 10 13
12 16 21
12 15 21
13 16 22
12 15 21
13 16 22
13 17 23
13 17 23
13 16 22
12 16 22
12 16 21
13 16 22
13 17 23
13 16 22
14 18 24
13 17 23
13 17 24
14 17 23
14 18 24
13 17 24
13 17 23
14 18 24
13 17 23
13 17 23
14 17 23
14 18 24
13 17 23
13 16 22
13 17 24
13 18 24
13 17 22
14 18 24
13 18 24
13 17 23
13 17 23
14 18 24
14 17 23
13 17 23
13 16 22
14 18 24
14 18 24
14 18 24
14 18 24
13 17 23
14 18 24
13 17 24
14 18 25
14 18 25
13 17 23
14 18 25
14 18 25
14 18 24
14 18 24
14 18 24
14 18 25
14 18 24
14 19 25
14 18 25
14 18 24
15 19 25
14 19 25
14 18 24
13 18 24
13 17 24
14 18 25
13 18 24
13 17 24
14 18 25
14 18 24
14 18 24
14 18 25
14 18 24
14 18 24
14 18 24
14 18 24
14 18 24
14 18 24
14 18 25
14 18 25
14 18 25
14 19 25
14 18 24
14 18 24
14 19 25
14 18 24
14 18 25
14 18 25
14 18 25
14 18 24
14 18 25
14 18 25
14 18 24
14 19 25
14 18 25
14 18 25
14 18 25
14 18 24
15 19 25
14 18 25
14 18 24
14 19 25
14 18 24
14 18 25
14 19 25
14 18 25
14 19 25
14 18 24
14 18 24
15 19 25
14 18 24
14 19 25
14 19 25
14 18 25
14 18 25
14 19 25
14 18 25
14 19 25
14 19 25
14 19 25
14 19 25
14 19 25
14 18 25
14 19 25
14 18 25
14 18 25
14 18 25
14 19 25
15 19 25
14 18 25
14 18 25
14 19 25
14 19 25
14 19 25
15 19 25
14 19 25
14 18 25
14 19 25
14 19 25
14 19 25
14 18 25
14 19 25
14 19 25
14 19 25
14 19 25
14 18 25
14 18 25
14 18 25
14 19 25
14 18 25
14 19 25
15 19 25
15 19 25
14 19 25
14 18 25
14 19 25
14 19 25
14 19 25
14 18 25
14 18 25
14 18 25
15 19 25
14 19 25
14 19 25
14 18 25
14 19 25
14 19 25
14 19 25
14 19 25
14 18 25
14 18 25
14 18 25
14 18 24
14 18 25
14 18 25
14 19 25
14 19 25
14 18 25
14 19 25
14 19 25
14 19 25
14 19 25
14 18 25
14 19 25
14 19 25
14 18 25
14 18 24
14 18 25
14 18 25
14 18 25
14 18 25
14 18 25
14 19 25
14 18 25
14 18 25
14 19 25
14 18 24
14 18 25
14 18 25
14 18 25
14 18 25
14 18 24
14 19 25
14 18 25
14 18 24
14 19 25
14 18 25
14 18 24
14 18 25
14 18 25
14 18 25
14 18 25
14 18 24
14 18 24
14 19 25
14 18 25
14 18 25
14 18 24
14 18 25
14 18 25
14 18 25
14 18 25
14 18 25
14 18 25
14 18 25
14 18 25
14 18 25
14 18 24
14 18 24
15 19 25
15 19 25
14 18 24
14 18 25
14 18 24
14 18 25
14 18 24
14 18 25
14 19 25
14 18 24
14 18 24
14 18 24
14 18 24
14 18 24
14 18 24
14 18 24
13 18 24
14 18 24
14 18 25
14 18 24
14 18 24
14 18 25
14 18 24
14 18 24
14 18 25
14 18 24
13 17 24
13 17 24
14 17 23
13 17 24
13 17 23
13 17 23
14 18 24
14 18 25
14 18 24
14 18 24
14 18 24
14 18 24
14 18 24
14 18 24
13 17 24
13 17 23
13 17 23
13 17 23
13 17 23
13 17 23
12 16 22
14 18 24
13 17 23
13 17 23
13 17 23
14 18 24
12 16 22
13 17 23
13 17 23
12 16 22
13 17 23
13 17 23
13 17 23
13 17 22
12 16 21
12 16 21
13 17 22
12 16 22
12 15 21
13 16 22
13 16 22
12 16 22
12 16 21
11 14 19
5 6 8
6 7 9
5 6 8
7 8 10
7 8 10
4 5 7
7 8 10
5 6 8
7 8 10
6 7 9
5 5 7
6 7 9
7 8 10
7 9 11
6 7 9
6 7 9
6 7 9
9 10 13
7 8 11
6 7 9
6 7 9
7 9 11
6 7 9
7 8 10
7 8 10
8 10 12
6 7 9
6 7 9
8 10 12
6 7 9
6 7 9
7 8 10
6 7 9
7 8 11
6 7 9
6 7 9
6 7 9
6 8 10
6 8 10
6 7 9
7 8 11
6 7 9
7 9 11
7 8 11
7 9 11
7 9 11
6 7 9
7 8 11
7 8 11
6 8 10
5 7 8
7 9 11
7 9 11
6 8 10
6 7 9
6 7 9
6 7 9
7 8 10
7 8 10
5 7 8
7 8 10
7 8 11
7 9 11
6 7 9
7 8 10
6 7 9
7 8 10
6 7 9
7 8 11
5 7 8
6 7 9
7 8 10
5 7 8
6 7 9
7 8 10
6 7 9
6 7 9
6 8 10
7 8 10
7 8 10
6 7 9
5 6 8
6 8 10
7 8 10
6 8 10
6 7 9
6 8 10
6 7 9
7 9 11
5 6 7
6 7 8
6 8 10
7 8 10
7 8 10
5 6 8
5 7 8
6 8 10
7 8 11
6 7 9
5 6 8
6 7 8
5 6 8
9 12 16
13 17 24
12 16 21
13 17 23
14 18 24
13 17 22
13 17 23
11 15 20
13 17 22
13 17 23
14 18 24
13 16 22
13 17 23
12 16 22
13 17 23
13 17 22
14 18 24
13 17 23
13 16 22
13 17 23
14 18 24
13 16 22
13 17 23
13 17 23
13 17 23
13 18 24
13 17 23
13 17 23
13 17 23
14 18 24
14 19 25
13 17 23
13 16 22
13 17 23
14 18 24
14 18 24
14 18 24
14 18 24
13 17 23
13 18 24
13 17 23
13 17 23
13 17 23
13 17 23
14 18 24
13 17 23
14 18 25
13 18 24
14 18 24
14 18 24
14 18 24
14 18 24
14 18 24
14 18 25
14 18 25
14 18 24
14 18 25
13 18 24
14 18 24
14 18 24
14 18 25
14 18 25
14 18 24
14 18 25
14 18 24
14 18 24
14 18 25
14 19 25
14 18 24
14 18 24
14 18 25
14 18 24
14 19 25
14 18 24
14 18 24
14 18 24
14 18 25
14 18 25
14 18 25
14 18 25
13 18 24
14 18 25
14 18 24
14 19 25
14 18 24
14 18 24
14 18 25
14 18 25
14 18 24
14 18 25
14 18 25
14 18 24
14 18 25
14 18 25
14 18 25
15 19 25
14 19 25
14 18 25
14 18 25
14 18 25
14 18 25
14 18 25
14 18 24
14 19 25
14 19 25
14 18 25
14 18 25
14 18 25
14 18 25
14 19 25
14 18 24
14 19 25
14 18 25
14 19 25
14 18 25
14 18 24
14 19 25
14 18 25
14 19 25
14 19 25
14 19 25
14 18 24
14 19 25
14 19 25
14 19 25
14 19 25
14 18 24
14 19 25
14 19 25
14 19 25
15 19 25
15 19 25
14 19 25
14 19 25
14 18 25
14 18 25
14 19 25
14 19 25
14 18 25
14 19 25
14 19 25
15 19 25
14 19 25
14 18 25
14 18 25
14 19 25
14 19 25
14 18 25
14 18 25
14 18 25
14 18 25
14 19 25
14 19 25
14 19 25
14 18 25
14 18 25
14 18 25
14 18 25
14 18 25
14 18 25
14 19 25
15 19 25
15 19 25
14 19 25
14 18 25
14 19 25
14 18 25
14 18 25
14 18 25
14 19 25
14 18 25
14 18 25
14 18 25
14 18 25
14 19 25
14 18 24
14 18 24
14 18 25
14 18 25
14 18 24
14 18 25
14 18 25
14 18 25
14 18 25
14 19 25
14 18 25
14 18 25
14 18 25
14 19 25
14 19 25
14 18 25
14 18 24
14 18 25
14 19 25
14 18 25
14 18 24
14 18 24
14 19 25
14 18 25
14 18 25
14 18 25
14 18 25
14 19 25
14 18 25
14 18 24
14 18 25
14 18 24
14 18 25
14 18 25
14 19 25
14 18 24
14 18 25
14 18 24
14 18 24
14 18 25
14 19 25
14 19 25
14 18 24
14 18 24
14 18 24
14 18 24
14 18 24
14 18 24
14 18 25
14 18 25
14 18 25
14 18 24
13 17 23
14 18 24
14 18 25
14 18 24
14 18 24
14 18 24
14 18 25
14 18 24
14 18 24
13 17 23
14 18 24
14 18 25
13 17 23
14 18 24
14 18 25
13 17 24
14 18 24
14 18 25
14 18 25
14 18 24
13 17 24
14 18 24
14 18 24
14 18 24
14 18 24
14 18 25
14 18 24
14 18 24
14 18 24
13 17 24
13 18 24
13 17 23
13 17 24
14 18 24
14 18 24
14 18 25
13 17 23
13 16 22
14 18 24
13 17 22
13 18 24
13 17 23
13 17 22
13 17 23
13 17 23
13 16 22
13 17 23
13 17 23
13 17 22
13 17 23
12 15 20
13 17 22
13 17 23
13 16 22
12 16 22
12 16 22
13 17 22
12 15 20
13 16 22
13 17 23
12 15 20
12 16 22
13 16 22
12 15 21
12 15 20
12 16 22
12 16 21
12 15 21
12 16 22
12 16 21
12 16 21
10 13 17
5 6 8
6 7 9
6 7 9
5 6 8
7 8 10
6 8 10
6 8 10
6 7 9
7 8 11
6 7 9
6 7 9
5 6 8
5 6 8
6 7 9
6 8 10
6 8 10
6 7 9
7 8 10
6 7 9
6 7 9
6 7 9
6 7 9
7 8 10
6 7 9
6 8 10
6 7 10
7 8 10
6 7 9
7 8 10
6 7 9
7 8 11
5 7 8
6 7 9
5 7 9
7 8 10
6 7 9
7 8 10
6 7 9
6 7 9
6 7 9
5 6 8
8 9 12
6 7 9
6 7 9
7 8 10
5 6 8
6 7 9
7 9 11
7 9 11
8 9 11
4 5 7
7 8 10
7 9 11
5 7 8
7 8 10
6 7 9
7 8 10
7 9 11
7 8 11
5 7 8
6 7 9
5 6 8
6 7 9
7 8 10
7 8 10
6 7 9
7 8 10
8 10 12
5 6 8
8 10 12
6 7 9
6 7 9
6 8 10
5 6 8
6 8 10
7 8 11
6 7 9
8 9 11
8 9 12
8 10 12
6 7 9
6 7 9
7 9 11
5 6 7
6 7 9
6 7 9
7 8 10
6 7 9
5 6 7
7 8 10
5 6 8
7 9 11
6 8 10
6 7 9
7 8 10
6 7 9
5 6 8
7 8 10
5 6 8
6 7 9
10 12 16
12 16 21
12 16 21
12 15 21
12 15 21
12 16 21
13 16 22
12 16 22
12 16 21
12 16 21
12 16 21
12 16 22
11 15 20
12 16 21
12 16 21
13 17 23
13 17 22
13 17 23
14 17 23
13 16 22
13 17 24
13 17 23
13 18 24
12 16 22
13 17 23
13 17 24
14 18 24
13 16 22
13 17 24
14 18 24
13 17 23
14 18 24
13 17 23
13 17 23
13 17 24
13 17 23
13 17 22
14 18 24
13 17 23
13 18 24
13 17 23
13 18 24
14 18 25
14 18 25
14 18 24
14 18 24
14 18 24
13 17 24
14 18 24
14 18 24
14 18 25
14 18 24
14 18 24
14 18 25
14 18 24
14 18 25
14 18 25
14 18 25
14 18 25
14 18 24
14 18 24
14 18 24
14 18 25
14 18 24
13 17 24
14 18 25
14 18 25
14 18 25
14 18 25
14 18 25
14 18 24
14 18 24
14 18 24
14 18 24
14 18 25
14 18 25
14 18 25
14 18 24
13 18 24
14 18 25
14 18 25
14 18 24
14 18 24
14 18 24
14 18 25
14 18 24
14 18 25
14 18 24
14 19 25
14 18 24
14 18 25
14 18 24
14 19 25
14 18 25
14 18 24
14 18 25
14 18 25
14 18 25
14 19 25
14 18 25
14 18 25
14 19 25
14 18 24
14 19 25
14 18 24
14 18 25
14 18 25
14 18 24
14 19 25
14 18 25
14 19 25
14 19 25
14 19 25
14 18 24
14 19 25
14 19 25
14 18 25
14 18 24
14 18 25
14 19 25
14 18 25
14 19 25
14 18 25
14 18 24
14 19 25
14 18 25
14 18 24
14 19 25
14 19 25
14 19 25
14 18 24
14 18 25
14 18 25
14 19 25
14 18 25
14 18 25
14 18 25
14 19 25
14 19 25
14 18 25
14 18 25
14 19 25
14 19 25
14 19 25
14 19 25
15 19 25
14 19 25
14 19 25
14 19 25
14 18 25
14 18 24
14 19 25
14 19 25
14 18 24
15 19 25
15 19 25
15 19 25
14 18 25
14 18 25
14 19 25
14 19 25
14 19 25
14 18 25
14 18 24
14 19 25
14 18 25
14 18 25
14 18 25
14 18 25
14 18 24
14 19 25
14 18 25
13 18 24
14 18 25
14 19 25
14 19 25
14 19 25
14 18 24
15 19 25
14 18 25
14 18 25
14 18 25
14 18 25
14 18 25
14 18 24
15 19 25
14 18 25
14 18 24
14 18 25
14 18 24
15 19 25
14 18 25
14 18 25
14 19 25
14 18 25
14 18 25
14 18 25
14 18 25
14 18 24
14 18 24
14 18 24
14 18 25
14 19 25
14 18 24
14 18 25
14 18 24
14 18 24
14 19 25
14 18 25
14 18 24
14 18 25
14 19 25
14 18 25
14 18 25
14 18 24
14 18 25
14 18 24
14 18 24
14 18 24
14 18 25
14 18 25
14 18 25
13 17 23
14 18 25
14 18 25
14 18 24
14 18 25
14 18 25
14 17 23
14 18 24
14 18 24
14 18 24
14 19 25
14 18 24
14 18 24
14 18 25
13 17 23
14 18 25
14 18 25
14 19 25
13 18 24
13 17 23
14 18 24
14 18 24
14 18 24
14 18 24
14 18 24
14 18 24
13 17 23
14 18 24
14 18 24
13 17 23
13 18 24
13 17 23
14 18 24
13 17 23
13 17 24
14 18 24
14 18 24
13 17 23
13 17 23
13 17 23
14 18 24
12 16 22
13 17 23
13 17 23
14 18 24
13 17 23
13 17 23
13 17 23
13 17 23
13 16 22
13 17 23
13 17 23
13 16 22
13 17 23
13 16 22
13 17 23
12 16 22
13 17 23
12 16 22
13 17 22
12 16 22
12 16 22
13 17 22
13 17 22
11 15 20
12 16 21
12 16 21
11 15 20
11 15 20
12 16 21
12 16 21
12 16 21
12 16 22
12 16 21
12 15 20
11 15 20
12 15 21
12 16 22
7 9 13
6 7 9
5 6 8
6 7 9
6 8 10
6 7 9
5 7 8
5 6 8
5 6 8
5 6 8
6 8 10
6 7 9
5 7 9
6 7 9
6 7 9
5 6 8
6 7 9
7 9 11
7 8 10
7 8 10
5 6 7
6 7 8
5 6 8
7 9 11
5 7 9
5 7 8
6 7 9
7 9 11
7 9 11
6 8 10
6 7 9
6 8 10
6 7 9
6 7 9
7 8 10
7 8 10
6 8 9
6 7 8
6 8 10
7 8 11
6 8 10
5 6 8
5 6 8
7 8 10
5 7 9
6 7 9
7 9 11
5 7 8
6 8 10
6 8 10
5 7 9
7 8 10
7 8 10
7 8 11
6 7 9
6 8 10
5 6 7
8 9 12
6 7 9
6 7 9
6 7 9
6 7 9
6 7 9
6 8 10
6 8 10
7 8 11
5 6 8
6 7 9
7 9 11
6 8 9
5 6 8
4 5 7
6 8 10
7 9 11
6 8 10
5 6 8
6 7 9
6 8 10
6 8 10
5 6 8
6 7 9
6 7 9
6 7 9
5 6 7
6 7 9
5 6 7
6 7 9
5 7 8
5 6 8
6 7 9
6 7 9
6 7 9
6 7 9
8 9 11
5 6 8
8 9 11
6 7 9
6 8 10
4 5 7
10 12 16
12 15 21
13 17 22
11 15 20
11 15 20
12 15 20
12 15 21
11 14 19
12 16 21
11 15 20
12 15 21
13 17 22
13 17 23
13 17 23
12 16 22
12 15 21
13 17 23
13 16 22
13 17 23
13 17 23
12 15 21
13 17 22
13 17 22
13 17 22
13 17 23
13 17 24
12 16 22
13 17 23
12 16 22
12 16 22
12 16 22
13 17 24
13 17 23
14 18 24
13 17 23
14 18 24
13 17 23
13 18 24
13 17 23
13 16 22
13 16 22
13 17 23
13 17 24
13 17 23
13 17 23
14 18 24
13 17 24
13 17 23
14 18 24
13 17 24
14 18 24
13 18 24
13 17 23
14 18 25
14 18 24
13 17 23
14 18 24
13 18 24
14 18 24
14 18 24
14 18 24
14 18 25
14 18 24
14 18 25
14 18 24
14 18 24
14 18 24
13 17 23
13 17 24
14 18 24
14 18 25
14 19 25
13 17 23
14 18 24
13 17 23
14 18 24
14 18 24
14 18 24
14 19 25
14 18 25
14 18 25
14 18 25
14 18 25
14 18 25
14 18 25
13 18 24
14 18 24
14 18 25
13 17 24
13 17 24
14 18 24
14 18 25
14 18 25
14 18 25
14 18 24
14 18 25
14 19 25
14 18 25
14 19 25
14 18 25
14 18 25
14 18 25
14 19 25
14 18 24
14 18 24
14 18 24
14 18 25
14 19 25
14 18 24
14 18 25
14 18 25
14 18 25
14 18 25
14 18 25
14 19 25
14 19 25
14 18 25
14 19 25
14 18 25
14 19 25
14 18 25
14 18 24
14 18 25
14 18 25
14 18 25
14 18 25
15 19 25
14 19 25
14 19 25
14 18 25
14 19 25
14 18 24
14 18 25
14 18 25
14 18 25
14 19 25
14 19 25
14 19 25
14 18 25
14 18 25
14 18 25
14 18 25
14 18 25
14 18 25
14 19 25
14 18 25
14 19 25
14 19 25
14 18 25
14 19 25
14 18 25
14 18 25
14 19 25
14 18 25
14 18 25
14 18 25
14 18 25
15 19 25
14 18 25
14 18 25
14 19 25
14 19 25
14 19 25
14 18 24
14 18 25
14 18 24
14 19 25
14 18 25
14 19 25
14 19 25
14 18 25
14 18 24
14 18 24
14 18 25
14 19 25
14 18 24
15 19 25
14 18 25
14 18 25
14 19 25
14 18 25
15 19 25
14 19 25
14 19 25
14 19 25
14 18 25
14 18 25
14 18 25
14 19 25
14 18 25
14 19 25
14 18 25
15 19 25
14 18 24
14 18 25
14 18 24
14 19 25
14 18 24
14 18 24
14 18 24
14 18 24
14 18 24
14 18 24
14 18 25
14 18 24
14 18 25
14 19 25
14 19 25
14 18 25
14 19 25
14 18 25
14 18 24
14 18 24
14 18 25
14 19 25
15 19 25
14 18 25
14 18 24
14 18 24
14 18 25
14 18 24
14 18 24
14 18 24
14 19 25
14 18 24
14 18 24
14 18 25
14 18 24
14 19 25
14 18 24
14 18 24
13 18 24
14 19 25
14 18 24
14 18 24
14 18 24
14 18 24
13 17 23
14 18 24
14 18 24
14 18 24
14 18 25
14 18 24
14 18 24
13 17 23
14 18 24
14 18 24
14 19 25
14 18 24
14 18 24
13 17 23
13 17 23
13 17 23
13 17 23
13 17 24
14 18 24
14 18 25
13 17 23
14 18 24
13 18 24
13 17 23
14 18 24
13 17 23
13 17 23
13 17 23
13 17 23
13 17 24
12 16 22
13 17 22
13 17 23
13 17 23
12 16 22
13 17 24
12 16 22
13 17 23
13 17 22
12 16 22
12 16 22
13 16 22
13 17 22
13 17 23
13 17 22
12 16 22
13 16 22
12 15 20
13 16 22
13 17 23
12 16 21
12 16 21
12 16 21
11 14 19
12 15 21
12 15 21
12 15 21
11 15 20
12 15 20
13 16 22
10 13 18
11 14 19
12 15 21
11 14 19
12 15 20
7 9 12
6 7 9
5 6 7
5 7 8
5 6 8
4 5 6
5 6 8
5 7 8
5 6 7
6 8 10
7 9 11
6 7 9
7 9 11
6 7 9
6 7 9
6 7 9
7 8 10
6 7 9
6 7 9
7 9 11
5 6 8
7 8 10
6 8 10
6 8 10
5 6 8
5 6 8
6 8 9
6 7 9
7 8 10
5 7 8
5 7 8
7 8 10
6 8 10
7 9 11
6 8 10
5 7 8
6 7 9
5 7 8
7 8 10
5 7 8
7 9 11
6 7 9
6 8 10
6 7 9
6 7 9
8 10 12
8 9 11
7 8 10
7 9 11
5 6 8
7 8 10
5 6 7
6 8 10
7 9 11
7 8 11
5 6 8
6 7 9
7 8 11
5 6 8
7 8 10
6 7 9
6 7 9
6 7 9
7 8 10
5 7 9
6 8 10
5 6 8
9 10 13
6 7 8
5 7 8
5 6 7
6 7 9
7 9 11
6 7 9
7 9 11
6 8 10
5 6 8
7 8 10
7 8 10
5 6 8
5 6 7
6 7 9
8 9 12
6 7 9
6 7 10
5 6 8
5 6 8
6 7 9
6 7 9
5 6 8
6 7 9
5 6 7
6 7 9
5 7 8
5 6 8
5 6 7
6 7 9
8 10 13
11 14 18
10 14 18
12 16 21
12 16 22
12 15 20
12 15 20
12 15 21
11 15 20
12 16 21
12 16 21
13 17 23
12 15 21
13 17 22
13 17 23
12 15 21
13 17 23
13 17 23
12 16 22
10 14 19
13 17 22
13 17 22
13 17 22
13 17 22
12 16 22
12 16 22
13 17 24
12 16 22
13 17 22
13 17 23
13 17 23
13 17 23
13 17 23
13 16 22
14 17 23
13 17 23
13 17 23
13 17 22
13 17 23
13 17 23
13 17 24
14 18 24
13 17 23
12 16 22
13 17 23
13 17 24
14 18 24
13 17 23
13 18 24
14 18 24
13 17 23
13 17 24
13 17 22
14 18 24
13 17 23
14 18 25
13 17 23
14 18 24
13 17 22
14 18 24
14 19 25
14 18 25
14 18 24
14 18 25
13 17 23
14 18 24
14 18 24
14 18 25
14 18 24
14 18 24
13 18 24
14 19 25
14 18 24
14 18 25
14 18 25
14 18 25
14 18 25
14 19 25
14 18 24
14 18 24
14 18 25
14 19 25
14 18 25
14 18 24
14 18 24
15 19 25
14 18 24
14 18 24
14 18 25
14 18 25
14 19 25
14 18 24
14 18 25
14 18 25
14 18 24
14 18 25
14 18 24
14 18 24
14 18 25
14 18 24
14 18 25
14 18 24
14 18 24
14 18 24
14 18 24
14 18 25
14 18 24
14 18 25
14 18 24
14 19 25
14 19 25
14 18 24
15 19 25
14 18 25
14 18 25
14 18 25
14 18 25
14 18 25
14 18 25
14 19 25
14 18 24
14 18 25
14 19 25
14 18 25
14 19 25
14 18 25
15 19 25
14 18 25
14 19 25
14 18 25
14 18 25
14 18 25
14 18 25
14 18 24
14 19 25
15 19 25
14 18 25
14 19 25
14 18 25
14 18 25
14 18 25
14 18 24
14 18 25
14 18 25
14 19 25
14 19 25
14 18 25
14 19 25
14 18 25
15 19 25
14 18 25
15 19 25
14 18 24
14 18 25
14 19 25
14 18 25
14 18 25
14 18 25
14 19 25
14 18 25
14 18 24
14 18 24
14 19 25
15 19 25
14 18 25
14 19 25
14 18 25
14 18 24
14 18 25
15 19 25
14 19 25
14 18 25
14 19 25
14 19 25
14 18 25
15 19 25
14 18 25
14 18 25
14 18 25
14 19 25
15 19 25
14 18 25
14 18 25
14 19 25
14 19 25
14 19 25
14 19 25
14 18 25
14 18 25
14 19 25
13 18 24
14 18 25
14 18 25
14 18 25
14 18 25
15 19 25
14 18 25
14 18 25
14 18 25
14 18 25
14 18 25
14 19 25
14 18 24
14 18 25
13 17 23
14 19 25
14 18 24
14 18 24
14 18 25
14 18 24
14 18 25
14 19 25
14 18 24
14 18 25
14 18 24
14 18 25
14 18 25
13 17 23
14 18 24
14 18 25
14 18 24
14 18 25
14 18 24
14 18 25
14 18 24
14 18 24
14 19 25
13 18 24
14 18 24
14 18 24
14 18 24
14 18 24
14 18 25
14 18 25
14 18 24
13 17 23
13 17 24
14 18 25
14 18 24
13 17 24
14 18 24
14 18 24
14 18 24
14 18 24
14 18 24
14 18 24
13 17 23
14 18 24
14 18 24
14 18 24
14 18 24
14 18 24
14 18 24
13 17 23
13 17 24
14 18 24
13 17 23
13 17 23
14 18 24
13 17 24
13 17 23
13 17 23
14 18 24
13 17 22
13 17 23
12 16 22
13 17 23
12 16 22
12 16 22
14 18 24
13 17 23
13 17 23
13 17 23
13 17 23
13 17 23
13 16 22
13 17 23
12 16 22
12 15 21
13 17 23
12 16 22
12 15 20
13 17 23
13 17 22
12 16 21
12 16 21
12 15 21
13 17 22
12 16 21
11 15 20
13 16 22
12 15 21
12 16 21
12 16 21
12 16 22
12 15 20
12 15 20
12 16 21
12 16 21
12 15 20
12 15 21
11 14 19
10 13 17
12 15 20
5 7 9
6 7 9
6 7 9
5 6 8
5 7 8
6 7 9
5 6 8
5 7 8
5 7 9
6 7 9
4 5 6
6 7 9
6 7 9
5 6 8
8 9 11
6 7 9
5 6 8
6 7 9
7 9 11
7 8 10
6 7 9
6 8 10
7 8 10
6 8 10
5 6 8
8 9 11
6 7 9
7 8 10
6 8 10
6 7 9
6 8 10
7 8 10
6 7 9
5 6 8
6 7 9
6 8 10
6 7 9
7 8 10
7 8 10
5 6 8
5 6 8
6 7 9
6 7 9
7 8 10
7 8 10
7 9 11
6 7 9
6 7 9
6 8 10
7 9 11
6 8 10
5 6 8
5 7 9
7 8 10
6 7 9
6 8 10
7 8 10
6 8 10
6 8 10
6 7 9
6 7 8
6 8 10
6 7 9
6 7 9
8 10 12
4 6 7
6 7 9
6 7 9
7 8 10
6 7 9
6 7 9
6 8 10
6 7 9
6 7 10
6 8 10
5 6 7
6 8 10
7 9 11
7 8 10
6 7 9
6 8 10
6 7 9
5 6 8
5 6 8
7 8 10
4 5 6
6 7 9
5 6 7
6 7 9
4 5 6
6 7 8
5 6 8
5 6 8
7 8 10
5 6 7
5 6 8
11 15 20
10 13 18
11 14 19
12 15 20
11 14 19
11 15 20
12 16 21
11 14 19
11 15 20
12 16 21
12 16 22
13 17 23
13 16 22
12 15 20
11 15 20
12 15 21
13 16 22
12 16 22
12 15 20
12 15 21
12 16 21
12 16 22
14 18 24
12 16 21
12 16 22
13 17 23
13 17 23
13 16 22
13 16 22
12 16 21
13 16 22
13 17 23
13 17 23
13 17 24
13 17 23
14 18 24
13 17 23
13 17 23
14 18 24
14 18 24
14 18 24
14 18 24
13 17 24
14 18 24
14 18 24
13 18 24
13 17 23
13 17 23
13 17 23
13 17 23
13 18 24
13 17 23
13 17 23
12 16 22
14 18 24
13 17 23
14 18 24
14 18 24
14 18 25
13 17 24
13 17 23
13 17 23
13 17 23
13 17 23
14 18 24
13 17 24
13 18 24
13 17 24
14 18 24
14 18 24
14 18 25
14 18 24
13 17 24
14 18 25
14 18 24
14 18 24
14 18 25
14 18 25
14 18 24
14 18 25
14 18 24
14 18 24
14 18 25
14 18 25
14 18 24
14 18 25
14 18 24
15 19 25
14 18 24
14 18 24
14 18 24
14 18 25
14 18 24
14 18 24
14 18 25
14 19 25
14 18 25
14 18 25
14 18 25
14 18 25
14 18 24
14 18 24
14 18 25
14 18 24
14 19 25
14 19 25
14 18 24
14 18 25
14 18 25
14 18 25
14 18 25
14 19 25
14 18 25
14 18 25
14 18 25
14 18 25
14 18 24
14 19 25
14 19 25
14 18 24
14 18 25
14 19 25
14 19 25
14 18 25
14 18 25
14 18 25
14 18 24
14 18 25
14 19 25
14 18 25
14 19 25
14 18 25
14 18 25
14 18 25
14 18 25
15 19 25
14 19 25
14 18 24
14 19 25
15 19 25
15 19 25
15 19 25
14 19 25
14 18 25
14 18 25
14 19 25
14 18 24
14 19 25
14 18 24
14 18 25
14 19 25
14 19 25
14 19 25
15 19 25
14 18 25
14 18 25
14 18 25
14 19 25
14 18 25
14 18 25
14 18 25
14 19 25
14 18 25
14 18 25
14 18 24
14 18 25
14 18 24
14 18 24
14 18 25
14 18 25
14 18 25
14 18 25
14 18 25
14 18 25
14 18 25
14 19 25
14 19 25
14 18 25
14 18 25
14 18 25
14 19 25
14 18 24
14 18 24
14 18 25
14 18 25
14 18 24
14 18 25
14 18 24
14 18 25
14 18 25
14 18 25
14 18 24
14 18 25
14 18 25
14 18 24
15 19 25
14 18 25
14 18 24
14 19 25
14 18 25
14 18 24
14 18 25
14 18 25
14 18 24
14 18 25
14 18 25
14 18 24
14 18 25
13 18 24
14 18 24
14 19 25
14 18 25
14 18 25
14 18 24
13 18 24
14 18 24
14 19 25
14 18 24
14 19 25
14 19 25
14 18 24
14 18 24
14 18 24
14 18 24
14 18 24
14 18 24
14 18 24
14 18 24
14 18 24
14 18 24
14 18 24
14 18 24
14 18 24
13 17 24
13 17 23
14 18 25
14 18 24
13 17 23
13 17 23
14 18 25
14 18 24
13 17 23
14 18 24
13 17 23
14 18 25
13 17 23
13 17 23
14 18 24
14 18 24
14 18 24
14 18 24
14 18 24
13 17 23
14 18 24
14 18 24
14 18 24
14 18 24
13 17 23
13 17 23
14 18 24
13 17 23
13 17 23
13 17 23
13 17 23
13 17 23
13 17 23
14 18 24
13 17 23
13 16 22
13 16 22
13 17 23
12 16 22
13 17 23
13 17 23
12 16 22
13 17 23
13 17 23
13 16 22
12 16 22
12 16 22
12 16 21
12 16 21
12 16 21
12 16 21
12 16 21
11 14 19
11 15 20
12 16 21
12 15 20
12 16 21
12 15 21
12 15 20
11 15 20
11 14 19
11 14 19
11 15 20
11 15 20
11 14 19
10 13 17
11 14 19
11 14 19
11 15 20
11 14 19
13 16 22
10 13 17
6 7 9
6 7 9
5 6 7
5 6 7
5 7 8
5 6 8
7 8 10
5 6 8
5 6 8
7 8 10
5 6 8
5 6 8
4 5 7
5 6 7
6 7 9
6 7 9
4 5 7
7 8 10
5 6 8
6 8 9
6 8 9
6 7 8
5 7 8
7 9 11
7 9 11
6 7 9
6 7 9
6 7 9
6 7 9
8 9 12
6 7 9
6 7 9
5 6 8
5 6 8
6 7 9
6 8 10
6 7 9
5 7 8
7 8 10
6 7 9
6 7 9
5 6 8
5 6 7
7 8 10
5 6 8
7 8 11
7 8 11
8 9 12
6 7 9
5 7 8
6 7 9
6 7 9
7 8 10
6 8 10
7 8 10
5 6 8
6 7 9
7 8 10
6 7 9
6 8 10
5 6 8
7 9 11
7 8 10
7 8 11
6 7 9
7 8 10
7 8 11
6 8 10
5 6 7
5 7 9
5 6 8
6 7 9
6 8 10
5 6 8
5 6 8
6 7 9
6 7 9
5 6 8
6 7 9
6 7 9
7 9 11
4 5 6
6 7 9
5 6 8
5 6 8
6 7 8
4 5 7
5 6 8
5 7 8
5 6 8
5 6 8
4 5 6
4 5 7
7 9 12
9 12 16
12 15 20
11 15 20
12 16 21
11 14 19
12 15 20
12 15 20
11 14 19
10 14 19
12 15 21
12 15 20
11 14 19
11 15 20
11 15 20
12 15 20
11 15 20
12 16 21
12 16 22
12 16 22
12 16 21
13 17 22
13 17 24
12 15 21
13 16 22
11 14 20
13 16 22
12 16 21
12 16 21
13 17 23
12 16 22
12 16 21
12 15 21
12 16 22
13 17 23
14 18 24
13 17 23
13 17 22
13 17 23
13 17 23
13 17 23
13 17 23
13 17 22
13 17 23
14 18 24
13 17 23
13 17 23
13 17 23
13 17 23
13 17 23
13 17 23
13 17 23
13 17 23
13 17 23
14 18 24
13 17 23
13 17 23
14 18 24
14 18 24
13 17 23
13 17 24
14 18 24
14 18 24
13 17 23
14 18 24
14 18 24
14 18 25
14 18 24
13 17 23
14 18 24
14 18 24
14 18 25
13 17 24
14 18 24
14 18 24
14 18 24
13 18 24
14 18 25
14 18 24
14 18 24
14 18 24
14 18 24
14 18 24
14 18 25
14 18 24
14 18 24
14 18 25
14 18 25
14 18 24
14 18 24
14 18 24
14 18 25
14 18 24
14 18 24
14 18 25
14 18 25
14 18 24
14 18 24
14 18 25
14 19 25
14 19 25
14 18 25
14 18 25
13 17 24
14 18 25
14 18 24
14 18 25
14 18 24
14 18 24
14 18 24
14 18 24
14 18 25
14 18 24
14 18 25
14 18 24
14 18 24
14 18 25
14 18 25
15 19 25
14 18 25
14 18 24
14 18 25
14 18 24
14 18 25
14 18 25
14 19 25
14 18 25
14 18 25
14 18 25
14 18 25
14 18 25
14 18 25
14 18 25
14 18 25
14 18 25
14 18 25
14 18 25
14 19 25
14 18 25
14 18 24
14 18 24
14 19 25
14 18 25
14 19 25
13 17 24
14 18 25
14 18 25
14 18 25
14 18 25
14 19 25
14 19 25
14 18 25
15 19 25
14 19 25
14 18 25
14 18 25
15 19 25
14 18 25
14 18 25
14 18 25
14 18 25
14 18 25
14 19 25
14 18 25
14 18 24
14 18 25
14 18 25
14 19 25
14 18 25
14 18 25
14 18 25
14 19 25
14 19 25
14 18 25
14 19 25
14 19 25
14 18 25
14 19 25
14 18 25
14 18 25
14 18 25
14 19 25
14 18 25
14 18 24
14 18 25
14 19 25
14 18 25
14 19 25
15 19 25
14 18 25
14 18 24
14 19 25
14 18 25
14 18 24
14 18 24
14 18 24
14 18 24
14 18 25
14 18 24
14 18 25
14 18 24
14 18 25
14 18 24
13 18 24
14 18 24
14 18 25
14 18 25
14 18 24
14 18 25
14 18 25
14 18 24
14 18 24
14 18 25
14 18 24
13 17 24
14 18 24
14 18 24
13 17 23
14 19 25
14 18 25
14 18 24
14 18 24
14 18 24
14 18 24
14 18 25
14 18 25
14 18 24
14 18 24
14 18 25
14 18 24
14 18 24
14 18 25
14 18 24
14 18 24
13 18 24
13 17 23
14 18 24
13 18 24
13 18 24
14 18 24
13 17 23
14 18 24
14 18 25
13 17 24
14 18 24
14 18 24
14 18 25
14 18 24
14 18 24
13 17 23
13 17 23
13 17 24
14 18 24
13 17 23
14 18 23
13 17 23
13 17 23
14 18 24
13 17 23
12 16 22
13 16 22
13 17 23
14 18 24
13 17 23
13 17 23
12 16 22
13 17 23
13 17 23
13 17 23
13 17 23
13 17 23
13 17 23
13 16 22
13 17 23
13 16 22
12 16 22
12 16 22
12 16 22
13 17 23
12 16 21
12 16 21
13 16 22
12 16 21
12 15 21
12 16 22
12 15 20
12 15 20
13 17 22
11 15 20
12 15 20
12 15 20
11 14 19
12 16 21
12 15 21
12 15 20
12 15 20
10 13 18
10 14 18
11 15 20
10 13 18
10 13 18
11 14 19
12 15 20
11 14 19
11 14 18
10 13 18
10 12 16
10 13 17
6 7 9
5 6 7
5 6 8
5 7 8
6 7 9
6 7 9
6 7 9
7 9 11
6 7 9
5 6 8
6 8 10
5 7 8
5 7 8
6 7 9
6 7 9
4 5 7
5 6 8
6 8 10
5 6 8
6 7 9
4 5 7
5 7 8
6 7 9
6 7 9
6 7 9
5 6 8
5 6 8
7 8 11
6 7 9
7 8 10
6 7 9
6 7 9
6 8 10
5 6 8
6 7 9
7 8 10
6 7 9
5 6 8
5 6 8
6 7 9
6 7 9
4 5 7
4 5 6
5 7 8
6 7 9
7 8 10
6 7 9
6 7 9
7 8 10
6 7 9
6 7 9
6 7 9
5 6 7
6 7 9
6 7 8
7 8 10
5 6 8
6 7 9
6 8 10
5 6 8
7 8 10
6 7 8
5 6 7
7 8 10
6 7 9
5 7 8
6 8 10
5 6 8
5 7 8
5 6 8
5 7 8
6 7 9
7 8 10
6 7 9
6 8 9
7 8 10
5 6 8
5 6 8
5 5 7
6 7 9
6 8 10
8 9 11
5 6 7
5 7 8
4 5 7
4 5 7
6 8 10
6 7 9
5 7 8
7 8 10
4 5 7
6 7 9
10 13 18
11 14 18
10 14 18
10 13 17
10 13 17
12 15 20
11 14 19
11 15 20
11 14 19
12 15 21
11 14 19
11 15 20
11 14 19
11 15 20
11 15 20
12 16 21
11 15 20
12 16 22
11 15 20
11 14 18
12 16 21
12 15 20
13 16 22
12 16 21
12 16 21
12 16 22
12 15 21
13 16 22
13 17 23
12 16 22
12 15 21
13 17 22
12 15 21
13 17 22
13 17 23
12 16 22
13 17 23
13 17 23
13 16 22
12 16 22
13 17 24
13 17 23
13 17 23
13 17 23
13 17 23
13 17 23
14 18 24
13 17 23
13 17 23
13 17 23
13 17 23
13 17 23
13 16 22
13 17 22
13 17 23
13 17 23
14 18 24
14 18 24
13 17 23
14 18 24
13 17 23
14 18 24
14 18 24
14 18 24
14 18 24
14 18 24
14 18 24
14 18 24
14 18 24
14 18 24
14 18 24
13 18 24
13 17 23
14 18 25
14 18 24
14 18 24
14 18 24
14 18 25
14 18 24
13 17 23
14 18 24
14 18 25
13 18 24
14 18 24
14 18 24
13 17 23
14 18 24
13 17 24
14 18 24
14 18 24
14 18 24
14 18 24
14 18 25
14 18 24
14 18 24
14 18 25
14 18 24
14 18 25
14 19 25
14 18 24
14 18 25
14 18 24
14 18 25
14 18 25
14 19 25
14 18 24
14 18 25
14 18 25
14 19 25
14 18 25
14 18 24
14 18 25
14 18 25
13 17 24
14 18 24
14 18 24
14 18 25
13 17 24
14 18 25
14 18 25
14 19 25
14 19 25
14 18 25
14 19 25
14 18 25
14 18 25
14 19 25
14 19 25
14 18 25
14 19 25
14 18 25
14 18 24
14 18 25
14 19 25
14 19 25
14 19 25
14 19 25
14 18 25
14 19 25
15 19 25
14 19 25
15 19 25
14 18 25
14 19 25
14 18 25
14 18 25
14 18 25
14 18 25
14 18 25
14 18 25
14 18 25
14 18 24
14 18 25
14 19 25
14 19 25
14 18 25
14 18 25
14 18 25
14 18 25
14 19 25
14 19 25
14 19 25
14 18 25
14 18 25
14 18 25
14 18 25
14 18 24
14 18 25
14 18 25
14 18 24
14 19 25
14 18 25
14 18 25
14 19 25
14 18 25
14 18 24
14 18 25
14 18 24
14 18 25
15 19 25
14 18 25
14 19 25
14 18 25
14 18 24
14 18 24
14 18 25
14 18 24
14 18 24
14 18 24
14 18 25
14 19 25
14 18 24
14 18 24
14 18 25
14 18 25
14 18 25
14 18 25
14 18 24
14 18 24
14 19 25
14 18 24
14 18 25
14 18 25
14 18 25
14 18 24
14 19 25
14 18 24
14 18 25
14 18 24
13 17 24
14 18 24
14 19 25
14 18 25
14 18 24
14 18 25
14 19 25
14 18 25
14 18 25
13 17 23
14 18 25
13 18 24
14 18 25
14 18 24
14 18 25
14 18 25
14 18 24
14 18 24
14 18 25
14 18 25
14 18 24
14 19 25
13 17 23
13 18 24
14 18 24
14 18 24
13 17 23
14 18 24
14 18 24
14 18 24
14 18 24
14 18 24
13 17 23
14 18 24
14 18 24
14 18 24
14 18 24
14 18 25
14 18 24
13 17 23
13 17 23
13 17 23
13 17 23
13 17 23
14 18 24
13 17 23
13 18 24
13 17 23
14 18 24
14 18 24
13 17 23
13 16 22
13 17 23
13 17 23
13 17 23
13 17 23
14 18 24
13 18 24
12 16 22
13 16 22
13 17 23
13 17 23
12 16 22
13 17 23
13 16 22
13 17 23
13 16 22
12 16 22
13 17 23
12 15 20
12 16 21
12 15 21
12 16 22
12 15 21
12 15 21
13 16 22
12 16 22
12 15 20
13 17 23
12 15 21
12 15 20
11 15 20
11 14 19
12 15 20
12 15 20
11 15 20
12 16 21
11 15 20
11 14 19
11 14 18
11 14 19
10 13 18
10 13 17
9 12 16
10 13 17
10 14 18
10 13 18
11 14 18
8 11 15
9 12 16
4 5 7
4 5 6
4 5 7
5 6 8
4 5 6
5 6 7
6 7 9
4 5 7
5 6 8
5 7 8
5 6 8
7 8 10
7 8 10
5 6 8
5 6 7
5 6 8
5 7 8
4 5 6
6 8 10
5 6 8
6 7 8
5 6 8
6 7 9
5 6 7
5 6 8
5 6 8
7 8 10
6 7 9
5 7 8
6 7 9
4 5 6
5 6 7
5 6 8
6 7 9
5 6 8
6 7 9
6 7 9
5 6 7
6 7 9
5 7 8
5 6 8
5 6 8
7 8 11
7 9 11
5 7 8
6 7 9
5 6 8
6 7 9
5 6 7
5 6 8
6 7 9
6 7 9
5 6 8
7 8 10
5 7 8
5 6 8
5 7 8
5 6 8
7 8 10
6 7 9
5 7 8
7 8 10
4 6 7
5 6 7
6 8 10
5 6 8
5 6 7
5 6 7
5 6 7
4 5 6
5 7 8
6 7 9
5 6 8
6 7 9
4 5 7
5 7 8
6 7 9
5 6 8
6 7 9
5 6 8
6 7 9
7 8 11
7 8 10
6 7 9
6 7 9
6 7 9
5 7 8
4 5 6
5 6 8
6 8 10
9 11 15
10 12 16
10 13 17
10 13 18
11 15 20
11 14 19
11 14 19
11 14 19
10 13 18
11 14 18
12 15 21
11 14 19
12 15 20
11 14 19
10 14 18
12 15 20
11 14 19
11 15 20
11 15 19
11 15 20
11 15 20
12 15 20
11 14 19
12 15 21
12 15 20
11 15 20
13 17 22
13 16 22
13 17 22
13 16 22
12 16 21
12 15 21
12 16 22
13 17 23
13 17 22
13 17 23
13 17 22
13 17 23
12 16 21
12 16 21
13 16 22
13 17 22
14 18 24
13 17 24
13 16 22
13 17 23
13 17 22
13 17 23
13 17 23
13 17 23
13 17 23
13 17 22
13 16 22
13 17 23
14 18 24
14 18 24
14 18 24
13 17 24
13 17 23
13 17 23
13 17 24
14 18 24
14 18 24
13 17 22
14 18 24
13 17 23
13 17 23
14 18 24
14 18 24
14 18 25
14 18 24
14 18 24
14 18 24
14 18 24
13 17 23
14 18 24
14 18 24
14 18 23
14 18 24
14 18 24
14 18 25
14 18 24
13 17 23
14 18 24
13 17 23
14 18 24
14 18 25
13 17 24
14 18 24
14 18 24
14 18 24
14 18 24
14 18 24
13 18 24
14 18 25
14 18 25
14 18 24
14 18 25
14 18 25
14 18 24
14 19 25
14 18 24
14 18 25
14 18 24
14 19 25
14 18 25
14 18 24
14 18 24
14 18 24
14 18 25
14 18 25
14 18 24
14 18 25
14 18 25
14 18 25
14 18 24
14 18 24
14 18 24
14 18 24
14 19 25
14 18 25
14 18 25
14 18 24
14 18 24
14 18 25
14 18 25
14 19 25
14 18 25
14 19 25
14 18 25
14 18 24
14 18 24
14 18 25
14 19 25
14 18 25
14 19 25
14 18 24
14 18 25
14 19 25
14 19 25
14 18 25
14 18 25
14 18 25
14 18 25
14 19 25
15 19 25
14 19 25
14 19 25
13 18 24
15 19 25
14 18 25
14 18 25
14 18 25
14 18 25
14 19 25
14 18 25
14 18 25
14 18 25
14 19 25
14 18 25
14 18 25
14 18 25
14 18 25
14 18 24
14 18 24
14 19 25
14 18 24
14 18 25
14 18 25
14 18 24
14 18 25
14 18 25
14 19 25
14 18 25
14 18 25
14 18 25
14 18 25
14 18 24
14 18 25
14 18 25
14 18 24
14 18 24
14 18 25
14 18 24
14 18 24
14 18 25
14 18 25
14 18 24
14 18 25
14 18 24
14 18 24
14 18 25
14 18 25
14 18 25
14 18 25
14 18 24
14 18 25
14 18 24
14 19 25
14 18 25
14 18 25
14 18 24
14 18 24
14 18 24
14 19 25
14 18 24
14 18 25
14 18 24
14 18 24
14 18 24
14 18 24
14 18 25
14 18 25
14 18 24
14 18 24
14 18 24
14 18 24
13 17 23
14 18 24
14 18 24
14 18 24
14 18 25
14 18 25
14 18 25
14 18 24
13 17 24
14 18 25
13 18 24
13 18 24
14 18 24
14 18 24
13 17 24
14 18 24
14 18 24
14 18 24
14 18 24
13 17 23
14 18 24
13 18 24
13 17 23
14 18 24
14 18 24
13 16 22
14 18 25
14 18 24
13 17 23
13 17 24
14 18 24
14 18 24
14 18 24
13 17 23
13 17 23
13 17 23
13 17 22
13 17 23
13 17 23
13 17 23
13 17 22
13 16 22
13 17 23
13 17 23
13 16 22
14 18 24
13 16 22
13 17 22
14 18 24
12 15 21
12 16 22
13 16 22
14 17 23
13 16 22
13 17 22
13 16 22
13 17 23
13 17 23
13 16 22
13 16 22
13 16 22
13 17 22
12 16 21
12 16 21
11 15 20
12 16 21
12 15 20
13 16 22
11 15 20
11 14 19
11 15 20
12 15 20
11 15 20
11 14 19
10 13 18
11 14 19
12 15 20
11 14 19
12 15 20
11 14 19
10 14 18
12 15 20
12 15 20
11 14 19
9 11 15
11 14 18
9 12 16
10 14 18
10 14 19
10 13 17
11 14 19
9 12 15
10 12 17
10 13 18
6 8 10
5 5 7
5 7 8
4 5 7
5 6 8
5 6 7
6 8 10
5 6 8
4 6 7
7 9 11
5 6 7
5 6 7
5 6 7
5 6 7
6 7 9
4 5 6
6 7 9
4 5 6
4 5 7
5 7 8
6 7 9
6 7 9
5 6 8
6 7 9
6 8 10
5 6 7
5 6 7
5 6 8
5 6 8
5 6 7
4 5 6
6 7 9
7 8 11
4 5 7
6 8 10
7 8 11
4 5 7
5 6 8
6 7 9
6 8 10
6 7 9
4 5 6
7 9 11
5 7 9
6 7 9
5 6 8
6 7 9
5 6 8
6 7 9
6 8 10
6 7 9
5 7 8
4 5 7
6 7 9
5 6 7
5 5 7
5 6 8
7 8 10
6 7 9
5 6 8
5 6 8
5 7 8
8 10 12
6 8 9
5 6 8
6 7 8
5 6 7
6 7 9
5 6 8
7 8 10
5 6 8
6 7 9
5 6 7
6 7 9
6 7 8
6 7 9
5 6 8
5 6 8
3 4 6
3 4 5
5 6 7
5 6 7
5 6 7
6 7 9
6 7 9
5 6 8
4 5 6
6 7 9
10 13 17
10 13 17
10 13 17
10 12 17
10 13 17
11 14 19
10 13 17
12 16 21
11 14 18
11 15 20
11 14 19
12 15 21
12 16 21
11 14 18
12 15 20
12 15 20
12 15 20
11 14 19
12 15 21
11 14 19
11 14 19
11 15 20
12 16 21
12 16 22
12 15 21
13 16 22
13 16 22
12 16 22
12 15 21
13 16 22
12 16 21
12 16 21
12 16 22
12 15 21
13 17 24
13 17 23
13 17 23
11 15 20
13 17 23
13 17 22
14 18 24
13 17 23
13 17 23
12 16 22
13 17 23
13 17 23
13 17 24
14 18 24
13 17 23
14 18 24
13 16 22
13 17 23
13 17 23
13 17 23
13 17 23
14 18 24
13 17 22
14 18 24
13 17 23
13 17 23
14 18 24
14 18 24
13 17 23
13 17 23
14 18 25
14 18 24
14 18 24
13 17 24
14 18 24
14 18 25
13 18 24
13 17 23
14 18 24
13 17 24
14 18 24
14 18 24
14 18 24
14 18 24
14 18 24
14 18 24
14 18 24
14 18 24
14 18 24
14 18 24
14 18 25
13 18 24
14 18 25
14 18 24
14 18 24
13 17 24
14 18 24
14 18 24
14 18 24
14 18 24
14 18 24
14 18 24
14 18 25
14 18 24
14 18 24
14 18 24
14 18 24
13 17 23
14 18 25
14 18 25
14 18 24
14 18 24
14 18 25
14 18 25
14 18 25
14 18 24
14 18 25
14 18 25
14 18 24
14 18 25
14 18 25
14 18 24
14 18 25
14 18 24
14 18 25
14 18 24
14 18 25
14 18 24
14 19 25
14 19 25
14 18 24
14 19 25
14 18 24
14 18 25
14 18 24
14 18 25
13 17 23
14 18 24
14 18 24
14 19 25
14 19 25
14 19 25
14 18 25
14 18 25
14 18 25
14 19 25
14 18 25
14 18 24
14 19 25
14 18 25
14 19 25
14 18 25
14 18 24
14 18 24
14 18 24
14 18 24
14 18 25
14 18 25
14 18 25
14 18 25
14 19 25
14 19 25
14 18 24
14 18 25
14 18 25
14 19 25
14 18 25
14 18 24
14 18 25
14 18 25
14 18 25
14 18 25
14 19 25
14 18 25
14 18 24
14 18 24
14 18 25
14 19 25
14 19 25
14 19 25
14 18 24
14 18 25
15 19 25
14 19 25
14 18 25
14 18 25
14 18 25
14 18 25
14 18 25
14 18 25
14 18 25
14 18 25
14 18 24
14 18 25
14 18 24
14 18 25
14 18 25
14 18 24
14 18 25
15 19 25
14 18 25
14 18 25
14 18 24
14 18 24
13 17 23
14 18 25
14 18 25
13 17 24
14 18 25
14 18 24
14 18 24
14 18 24
14 18 24
14 18 24
14 18 24
13 18 24
13 17 24
14 18 24
14 18 24
14 18 25
14 18 24
14 18 24
14 18 24
14 18 24
13 18 24
14 18 24
14 18 24
14 18 24
14 18 24
14 18 24
14 18 24
14 18 24
15 19 25
14 18 24
14 18 25
14 18 25
14 18 24
14 18 24
13 17 23
13 18 24
14 18 24
14 18 24
13 17 23
13 17 23
13 17 23
14 18 24
14 18 24
13 17 23
13 18 24
13 17 23
14 18 23
13 17 23
14 18 25
14 18 24
13 16 22
13 17 23
14 18 24
14 18 24
13 17 24
13 17 23
13 17 23
14 18 24
13 17 24
13 17 23
13 17 24
13 17 23
14 18 24
13 17 23
13 17 23
13 17 23
13 17 23
13 17 23
13 17 22
13 17 23
13 17 23
13 17 22
13 16 22
13 17 23
13 17 23
13 17 23
13 17 23
12 16 21
13 16 22
13 16 22
12 16 22
12 16 22
12 16 21
13 17 22
12 15 20
12 16 21
12 15 20
12 15 21
11 15 20
11 15 20
12 15 20
12 16 21
12 16 21
10 13 18
10 14 18
11 14 19
11 14 19
12 15 21
10 13 18
10 13 18
10 13 17
9 11 15
10 13 18
9 12 16
9 12 16
11 14 18
9 12 17
12 15 20
10 13 17
9 12 16
9 12 16
9 12 16
10 12 17
9 11 15
10 12 16
5 6 8
5 6 8
4 5 6
4 5 6
6 7 9
5 6 8
6 7 9
5 6 8
6 7 9
4 5 6
5 6 8
4 5 6
6 7 8
4 5 6
6 7 9
4 4 6
7 8 10
6 7 9
5 6 8
4 5 6
7 8 10
5 6 8
5 6 7
4 5 7
5 7 8
6 7 9
5 6 8
6 7 9
4 5 7
6 7 9
6 7 9
7 8 10
4 5 7
6 7 9
5 6 7
5 7 8
6 7 9
5 6 8
6 8 10
8 9 11
6 7 9
6 7 9
6 8 10
6 7 9
5 6 7
6 7 9
6 7 9
6 7 9
5 6 8
4 5 6
6 7 9
4 5 7
6 7 9
4 5 7
4 5 6
5 6 7
5 6 8
7 8 10
5 6 7
5 6 8
6 7 9
5 6 8
6 7 9
6 7 9
7 8 11
6 7 8
5 6 8
6 7 9
6 7 9
5 6 7
5 6 7
5 6 8
5 6 8
6 7 9
5 6 8
5 5 7
4 5 6
5 6 7
5 6 7
4 5 7
4 5 6
4 5 6
5 6 7
5 6 8
5 6 7
6 8 10
9 11 15
9 12 16
9 12 16
10 13 17
9 11 15
9 12 16
11 14 18
10 13 18
8 11 15
10 14 18
9 12 16
10 13 17
10 13 17
11 14 19
11 14 19
11 15 20
12 15 20
12 15 20
12 15 21
11 14 19
12 16 21
11 14 19
11 15 20
11 14 19
12 15 21
11 14 20
12 15 20
12 16 21
12 15 20
11 15 20
12 16 21
12 16 21
12 16 21
12 15 20
13 18 24
12 16 22
12 15 21
12 16 21
13 16 22
12 16 21
13 17 23
12 16 21
13 17 23
13 17 22
12 16 21
13 17 23
13 16 22
13 16 22
13 17 23
13 17 22
13 17 23
13 17 23
13 17 23
13 17 23
12 16 22
13 17 23
13 16 22
13 17 23
13 17 24
13 16 22
13 17 23
14 18 24
13 17 23
14 18 24
13 18 24
13 17 23
13 17 23
13 17 24
13 17 23
14 18 24
13 17 23
14 18 25
14 18 24
13 17 23
14 18 24
13 17 23
14 18 24
13 17 23
14 18 24
14 18 24
13 18 24
14 18 23
14 18 24
14 18 24
14 18 24
13 17 23
14 18 24
14 18 24
14 18 24
14 18 24
14 18 24
14 18 25
14 18 24
14 18 24
14 19 25
14 18 24
14 18 25
14 18 25
13 17 23
14 18 25
14 18 24
14 18 25
14 19 25
14 18 24
14 18 25
14 18 24
14 18 25
14 18 24
14 18 24
14 18 25
14 18 25
14 18 25
14 18 24
14 19 25
14 18 24
14 18 25
14 18 25
14 18 24
14 18 25
14 18 24
14 18 25
15 19 25
14 18 25
14 18 24
14 18 24
15 19 25
14 18 25
14 19 25
14 18 24
14 19 25
14 18 25
14 18 24
14 19 25
14 18 24
14 18 25
14 18 25
14 18 25
15 19 25
14 18 25
14 19 25
14 19 25
14 18 24
14 19 25
14 18 25
14 19 25
14 19 25
14 19 25
14 19 25
14 18 25
14 18 25
15 19 25
14 18 24
14 19 25
14 18 25
14 18 25
15 19 25
14 18 24
14 18 25
14 19 25
14 18 25
14 18 25
14 18 25
14 18 25
14 18 25
14 18 25
14 19 25
14 19 25
14 18 24
14 18 24
14 19 25
14 18 24
14 18 24
14 19 25
14 18 25
14 19 25
14 19 25
14 18 25
14 18 25
14 18 25
14 18 25
14 19 25
14 18 25
14 19 25
14 18 24
15 19 25
14 18 25
14 18 25
14 18 25
14 18 25
14 18 24
14 19 25
14 19 25
14 18 24
14 19 25
14 18 25
14 18 25
14 18 24
14 18 24
14 18 25
14 18 24
14 18 24
14 18 25
14 18 24
14 18 25
14 18 24
14 18 24
14 18 25
14 18 25
14 18 24
14 18 25
14 18 24
14 18 25
14 18 25
14 18 25
13 17 23
14 18 25
14 18 24
14 18 25
14 18 24
14 18 25
14 18 24
14 18 24
14 18 25
13 17 23
14 18 24
14 18 24
14 18 24
14 18 24
14 18 24
14 18 24
14 18 24
13 17 24
14 18 25
14 18 24
14 18 24
14 18 25
13 18 24
13 17 22
14 18 24
14 18 24
13 17 24
13 17 23
14 18 24
13 18 24
13 17 23
13 17 24
14 18 24
14 18 25
12 16 22
14 18 24
14 18 24
14 18 24
14 18 24
14 18 24
13 17 23
13 17 23
13 16 22
13 17 23
13 17 23
13 17 22
13 17 23
13 17 23
13 17 23
13 17 23
13 17 23
13 17 22
13 17 23
12 16 21
13 17 23
13 17 22
12 16 21
13 16 22
13 17 23
13 17 23
13 17 22
12 15 21
12 16 22
13 16 22
12 15 20
13 16 22
11 14 19
12 16 22
13 16 22
13 16 22
12 15 21
11 15 20
12 15 21
11 14 19
11 15 20
11 15 20
12 15 20
11 14 19
12 15 21
12 15 20
11 14 19
11 15 20
10 13 18
10 13 18
11 15 20
10 14 18
11 14 19
10 13 17
10 13 18
10 13 17
11 15 20
9 12 16
10 12 16
10 12 17
9 12 15
8 11 14
8 10 14
10 13 17
8 10 13
10 13 17
8 10 13
7 8 11
4 5 6
5 6 7
5 6 7
4 5 7
5 6 8
4 5 7
6 7 8
6 7 8
5 6 7
5 6 7
4 5 7
6 7 9
5 6 8
5 6 7
5 7 8
5 6 7
6 7 10
5 6 7
5 6 8
6 7 9
6 7 9
5 7 8
5 6 8
5 7 8
5 6 7
5 6 7
6 7 9
5 6 8
5 6 8
4 5 7
4 5 7
4 5 7
6 7 9
7 8 10
4 5 7
6 7 9
5 7 8
7 8 10
6 8 10
4 5 7
5 6 8
6 7 9
5 6 8
5 6 8
5 6 7
7 8 10
5 7 8
5 6 7
7 8 10
6 7 9
5 6 8
5 5 7
6 8 10
6 7 9
6 8 10
6 7 9
5 6 8
5 6 8
5 6 8
5 7 8
5 7 8
6 7 9
6 7 9
6 7 9
6 7 9
4 5 7
5 6 8
4 4 6
4 5 7
6 7 8
4 5 6
6 7 9
4 4 6
6 7 9
5 6 7
5 6 7
5 7 8
4 5 6
5 6 8
4 5 6
4 5 6
4 5 6
7 8 11
9 12 16
9 11 15
8 10 14
8 10 14
9 12 15
9 12 16
10 13 17
9 12 16
10 13 17
10 13 18
10 13 18
11 14 18
10 13 17
11 14 19
11 14 19
11 14 19
10 13 18
11 15 20
11 15 20
10 13 18
10 13 17
10 13 18
11 14 19
11 14 19
12 15 20
11 14 19
12 15 20
12 15 21
12 15 21
12 16 21
12 15 21
13 16 22
12 15 21
12 16 22
11 15 20
13 17 23
12 15 21
12 16 21
13 16 22
12 16 22
13 17 23
12 15 20
12 16 22
14 18 24
13 16 22
12 16 21
13 17 22
13 17 23
13 16 22
13 18 24
13 18 24
13 16 22
13 17 23
11 15 20
13 17 23
13 17 23
14 18 24
13 17 23
13 17 24
13 17 23
13 17 23
13 17 23
14 17 23
14 18 24
14 18 24
14 18 24
13 17 23
13 17 23
13 17 23
13 17 23
14 18 24
14 18 25
14 18 24
14 18 24
14 18 24
14 18 24
13 17 24
13 17 23
14 18 24
14 18 24
14 18 24
14 18 24
14 18 24
13 18 24
13 17 23
14 18 25
14 18 24
14 18 25
14 18 25
13 17 23
14 18 24
13 17 24
14 18 24
14 18 24
14 18 24
14 18 25
14 18 24
14 19 25
14 18 24
14 18 24
14 18 24
14 18 25
14 18 24
14 18 25
14 18 25
14 18 25
14 18 24
14 18 25
13 17 24
14 18 25
14 18 25
14 18 24
14 18 25
14 18 24
13 18 24
14 18 24
14 19 25
14 19 25
14 18 24
14 18 23
14 19 25
14 18 25
14 18 24
14 19 25
14 18 24
14 18 25
14 18 24
14 18 24
14 18 25
14 18 25
14 18 24
14 18 25
14 19 25
14 19 25
15 19 25
14 19 25
14 18 24
14 18 25
14 18 25
14 18 24
14 18 24
14 19 25
14 18 25
14 18 24
14 18 25
14 18 25
14 18 25
14 19 25
14 19 25
14 18 25
14 18 25
14 19 25
14 18 25
14 18 25
14 19 25
14 19 25
14 19 25
14 19 25
14 18 25
14 18 25
14 18 25
14 19 25
14 18 24
14 18 25
15 19 25
14 18 24
14 18 24
14 18 25
14 19 25
14 18 25
14 18 25
14 18 25
14 18 24
14 19 25
14 18 24
14 18 25
14 18 24
14 18 24
14 18 25
14 19 25
14 18 25
14 18 24
14 18 25
14 18 25
14 18 25
14 18 25
14 18 25
14 18 24
14 18 24
14 18 24
14 18 24
14 18 25
14 18 24
14 19 25
14 18 25
14 18 25
14 18 25
14 18 24
14 18 24
14 18 25
14 18 25
14 18 25
14 18 24
14 18 24
14 18 24
14 18 25
14 18 25
14 18 24
14 18 24
14 18 24
14 18 25
13 17 23
14 18 24
14 18 24
14 18 24
13 17 23
14 18 24
14 18 24
14 18 24
14 18 25
13 17 23
13 18 24
14 18 24
14 18 25
14 18 25
13 17 23
14 18 24
14 18 24
14 18 24
14 18 25
14 17 23
13 17 23
14 18 24
13 17 23
13 18 24
13 17 23
13 17 23
14 18 25
13 17 23
13 17 23
13 17 23
14 18 24
14 18 24
14 18 24
13 17 24
13 18 24
13 17 23
13 17 23
14 18 24
13 17 23
14 18 24
14 17 23
14 18 24
14 18 24
13 17 23
13 17 23
12 16 22
13 17 22
13 17 23
13 17 23
14 18 24
13 17 23
13 16 22
13 17 23
12 16 22
12 16 22
13 17 23
13 16 22
12 16 22
13 17 22
12 16 21
11 14 19
13 16 22
12 16 22
13 17 23
12 16 21
12 16 22
12 16 21
13 17 23
13 17 23
12 16 21
13 17 23
12 15 21
12 16 21
13 16 22
11 15 20
11 14 19
12 16 21
13 16 22
10 13 18
11 15 20
10 13 17
12 15 21
11 14 19
12 15 20
11 14 19
11 14 19
10 13 18
11 14 19
9 11 15
11 14 18
11 14 19
10 13 17
8 11 15
10 13 17
10 13 17
11 14 18
8 10 13
10 13 18
10 13 17
10 13 17
9 11 15
9 12 16
8 10 13
9 12 16
8 10 13
10 12 16
6 8 11
4 5 6
4 5 6
4 5 7
4 4 6
6 7 9
5 7 8
5 6 8
5 6 8
5 7 8
5 6 8
6 7 9
3 4 5
5 7 8
4 5 6
5 6 7
5 6 7
4 5 7
6 7 9
5 6 8
6 7 9
5 6 8
4 5 7
6 7 9
4 5 6
5 6 7
5 7 8
5 6 8
5 6 8
5 6 8
5 6 8
6 7 9
5 7 8
6 8 10
4 5 6
6 7 9
5 6 7
6 7 9
4 5 7
6 7 9
5 6 8
4 5 7
6 7 9
4 5 7
5 6 8
5 6 8
6 8 10
5 6 8
5 6 7
5 6 7
6 7 9
5 6 8
5 6 8
5 6 7
6 7 9
5 6 8
6 7 9
5 6 8
5 6 8
5 6 8
5 6 8
5 7 8
5 6 8
6 7 9
4 5 7
5 6 7
5 6 7
5 6 7
3 4 5
6 7 9
5 6 8
5 6 8
4 5 7
5 6 7
4 5 6
4 5 6
4 5 7
6 7 9
5 6 7
3 4 5
4 5 6
7 9 12
8 10 13
7 9 12
8 10 14
9 12 16
9 11 15
9 11 15
8 10 13
10 13 17
9 12 16
9 12 16
9 12 16
9 12 16
9 12 16
11 15 20
10 13 17
9 12 17
10 13 18
11 14 19
11 14 19
11 14 19
11 15 20
11 14 19
10 13 17
10 12 17
11 15 20
11 14 19
11 15 20
11 14 19
11 15 19
12 15 21
12 15 20
11 14 19
12 15 20
12 16 22
12 16 22
12 15 20
11 15 20
12 16 22
11 15 20
11 15 20
12 16 21
13 16 22
13 16 22
12 15 21
12 16 22
13 17 23
13 17 23
13 17 23
13 17 23
12 16 21
13 17 22
13 17 23
12 16 21
12 15 21
13 17 23
13 17 23
12 16 21
13 17 23
13 17 23
13 17 23
13 17 23
13 17 22
14 18 24
13 17 23
13 17 23
14 18 24
13 17 24
14 18 24
13 17 22
14 18 24
13 17 23
13 17 23
13 17 24
13 17 23
14 18 24
14 18 24
13 17 23
14 18 24
14 18 24
14 18 24
13 17 23
14 18 24
14 18 24
13 17 23
13 17 23
14 18 24
14 18 25
14 18 25
13 17 23
14 18 24
14 18 24
13 17 24
13 17 23
14 18 25
14 18 24
14 19 25
14 18 24
14 18 24
14 18 24
14 18 24
14 18 25
14 18 24
14 18 24
14 17 23
13 17 24
14 18 24
14 18 24
13 17 22
14 18 25
14 18 24
14 18 24
14 18 24
14 18 25
14 18 24
14 18 24
14 18 24
14 18 25
14 18 25
14 18 24
14 18 24
14 18 24
14 18 25
14 18 24
14 18 25
14 19 25
14 18 24
14 18 25
14 18 24
14 18 24
14 18 25
14 18 25
14 19 25
14 19 25
14 18 25
14 18 25
14 18 25
14 19 25
14 18 25
14 18 25
14 18 25
14 18 24
14 18 24
14 18 25
14 18 24
14 18 24
14 18 24
14 18 24
14 18 24
14 18 25
14 18 24
14 18 25
14 18 25
14 18 24
14 18 25
14 18 24
14 18 25
15 19 25
14 19 25
14 18 25
14 18 24
14 18 25
14 18 25
14 18 25
14 18 25
14 18 25
15 19 25
14 18 25
14 18 24
14 18 25
14 18 25
14 19 25
14 18 24
14 18 25
14 18 25
14 19 25
14 18 24
14 18 24
14 18 25
14 18 25
15 19 25
14 18 24
14 19 25
14 18 25
14 18 24
14 18 25
14 18 25
14 18 25
14 18 24
14 19 25
14 18 25
14 18 25
14 17 23
14 18 25
14 18 25
14 18 24
14 18 24
14 18 24
14 18 24
14 18 24
14 18 25
14 18 24
14 18 24
14 19 25
14 18 25
14 18 25
14 18 25
14 18 25
14 18 24
13 18 24
14 18 24
14 18 24
14 19 25
14 18 25
14 18 24
14 18 24
14 18 24
14 18 25
14 19 25
14 18 24
13 17 23
14 18 24
13 17 23
14 18 24
14 18 25
14 18 24
13 17 23
14 18 24
14 18 24
13 17 24
14 18 24
14 17 23
14 18 24
14 18 24
14 18 24
14 18 24
14 18 24
13 17 24
13 17 24
14 18 25
13 17 23
13 17 23
13 17 23
14 18 24
13 17 23
13 17 23
14 18 24
13 17 23
13 16 22
14 18 24
13 17 23
13 17 23
13 17 23
13 17 23
13 17 24
13 16 22
13 17 23
13 17 22
12 16 22
13 17 23
13 17 23
13 17 23
13 17 23
13 17 23
13 17 23
12 16 22
12 16 21
13 17 23
13 16 22
13 17 23
13 17 23
13 17 22
13 16 22
12 16 21
11 15 20
13 17 23
13 17 23
12 15 20
12 15 21
11 15 20
12 16 21
12 15 20
12 15 21
13 17 23
12 16 21
10 13 18
12 15 21
11 14 20
11 14 19
11 15 20
11 15 20
13 16 22
11 15 19
12 15 20
11 14 19
11 14 19
11 14 19
12 16 21
10 13 17
11 14 18
10 13 17
11 14 19
10 13 18
9 11 15
10 13 17
10 13 18
10 12 17
9 12 16
9 12 16
10 13 17
9 12 16
10 12 17
9 11 15
9 12 16
10 12 16
10 12 16
8 10 14
8 10 14
8 10 14
8 10 14
6 7 10
6 7 9
4 5 6
4 5 6
4 5 7
5 6 7
4 5 6
4 5 6
5 6 7
4 5 6
6 7 9
5 6 8
5 6 7
4 5 6
5 6 7
5 6 7
5 6 7
4 5 6
5 7 8
6 7 9
4 5 6
6 7 8
4 5 6
4 5 7
4 5 6
5 6 8
7 8 10
5 6 8
4 5 6
5 6 7
5 6 8
5 6 7
4 5 6
6 7 9
5 7 8
4 5 6
5 6 8
5 6 8
6 7 9
6 7 9
5 6 8
5 6 8
5 6 8
4 5 7
5 6 7
4 5 7
6 7 9
6 7 9
6 7 9
6 7 9
5 6 7
5 6 7
5 6 8
6 7 8
5 6 8
7 8 10
5 6 8
5 6 7
6 8 9
4 5 7
4 5 6
5 6 7
4 5 6
4 5 7
5 6 7
6 7 8
5 6 7
5 6 8
5 6 7
5 6 7
6 7 9
4 5 7
5 6 7
4 4 6
6 7 9
5 5 7
4 4 6
5 6 7
3 4 6
8 10 14
6 8 11
7 9 12
8 10 14
8 10 13
9 11 15
9 12 16
9 11 15
9 12 16
8 11 14
10 13 18
9 11 15
9 12 16
11 14 19
11 14 18
10 13 17
10 13 18
11 14 19
10 12 17
9 12 16
11 15 20
10 13 18
11 14 19
11 14 18
10 13 18
11 15 20
11 14 19
12 15 21
12 15 21
11 15 20
11 15 20
13 17 22
12 16 21
12 16 22
12 15 21
11 15 20
12 15 21
12 16 21
11 14 19
12 15 20
13 17 22
12 16 22
12 15 21
12 16 22
13 16 22
13 17 23
13 17 23
12 16 22
13 17 23
13 17 23
12 16 21
13 17 22
12 16 21
12 16 21
13 17 23
13 17 23
13 17 23
13 17 23
13 16 22
13 17 23
13 16 22
13 17 22
13 17 23
14 18 24
13 17 23
13 17 23
13 17 23
13 17 23
13 17 23
13 17 24
14 18 24
14 18 24
13 17 23
14 18 24
13 17 23
14 18 24
13 17 23
14 18 24
13 16 22
13 17 23
13 17 22
14 18 24
14 18 24
14 18 24
14 18 24
14 18 25
13 17 23
14 18 24
14 18 24
14 18 24
14 18 24
14 18 24
13 18 24
13 18 24
14 18 25
14 19 25
14 18 25
14 18 24
13 17 24
14 18 25
13 17 23
14 18 25
14 18 24
14 18 25
14 18 24
14 18 24
14 18 24
14 18 24
14 18 25
14 18 25
14 18 25
14 18 24
14 18 24
14 18 24
13 17 23
14 18 24
14 18 24
13 18 24
14 18 25
13 17 23
14 18 25
14 18 24
14 18 25
14 18 24
14 18 24
14 19 25
14 18 24
14 18 24
14 18 24
14 18 24
14 19 25
14 18 24
14 18 24
14 18 25
14 18 24
14 18 25
14 18 25
14 18 25
14 18 25
14 18 25
14 18 25
14 18 24
14 18 24
14 18 24
14 18 24
14 18 25
14 18 24
14 18 25
14 18 25
14 19 25
14 19 25
14 18 25
14 18 25
14 18 25
14 18 25
14 18 25
14 18 25
14 18 25
14 18 25
14 19 25
14 18 25
14 19 25
14 18 25
14 18 25
14 18 25
14 18 25
14 18 25
14 18 25
14 19 25
14 18 25
14 18 25
14 19 25
14 18 24
14 18 24
14 18 24
14 18 25
14 18 24
14 19 25
14 18 24
14 18 24
14 19 25
14 18 24
14 18 24
14 18 24
13 17 23
14 19 25
14 18 24
14 18 24
14 19 25
14 19 25
14 18 25
14 18 24
14 18 24
14 18 24
14 18 24
14 18 24
14 18 24
14 18 25
14 18 24
14 18 25
14 18 25
14 18 24
14 18 24
14 18 25
14 18 24
14 18 24
14 18 25
14 19 25
14 18 24
14 18 25
14 18 25
14 18 24
13 17 23
14 18 24
14 18 24
14 18 25
15 19 25
14 18 24
14 18 24
14 18 24
13 17 23
13 17 23
14 18 25
14 18 24
14 18 24
13 17 23
14 18 24
13 17 23
14 18 24
13 17 23
14 18 24
14 18 25
13 17 23
14 18 25
13 17 23
13 17 23
14 18 24
13 17 23
14 18 24
13 17 23
14 18 24
14 18 24
14 18 24
14 18 24
13 17 24
13 17 23
13 17 22
13 16 22
13 17 23
14 18 24
14 18 24
13 16 22
13 17 23
13 17 22
14 18 24
13 17 23
13 17 23
13 17 23
13 17 23
13 17 22
13 17 23
13 17 23
13 17 22
12 16 21
13 16 22
12 16 22
13 17 22
13 17 23
12 16 22
13 17 22
13 17 23
12 16 22
13 17 23
13 17 23
12 16 22
11 15 20
12 15 21
13 16 22
12 15 21
12 15 21
12 16 22
13 16 22
13 17 23
12 16 21
12 15 21
12 15 20
11 14 19
11 15 20
11 15 20
11 14 19
12 15 20
12 15 20
13 16 22
11 15 20
11 15 20
11 15 20
10 13 18
11 14 19
10 13 17
11 14 18
9 12 16
10 13 17
11 14 18
10 13 17
10 12 17
10 12 16
10 14 18
9 12 16
10 12 17
9 12 16
10 13 17
11 14 18
9 12 15
8 11 14
8 10 13
9 11 14
7 9 12
7 9 12
8 10 14
7 9 12
6 8 11
7 9 12
8 10 13
5 6 8
4 4 6
4 5 6
3 4 5
3 4 5
4 5 6
5 6 8
4 5 7
4 4 6
5 6 8
5 6 8
3 4 5
4 5 7
5 6 7
4 5 6
5 6 8
4 5 6
5 6 8
5 6 7
4 5 6
5 6 7
4 4 6
4 5 7
5 6 7
5 6 7
4 5 6
5 6 8
6 7 9
5 6 7
4 5 7
4 5 7
6 7 8
5 6 8
5 6 8
5 6 8
5 6 8
6 7 8
5 6 8
5 6 7
5 6 7
6 7 9
4 5 6
6 7 8
5 6 7
5 6 8
5 6 8
4 5 6
4 5 7
6 7 9
5 6 7
5 6 7
5 6 8
4 5 7
6 7 9
4 5 7
3 4 5
4 5 6
5 6 7
6 7 9
4 5 6
4 5 6
5 6 7
5 6 7
5 6 8
4 5 7
4 5 7
4 5 7
3 3 4
4 4 6
5 5 7
4 5 6
4 5 6
4 5 7
4 4 6
6 7 9
5 7 8
7 9 12
7 9 12
7 10 13
7 8 11
8 10 13
9 12 16
9 12 16
8 10 14
9 12 15
7 9 12
8 10 14
10 12 16
10 13 17
9 12 16
10 13 18
10 13 18
11 13 18
10 14 18
10 13 18
10 13 17
11 14 19
9 12 16
12 15 20
10 13 18
11 14 19
11 15 19
12 15 20
10 13 17
12 15 20
11 14 19
10 13 18
11 14 19
11 15 20
13 16 22
12 15 20
12 16 22
11 14 19
12 16 22
11 15 20
12 15 21
13 16 22
12 16 22
12 15 21
12 15 20
12 16 22
12 16 21
12 16 21
12 16 22
13 16 22
12 16 22
12 15 21
12 16 21
12 16 21
12 16 22
12 16 22
13 17 22
13 17 23
13 17 23
14 17 23
13 16 22
12 16 22
13 17 23
13 17 23
13 17 23
12 16 22
13 17 24
13 17 23
13 17 23
14 18 24
13 17 23
14 18 24
13 17 23
13 17 22
12 16 21
13 17 23
13 17 23
13 17 23
13 17 23
13 17 23
13 17 23
14 18 24
13 17 23
13 17 23
13 17 23
13 17 23
14 18 24
14 18 24
14 18 24
14 18 25
14 18 25
14 18 24
13 17 23
13 17 23
14 18 24
14 18 24
13 17 23
13 18 24
14 18 24
14 18 24
14 18 24
14 18 24
14 18 24
13 18 24
14 18 24
13 17 24
14 18 24
14 18 24
13 17 23
14 18 24
14 18 25
14 18 24
14 18 24
14 17 23
14 18 24
13 18 24
14 18 25
14 18 24
14 18 24
14 18 25
14 18 24
13 17 24
14 18 24
14 18 25
14 18 24
14 18 25
14 18 24
14 18 24
15 19 25
14 18 24
14 18 24
14 18 24
14 18 24
14 18 24
14 18 24
14 18 24
14 18 24
14 18 24
14 18 24
14 18 24
14 18 24
14 19 25
14 18 24
13 18 24
14 18 25
14 19 25
14 18 25
14 18 25
14 18 24
14 18 24
14 19 25
14 18 24
14 18 24
14 18 25
14 18 24
14 18 25
14 18 25
14 18 25
14 19 25
14 19 25
14 18 24
14 18 24
14 18 25
14 18 25
14 18 24
14 18 25
14 18 24
14 18 25
14 18 25
14 18 24
14 18 24
14 18 24
14 18 25
14 18 25
14 18 25
14 18 24
14 18 25
14 18 25
14 18 24
14 18 25
14 18 25
14 18 25
14 19 25
14 18 24
14 19 25
14 19 25
14 18 25
14 18 25
14 18 25
14 18 24
14 18 24
14 19 25
14 18 24
14 18 24
14 18 25
14 18 24
14 18 24
14 19 25
14 18 25
14 18 25
14 18 25
14 18 24
13 17 24
14 18 25
14 18 25
14 18 25
14 18 24
13 18 24
13 17 23
14 18 25
14 18 24
14 18 24
14 18 24
14 19 25
14 18 24
14 18 24
14 18 24
14 18 24
14 18 24
13 17 23
14 18 24
14 18 25
13 18 24
14 18 24
14 18 25
14 18 24
13 17 23
13 17 23
14 18 24
14 18 24
14 18 24
13 17 23
13 17 24
14 17 23
13 17 23
13 17 24
14 18 24
14 18 24
14 18 24
14 18 24
14 18 25
13 17 23
13 17 23
13 17 24
13 17 23
13 17 23
13 17 23
13 17 23
13 17 23
13 17 24
13 17 23
13 16 22
14 18 24
14 18 24
14 18 24
12 15 21
13 17 22
13 17 23
13 17 23
13 17 23
13 17 23
13 16 22
13 17 23
13 17 22
13 17 24
13 17 23
13 17 23
12 16 22
12 16 21
13 16 22
13 17 22
12 16 22
12 15 21
12 16 22
13 17 22
12 16 22
12 16 21
12 16 22
12 16 21
12 16 21
13 17 22
12 16 21
12 16 21
12 15 21
11 15 20
12 16 21
11 14 19
11 14 19
12 15 21
11 15 20
12 15 21
11 14 19
11 14 19
11 14 18
10 13 17
10 13 18
11 15 20
11 14 18
11 14 19
10 13 18
11 14 18
10 13 18
10 13 18
10 13 18
10 13 17
10 13 18
9 12 17
9 12 16
10 13 17
9 12 16
9 12 16
9 12 16
8 11 14
8 11 15
9 11 15
10 12 16
8 10 14
9 11 15
9 11 15
8 11 14
6 8 10
7 8 11
6 8 11
8 10 13
6 8 11
7 8 11
6 7 10
5 6 7
5 5 7
3 3 4
3 4 5
5 7 8
4 5 6
3 4 5
4 5 7
5 6 8
4 5 6
4 5 6
5 6 8
4 5 7
4 5 6
4 5 6
6 7 9
3 4 5
4 4 6
5 6 7
5 7 8
5 6 8
5 6 8
4 4 6
4 5 6
5 6 7
4 5 7
5 6 7
6 7 8
4 5 7
3 4 5
4 5 6
5 7 8
7 8 10
5 6 7
5 7 8
4 6 7
4 5 7
5 6 7
4 5 6
5 6 8
5 6 7
5 6 8
5 7 8
5 6 7
5 6 8
4 5 7
5 6 8
5 6 8
5 6 8
4 5 6
5 6 7
4 5 6
5 6 8
4 5 6
5 6 8
5 6 7
5 6 7
5 6 8
6 7 9
4 5 6
4 5 6
5 6 8
4 5 7
6 7 9
4 5 7
5 6 7
5 5 7
5 6 7
5 6 7
4 5 6
4 5 6
4 4 6
6 8 10
6 8 11
6 8 11
7 8 11
8 11 14
7 8 11
8 10 13
8 10 13
7 9 12
9 11 15
8 11 14
10 12 17
8 10 14
9 11 15
9 11 16
10 12 17
9 12 16
9 12 16
10 13 18
10 12 17
10 12 16
10 13 17
10 12 17
9 12 17
10 13 17
10 13 18
11 14 19
10 13 18
11 15 20
11 15 20
11 14 19
10 13 17
11 14 18
11 15 20
12 16 21
11 15 20
12 15 20
12 16 22
11 14 19
12 16 21
12 15 20
11 15 20
11 15 20
11 14 19
11 14 20
12 16 22
12 16 21
12 15 20
12 16 21
13 16 22
12 16 21
13 16 22
13 17 23
13 17 22
12 16 21
13 17 22
13 17 23
13 16 22
13 17 24
13 17 23
12 15 20
13 17 23
13 17 23
14 18 24
13 17 23
13 17 23
13 16 22
13 17 23
12 16 21
13 17 23
13 17 23
14 18 24
14 18 24
13 17 23
13 17 23
13 17 23
13 17 22
12 16 22
13 17 22
13 17 23
14 18 24
14 18 24
13 17 24
13 17 24
13 17 23
13 17 23
14 18 24
14 18 24
14 18 24
14 18 24
13 17 24
13 18 24
13 17 24
14 18 24
14 18 24
14 18 24
14 18 24
14 18 24
14 18 25
14 18 24
14 18 25
14 18 24
14 18 24
14 18 24
13 17 23
14 18 24
14 19 25
14 18 24
14 18 24
14 18 24
14 18 24
14 18 24
14 18 24
14 18 24
14 18 24
14 18 24
13 17 24
13 17 23
14 18 24
14 18 25
14 18 24
14 18 25
14 18 24
14 19 25
14 18 24
14 18 24
14 18 25
14 18 25
14 18 25
14 18 25
14 18 25
14 18 25
14 18 24
14 19 25
14 18 25
14 18 24
14 18 24
14 18 24
14 18 25
14 18 25
14 18 25
13 17 23
14 19 25
14 18 25
14 18 25
14 18 24
14 18 25
14 18 25
14 18 24
14 18 24
14 19 25
14 18 24
14 18 24
14 19 25
14 19 25
14 18 24
14 18 24
14 19 25
14 19 25
14 19 25
14 18 24
14 18 25
14 18 24
14 19 25
14 18 25
14 18 24
14 18 24
14 18 24
14 18 25
14 19 25
14 18 25
14 18 25
14 18 25
14 18 25
14 18 24
14 18 24
13 18 24
14 18 24
14 18 25
14 18 24
14 18 25
14 18 25
13 17 24
14 18 24
14 18 24
14 18 25
14 18 25
14 18 25
14 18 24
14 18 24
14 19 25
14 18 24
13 17 23
14 19 25
14 18 25
14 18 25
14 18 25
14 18 25
14 18 25
14 18 25
14 18 24
14 18 24
14 18 24
14 18 24
14 18 24
14 18 24
13 17 23
13 17 24
13 17 23
14 18 24
14 18 25
14 19 25
14 18 24
14 18 25
14 18 24
14 18 25
14 18 24
14 18 24
14 18 24
14 18 24
14 19 25
14 18 24
14 18 24
13 17 23
14 18 24
14 18 24
13 17 24
13 17 23
14 18 24
14 18 24
14 18 24
14 18 24
13 17 24
13 17 24
14 18 25
14 18 24
13 17 23
13 18 24
14 18 24
13 17 23
14 18 23
13 17 23
13 17 23
13 17 23
14 18 24
13 17 23
14 18 24
13 17 23
12 16 22
13 17 23
13 16 22
13 16 22
14 18 24
14 18 24
13 17 23
14 18 24
13 17 23
12 16 22
13 17 23
13 17 23
14 18 24
12 16 21
13 17 23
13 17 23
13 16 22
12 16 22
13 17 23
13 17 23
13 16 22
12 16 22
13 17 23
13 16 22
13 17 23
13 16 22
13 16 22
12 16 21
13 17 23
12 15 21
13 16 22
12 16 21
12 15 21
12 16 21
11 14 19
12 16 21
12 15 21
12 15 21
11 15 20
11 14 19
12 15 20
11 15 20
10 14 19
10 13 18
12 15 21
11 14 19
11 15 20
11 14 19
10 14 18
11 14 19
12 15 20
11 14 19
10 14 18
11 14 18
10 13 17
10 13 17
10 13 17
10 13 18
10 12 17
10 13 18
8 11 14
10 13 17
9 12 16
9 12 16
8 11 14
8 11 14
8 11 15
9 12 16
7 9 13
8 11 15
7 9 11
9 12 15
7 9 12
7 10 13
6 8 11
8 10 14
7 9 12
7 9 12
6 8 11
6 8 10
7 8 11
4 5 6
4 5 6
3 3 4
4 5 7
3 4 5
4 5 6
4 5 7
4 5 6
4 4 6
4 5 6
4 4 6
4 5 7
5 6 7
5 6 8
5 6 8
5 6 8
3 4 5
5 6 7
5 6 7
5 6 8
5 6 8
4 5 7
5 6 8
6 7 8
5 6 7
5 6 8
4 5 6
5 6 8
5 6 7
5 6 8
5 6 7
6 7 9
5 6 8
5 6 7
5 6 8
4 5 6
5 6 8
4 5 7
4 5 7
5 6 7
4 5 7
5 6 7
4 5 7
6 7 9
4 5 6
5 6 7
3 4 5
5 6 8
4 5 6
5 6 7
3 4 5
5 6 8
5 6 7
5 6 8
4 5 6
5 6 8
5 5 7
6 7 8
4 5 7
5 6 7
4 5 6
3 4 5
5 6 8
6 7 9
4 5 6
2 3 4
3 4 5
4 5 6
3 3 4
3 4 6
5 6 8
6 8 10
7 9 12
7 9 11
8 10 13
8 10 13
6 7 9
9 12 16
9 11 15
8 10 14
8 10 13
8 10 13
9 12 16
7 9 12
8 10 14
8 11 14
8 10 14
9 11 15
10 13 17
8 11 14
9 12 16
10 13 18
11 14 18
10 13 17
10 12 17
11 14 19
11 14 19
10 13 17
11 14 19
11 14 18
11 15 19
11 15 20
10 13 18
12 15 20
11 14 19
11 15 20
11 14 19
10 13 18
12 15 20
10 14 19
11 14 19
12 16 21
12 15 21
11 14 20
11 15 20
13 16 22
11 15 20
11 15 20
12 16 21
12 16 22
12 15 20
13 17 22
12 16 22
13 16 22
13 16 22
12 16 22
12 16 22
12 16 21
13 16 22
13 17 23
12 16 21
13 17 23
11 15 20
13 17 23
13 16 22
12 16 22
13 17 22
13 17 23
13 17 23
13 17 23
13 17 23
12 15 21
13 17 22
13 17 23
13 16 22
14 18 24
13 17 23
13 17 22
13 17 23
13 17 23
13 17 23
13 17 24
13 17 23
13 17 23
13 17 23
13 16 22
12 16 22
13 17 23
14 18 24
14 18 25
14 18 24
13 17 23
14 18 25
13 17 23
13 18 24
13 17 23
14 18 24
13 17 23
13 17 23
13 17 23
14 18 24
14 18 24
13 17 23
14 18 24
14 18 25
14 18 24
14 18 24
14 18 24
14 18 24
14 18 24
13 17 24
13 17 24
14 18 24
14 18 24
14 19 25
14 18 24
14 18 24
14 18 24
14 18 24
14 18 24
13 17 23
14 18 25
14 18 25
14 18 25
14 18 25
14 18 25
14 18 24
14 18 24
14 18 24
14 18 25
14 18 25
14 18 24
14 18 24
14 18 25
14 18 24
14 18 25
14 18 25
14 18 24
14 18 24
13 17 23
14 18 25
14 18 24
14 18 25
14 18 24
14 18 24
15 19 25
14 18 25
14 18 25
14 18 25
14 18 25
14 18 24
14 18 25
14 18 25
14 18 25
14 18 25
14 18 25
14 19 25
14 18 25
14 18 24
14 18 24
14 18 25
14 18 25
14 18 25
15 19 25
14 18 25
14 18 24
14 18 25
14 19 25
14 18 25
14 18 25
14 18 24
14 18 25
14 19 25
14 18 24
14 18 24
14 18 24
14 18 24
14 18 24
14 18 24
14 18 25
14 18 24
14 18 25
14 18 24
14 18 25
14 18 24
14 18 25
14 18 25
14 18 24
14 18 24
14 18 24
14 18 25
14 18 25
14 18 24
14 18 25
14 18 25
14 18 24
14 18 25
14 18 25
15 19 25
14 18 24
14 18 24
14 18 24
14 18 24
14 18 25
14 18 25
14 18 24
13 17 23
14 18 24
14 18 24
14 18 25
13 17 24
14 18 25
14 18 24
14 18 25
14 18 24
14 18 24
14 18 24
13 18 24
14 18 24
14 18 25
14 18 24
13 17 23
14 18 24
13 17 24
14 18 24
14 18 25
14 18 24
14 18 24
14 19 25
14 18 24
14 18 24
13 18 24
13 17 23
14 18 24
13 17 23
13 17 23
14 18 24
14 18 24
13 17 23
13 17 24
14 18 24
13 17 23
13 17 23
13 17 23
13 17 23
13 17 23
13 17 24
13 17 22
13 17 22
13 18 24
13 17 23
13 17 23
13 17 23
13 16 22
13 17 23
14 18 24
13 17 23
13 17 23
13 16 22
13 17 23
13 17 23
13 17 23
13 17 23
12 16 21
12 16 22
13 16 22
13 17 23
13 17 23
13 17 23
13 17 22
12 16 22
13 16 22
13 16 22
13 16 22
12 15 21
13 16 22
12 16 21
12 16 21
12 15 21
12 16 21
12 15 20
13 17 23
12 16 22
11 14 19
12 16 21
11 15 20
12 15 21
13 17 22
12 16 21
12 15 21
12 16 21
11 14 19
12 15 21
11 14 19
10 13 18
11 14 19
10 13 18
10 13 18
10 13 18
11 14 19
11 14 19
10 14 18
11 14 19
12 15 20
10 13 18
9 12 15
10 13 17
9 12 16
9 12 16
9 12 16
9 12 17
9 11 15
10 12 16
7 9 12
10 12 16
9 11 15
8 11 15
8 10 13
9 11 15
9 12 16
8 10 14
5 7 9
8 10 14
8 10 13
8 10 13
6 8 11
7 8 11
7 9 12
8 10 13
5 7 9
5 6 8
6 8 10
4 5 7
3 3 4
3 4 5
4 5 7
3 4 5
3 4 5
4 5 6
3 4 5
4 5 6
3 4 5
4 5 6
5 6 7
4 5 6
3 4 5
5 6 7
4 5 6
4 5 6
4 5 7
5 6 8
4 5 7
5 6 7
4 4 6
4 5 6
5 6 7
5 6 7
6 7 9
5 6 7
4 5 6
5 6 8
5 7 8
5 6 8
4 5 7
4 5 7
5 6 7
4 5 7
5 6 7
5 6 8
5 6 7
5 6 8
4 5 7
4 5 6
3 4 5
5 6 8
3 4 5
5 6 7
5 6 8
4 5 7
5 6 7
5 6 8
4 5 6
3 3 4
5 6 7
4 5 6
4 5 6
5 6 7
4 5 6
4 5 7
4 5 6
4 5 6
4 5 6
3 3 4
3 4 5
3 4 5
4 5 6
3 4 5
4 5 6
5 6 8
7 9 11
5 6 8
7 9 11
7 9 12
6 8 10
7 9 12
6 8 11
8 10 13
6 8 11
7 9 12
8 10 14
8 10 13
8 10 14
8 10 14
8 11 14
8 11 14
9 12 16
10 13 17
9 12 16
10 13 17
10 13 17
9 11 15
9 12 16
9 12 16
10 13 18
10 13 18
10 12 17
9 12 16
9 12 16
11 15 20
11 14 19
11 14 19
11 14 19
11 14 19
10 13 18
11 14 18
11 15 20
11 14 19
10 13 18
10 14 19
11 14 19
11 15 19
11 15 20
11 14 19
12 15 21
11 15 20
11 15 20
12 15 21
12 16 22
12 15 21
12 15 21
12 15 21
12 15 21
13 17 23
12 16 22
13 17 22
13 16 22
12 16 22
13 17 23
12 16 22
12 16 22
12 15 20
13 16 22
12 16 22
12 16 21
13 17 23
12 16 22
12 15 21
13 17 23
13 16 22
12 16 21
13 17 23
13 17 23
13 17 23
13 17 23
13 17 24
13 17 23
12 16 22
14 18 24
14 18 24
13 17 23
13 17 23
13 17 24
14 18 24
13 18 24
13 17 23
14 18 24
14 18 24
13 17 23
14 18 24
14 18 24
12 16 22
14 18 24
14 18 25
14 18 24
14 18 24
14 18 24
13 17 24
13 17 23
14 18 24
14 17 23
13 17 24
14 18 25
13 17 23
14 18 24
14 18 25
13 17 23
14 18 24
14 18 24
13 17 23
14 18 24
13 17 23
14 18 24
14 18 24
14 18 24
14 18 24
13 18 24
13 18 24
14 18 25
14 18 24
14 18 24
14 18 25
14 18 25
14 18 24
14 18 25
14 18 24
14 18 24
14 18 25
14 18 24
14 19 25
14 18 24
14 18 24
14 18 24
14 18 24
14 18 25
14 18 24
14 18 25
14 18 24
14 18 25
14 18 25
14 18 24
14 18 24
14 18 24
14 18 24
14 18 25
14 18 24
14 18 25
14 18 25
14 18 24
14 18 25
14 19 25
14 18 25
14 18 25
14 18 24
14 18 25
14 18 25
14 18 25
14 18 25
14 18 24
14 18 25
14 18 24
14 18 24
14 18 25
14 18 25
14 18 25
14 18 24
14 18 25
14 18 25
14 18 25
14 18 24
14 19 25
14 18 25
14 18 24
14 18 24
14 18 24
14 18 24
14 18 25
14 18 25
14 18 24
14 19 25
14 19 25
14 18 24
14 18 25
14 18 24
14 18 25
14 18 25
14 18 24
14 18 24
14 18 25
14 18 25
14 18 25
14 19 25
14 18 25
14 18 25
14 18 24
14 18 24
14 18 24
14 18 24
14 18 25
14 18 24
14 18 24
14 19 25
14 18 24
14 18 25
14 18 25
13 17 23
13 18 24
14 18 24
14 18 24
13 17 23
14 18 24
13 17 24
14 18 24
14 18 24
14 18 24
14 18 24
14 18 24
14 18 24
14 18 24
14 18 24
14 18 24
14 18 24
13 17 23
13 17 23
14 18 24
13 17 23
14 18 24
14 18 24
13 17 24
14 18 24
13 17 24
14 18 24
13 17 24
14 18 24
14 18 24
14 18 24
13 17 23
14 18 24
14 18 24
13 17 23
13 18 24
13 17 24
12 16 22
13 17 23
14 18 24
14 18 24
13 17 23
14 18 24
13 17 23
14 18 24
12 16 22
13 17 23
13 17 23
13 17 23
14 18 24
13 17 23
12 16 21
13 16 22
13 17 22
13 17 23
13 17 23
13 17 22
13 16 22
12 16 22
13 16 22
13 16 22
14 18 24
13 17 23
12 16 22
12 16 21
13 17 22
13 17 23
13 17 22
13 16 22
12 16 22
12 16 21
12 16 21
13 17 22
12 16 21
12 16 21
12 16 21
12 15 20
12 16 21
11 14 19
13 17 23
12 16 21
12 16 21
12 16 21
12 16 21
12 15 20
12 16 21
10 13 18
11 14 19
11 14 19
11 14 19
11 14 18
11 14 19
10 14 19
11 14 19
11 15 20
10 13 17
10 13 17
9 12 16
11 15 20
9 11 15
10 13 17
10 13 17
10 13 17
10 13 17
10 13 17
10 12 17
9 11 15
10 13 17
9 11 15
9 12 16
8 10 14
8 11 14
8 11 15
9 12 15
8 10 13
8 10 13
7 9 12
7 9 12
8 10 13
7 9 12
6 8 11
7 8 11
7 9 12
8 10 12
5 7 9
5 7 9
4 5 6
7 9 12
4 5 6
4 5 6
3 3 4
3 4 5
2 3 4
4 4 6
4 5 6
4 5 7
4 5 7
4 5 7
4 5 6
4 5 6
5 6 7
4 5 6
6 7 8
5 6 8
4 5 6
4 5 6
3 4 5
5 6 8
4 5 7
4 5 7
5 6 7
3 4 5
3 4 5
4 4 6
5 6 8
4 5 7
4 5 7
4 5 6
4 5 7
4 5 6
5 6 7
4 5 6
4 5 7
5 6 8
4 5 7
4 5 7
5 6 8
4 5 7
5 6 8
3 3 4
4 5 6
5 7 8
5 6 7
6 7 9
4 5 6
5 6 7
5 6 7
4 5 7
4 5 6
4 5 7
4 4 6
3 3 4
4 5 6
5 6 7
3 4 5
5 6 7
3 4 5
3 4 5
3 4 5
2 3 3
3 4 5
4 5 6
4 5 7
6 7 10
5 6 8
7 8 11
4 5 7
6 7 10
6 7 10
6 8 10
6 7 9
9 11 14
7 9 12
7 9 12
7 9 12
7 9 12
8 10 13
7 9 12
8 10 14
8 10 13
9 11 15
9 12 16
10 13 17
9 11 15
9 11 15
10 13 17
8 11 15
10 13 18
9 12 16
10 13 18
10 13 17
10 13 18
11 14 18
10 13 17
11 14 19
9 11 15
9 12 16
12 15 20
11 14 18
11 14 19
10 13 17
12 15 21
10 13 18
12 15 20
10 13 17
11 15 20
12 15 21
12 15 20
12 15 20
12 15 20
12 15 21
11 15 20
11 15 20
11 15 20
12 16 21
12 15 21
12 16 21
11 15 20
12 16 22
12 16 21
12 15 21
12 15 20
13 16 22
12 16 22
13 17 23
12 16 21
13 17 23
12 15 20
13 17 23
13 17 23
12 16 21
12 16 22
12 16 22
13 17 23
13 17 22
12 16 21
13 17 23
13 17 22
12 16 22
13 17 24
14 18 24
13 17 23
13 17 23
12 15 21
13 17 23
13 16 22
13 17 22
13 17 23
13 17 23
13 17 23
14 18 24
13 16 22
13 17 23
13 17 23
13 17 23
13 17 23
14 18 24
13 18 24
13 17 23
13 17 23
13 17 23
13 17 23
14 18 24
13 18 24
13 18 24
13 17 24
13 17 24
13 17 24
14 18 24
14 18 24
14 18 24
14 18 24
13 17 23
14 18 24
13 17 23
14 18 24
14 18 24
14 18 24
14 18 24
14 18 24
12 16 22
14 18 25
13 18 24
14 18 25
14 18 24
14 18 25
14 18 24
14 18 24
14 18 25
14 18 25
14 18 24
14 19 25
15 19 25
14 17 23
14 18 24
14 18 24
14 18 25
14 18 25
14 18 25
14 19 25
14 18 24
14 18 24
13 17 23
14 18 25
14 18 25
14 18 25
14 19 25
14 18 24
14 18 25
14 18 25
14 18 25
15 19 25
14 18 25
14 19 25
14 18 25
14 18 24
14 18 25
14 18 24
14 18 25
14 18 25
14 18 24
14 18 25
14 18 24
15 19 25
14 18 25
14 18 25
14 18 24
14 18 25
15 19 25
14 18 24
14 18 24
14 18 25
14 18 25
14 18 25
14 18 25
14 18 24
14 18 25
14 18 25
14 18 24
14 18 25
14 18 25
15 19 25
14 18 24
14 18 25
14 18 25
14 18 25
14 18 24
14 18 24
14 18 24
14 18 25
14 18 25
14 18 24
13 18 24
14 18 25
14 18 24
14 18 24
14 18 25
14 18 24
14 18 24
14 18 24
14 18 24
14 18 24
14 18 25
13 17 24
14 19 25
14 18 25
14 18 24
14 18 24
13 17 23
14 18 24
14 18 25
14 18 24
14 18 24
14 18 24
13 17 23
13 17 23
14 18 24
14 18 24
14 18 24
13 17 23
14 18 24
14 18 25
14 18 24
14 18 24
14 19 25
14 18 24
14 18 24
14 18 24
14 18 25
13 17 23
13 17 23
14 17 23
13 17 24
14 18 24
14 18 24
14 18 24
14 18 24
13 17 24
13 17 23
13 17 22
13 17 23
13 17 23
13 17 23
13 17 23
14 18 24
12 16 22
14 18 24
13 17 22
13 17 23
13 17 22
13 17 24
12 16 22
13 17 23
14 18 24
13 17 22
14 18 24
13 16 22
13 17 23
12 16 21
14 18 24
13 17 23
13 17 22
14 18 24
12 16 22
13 17 23
12 15 21
13 17 22
13 17 23
12 15 21
13 16 22
13 17 23
13 17 22
13 16 22
13 17 22
13 17 23
12 16 22
13 16 22
13 16 22
12 16 21
12 15 21
12 15 21
13 17 22
11 15 20
11 15 20
12 16 21
12 15 20
12 16 21
11 15 20
12 16 21
11 14 19
12 15 21
12 16 21
11 15 20
12 15 20
10 13 18
11 15 20
11 14 19
12 15 21
12 15 20
11 14 19
10 13 17
11 14 20
10 12 17
10 13 17
10 13 17
9 12 16
10 12 17
11 14 19
11 14 18
10 13 17
9 12 16
9 12 16
10 13 17
9 11 15
10 13 18
8 11 15
7 10 13
9 11 15
7 10 13
7 9 12
9 12 15
7 9 12
7 10 13
8 11 14
7 9 12
7 9 12
6 8 10
7 9 11
8 10 13
7 9 11
5 6 8
6 8 10
7 8 11
6 8 11
7 8 11
6 8 10
5 6 8
4 4 6
5 6 8
5 6 7
4 6 7
3 4 6
4 5 7
3 4 5
4 4 6
3 4 5
4 5 6
3 4 5
4 5 6
4 4 5
4 5 6
4 5 7
4 5 6
4 4 6
4 5 6
3 4 5
3 4 5
5 6 8
4 5 6
4 5 6
4 5 7
3 4 4
4 5 6
3 4 5
3 4 5
3 4 5
4 5 6
3 4 5
4 4 6
3 4 5
4 5 6
4 4 5
5 6 8
5 6 7
4 4 6
4 5 6
4 5 6
5 6 7
4 5 6
5 7 8
4 5 7
5 6 7
5 6 8
4 5 6
3 4 5
3 4 5
5 5 7
4 5 7
4 5 6
3 3 4
5 6 7
3 4 5
5 6 8
4 5 6
4 5 7
3 4 5
3 4 5
4 4 6
3 4 5
5 6 7
4 5 7
4 5 6
4 5 7
6 8 10
5 7 9
5 6 8
5 7 9
7 9 12
7 8 11
5 7 9
8 10 13
8 10 13
6 8 11
5 7 9
6 8 11
8 11 14
6 8 11
8 10 14
8 10 13
8 11 14
8 10 13
8 11 14
8 11 14
8 10 13
9 12 15
9 12 16
10 13 17
10 14 18
9 12 16
10 13 17
9 12 16
10 14 19
10 12 17
11 14 19
9 12 17
10 13 18
11 14 19
12 15 20
11 14 19
11 14 19
11 14 18
10 13 18
11 15 20
11 14 19
12 15 20
11 14 19
11 14 19
10 13 18
11 15 20
11 14 19
12 15 20
12 16 21
12 16 21
11 14 19
12 15 20
11 15 19
11 15 20
13 16 22
12 16 22
12 16 21
12 16 21
12 16 22
12 16 22
11 15 19
13 17 23
12 16 22
13 16 22
11 15 20
13 18 24
12 15 21
13 16 22
13 17 23
13 17 23
13 17 23
12 16 22
12 16 21
13 17 23
12 16 22
13 16 22
13 16 22
13 16 22
12 16 21
13 17 23
13 17 23
13 17 23
13 17 22
13 18 24
13 17 23
13 17 23
12 16 22
14 18 24
14 18 24
13 17 23
13 17 23
13 17 24
13 17 24
13 16 22
13 17 22
13 17 23
13 17 23
13 17 24
13 17 22
14 18 24
13 17 23
13 17 24
13 17 23
14 18 24
13 17 23
14 18 24
14 18 24
14 17 23
14 18 25
14 18 24
13 17 23
14 18 24
13 17 23
14 18 24
13 17 23
14 18 25
14 18 24
14 18 24
14 18 24
13 17 23
14 18 25
14 18 24
14 18 24
14 18 25
14 18 24
14 18 24
14 18 24
14 18 25
14 18 25
14 18 25
13 17 23
14 18 24
14 18 24
13 17 23
14 18 24
14 18 24
14 18 25
14 18 25
14 18 24
14 18 24
14 18 24
14 18 24
14 18 25
13 18 24
14 18 24
14 18 24
14 18 24
14 18 25
14 18 24
14 18 24
14 18 24
14 18 25
14 18 25
14 18 24
14 18 25
13 17 23
14 18 25
14 18 24
13 18 24
14 18 24
14 18 24
14 18 24
14 18 25
14 18 25
14 19 25
14 19 25
14 18 24
14 18 25
14 18 25
14 18 24
14 18 25
14 18 24
14 18 25
14 18 25
14 18 25
14 18 25
14 19 25
14 18 25
14 18 25
14 18 24
14 18 25
14 18 24
14 18 25
14 18 25
14 18 24
14 18 24
14 18 24
14 18 24
14 18 25
14 18 25
14 19 25
14 18 24
14 18 24
14 18 24
14 18 25
14 18 24
14 18 25
13 17 23
13 17 24
14 18 24
14 18 24
14 18 25
14 18 24
14 18 25
14 17 23
14 18 24
14 18 24
14 18 24
14 18 24
14 18 24
14 18 24
13 17 24
14 18 25
14 18 24
14 18 24
14 18 24
13 17 23
14 18 24
14 18 24
13 17 24
14 18 24
13 17 23
13 17 23
14 18 24
14 18 24
14 18 24
14 18 24
13 17 23
13 17 23
13 18 24
13 17 23
13 17 23
14 18 24
13 16 22
13 17 23
13 17 23
14 18 24
14 17 23
14 18 24
13 17 23
13 17 24
13 17 23
13 17 24
13 17 23
13 17 23
13 16 22
13 17 23
12 16 22
13 17 23
13 17 24
14 18 25
12 16 21
13 17 23
13 17 23
12 16 22
12 16 22
13 17 23
13 17 22
13 17 24
13 17 23
13 17 23
13 17 22
13 17 22
13 17 23
13 16 22
13 16 22
13 17 22
12 16 21
12 16 21
12 16 22
13 17 23
13 17 23
12 16 21
12 16 21
12 15 21
12 16 22
13 17 23
12 15 21
12 16 21
13 17 23
11 14 19
12 15 21
13 16 22
11 14 19
12 15 21
13 16 22
12 15 20
11 15 20
11 15 20
12 15 21
11 15 20
11 15 20
11 14 19
11 14 19
11 14 19
10 14 18
11 14 19
11 14 18
11 14 19
11 14 19
10 13 18
8 11 15
10 13 18
10 13 17
10 13 17
10 13 18
9 12 16
9 12 16
11 14 18
10 12 17
9 12 17
9 11 15
9 11 15
9 12 16
9 11 15
8 11 15
7 10 13
10 12 17
9 11 15
7 9 12
8 10 14
8 11 14
7 8 11
9 11 15
7 9 11
8 10 13
5 6 9
6 8 10
6 8 10
5 7 9
5 6 8
6 8 10
5 6 8
6 7 9
4 6 8
5 6 8
5 6 8
4 5 7
5 6 8
4 4 6
5 6 7
4 4 6
3 3 4
3 3 4
3 4 5
3 4 5
4 4 6
3 4 5
5 6 7
3 4 5
5 6 7
4 5 6
4 5 6
4 4 6
3 4 5
4 5 6
4 5 6
5 6 8
5 7 8
4 5 6
4 5 6
4 4 6
4 4 6
5 6 7
3 4 5
4 5 6
3 4 5
4 4 6
3 4 5
6 7 9
5 6 7
5 6 7
5 6 8
4 5 7
5 6 7
5 6 7
4 5 6
4 5 6
4 5 7
4 5 6
4 5 7
3 4 5
5 6 7
4 5 6
5 6 8
4 4 6
3 4 5
4 5 6
4 5 6
2 3 4
3 4 5
4 5 6
3 4 5
4 4 6
3 4 5
5 6 8
5 6 8
5 6 7
5 6 7
7 8 11
6 8 10
6 7 9
5 7 8
6 7 9
7 9 12
7 8 11
5 7 9
7 9 11
7 8 11
6 8 11
7 9 11
8 10 13
8 10 13
8 10 13
7 9 12
7 9 13
8 11 14
8 10 13
8 10 13
9 11 15
9 11 15
9 12 16
9 12 16
10 13 17
9 12 16
10 13 17
10 13 18
10 13 18
11 14 19
9 11 15
10 13 17
9 12 16
10 13 18
11 14 19
11 14 18
10 13 17
10 13 17
11 14 19
11 14 19
12 15 20
11 14 19
12 15 21
11 14 18
12 16 21
11 15 20
12 15 21
12 15 20
11 14 20
12 15 20
11 14 19
11 15 20
11 15 20
12 16 22
12 15 20
12 15 21
13 16 22
12 15 21
11 15 20
12 15 20
12 15 21
12 16 22
11 15 20
12 16 22
11 15 20
13 16 22
12 16 22
12 16 22
13 17 23
13 17 23
13 17 23
12 16 22
13 17 23
12 16 22
13 17 23
13 17 23
13 17 23
12 16 21
13 17 22
13 17 23
13 17 23
13 17 23
13 17 22
12 16 22
13 18 24
13 17 23
14 18 24
13 17 23
13 17 23
14 18 24
13 17 23
13 17 23
14 18 24
14 18 24
14 18 24
14 18 24
13 17 23
14 18 24
13 17 23
13 17 23
13 17 22
13 17 23
13 17 23
14 18 24
13 17 23
14 18 24
13 17 23
13 17 23
13 17 23
13 17 24
13 17 23
13 17 23
13 18 24
14 18 24
14 18 24
13 17 23
14 18 24
13 18 24
14 18 24
14 19 25
14 18 24
14 18 24
14 18 24
14 18 24
13 18 24
14 18 24
13 18 24
14 18 25
14 18 24
14 18 25
14 19 25
14 18 25
13 17 23
14 18 24
14 18 24
14 18 24
14 18 24
14 18 24
14 18 24
14 18 24
14 18 24
14 18 24
14 18 25
14 18 24
14 18 25
14 18 24
14 18 24
14 18 24
13 17 24
14 18 24
14 18 25
14 18 24
14 18 24
14 19 25
14 18 24
14 18 24
14 18 24
14 18 24
14 18 25
14 18 25
14 18 24
14 18 25
14 18 24
14 18 25
13 17 23
14 18 25
14 18 24
14 19 25
14 19 25
14 18 24
14 18 25
14 19 25
14 18 25
14 18 24
14 18 24
14 18 25
14 18 24
14 19 25
14 18 25
14 18 24
13 18 24
14 18 24
14 18 25
14 18 24
14 18 25
14 18 25
13 18 24
14 18 25
14 18 24
14 18 24
13 17 23
13 17 23
14 18 24
14 18 24
14 19 25
14 18 24
14 18 24
14 18 24
13 17 23
13 18 24
14 19 25
13 17 23
14 19 25
14 18 24
14 18 24
14 18 25
13 18 24
14 18 25
13 17 24
14 18 25
13 18 24
14 18 24
14 18 24
14 19 25
14 18 24
14 18 25
14 18 24
14 18 24
14 18 25
14 18 24
14 18 24
14 18 24
13 17 24
13 17 23
14 18 24
14 18 24
14 18 25
14 18 24
14 18 24
13 17 23
13 17 23
14 17 23
13 18 24
14 18 24
13 17 23
14 18 24
14 18 24
14 18 24
14 18 24
13 17 23
13 17 23
13 17 22
13 17 24
14 18 24
13 17 23
13 17 23
13 17 24
13 17 23
14 18 24
13 17 23
13 17 23
14 18 24
13 17 23
13 17 23
13 17 23
13 16 22
12 16 21
13 16 22
13 16 22
13 17 22
13 17 23
13 16 22
12 16 22
12 16 22
14 18 24
12 16 21
12 16 22
12 15 20
13 16 22
13 17 22
11 15 20
12 16 22
13 16 22
12 16 22
12 16 21
12 16 22
12 15 20
12 15 21
12 15 21
12 16 21
11 15 20
12 15 21
12 15 20
11 15 20
11 15 20
11 15 20
10 13 18
11 14 19
12 15 20
12 16 21
11 14 19
11 14 19
12 16 21
12 15 20
11 14 19
11 14 19
11 14 19
11 14 19
12 15 21
9 12 16
11 14 20
11 14 19
10 13 18
10 13 18
9 12 16
10 13 17
9 12 16
9 12 16
9 11 15
10 13 17
9 11 15
8 11 14
8 11 15
8 10 13
10 13 17
9 12 16
8 10 14
8 10 13
7 10 13
8 10 14
8 10 13
6 8 11
7 9 12
9 12 15
6 7 10
8 10 13
6 8 11
7 9 11
7 8 11
6 8 10
6 8 10
6 7 10
5 7 9
6 8 10
7 8 11
6 8 10
5 6 7
3 4 5
4 5 6
4 5 7
5 6 8
3 4 5
5 7 9
4 5 6
3 3 4
3 3 4
3 4 5
4 4 6
2 3 4
3 3 4
4 4 5
4 5 6
3 4 5
4 4 6
4 5 6
4 4 5
4 5 6
3 4 5
4 5 6
4 5 6
4 5 6
3 4 5
4 5 6
3 4 5
3 4 5
4 4 6
3 4 5
3 4 5
5 6 7
4 5 6
3 4 5
3 4 5
4 5 6
4 5 7
3 4 5
3 4 5
5 5 7
3 4 5
3 3 4
3 4 5
4 5 6
2 3 4
3 4 5
3 3 4
3 4 5
4 5 6
4 5 6
4 5 6
4 4 6
3 4 5
3 4 5
3 3 4
3 4 5
3 4 5
4 4 6
3 4 5
4 6 7
5 6 7
4 5 7
5 7 9
6 7 9
4 5 7
5 7 9
5 6 8
5 6 8
7 9 12
6 8 10
8 10 12
6 8 10
7 9 11
7 8 11
6 8 11
8 10 13
7 9 11
8 10 13
8 10 13
7 10 13
8 10 13
8 11 14
8 10 14
9 11 15
8 11 14
8 11 14
9 12 16
9 11 15
8 11 14
9 12 16
10 13 18
8 11 14
11 14 19
11 13 18
9 12 16
10 13 18
10 13 18
11 14 19
11 14 18
9 12 16
9 12 16
11 14 18
10 13 17
10 13 18
12 15 21
11 15 20
11 14 19
12 15 21
12 16 21
12 16 21
11 14 19
11 14 18
12 15 20
12 15 20
11 14 19
11 14 19
12 16 21
13 17 23
12 16 22
12 16 21
11 14 19
11 14 19
12 15 20
13 17 22
12 16 22
12 16 21
12 15 21
13 17 23
12 16 21
13 17 23
12 15 21
12 16 22
14 18 24
11 15 21
12 16 22
13 16 22
14 18 24
12 16 22
12 16 22
12 16 21
13 17 23
13 17 23
13 17 23
13 17 23
13 17 22
13 17 23
13 17 23
13 17 23
12 16 22
13 17 22
13 17 23
13 17 24
14 18 24
13 17 23
13 17 23
13 17 23
14 18 24
13 17 23
13 17 23
13 18 24
14 18 24
13 17 23
14 18 24
13 17 24
13 17 23
13 17 23
14 18 24
13 17 23
13 17 23
13 18 24
14 18 24
14 18 25
13 17 23
14 18 24
14 18 25
13 17 24
14 18 24
13 17 24
14 18 24
14 18 25
14 18 25
14 18 24
14 18 24
13 18 24
13 18 24
14 18 24
14 18 24
14 18 25
13 17 24
14 18 25
14 18 24
14 18 24
14 18 24
14 18 24
14 18 25
13 17 23
13 17 23
14 18 24
14 18 24
13 17 23
14 18 24
14 18 24
13 18 24
14 18 24
14 18 25
14 18 24
14 18 24
14 18 24
14 18 25
14 18 24
14 18 25
14 18 24
14 18 25
14 18 24
14 18 24
14 18 24
14 18 24
14 18 24
14 18 25
14 18 25
14 18 24
14 18 24
14 18 24
14 18 25
14 18 25
14 18 25
14 18 25
14 18 25
14 18 24
13 18 24
14 18 25
14 18 25
14 18 25
14 18 25
14 18 25
14 18 24
15 19 25
14 18 25
14 18 24
13 18 24
13 17 24
14 18 24
14 18 24
14 18 24
14 18 25
14 18 25
14 18 24
14 18 24
14 18 25
14 18 25
14 18 23
14 18 24
14 18 25
14 18 24
14 18 25
14 18 24
14 18 24
14 18 25
14 18 24
14 18 24
14 18 24
13 17 23
14 18 24
14 18 24
13 17 23
14 18 24
14 18 24
14 18 25
14 18 24
14 18 24
14 18 24
14 18 24
14 18 24
14 18 24
14 18 24
14 18 24
14 18 24
14 18 24
14 18 24
14 18 24
14 18 24
14 18 24
14 18 24
13 17 23
14 18 24
13 17 23
14 18 24
14 18 24
14 18 24
13 17 23
14 18 24
13 17 23
13 17 24
13 17 23
13 16 22
13 17 23
14 18 24
14 18 24
13 17 23
13 17 23
13 17 24
14 18 24
13 17 23
13 17 23
13 17 24
13 17 23
13 17 23
13 17 23
13 17 23
13 17 23
13 17 23
13 16 22
13 17 23
13 17 22
13 17 23
13 16 22
13 17 22
13 17 23
13 17 23
13 17 23
13 16 22
12 16 22
14 18 24
12 16 21
12 16 22
12 16 22
12 16 22
13 17 23
12 16 21
13 17 23
12 16 21
13 17 23
12 16 22
13 16 22
12 16 22
12 16 21
13 17 22
12 16 21
13 17 23
12 15 20
12 15 21
12 15 21
13 17 23
12 16 22
12 16 21
11 15 20
12 16 21
12 15 21
12 16 22
12 15 21
11 15 20
11 15 20
11 14 20
11 14 19
11 15 20
11 15 20
11 14 19
11 14 18
11 14 19
10 13 17
10 13 18
10 13 18
11 14 19
11 14 18
9 11 15
10 13 17
9 12 16
10 13 17
9 12 16
10 13 17
9 11 15
9 11 15
10 12 17
8 11 15
10 13 17
9 12 16
8 11 14
8 10 14
8 11 14
8 10 13
10 12 16
9 11 15
8 10 13
7 9 12
7 9 11
6 8 11
7 8 11
7 9 12
8 10 13
7 9 11
7 8 11
6 7 10
7 8 11
7 8 11
5 6 8
7 9 11
5 6 8
4 6 7
5 7 9
5 6 8
4 5 7
5 6 8
3 4 6
5 6 8
3 4 6
5 7 9
5 6 8
4 5 7
5 6 8
3 3 4
4 5 7
4 5 6
3 3 4
3 3 4
3 4 5
3 4 5
3 4 5
3 3 4
4 5 6
3 4 5
3 4 5
4 5 6
3 4 5
4 5 6
3 4 5
3 4 5
2 3 4
5 6 7
3 4 5
4 4 6
3 3 4
5 6 7
4 5 6
4 4 6
4 5 7
2 3 4
3 4 5
4 5 6
3 4 5
4 4 6
4 5 6
3 4 5
3 4 5
3 3 4
4 4 6
4 5 6
2 3 4
3 4 5
3 4 5
3 4 4
3 3 4
4 4 6
4 5 6
3 4 5
3 4 5
4 5 6
4 5 6
4 5 6
3 4 5
4 5 6
4 5 7
4 5 7
4 5 7
3 4 5
4 5 7
6 7 10
6 8 10
6 8 10
6 7 9
5 7 9
5 7 9
5 7 9
7 9 11
7 8 11
8 10 13
8 10 14
7 9 12
9 11 14
7 9 12
7 9 13
8 10 13
8 11 14
7 9 12
7 10 13
8 10 13
9 12 16
8 10 13
9 12 16
8 11 15
10 13 17
9 11 15
9 12 15
9 12 15
10 12 16
10 13 18
10 13 17
10 13 17
10 13 18
10 13 18
11 14 18
11 14 18
11 14 18
11 14 18
12 15 21
10 13 17
11 14 19
10 13 17
12 16 21
10 13 17
12 16 21
11 14 19
12 16 21
12 15 20
10 13 17
11 14 19
11 15 20
11 15 20
11 15 20
12 16 21
12 16 21
13 17 23
12 16 22
11 14 20
12 15 20
12 16 21
12 16 21
12 15 20
11 15 20
13 17 22
13 17 23
12 16 22
13 17 23
13 17 23
12 16 21
12 15 20
13 17 22
14 18 24
13 16 22
13 16 22
12 16 21
12 16 21
13 17 22
14 18 24
12 16 21
13 17 23
13 17 23
12 16 21
13 17 23
14 17 23
12 16 21
12 16 22
13 17 23
13 17 23
13 17 23
13 17 23
14 18 24
13 17 23
13 17 23
13 17 23
13 17 23
13 17 23
13 17 23
13 17 24
13 17 23
14 18 24
14 18 25
14 18 24
13 18 24
13 17 23
14 18 24
13 17 23
14 18 25
14 18 24
14 18 24
13 17 23
14 18 24
12 16 22
14 18 24
14 18 24
14 18 24
13 17 24
13 17 24
14 18 23
14 18 24
13 17 23
14 18 24
13 18 24
14 18 25
14 18 24
13 17 23
14 18 25
14 18 24
14 18 24
14 18 24
14 18 24
14 18 24
13 17 23
13 17 23
14 18 24
14 18 24
14 18 25
14 18 24
14 18 24
14 18 25
14 18 25
13 17 24
14 18 24
14 18 24
14 18 24
14 18 24
14 18 24
14 18 24
14 18 25
14 18 24
14 18 24
14 18 25
14 19 25
14 18 25
14 18 25
14 18 25
14 18 25
14 18 24
14 19 25
14 18 24
14 18 25
14 18 24
14 19 25
14 18 24
14 18 25
14 18 25
14 18 25
14 18 24
15 19 25
14 18 24
14 19 25
14 18 25
14 18 24
14 18 25
14 18 24
14 18 24
14 18 25
14 18 24
14 19 25
14 18 24
14 18 24
14 18 24
14 18 25
14 18 24
13 17 24
14 18 24
14 18 24
14 18 24
14 18 24
14 18 25
14 18 24
14 18 24
14 18 24
14 18 24
14 18 24
14 18 25
14 18 25
14 18 24
14 18 24
13 18 24
14 18 24
13 18 24
14 18 24
13 17 23
14 18 24
14 18 24
14 18 25
14 18 23
14 18 25
14 18 24
14 18 25
13 18 24
13 17 23
13 17 23
14 18 24
13 17 23
13 17 24
14 18 24
14 18 25
14 18 24
13 17 23
13 17 23
13 18 24
13 17 23
14 17 23
14 18 24
13 17 24
13 17 24
13 17 23
13 17 23
13 17 23
13 17 23
13 17 23
13 17 23
13 17 23
14 18 24
14 18 24
13 17 23
13 17 23
14 18 24
13 17 23
14 18 24
14 18 24
13 17 22
13 16 22
14 18 23
12 16 22
13 17 23
12 16 22
13 17 22
13 17 23
13 17 23
13 16 22
13 17 23
12 16 22
13 16 22
14 18 24
13 17 22
12 16 22
13 17 23
12 16 22
12 16 21
13 17 23
13 17 22
12 16 21
13 16 22
12 16 22
13 16 22
12 16 21
13 16 22
12 16 21
13 17 22
12 16 21
12 15 20
13 17 23
13 17 23
12 16 22
11 15 20
12 16 21
12 15 20
12 16 21
11 15 20
12 15 21
12 15 20
11 15 20
12 15 21
12 16 21
12 15 21
11 14 19
12 15 21
12 15 20
12 16 21
12 15 20
10 13 18
10 14 18
11 15 20
11 14 19
11 14 19
11 14 19
10 13 17
10 13 17
10 12 17
10 13 17
9 11 16
10 13 18
10 12 16
9 12 16
8 11 15
8 11 14
9 12 16
9 12 16
8 11 14
8 10 13
9 11 15
9 11 15
9 11 15
10 12 16
9 12 15
7 10 13
7 10 13
7 9 12
8 10 13
8 10 13
8 10 13
7 9 12
6 8 10
6 8 10
7 9 11
6 8 10
6 8 11
6 8 10
6 8 10
7 8 11
6 7 9
6 7 10
5 6 8
5 6 8
4 5 6
4 5 6
5 6 8
4 5 7
2 2 3
4 5 7
4 5 7
4 4 6
4 5 6
2 3 4
2 3 3
2 2 3
2 3 4
2 2 3
2 3 4
3 3 4
4 4 6
3 4 5
3 4 5
4 4 5
3 3 4
2 3 4
4 5 6
3 4 5
3 3 4
3 4 5
3 4 4
4 4 6
4 5 6
4 4 5
3 3 4
2 3 4
4 4 6
4 4 6
4 5 6
4 4 6
4 4 6
3 4 5
4 4 5
4 4 6
3 4 5
4 5 6
3 3 4
2 3 4
2 3 4
1 2 2
3 4 5
3 3 4
2 3 3
2 3 4
3 4 5
3 4 5
2 3 4
3 4 5
3 4 5
4 5 7
4 5 6
4 5 7
3 4 6
4 5 6
5 6 8
3 4 6
5 6 8
4 6 8
5 6 8
7 8 11
5 7 9
7 8 11
5 6 8
6 8 10
6 7 10
7 9 11
8 10 13
8 10 13
8 9 12
7 8 11
8 10 13
7 9 12
7 9 11
7 9 12
7 9 12
10 12 16
9 12 16
6 8 11
10 12 17
8 10 14
9 11 15
10 12 17
7 9 13
8 10 13
9 12 16
10 13 17
9 12 16
11 14 19
10 13 17
10 13 17
9 12 16
10 13 18
10 13 17
10 13 18
10 14 18
11 14 18
11 14 19
12 15 21
11 14 19
10 12 17
11 15 20
11 14 18
11 14 19
10 14 18
11 14 19
12 16 21
12 15 20
11 15 20
12 15 21
12 15 20
11 15 20
12 15 21
11 15 20
12 15 20
12 16 21
12 16 22
12 15 20
12 15 20
11 14 19
12 15 20
12 16 21
13 17 22
12 16 22
12 16 21
12 16 21
12 16 21
12 16 21
13 17 22
12 16 22
13 16 22
13 17 23
13 17 22
13 17 23
12 16 21
11 15 20
13 17 23
13 17 23
12 16 21
11 15 20
12 16 22
13 17 23
13 17 22
13 17 22
13 17 23
13 17 23
13 17 23
13 17 22
13 17 23
13 17 23
13 17 23
14 18 24
13 17 23
13 17 24
13 17 24
14 18 24
13 17 23
13 17 24
14 18 24
14 18 24
14 18 25
13 17 24
13 17 23
14 18 24
14 18 24
13 17 23
13 17 23
13 17 23
14 17 23
13 17 24
13 17 23
14 18 25
13 18 24
14 18 24
14 19 25
14 18 25
14 18 25
13 17 23
13 17 23
13 17 23
13 17 23
14 18 24
13 17 24
14 18 24
14 18 24
14 18 25
14 18 24
14 18 24
14 18 24
13 17 23
14 18 24
14 18 24
14 18 24
14 18 25
13 18 24
14 18 24
14 18 24
14 18 24
14 18 24
13 17 23
14 18 24
13 17 24
14 18 25
14 18 25
14 18 24
14 18 24
14 18 24
14 18 24
14 18 24
14 18 24
14 18 24
14 18 25
14 18 25
14 18 25
14 18 24
14 18 25
14 18 25
14 18 24
14 18 25
14 18 25
14 18 24
14 19 25
14 18 24
14 18 24
14 18 24
14 18 24
14 18 24
14 18 25
14 18 24
14 18 25
14 18 25
14 18 24
14 18 24
14 18 25
14 18 24
14 18 25
14 18 24
14 18 24
14 18 24
14 18 24
14 18 25
14 18 24
14 18 24
14 18 25
14 18 25
14 18 24
14 18 24
13 17 23
14 18 25
14 18 25
14 19 25
14 18 24
14 18 24
14 18 24
13 18 24
14 18 25
14 18 24
14 18 24
14 18 25
14 18 25
14 18 25
14 18 24
13 17 24
14 18 24
14 18 24
14 18 25
14 18 24
14 18 25
14 18 24
14 18 24
14 18 24
13 17 24
14 18 24
14 18 24
14 18 24
13 18 24
14 18 24
13 18 24
14 18 24
13 18 24
13 17 23
14 18 24
14 18 24
14 17 23
13 17 23
14 18 24
13 17 22
13 17 23
13 18 24
13 16 22
13 17 23
14 18 23
13 17 23
13 17 23
13 17 23
13 17 23
13 17 23
12 16 22
12 16 22
13 16 22
13 17 23
13 17 23
13 17 23
13 16 22
13 17 22
13 17 22
13 17 23
13 17 23
13 17 22
13 17 23
13 16 22
13 17 22
13 17 23
13 17 23
12 16 22
12 16 22
13 17 23
13 17 22
13 17 23
12 16 22
13 17 23
11 15 20
13 16 22
12 16 21
12 16 21
13 17 23
13 17 22
12 16 22
12 15 20
12 16 22
12 15 20
10 13 18
12 16 21
12 16 21
12 15 20
11 14 19
12 15 20
11 15 20
12 16 21
11 14 18
12 15 20
10 13 17
11 14 19
12 15 21
11 15 20
11 15 20
11 14 19
12 15 21
12 15 21
11 15 20
12 15 20
11 14 18
10 13 18
11 14 19
11 14 19
9 12 16
10 13 18
11 14 19
10 13 18
10 13 17
10 13 17
11 14 18
10 13 18
10 13 17
9 11 15
10 12 16
9 12 15
9 12 16
10 13 17
8 10 13
10 13 17
8 11 14
8 11 15
8 11 14
9 11 15
8 10 13
9 12 16
7 9 12
9 11 14
7 10 13
6 7 10
7 9 12
7 9 12
6 8 10
6 7 10
6 8 10
7 9 13
5 7 9
6 8 10
6 7 9
6 7 9
4 6 7
5 7 9
6 8 10
4 5 7
4 5 6
4 5 6
5 6 8
4 5 6
4 5 6
4 5 7
3 4 5
3 4 6
3 4 6
4 5 7
3 3 4
5 6 7
3 4 5
4 4 6
3 3 4
2 2 3
1 2 2
2 2 3
2 2 3
3 4 5
2 3 3
2 3 4
3 4 5
2 3 4
3 4 5
3 4 5
3 4 5
2 3 4
3 4 5
3 4 5
3 3 4
2 3 3
4 4 5
2 2 3
3 4 5
4 4 5
3 4 5
3 3 4
3 3 4
2 3 4
3 4 5
2 3 3
3 4 5
2 3 4
2 3 4
2 3 4
2 2 3
1 2 2
3 4 6
1 2 2
3 4 5
2 3 3
3 3 4
4 5 6
4 5 7
3 3 5
4 5 6
5 6 8
4 4 6
6 7 10
4 5 6
4 6 7
5 6 7
4 6 7
5 6 8
6 8 11
5 6 8
6 7 10
6 7 10
7 8 11
6 7 10
6 8 10
8 10 13
8 10 14
6 8 11
8 10 13
7 9 12
7 9 12
6 8 11
9 12 15
9 11 15
9 11 15
8 10 14
8 10 13
9 12 15
9 11 15
10 13 17
9 11 15
8 10 13
9 12 15
9 11 15
9 12 15
7 9 13
9 11 15
9 12 17
10 13 17
10 13 18
11 14 19
10 13 18
10 12 17
10 14 18
10 13 18
11 14 19
11 15 20
10 13 18
11 14 19
11 15 20
11 14 19
11 14 18
10 13 18
12 15 21
12 15 20
11 15 20
11 15 20
12 15 20
12 16 21
12 15 21
12 15 20
11 15 20
12 16 21
10 14 18
12 15 21
11 15 20
12 15 21
13 16 22
12 16 22
13 17 23
12 16 22
12 16 22
13 17 23
12 15 21
13 17 23
13 17 23
13 17 22
12 16 21
14 18 24
13 16 22
13 16 22
11 14 19
13 16 22
13 17 23
13 17 23
12 15 21
12 16 22
14 18 24
13 17 23
13 17 23
13 16 22
13 17 23
13 17 23
14 18 24
14 17 23
13 17 23
13 17 22
13 17 24
13 17 23
12 16 22
13 17 23
12 16 22
13 17 22
13 17 23
13 17 23
13 16 22
13 18 24
13 17 23
13 17 23
13 17 23
13 18 24
13 17 23
12 16 22
14 18 24
14 18 24
13 17 23
14 18 24
13 17 23
13 17 23
14 18 24
14 18 24
13 17 23
14 18 24
14 18 24
14 18 24
13 18 24
14 19 25
14 18 24
14 18 24
14 18 25
14 19 25
14 18 24
14 18 24
14 18 24
14 18 24
13 17 24
14 18 24
14 18 24
13 17 23
14 18 24
14 18 25
14 18 25
14 18 24
13 17 23
14 18 24
14 18 25
13 17 23
14 18 25
14 18 24
13 17 24
13 18 24
14 18 25
14 18 24
14 18 24
14 18 24
14 18 24
14 18 25
14 18 24
15 19 25
14 18 25
14 18 24
14 18 25
14 18 25
14 18 25
14 18 24
14 18 25
14 18 24
14 18 25
14 18 24
14 18 25
14 18 24
14 18 25
14 18 24
14 18 25
14 18 24
14 18 24
14 18 25
14 18 24
14 18 24
14 18 24
14 19 25
13 18 24
14 18 24
14 18 25
14 18 24
14 18 24
14 18 24
14 18 24
13 17 23
14 18 24
14 19 25
14 18 24
14 18 24
14 18 24
14 18 24
14 18 25
14 18 25
14 18 24
14 18 25
14 19 25
14 18 24
14 18 24
14 18 24
14 18 24
14 18 25
14 19 25
14 18 24
14 18 25
14 18 25
14 18 24
14 18 24
14 18 24
14 18 24
14 18 24
14 18 25
14 18 24
14 18 25
13 17 24
13 17 22
13 17 23
13 17 23
14 18 24
14 18 24
14 18 24
13 17 24
14 18 24
14 18 24
14 18 24
13 18 24
13 17 24
13 17 23
13 17 23
14 18 24
13 17 22
14 18 24
13 17 23
13 17 24
13 17 22
13 17 23
13 17 23
13 17 22
13 17 23
14 17 23
13 17 23
13 17 23
12 16 22
13 17 23
13 17 23
14 18 24
13 17 23
13 17 22
13 17 22
13 17 23
13 17 23
13 17 22
13 17 23
13 16 22
13 17 23
13 17 23
12 16 22
13 17 22
13 17 22
13 17 23
12 16 22
12 16 21
12 16 22
13 17 23
13 16 22
12 16 22
12 16 21
12 16 22
12 15 21
13 16 22
12 15 21
12 15 20
13 17 23
13 17 23
11 15 20
12 16 22
12 15 20
12 16 22
11 14 19
12 15 21
12 16 21
11 14 20
11 14 19
12 16 21
12 15 20
11 15 19
11 14 19
9 12 16
12 16 21
10 13 18
12 15 21
11 14 19
11 14 18
11 14 19
11 14 18
11 14 19
10 13 17
11 15 20
10 13 18
10 13 18
11 14 18
9 11 15
11 14 19
10 13 17
12 15 20
9 12 16
10 13 18
9 12 16
10 13 18
9 12 16
7 10 13
9 11 15
9 12 15
9 12 15
8 10 14
9 11 15
8 11 14
8 11 15
8 11 14
7 9 13
8 10 14
8 11 14
5 7 9
8 11 14
7 9 12
8 10 13
7 9 12
7 9 12
8 10 13
7 9 12
8 10 13
7 8 11
7 9 12
6 8 10
5 7 9
7 8 11
5 6 8
5 7 9
6 7 9
5 6 8
3 4 5
4 4 6
4 5 7
4 5 6
4 5 6
5 6 7
4 5 6
4 4 6
3 4 5
3 4 6
5 6 7
4 5 6
3 4 5
3 4 5
2 3 3
2 2 3
2 2 3
2 3 4
2 3 4
2 3 3
2 3 3
2 3 3
1 2 2
2 2 3
2 3 4
2 3 4
2 3 4
2 2 3
2 3 4
2 2 3
2 2 3
2 3 4
2 2 3
2 2 3
2 3 3
2 3 4
2 3 4
3 3 4
2 3 3
3 4 5
2 3 4
1 2 2
2 2 3
2 2 3
2 2 3
2 2 3
3 4 5
2 2 3
2 3 4
2 2 3
3 4 5
1 1 1
2 3 4
2 2 3
3 4 5
3 4 5
4 5 6
5 6 8
3 4 5
4 5 7
3 4 6
5 6 8
5 6 8
4 6 7
5 7 9
5 6 8
6 7 10
4 6 8
6 8 10
7 9 12
7 8 11
6 8 11
6 7 9
7 9 11
7 9 12
6 7 10
8 10 13
8 10 13
8 10 14
8 11 14
8 10 13
9 12 15
8 10 14
9 12 16
7 10 13
9 11 15
9 12 16
9 12 16
10 13 17
9 12 16
7 10 13
9 12 16
10 13 17
9 11 15
10 12 16
10 13 18
10 13 17
10 13 18
10 13 17
12 15 20
11 15 20
10 13 17
11 14 19
11 14 19
11 14 19
11 14 19
10 13 17
10 14 18
12 15 20
11 14 19
11 15 20
11 15 20
13 17 22
12 15 20
11 14 19
11 14 19
11 14 19
11 15 20
12 16 21
10 13 18
12 16 21
12 16 21
12 16 22
12 15 20
11 14 19
12 16 22
11 14 19
12 16 21
13 16 22
13 17 23
12 16 21
12 16 21
12 16 22
12 15 20
12 15 21
13 17 23
12 16 22
13 16 22
12 16 22
12 16 21
13 17 23
12 16 21
12 15 21
12 16 21
12 16 22
13 17 22
13 17 23
13 17 23
13 16 22
13 16 22
14 18 24
13 17 22
13 17 23
13 17 23
13 17 23
13 17 23
13 17 23
13 16 22
13 18 24
13 17 23
14 18 24
13 17 22
13 17 24
13 17 23
12 16 22
13 16 22
13 17 23
14 18 24
13 17 24
12 16 22
14 18 24
13 17 23
13 17 23
14 18 24
14 18 24
13 18 24
14 18 24
13 17 23
14 18 24
14 18 24
13 17 24
14 18 24
13 17 24
13 17 23
13 17 23
13 17 22
13 17 23
14 18 24
14 18 24
14 18 24
14 18 24
14 18 24
14 18 24
14 18 25
14 18 25
14 18 25
13 17 23
13 18 24
14 18 24
14 18 24
14 18 25
14 18 24
14 18 24
14 18 24
13 17 23
14 18 24
14 18 25
14 18 25
14 18 24
14 18 25
13 17 23
14 18 24
15 19 25
14 18 24
14 18 24
14 18 25
14 18 25
14 18 24
14 18 25
14 18 24
13 18 24
14 18 25
14 18 25
14 18 24
14 18 25
14 18 24
13 18 24
14 18 24
14 18 24
14 18 24
14 18 25
14 18 24
14 18 24
14 18 25
14 18 24
14 18 24
14 18 24
14 18 24
14 18 24
14 18 24
14 18 24
14 18 24
14 18 25
14 18 24
14 18 24
14 18 25
14 19 25
14 18 24
13 17 23
13 17 24
14 18 25
14 19 25
14 18 25
14 18 25
14 18 24
14 18 25
14 18 24
14 18 24
14 18 24
14 18 24
14 18 24
14 18 25
14 18 24
14 18 24
14 18 24
13 18 24
14 18 24
14 19 25
14 18 24
13 17 23
14 18 25
13 17 23
13 17 23
13 17 24
14 18 24
14 18 24
13 18 24
13 17 23
14 18 24
13 17 23
13 17 23
13 17 23
14 18 24
13 17 23
13 17 23
14 18 24
13 17 23
13 17 23
14 18 24
14 18 24
14 18 24
14 18 24
13 17 23
14 18 24
14 18 24
13 17 23
13 17 23
12 16 22
13 17 23
14 18 24
14 18 25
13 17 23
13 17 22
13 17 23
13 18 24
13 16 22
14 18 24
13 17 23
13 17 23
13 17 23
12 16 21
13 16 22
13 16 22
13 17 23
13 17 23
13 17 22
14 17 23
13 17 23
13 17 23
13 17 22
13 16 22
13 17 23
12 16 22
13 17 22
12 16 21
12 16 21
12 16 22
13 16 22
12 15 20
11 15 20
12 16 21
12 16 21
12 16 21
12 16 22
12 15 20
12 16 21
13 17 22
12 15 21
12 15 21
11 15 20
12 16 21
11 15 20
12 16 21
13 16 22
11 15 20
12 15 21
12 15 20
11 15 20
11 15 20
12 16 22
10 13 17
10 13 18
11 15 20
11 15 20
11 14 19
10 13 18
11 14 19
11 15 19
11 14 19
10 13 18
11 14 18
11 14 19
10 13 18
10 13 17
9 12 16
11 14 19
8 11 14
11 14 18
9 12 16
10 13 17
8 11 15
9 12 16
8 11 15
8 10 14
8 10 14
8 10 14
9 12 16
8 10 14
7 9 12
9 12 15
9 11 15
9 11 15
8 11 14
6 8 10
7 9 12
6 7 10
6 8 10
7 9 12
8 10 13
8 10 13
7 9 12
6 8 10
5 6 8
6 8 11
4 6 7
5 7 9
6 8 10
6 7 9
6 8 10
5 6 8
5 6 8
5 6 8
4 5 7
5 6 7
4 5 6
4 5 7
6 7 9
4 5 7
4 4 6
3 4 5
2 3 4
4 5 6
3 3 5
2 3 4
3 3 4
2 2 3
1 2 2
1 2 2
2 2 3
2 2 3
2 3 3
2 3 4
1 1 2
2 3 3
1 2 2
2 3 4
2 2 2
1 1 2
2 2 3
3 3 4
2 3 4
2 2 3
2 2 2
2 2 3
2 3 4
1 2 2
1 1 2
2 2 3
2 2 3
2 2 3
2 2 3
2 2 3
1 2 2
2 3 3
2 2 3
2 2 3
2 3 3
3 4 5
3 4 5
3 3 4
3 3 4
3 3 4
3 4 5
3 3 4
4 6 7
3 4 5
4 6 7
5 6 8
5 7 9
4 5 6
5 6 8
5 6 8
5 7 9
6 7 10
5 6 7
6 7 9
6 8 10
6 7 9
6 8 10
7 8 11
6 7 10
7 9 12
7 8 11
7 9 12
7 9 12
7 9 12
8 10 13
7 9 12
8 10 13
8 10 14
7 9 13
8 10 14
8 11 14
9 12 16
7 9 12
8 10 13
8 10 13
9 11 15
10 13 17
8 11 15
9 11 15
9 12 16
9 12 16
9 11 15
9 12 16
10 13 17
9 12 16
11 14 18
9 12 16
11 14 19
10 13 17
11 14 18
10 13 18
9 12 16
11 14 18
11 14 18
11 14 19
11 14 18
11 15 20
10 14 18
11 14 19
11 14 19
11 14 18
11 15 20
11 14 19
13 16 22
12 15 20
12 16 21
11 15 20
12 15 21
11 14 19
12 16 21
11 15 20
13 16 22
12 15 21
13 17 22
13 16 22
12 16 21
11 15 20
12 15 21
13 16 22
12 16 22
12 15 20
13 16 22
12 16 21
13 16 22
12 16 22
13 17 23
12 16 22
13 17 23
12 16 22
12 15 21
13 16 22
12 16 22
12 16 22
13 17 23
13 17 23
13 17 23
13 17 23
13 17 23
13 17 23
13 17 22
13 17 22
13 17 23
13 17 23
13 17 23
13 17 23
13 17 22
13 17 24
13 17 24
13 17 23
13 17 23
13 17 23
13 17 23
13 16 22
13 16 22
13 17 23
13 17 23
13 17 23
14 18 24
14 18 24
13 17 23
13 17 22
14 18 24
13 18 24
13 17 24
13 17 23
13 17 24
13 17 23
13 17 23
14 18 24
13 18 24
13 17 24
13 17 23
13 17 23
13 17 23
13 17 23
14 18 24
13 17 24
14 18 24
14 18 24
13 17 23
14 18 24
14 18 24
13 17 23
14 18 24
14 18 24
13 17 23
14 18 24
14 18 24
14 18 24
14 18 24
13 18 24
14 18 24
14 18 25
13 18 24
13 18 24
14 18 25
14 18 24
14 18 24
14 18 24
14 18 24
14 18 24
14 18 24
14 18 25
14 18 25
14 18 25
14 19 25
14 18 25
14 18 24
14 18 24
13 17 24
14 18 25
13 17 23
14 18 24
14 18 25
14 18 25
14 18 24
14 18 25
14 18 25
14 18 24
13 17 23
14 18 25
14 18 25
14 18 24
14 18 24
14 18 24
14 18 24
14 18 24
14 18 24
13 17 23
14 18 25
14 18 25
13 17 23
14 18 24
14 18 25
14 18 25
14 18 24
14 18 24
14 18 24
14 18 24
14 18 24
14 18 24
14 18 24
13 17 24
13 17 23
14 18 24
14 18 24
14 18 24
14 18 24
14 18 24
14 18 25
14 18 24
14 18 24
14 18 25
14 18 25
14 18 25
14 18 24
14 18 24
14 18 24
13 17 23
13 17 23
14 18 24
14 18 24
14 18 24
13 18 24
13 18 24
13 17 22
14 18 24
14 18 24
14 18 24
13 17 23
13 17 23
13 17 24
14 18 24
14 18 24
14 18 24
14 18 24
14 18 24
13 17 22
13 17 23
13 18 24
13 17 23
14 18 24
13 17 23
13 17 23
13 17 23
13 16 22
13 17 23
13 17 23
12 16 22
14 18 24
13 17 24
12 16 22
13 17 23
14 18 24
12 16 21
13 17 23
13 16 22
13 17 24
13 17 22
13 16 22
12 16 21
12 16 22
13 17 23
13 17 23
13 16 22
13 17 23
13 17 23
13 16 22
12 16 21
13 17 22
13 17 22
12 16 22
13 17 23
12 15 21
12 16 22
12 16 21
12 15 21
12 15 21
12 16 21
12 15 21
12 16 22
12 16 21
12 16 21
12 15 20
13 16 22
12 15 21
12 15 20
12 16 22
12 15 20
12 15 20
11 15 20
12 15 21
12 16 21
12 15 20
9 12 16
12 15 20
11 15 20
10 13 18
11 14 19
11 15 20
9 12 16
10 14 18
12 15 20
11 14 19
10 13 17
11 14 19
11 14 19
11 14 19
11 14 19
9 12 16
11 14 19
9 12 16
9 12 16
10 13 17
10 13 17
10 13 18
10 13 17
10 13 17
9 11 15
9 12 16
8 11 15
9 11 15
9 11 15
8 10 13
8 11 14
8 10 14
8 10 13
9 11 15
8 11 14
10 12 16
9 11 14
8 11 14
7 9 12
7 9 11
8 10 13
7 9 12
8 10 13
6 8 10
6 8 11
7 9 11
6 7 10
4 5 7
5 6 8
5 7 9
6 8 10
5 7 9
5 7 9
6 7 9
6 7 10
5 6 8
5 7 9
5 6 8
6 7 9
3 4 6
4 5 7
3 4 5
3 4 5
3 4 6
3 4 5
3 4 5
5 6 8
2 3 3
3 4 5
3 3 4
2 2 3
2 3 3
2 3 4
2 2 3
2 3 4
1 1 2
1 2 2
1 2 2
2 3 3
2 2 3
2 3 3
2 2 3
1 1 2
2 2 3
2 2 2
2 2 3
3 3 4
1 2 2
2 2 3
2 3 3
1 2 2
2 2 3
2 3 3
3 4 5
1 1 1
2 3 4
1 2 2
1 2 2
1 2 2
2 2 3
2 3 4
2 2 3
3 4 5
4 4 6
3 3 4
4 5 6
4 5 7
4 5 6
4 5 6
4 5 6
5 6 8
4 5 6
4 5 6
3 4 5
5 6 8
5 7 9
5 6 8
5 7 9
6 8 10
6 8 10
6 8 10
6 8 10
6 8 10
5 7 9
6 8 11
6 7 10
8 10 13
8 10 14
7 9 12
7 9 12
7 9 12
8 10 13
9 12 16
7 9 12
7 10 13
8 10 13
7 9 12
8 11 14
10 12 17
8 10 14
9 12 15
9 11 15
8 11 14
9 12 16
9 12 16
9 11 15
10 13 17
10 13 17
9 11 15
9 11 15
10 13 18
11 14 19
10 12 17
10 13 18
11 14 18
10 13 17
11 14 19
10 13 18
11 14 19
9 12 17
10 13 18
11 14 19
10 13 18
11 14 19
11 14 19
12 15 21
11 14 19
12 15 20
10 13 17
11 15 20
12 15 20
11 15 20
11 15 20
12 16 21
11 15 20
11 14 19
13 17 22
12 16 21
12 15 21
12 16 21
12 15 21
12 15 20
11 15 20
13 16 22
12 16 22
12 16 21
12 15 20
13 17 22
12 16 21
12 16 22
13 17 23
12 16 21
12 15 20
13 17 23
12 16 22
12 15 21
13 17 23
13 17 23
12 16 22
12 16 22
13 17 22
13 17 23
14 18 24
13 17 23
13 16 22
13 17 23
13 16 22
13 17 23
13 17 22
13 17 23
13 17 23
14 18 24
13 17 23
13 17 23
13 17 23
13 16 22
13 17 23
13 17 23
13 16 22
13 17 23
14 18 24
13 17 23
13 17 23
13 17 22
13 16 22
14 18 23
13 17 23
13 17 23
13 17 23
13 17 23
13 17 23
14 18 24
13 17 23
13 17 23
14 18 24
13 17 23
14 18 24
14 18 24
13 17 23
14 18 24
14 18 24
14 18 24
14 18 24
13 17 23
14 18 24
13 17 23
13 17 23
14 18 24
13 17 23
14 18 24
14 18 24
14 18 24
14 18 25
14 18 24
14 18 24
14 18 24
14 17 23
14 18 24
14 18 25
14 18 25
14 18 24
14 18 24
14 18 24
14 18 24
14 18 24
14 18 25
14 18 24
14 18 24
14 18 25
14 18 25
14 18 25
14 18 24
14 18 24
14 18 24
14 18 24
14 18 24
14 18 25
14 18 24
14 18 24
14 18 25
14 18 24
14 18 25
14 18 24
14 18 24
14 18 25
14 18 25
14 18 24
14 18 25
13 17 23
14 18 25
14 18 24
13 17 23
14 18 25
14 19 25
14 18 25
14 18 24
14 18 24
14 18 24
14 18 24
14 18 24
13 17 24
14 18 24
14 18 24
13 17 23
14 18 24
13 17 24
13 18 24
14 18 25
14 18 24
13 17 23
13 17 24
14 18 24
14 18 24
14 18 24
13 17 23
14 18 24
14 18 24
13 17 23
14 18 24
13 17 24
13 17 23
13 17 24
14 18 25
14 18 24
14 18 24
14 18 24
14 18 24
13 17 23
13 17 23
14 18 24
13 17 23
14 18 24
13 17 23
13 17 24
13 17 23
13 17 24
14 18 24
13 17 23
13 17 24
14 18 24
13 17 23
14 18 24
13 17 24
13 17 23
13 17 23
13 17 23
13 17 23
13 17 23
13 17 23
13 18 24
13 17 23
13 17 23
13 17 23
13 17 23
13 16 22
13 16 22
13 17 22
14 18 24
12 16 21
14 17 23
13 17 24
13 17 23
12 16 22
13 16 22
14 18 24
13 17 23
13 17 22
13 17 24
12 16 22
12 16 21
13 16 22
12 15 21
13 17 23
13 16 22
12 16 22
12 15 21
13 17 23
12 16 21
12 15 21
13 17 23
12 16 21
12 16 22
12 16 22
14 18 24
12 16 22
12 16 21
11 14 20
12 15 20
13 17 23
11 14 19
12 15 20
11 14 19
12 15 20
12 15 21
11 15 20
10 14 18
11 14 19
12 15 20
12 16 21
11 15 20
12 15 21
11 15 20
11 14 19
12 15 20
11 15 20
10 13 18
11 14 19
10 13 18
12 15 20
11 14 19
11 14 19
11 14 19
11 14 19
10 13 18
11 14 18
11 14 19
10 13 18
10 13 17
9 12 16
9 12 16
9 11 15
10 13 17
9 11 15
9 12 15
10 12 17
9 12 16
8 11 14
8 11 15
9 12 16
8 11 15
10 12 17
7 9 12
9 11 15
7 9 12
9 11 15
7 9 13
6 8 11
9 11 15
7 9 11
7 9 11
5 7 9
6 8 11
6 8 11
6 8 11
6 7 10
6 8 11
6 8 11
6 7 9
7 9 12
8 10 13
6 8 10
5 7 9
6 7 9
5 6 8
5 7 9
5 6 8
4 5 7
5 6 8
6 7 9
4 5 7
3 4 5
4 5 6
4 5 7
4 4 6
4 5 7
4 4 6
2 3 4
4 4 6
3 4 5
3 4 5
3 4 5
4 5 6
3 4 5
4 4 6
3 3 4
3 4 5
2 2 3
2 3 3
3 3 5
2 2 3
3 3 4
2 3 4
2 2 3
3 3 4
3 3 4
2 3 4
2 2 3
1 2 2
2 3 4
1 1 2
2 3 4
3 4 5
2 3 4
2 2 3
3 4 5
3 3 4
2 3 4
3 4 5
3 3 5
3 4 5
3 4 5
3 4 6
2 3 4
3 4 5
4 4 6
3 4 6
4 5 7
5 6 8
4 5 6
4 5 7
5 6 8
4 6 8
5 6 8
5 6 7
5 6 8
6 8 10
5 6 8
4 6 7
5 6 8
5 6 9
6 8 10
4 5 7
5 7 9
7 8 11
6 7 10
6 8 11
7 9 12
7 8 11
6 8 11
7 9 12
7 9 11
7 9 13
7 9 12
8 11 14
9 12 16
8 11 15
9 11 14
9 12 16
9 11 15
8 10 14
9 12 15
10 13 17
8 10 13
9 11 15
10 12 16
9 12 16
9 12 16
10 13 17
10 13 17
8 11 14
10 13 17
10 12 17
9 12 15
10 13 18
10 13 17
10 13 17
11 14 19
11 14 19
10 13 17
11 14 19
9 11 15
11 14 18
11 14 18
11 14 19
11 14 18
10 14 18
11 15 20
12 15 21
11 15 20
11 14 19
12 16 21
12 16 22
11 15 20
12 15 20
11 14 18
11 15 21
12 16 21
11 15 20
12 16 22
12 16 21
12 16 21
12 16 22
12 15 20
12 15 21
11 14 19
13 16 22
12 16 22
12 16 22
12 16 21
12 16 22
12 16 21
13 17 22
13 17 22
11 15 20
13 17 22
12 16 21
13 17 22
12 15 21
12 16 22
13 17 23
12 16 22
12 16 22
12 16 22
13 17 23
13 16 22
13 16 22
13 17 23
13 17 24
13 17 23
13 17 23
13 17 22
13 17 22
13 17 23
13 17 23
12 16 22
13 17 23
13 17 22
13 17 22
13 17 23
13 17 23
12 16 21
13 17 23
13 17 23
13 17 23
13 17 23
14 17 23
13 17 24
13 17 23
14 18 24
14 18 24
13 17 24
13 17 24
14 18 24
13 17 24
13 18 24
13 17 23
14 18 24
14 18 24
13 17 24
14 18 24
13 17 23
13 17 23
14 18 24
14 18 24
14 18 24
13 18 24
13 17 23
14 18 24
13 18 24
14 18 24
13 17 23
14 18 24
14 18 24
14 18 24
14 18 24
14 18 24
13 17 23
13 17 23
14 18 24
14 18 24
14 18 24
13 18 24
13 17 23
13 17 24
14 18 24
13 17 24
13 17 23
14 18 24
14 18 24
14 18 24
13 18 24
14 18 24
14 18 25
14 18 24
14 18 25
14 18 24
14 18 25
14 19 25
14 18 24
14 19 25
14 18 25
14 18 25
13 17 23
14 18 24
14 18 24
14 18 24
14 18 25
14 18 24
14 18 25
14 18 24
13 18 24
14 18 24
14 18 25
14 18 24
14 17 23
14 18 24
14 18 24
14 18 25
14 18 24
14 18 24
14 18 25
14 18 25
14 18 24
14 18 24
14 18 23
14 18 24
14 18 24
14 18 24
14 18 25
13 17 24
14 18 25
13 17 23
13 17 24
13 17 23
13 17 24
13 17 24
14 18 24
14 18 24
13 17 23
14 18 24
14 18 24
13 17 23
14 18 24
14 18 24
13 17 23
13 17 23
13 17 24
14 18 24
14 18 24
13 17 23
13 17 23
13 17 24
14 18 24
13 17 23
13 17 23
14 18 24
14 18 24
14 18 24
13 17 23
13 17 23
14 18 24
14 18 24
14 18 24
13 17 23
13 17 23
13 16 22
14 18 24
13 17 23
14 18 24
13 17 22
13 17 23
14 18 24
14 18 25
13 17 22
14 18 24
13 17 23
13 17 22
13 17 23
13 17 23
12 16 22
12 16 21
13 17 23
13 17 23
13 17 23
13 17 23
12 16 22
13 17 23
12 16 22
13 17 23
13 16 22
13 16 22
12 16 21
13 17 22
12 16 22
13 16 22
11 14 19
13 16 22
13 17 23
13 17 22
12 15 21
12 16 21
12 16 21
13 16 22
12 16 21
13 17 23
12 16 22
12 16 21
12 16 21
12 16 21
11 14 19
12 15 21
11 15 20
12 15 21
12 16 22
11 14 19
11 14 19
12 16 21
12 16 22
11 15 20
12 15 20
10 13 17
11 15 20
12 15 20
11 14 19
11 14 18
11 14 19
11 15 20
11 14 18
11 14 19
11 14 19
10 13 17
11 14 19
9 12 17
10 13 18
11 15 19
11 14 18
10 13 18
10 13 17
11 14 19
10 12 17
10 13 18
9 12 15
9 12 16
8 10 14
10 12 16
10 13 16
8 10 14
8 11 15
10 12 16
8 11 14
8 10 13
8 10 14
8 10 13
8 10 14
8 11 15
9 11 15
8 10 13
8 10 14
7 9 12
8 11 14
7 9 12
8 10 13
6 7 10
6 8 11
6 7 10
7 9 11
7 9 12
5 6 8
6 8 10
4 6 7
5 6 9
6 8 10
6 7 9
6 8 10
4 6 7
5 6 8
5 6 8
5 6 8
6 7 9
4 5 7
3 4 5
4 4 6
6 7 9
4 5 7
4 5 6
3 4 5
4 5 7
3 4 5
2 3 4
3 4 5
3 4 6
3 4 5
2 3 3
2 3 4
3 4 5
4 4 6
3 3 4
2 2 3
2 2 3
2 3 3
2 3 4
3 4 5
2 2 3
2 3 3
2 2 3
2 2 3
2 2 3
2 2 3
2 3 4
2 2 3
3 4 5
3 4 5
2 3 3
3 3 4
2 3 4
2 3 4
3 4 5
3 3 4
3 4 5
2 3 3
4 5 7
3 4 5
3 4 6
4 5 6
3 4 6
3 3 5
4 6 7
4 5 7
5 6 8
4 4 6
5 7 9
4 5 7
4 5 7
4 5 7
6 7 10
5 6 8
5 6 9
7 9 11
6 7 10
6 7 9
8 10 12
7 8 11
6 8 10
8 10 13
6 7 10
7 8 11
8 11 14
8 10 13
6 8 11
8 10 13
7 9 12
8 10 13
8 10 14
8 10 13
8 10 14
8 10 13
9 12 16
8 10 13
7 9 12
9 11 15
9 11 15
9 12 16
9 12 16
9 12 16
9 11 14
11 14 18
10 13 17
10 13 18
9 12 16
10 13 17
10 13 17
9 11 15
9 12 16
10 13 17
11 14 19
9 12 17
11 14 18
10 13 17
10 13 17
11 15 20
11 13 18
10 14 18
10 13 18
10 13 18
11 14 19
12 16 21
11 14 19
11 14 19
13 17 22
11 14 19
11 14 19
11 15 20
10 13 18
11 14 19
11 15 20
13 16 22
11 15 20
12 16 22
13 16 22
11 14 19
11 14 19
12 16 21
12 15 21
12 16 21
11 15 20
13 16 22
11 14 19
11 15 20
12 16 21
11 15 20
13 16 22
13 17 23
12 15 21
13 17 23
13 17 23
13 17 22
13 17 23
12 16 21
12 16 21
13 16 22
12 16 21
12 15 21
13 17 22
13 16 22
12 16 22
13 16 22
13 17 22
12 16 22
13 17 22
12 16 22
13 16 22
13 17 23
13 17 23
13 17 23
13 17 22
12 16 22
12 16 22
13 17 23
13 17 23
13 17 23
13 17 22
13 17 23
13 16 22
13 16 22
12 16 22
13 17 22
13 17 23
13 17 23
13 17 23
13 17 23
12 16 22
14 18 24
13 18 24
14 18 24
14 19 25
13 17 24
13 17 23
14 18 24
13 17 22
13 18 24
14 18 24
14 18 24
14 18 24
14 18 24
13 17 23
13 17 23
14 18 25
14 18 25
13 17 23
14 18 24
14 18 24
14 18 24
13 17 23
14 18 24
14 18 24
13 17 23
14 18 24
14 18 24
13 17 23
14 18 25
14 18 24
14 18 25
13 17 24
13 17 24
14 19 25
14 18 24
14 18 24
14 18 24
14 18 24
13 17 23
14 18 25
14 18 25
15 19 25
14 18 24
14 18 24
14 18 24
14 18 25
14 18 24
14 18 25
14 18 24
14 18 24
14 18 24
14 18 24
14 18 24
13 18 24
14 19 25
14 18 24
14 18 25
13 18 24
14 18 24
14 18 24
14 18 24
14 18 24
14 18 25
14 18 24
14 18 24
14 18 25
14 18 24
13 18 24
14 18 24
14 18 24
14 18 24
14 18 24
14 18 24
14 18 25
14 18 24
14 18 24
13 17 24
14 18 24
14 18 24
14 18 24
14 18 24
14 18 24
14 18 24
14 18 24
13 17 24
14 18 24
13 17 23
13 17 23
14 18 24
14 18 24
13 17 23
14 18 24
13 17 23
13 17 23
13 17 23
14 18 25
14 18 24
13 18 24
13 17 23
13 17 24
14 18 24
13 17 24
13 17 23
13 17 23
13 17 23
14 18 24
14 18 24
13 17 24
13 17 23
13 17 23
14 18 24
13 17 23
13 17 23
13 16 22
13 17 23
13 17 23
13 17 23
13 18 24
13 17 23
13 17 23
13 17 22
13 17 22
13 17 23
13 17 23
13 16 22
13 17 23
13 17 23
13 17 22
13 16 22
12 16 21
13 17 23
13 17 23
13 17 23
13 16 22
13 17 22
12 16 22
13 17 22
12 15 21
12 16 21
13 17 23
12 16 21
12 15 21
13 16 22
13 17 23
12 16 22
13 16 22
11 15 21
11 15 20
12 15 21
12 15 21
12 15 21
13 17 23
12 15 20
12 16 21
13 16 22
12 16 21
12 15 20
11 14 19
12 16 21
11 14 19
11 14 19
11 14 19
12 15 20
12 15 21
12 16 21
11 14 19
11 14 19
12 15 20
12 15 21
11 14 18
11 14 19
12 15 21
12 15 20
11 14 18
11 14 19
10 13 18
9 12 16
10 13 17
10 13 17
11 14 19
11 14 19
11 14 19
10 14 18
10 13 18
10 13 17
9 12 16
9 12 16
9 12 16
9 11 15
9 12 16
8 11 14
9 12 16
10 14 18
10 13 17
9 11 15
10 12 17
9 11 15
9 12 16
9 12 16
10 12 16
9 11 15
8 10 14
8 11 14
8 11 15
9 11 15
8 10 13
8 10 13
7 9 12
8 10 13
8 10 14
6 8 10
5 6 9
7 9 12
7 9 11
6 7 9
4 5 7
7 8 11
6 7 9
7 8 11
7 8 11
6 7 9
6 8 10
5 6 8
5 6 8
6 8 10
4 5 7
4 4 6
4 5 6
4 5 7
5 6 8
3 4 6
4 5 7
4 6 7
3 4 5
3 4 5
6 7 9
4 5 7
4 5 6
3 3 4
4 5 7
3 4 5
3 4 5
3 4 5
3 3 4
4 5 7
2 3 3
4 5 6
2 3 4
3 3 4
2 2 3
3 4 5
2 3 4
3 3 4
3 3 4
3 3 4
2 3 3
3 3 4
2 3 4
3 4 5
3 3 4
2 3 3
2 2 3
2 3 4
2 3 4
3 3 5
4 5 7
5 6 8
3 4 5
3 4 5
4 5 6
4 5 6
3 4 5
3 4 5
3 4 5
4 5 6
4 5 6
4 4 6
3 4 6
6 8 10
3 4 6
4 5 7
4 5 7
5 7 9
4 6 7
6 7 9
5 7 9
4 5 7
5 7 9
5 7 9
5 6 8
5 7 9
6 8 11
7 8 11
7 8 11
7 9 12
7 9 12
7 9 12
8 10 12
7 9 12
7 10 13
8 10 13
7 9 12
7 9 13
7 9 12
8 10 14
8 10 14
8 10 13
7 9 12
9 11 15
7 10 13
8 11 14
8 10 13
9 12 16
9 11 15
9 12 16
9 12 16
10 12 16
8 11 14
9 12 16
9 12 16
9 12 16
9 12 16
9 12 16
10 13 17
10 13 18
11 14 19
11 14 19
11 15 20
11 14 19
10 12 17
10 13 18
10 13 18
9 12 16
11 15 20
10 12 17
11 15 20
11 14 19
10 13 17
11 14 19
12 16 21
11 14 19
11 14 19
11 15 20
11 15 20
12 15 21
11 15 20
13 16 21
13 16 22
11 15 20
13 17 23
11 14 19
12 16 21
12 16 21
11 15 20
12 15 21
12 15 20
13 17 23
12 15 21
12 16 22
12 16 21
13 17 22
12 16 22
12 16 22
11 15 20
12 16 21
13 16 22
13 16 22
12 16 22
12 16 22
13 17 22
13 16 22
13 17 23
12 16 22
13 17 23
14 18 24
13 17 23
13 16 22
13 16 21
13 17 22
13 17 23
13 17 23
13 17 23
13 17 23
13 17 22
13 17 23
13 17 22
13 17 22
13 17 23
12 16 22
13 16 22
13 17 23
13 17 23
13 17 23
13 17 22
12 16 22
14 18 24
14 19 25
12 16 22
14 18 24
14 18 24
13 17 23
13 16 22
13 17 23
14 18 24
13 17 23
13 17 23
14 18 24
13 17 23
14 18 24
13 17 23
14 18 24
13 17 24
14 18 24
13 17 23
14 17 23
13 17 23
14 18 24
14 18 24
14 18 24
14 18 24
13 17 24
13 17 23
14 18 24
13 17 24
14 18 24
13 17 23
13 18 24
14 18 24
14 18 24
14 18 24
14 18 24
14 18 24
14 18 24
14 18 24
14 18 25
14 18 24
14 18 24
14 18 24
13 18 24
14 18 24
14 18 25
14 18 25
14 18 24
14 18 24
14 18 24
14 18 24
14 18 24
14 18 24
13 17 24
13 17 23
14 18 25
14 18 24
14 18 24
13 17 24
14 18 24
14 18 25
14 18 24
14 18 25
13 17 23
13 17 23
14 18 24
14 18 24
14 18 24
14 18 24
14 18 23
14 18 24
14 18 24
14 18 25
14 18 25
13 17 23
14 18 24
14 18 24
14 18 25
14 18 24
14 18 24
13 17 24
14 18 24
14 18 24
14 18 25
13 17 23
14 18 24
14 18 24
13 17 23
14 18 25
14 18 24
13 17 23
14 18 24
13 17 23
14 18 24
13 17 23
13 17 24
14 18 24
14 18 24
14 18 24
13 17 23
14 18 24
13 17 23
13 18 24
12 16 22
14 18 24
13 17 24
13 17 24
13 18 24
13 17 23
14 18 24
13 18 24
14 18 24
13 17 23
14 18 24
13 17 24
14 18 24
13 17 22
14 18 24
13 17 23
14 18 24
13 17 23
13 17 23
13 17 24
14 18 24
13 17 22
13 17 23
13 16 22
13 16 22
13 17 23
12 16 22
13 16 22
13 17 23
13 17 23
13 17 23
12 16 21
14 18 24
13 16 22
13 17 23
12 15 21
12 16 22
12 16 21
12 16 21
12 15 21
13 17 23
12 15 21
12 16 21
12 15 21
13 17 22
12 15 20
13 17 22
13 17 22
12 15 21
12 15 20
12 15 21
13 16 22
12 16 21
12 16 21
13 17 23
12 16 21
12 16 22
13 16 22
11 15 20
12 16 21
12 15 20
11 15 20
11 14 20
12 15 20
11 14 20
11 14 19
11 15 20
10 14 18
12 15 21
10 14 18
11 14 19
10 14 19
10 13 17
11 15 20
12 16 21
12 15 20
12 15 20
10 14 18
11 14 19
9 11 15
11 14 19
10 14 18
10 12 17
9 12 16
10 13 17
11 14 18
11 14 19
10 13 18
8 11 15
10 12 17
9 12 16
9 12 16
9 12 16
10 12 17
9 12 16
9 11 15
10 12 17
9 12 16
9 11 16
9 12 16
8 10 14
7 9 12
8 10 13
8 10 13
8 10 14
8 10 14
9 11 15
7 9 12
8 11 14
7 10 13
7 9 12
8 10 14
6 8 11
7 9 12
7 9 12
6 8 10
5 7 9
6 8 10
8 10 12
6 7 10
6 7 9
6 7 10
6 8 10
5 7 9
6 7 9
5 6 8
5 6 7
4 5 7
5 6 8
4 6 7
4 5 7
5 7 9
4 5 7
4 5 7
4 5 6
4 5 6
2 3 4
3 4 6
3 4 5
4 4 6
4 5 6
3 3 4
3 4 6
3 4 5
4 5 7
4 5 7
4 5 6
3 4 5
3 4 5
3 4 5
3 4 6
3 4 5
3 4 5
2 2 3
3 3 4
2 3 3
2 3 4
2 3 4
2 3 3
3 4 5
3 4 5
3 4 5
3 4 5
3 4 6
3 4 5
3 3 5
3 4 5
3 3 4
3 4 5
5 6 8
3 4 5
4 5 7
4 5 6
5 6 8
5 6 7
5 6 7
4 5 6
5 6 8
4 5 7
5 6 8
5 7 9
4 6 8
4 5 6
5 6 8
5 6 8
5 7 9
7 8 11
5 6 8
7 8 11
6 8 10
5 7 9
6 8 10
6 8 11
7 9 11
6 8 10
7 8 11
6 7 9
7 8 11
7 8 11
7 9 12
7 9 12
7 9 12
6 8 11
7 9 11
7 9 12
7 9 12
9 11 15
8 10 14
7 9 12
7 10 13
8 10 13
8 10 14
9 11 15
9 12 16
9 12 16
10 13 17
8 10 14
10 12 17
9 11 15
11 14 18
10 13 17
10 13 18
9 11 15
10 13 17
11 14 19
11 14 19
9 12 16
11 14 19
11 14 19
11 14 19
11 15 20
10 13 17
11 14 18
11 15 20
10 13 18
11 14 19
11 14 18
11 14 19
11 14 19
10 13 18
12 15 21
11 14 19
11 15 20
11 15 20
12 15 20
12 15 20
12 16 21
11 14 18
11 14 19
12 15 20
11 15 20
12 15 20
13 17 22
11 14 19
12 15 20
12 16 22
12 15 21
12 16 22
10 14 18
12 15 20
12 15 20
11 15 20
12 15 21
12 16 21
13 17 22
12 15 21
13 16 22
12 16 21
13 16 22
12 16 22
13 16 22
12 15 20
13 17 23
12 16 22
12 16 21
13 17 23
13 17 23
13 16 22
13 16 22
13 16 22
13 16 22
13 17 22
13 17 23
14 18 24
13 17 23
13 17 23
13 17 24
13 17 23
13 17 23
13 17 23
13 18 24
13 17 23
13 17 23
14 18 24
13 17 24
12 16 22
14 18 24
13 17 23
13 17 23
13 17 23
13 18 24
14 18 24
13 17 23
13 17 23
13 17 23
13 17 23
14 18 24
14 18 24
14 18 24
14 18 24
14 18 24
13 17 23
13 17 23
14 18 24
14 18 24
14 18 24
13 17 23
14 18 24
13 18 24
14 18 24
14 18 24
14 18 24
13 17 24
14 18 25
13 17 23
13 17 23
14 18 24
14 18 24
14 18 24
14 18 24
13 17 23
14 18 25
14 18 24
14 18 24
14 18 24
14 18 24
14 18 24
14 18 24
14 18 24
14 18 24
14 18 24
14 18 24
13 18 24
14 18 24
14 18 24
14 18 24
14 18 24
14 18 24
14 18 24
14 18 25
14 18 24
14 18 24
14 18 25
13 17 24
14 18 24
14 18 24
14 18 25
14 18 24
14 18 24
14 18 24
14 18 24
14 18 24
14 18 24
14 18 24
14 18 25
14 18 25
14 18 24
14 18 25
14 18 24
14 18 24
14 18 24
14 18 24
14 18 24
14 18 24
13 17 23
14 18 24
13 17 23
14 18 24
14 18 24
14 18 25
13 17 23
14 18 24
14 18 24
13 17 23
14 18 24
13 18 24
13 17 23
14 18 24
13 17 24
14 18 24
14 18 24
13 18 24
14 18 24
14 18 24
13 17 23
14 18 24
14 18 24
14 18 24
14 19 25
13 17 23
13 17 24
14 18 24
14 18 24
14 18 24
13 18 24
13 17 23
13 17 23
14 18 24
13 17 23
12 16 21
13 17 23
13 17 23
14 18 24
14 18 24
13 17 23
13 17 23
13 17 24
13 17 24
12 16 22
13 17 23
13 17 22
13 16 22
12 16 22
13 17 23
13 17 23
14 17 23
13 16 22
13 17 23
12 16 21
14 17 23
13 17 23
13 16 22
12 16 22
12 16 22
12 16 22
12 16 22
13 17 23
13 17 23
13 16 22
12 16 22
13 17 23
13 16 22
12 16 21
12 16 21
12 16 21
12 16 22
12 16 22
12 15 20
13 17 23
12 15 21
12 15 21
12 16 21
12 15 21
12 16 21
12 16 22
11 15 20
12 15 20
12 15 20
12 15 20
11 14 19
11 14 18
11 14 19
11 15 20
10 13 18
11 14 19
11 15 20
11 15 20
11 14 19
11 15 20
11 15 20
12 15 20
11 14 19
12 15 20
11 14 19
10 13 18
11 15 20
11 14 20
10 13 18
11 14 19
11 14 19
10 13 18
10 13 17
9 12 16
10 14 18
11 14 18
11 14 19
10 13 18
10 13 17
10 13 18
9 12 16
9 12 15
9 12 17
9 12 16
9 12 16
10 13 17
10 13 17
9 11 15
9 12 16
8 11 15
8 11 14
8 11 14
9 12 16
9 11 15
9 12 17
8 10 14
8 11 14
8 11 14
9 11 15
8 10 13
8 10 13
7 9 12
7 9 12
8 10 13
8 10 14
6 8 10
6 8 11
7 9 12
6 8 10
7 9 12
7 8 11
6 8 10
6 7 9
5 7 9
6 7 10
5 7 9
6 8 10
5 6 8
5 6 8
6 8 10
5 7 9
4 5 7
4 5 7
5 6 8
5 6 8
5 6 8
3 4 5
4 5 7
3 4 5
3 4 6
4 5 6
4 5 7
4 4 6
4 4 6
2 3 4
4 5 6
4 5 7
4 4 6
3 4 5
2 3 4
5 6 7
2 3 4
3 4 5
3 4 5
3 3 4
3 4 5
4 5 6
3 4 5
4 5 6
2 3 4
3 4 5
1 2 3
3 4 5
3 4 5
4 4 6
4 5 6
3 4 5
4 5 6
4 5 7
3 4 5
4 6 7
4 6 7
2 3 4
5 6 8
4 5 6
5 6 8
4 6 7
5 7 9
3 4 5
5 6 8
5 6 8
5 6 8
5 6 8
5 6 8
4 6 7
5 7 9
6 8 10
5 6 7
5 6 8
8 10 13
7 8 11
7 8 11
6 8 10
7 8 11
6 7 9
6 8 10
7 9 12
7 8 11
8 10 13
8 10 14
7 9 12
7 9 12
7 9 12
8 10 14
7 9 12
8 11 14
9 11 15
8 10 14
9 12 16
9 11 15
8 11 14
9 11 15
9 12 16
9 11 15
9 12 16
9 11 15
8 11 15
9 11 15
10 13 17
8 10 14
8 11 14
10 13 18
10 12 16
10 13 17
10 13 17
10 13 17
10 13 17
9 12 17
10 12 16
11 14 18
11 14 18
11 14 18
10 12 17
11 15 20
11 14 19
10 14 18
12 16 22
10 13 17
10 13 18
10 13 18
11 15 20
11 14 19
11 14 19
12 15 21
11 14 19
13 16 22
11 14 19
12 15 21
12 16 21
12 15 20
11 14 20
12 15 21
12 16 22
12 16 21
11 15 20
12 16 21
12 16 21
12 15 20
12 16 21
11 15 20
11 15 20
12 15 21
13 16 22
11 15 20
11 15 20
13 16 22
13 16 22
13 17 23
13 17 23
12 16 22
13 17 23
13 16 22
12 15 21
13 16 22
12 16 22
12 15 21
13 17 23
12 15 21
13 17 23
13 16 22
12 16 22
13 17 23
13 17 23
13 17 23
13 17 24
13 17 23
11 15 20
13 17 23
13 16 22
13 17 23
14 18 24
13 17 23
12 15 20
13 17 23
13 17 22
13 17 23
13 17 23
13 17 23
13 18 24
13 17 23
13 17 23
13 17 23
14 18 24
14 18 24
13 17 23
13 17 23
13 17 23
14 17 23
13 17 23
14 18 24
13 17 23
13 17 23
13 17 23
13 17 23
14 18 24
13 18 24
13 17 23
14 18 24
13 17 23
13 17 23
13 17 24
13 17 24
14 18 24
14 18 24
13 17 23
14 18 24
13 17 23
14 18 24
13 18 24
14 18 24
14 18 24
14 18 24
14 18 25
14 18 24
14 18 24
14 18 24
14 18 24
14 18 24
14 18 25
14 18 25
14 18 24
13 18 24
14 18 25
14 18 24
14 18 24
13 18 24
14 18 24
14 18 25
14 18 24
14 18 24
14 18 24
14 18 25
14 18 24
14 18 24
14 18 24
14 18 24
13 17 24
14 18 25
13 17 23
14 18 25
13 17 24
14 18 24
14 18 25
14 18 24
13 18 24
14 18 25
14 18 24
14 18 24
14 18 24
14 18 24
14 18 25
14 18 25
14 18 25
14 18 24
14 18 24
14 18 24
13 17 24
13 17 24
13 17 24
14 19 25
14 18 25
13 17 23
14 18 25
14 18 24
13 17 23
13 18 24
13 16 22
14 18 24
13 17 23
13 18 24
13 17 23
14 18 24
13 17 23
14 18 24
13 17 23
14 18 24
14 18 24
13 17 23
13 17 23
13 17 23
14 18 24
13 17 23
14 18 24
13 17 23
13 17 23
13 18 24
13 17 23
13 17 22
13 17 23
13 17 23
13 17 23
13 17 24
13 17 23
13 17 24
13 18 24
13 17 23
13 17 23
13 17 24
13 17 24
13 16 22
13 17 23
13 16 22
13 17 23
13 16 22
13 17 22
13 17 22
13 17 23
13 17 23
13 17 23
14 18 24
13 17 23
13 17 23
13 17 23
13 17 22
13 17 22
12 15 21
12 16 21
13 17 22
13 17 23
13 16 22
12 16 22
12 16 22
12 16 21
11 15 20
12 16 21
12 16 22
13 17 23
12 15 21
11 15 20
12 16 22
11 14 19
12 16 21
13 17 22
12 16 21
11 14 19
12 16 21
11 15 20
11 14 19
11 15 20
12 15 20
12 15 21
11 15 20
12 16 22
12 15 20
11 14 19
11 14 19
11 14 19
11 14 19
11 14 19
12 15 21
12 16 21
12 15 20
11 15 20
11 14 19
11 14 19
11 14 19
10 13 18
11 14 19
11 15 20
11 14 18
10 13 17
10 13 18
11 14 19
10 13 17
11 14 18
10 13 17
10 13 18
9 11 15
9 12 16
9 11 15
10 13 18
11 14 19
9 12 16
9 11 15
7 10 13
9 11 15
10 13 17
9 11 15
9 12 15
8 10 14
9 11 15
10 12 16
8 11 14
8 11 14
8 11 14
7 9 12
8 11 14
8 11 14
7 9 12
7 9 13
8 10 14
7 9 12
7 9 12
7 9 12
5 7 9
7 8 11
7 8 11
6 8 10
7 8 11
5 7 9
6 7 10
8 10 13
6 7 10
7 9 12
5 7 9
7 9 12
5 7 9
6 8 10
5 7 9
5 6 8
6 7 9
5 6 8
5 6 9
4 5 6
6 7 9
5 6 8
5 6 8
4 5 7
5 6 8
4 5 6
4 5 6
4 5 7
4 5 7
4 5 6
3 3 5
5 6 8
4 4 6
3 4 5
3 3 4
3 4 5
3 4 5
4 5 7
4 5 6
4 5 6
3 4 5
3 4 5
3 4 5
3 4 5
4 5 6
4 5 6
4 5 6
4 5 6
4 5 6
3 4 6
4 4 6
3 4 5
3 4 5
4 5 6
5 6 8
4 6 7
4 5 6
4 5 7
5 6 8
4 5 7
4 5 6
5 6 8
5 6 8
6 7 9
5 6 8
4 5 7
6 7 9
5 7 9
6 7 9
7 9 11
6 7 9
5 6 8
6 8 11
6 8 10
6 7 9
6 7 10
7 9 12
6 8 10
7 8 11
6 8 10
7 8 11
6 8 10
6 8 11
6 8 11
8 10 13
5 6 8
7 9 11
7 9 12
7 9 12
9 11 14
8 10 13
8 11 14
9 12 16
7 10 13
8 10 13
8 10 13
9 11 15
9 11 14
9 11 15
10 13 17
8 10 13
9 12 16
9 12 16
9 12 16
9 11 15
10 12 16
10 13 17
8 11 15
10 13 17
10 13 18
11 13 18
10 13 17
11 14 18
10 12 17
8 11 15
10 13 18
10 13 18
10 13 18
10 13 17
11 15 20
10 13 17
12 15 20
11 14 19
11 14 19
11 14 19
10 13 18
11 14 19
11 14 18
11 14 19
11 15 20
11 15 20
11 14 19
11 14 19
11 14 19
11 14 19
11 14 19
13 16 22
12 16 21
12 16 21
12 15 20
12 16 21
11 15 20
12 15 20
12 15 20
11 15 20
12 15 20
12 15 20
12 16 22
12 15 21
12 16 21
12 15 20
13 17 22
13 16 22
13 16 22
12 15 21
12 15 20
13 16 22
12 16 21
13 16 22
13 17 22
12 15 21
12 16 22
12 16 21
12 16 21
13 16 22
13 17 23
12 16 21
12 15 20
13 17 23
12 16 22
13 17 22
14 18 24
13 17 23
12 16 21
13 17 22
13 17 23
13 17 23
13 17 23
12 16 22
14 18 24
13 17 23
13 17 23
13 17 23
13 17 24
14 18 24
13 17 23
13 17 23
12 16 22
13 17 23
13 17 23
13 17 23
13 17 23
13 16 22
13 17 23
14 18 24
14 18 24
13 17 23
13 17 23
13 17 22
13 17 24
13 17 23
13 17 24
13 17 23
13 17 23
13 17 24
13 17 23
13 17 23
14 18 24
13 18 24
14 18 24
14 18 24
13 16 22
13 16 22
14 18 24
14 18 25
13 17 24
14 18 24
14 18 24
14 18 24
14 18 24
13 17 23
13 17 24
14 18 24
14 18 24
14 18 24
14 18 25
13 17 23
14 18 24
14 18 24
14 18 24
14 18 24
14 18 24
14 18 24
14 18 24
14 18 24
14 18 24
13 18 24
14 18 24
14 18 25
14 18 24
14 18 24
14 18 24
14 18 24
14 18 24
13 17 23
13 17 24
14 18 24
14 18 25
14 19 25
14 18 25
14 18 24
14 18 24
14 18 25
14 18 24
14 18 24
14 18 24
14 18 25
14 18 24
14 18 24
13 17 23
13 17 23
13 17 24
14 18 24
14 18 24
13 17 23
14 18 24
14 18 24
14 18 24
13 17 24
14 18 24
13 17 24
13 17 23
14 18 24
14 18 24
14 18 24
13 17 24
13 17 23
14 18 24
13 17 23
14 18 24
13 17 23
14 18 24
13 17 24
14 18 24
13 17 23
13 17 23
14 18 24
14 18 24
13 17 23
13 17 23
13 17 23
13 17 22
13 17 23
14 18 24
13 17 23
13 18 24
13 17 23
13 17 24
13 17 23
13 18 24
12 16 22
13 17 23
13 17 23
13 17 23
14 18 24
13 17 23
13 17 23
13 16 22
13 17 22
14 18 24
14 17 23
14 18 24
13 17 23
12 16 22
13 17 22
12 16 22
12 16 22
13 16 22
13 17 23
13 17 23
13 17 23
12 16 22
13 17 22
12 16 22
12 16 22
13 17 22
12 15 21
13 17 23
13 17 23
13 16 22
11 15 20
13 17 22
12 15 20
13 16 22
12 15 21
12 16 21
12 16 21
11 15 20
13 16 22
11 14 19
13 17 22
12 15 21
12 16 22
11 14 19
11 15 20
12 15 21
12 16 21
12 16 21
12 16 22
11 15 21
12 16 21
10 13 18
12 15 20
11 14 19
11 14 19
11 14 19
12 15 20
11 14 19
11 14 19
10 13 17
10 13 18
11 14 18
11 14 19
10 13 17
10 13 18
10 13 18
11 14 18
9 12 16
10 13 17
11 14 19
10 13 18
10 13 17
10 12 17
10 13 18
9 12 15
11 14 19
10 13 18
10 13 17
10 13 17
8 11 15
9 12 16
8 10 14
9 12 16
9 12 15
8 11 14
9 12 15
9 12 16
7 9 12
10 13 17
8 11 14
9 11 15
7 8 11
7 9 12
8 11 14
9 11 15
7 9 12
7 9 11
8 10 13
8 10 13
7 9 12
7 9 11
7 9 12
7 9 12
7 10 13
6 8 10
7 9 12
7 9 11
7 9 12
9 11 14
7 9 12
6 8 11
6 7 9
7 9 11
7 8 11
5 6 8
4 5 7
6 8 10
4 5 7
4 6 7
5 6 7
3 4 5
5 6 8
6 7 10
3 4 6
4 5 7
6 7 9
5 6 8
5 6 8
4 4 6
3 4 6
3 4 6
5 6 8
3 3 4
4 5 6
3 4 5
4 5 7
5 6 8
2 2 3
4 5 7
3 4 5
3 3 5
4 5 6
4 5 7
3 3 4
4 5 7
4 5 7
3 4 5
2 2 3
5 6 8
4 4 6
4 6 7
3 4 6
3 4 5
5 6 8
5 6 8
4 5 6
4 5 6
5 6 8
6 7 9
5 6 8
4 5 7
3 4 6
4 5 7
5 6 8
4 6 7
5 6 8
5 6 8
4 6 7
4 6 7
4 5 7
4 6 7
6 7 9
5 7 9
5 6 8
5 6 8
5 6 8
6 7 10
7 9 12
7 9 11
7 9 11
8 10 13
7 9 11
8 11 14
8 10 14
6 8 11
8 10 13
7 9 12
8 10 14
7 9 12
8 10 14
8 11 14
7 8 11
9 11 14
7 9 12
8 10 13
8 10 14
7 9 12
8 11 15
10 12 16
8 10 14
10 13 17
9 12 16
9 11 15
9 12 16
9 12 16
8 10 14
9 12 16
9 11 15
9 12 16
9 12 17
10 13 18
10 13 17
10 13 17
11 14 19
10 13 18
10 13 17
10 13 17
10 13 18
11 14 19
10 13 17
11 15 20
10 13 18
12 16 21
10 13 18
10 13 18
11 15 20
11 14 18
10 14 18
12 15 21
12 16 21
11 14 19
10 14 19
12 16 21
11 14 19
12 15 21
11 15 20
11 14 19
12 15 20
12 15 21
11 14 19
11 14 19
12 16 22
11 15 20
12 15 20
12 15 20
13 16 22
13 16 22
13 17 23
13 17 23
12 16 21
12 16 22
12 16 21
13 17 23
12 16 21
11 14 19
12 16 22
12 16 22
13 16 22
12 16 21
12 15 21
12 16 22
12 15 21
13 17 22
13 17 23
13 17 23
14 18 24
12 16 22
13 17 23
13 17 22
12 16 21
12 16 22
12 16 21
13 17 24
12 16 22
13 16 22
13 17 23
13 17 23
12 16 21
13 17 23
13 17 24
13 17 23
13 17 23
14 18 24
12 16 21
13 17 23
13 17 23
13 17 23
13 17 23
13 17 24
13 16 22
13 17 23
13 17 23
14 17 23
14 18 24
13 17 22
14 18 24
13 17 23
14 18 24
13 17 23
14 18 24
13 17 24
13 17 24
14 18 23
13 17 23
14 18 24
13 17 22
13 17 23
14 18 24
14 18 24
13 17 23
14 18 24
14 18 24
14 18 24
13 17 23
14 18 24
14 18 24
13 17 23
13 17 24
14 18 24
13 18 24
14 18 24
13 17 23
14 18 24
13 17 24
14 18 24
14 18 25
14 18 24
14 18 24
14 18 25
13 17 24
14 18 24
14 18 24
13 17 24
14 18 24
14 18 24
14 18 25
14 18 24
14 18 24
14 18 25
14 18 24
14 18 24
13 18 24
14 18 24
13 17 24
14 18 24
14 18 24
13 18 24
13 17 23
14 19 25
14 18 24
14 18 24
14 18 24
14 18 24
14 18 24
14 18 24
14 18 24
14 18 24
14 18 24
14 18 24
13 17 23
14 18 24
14 18 24
13 17 23
13 18 24
13 18 24
13 17 23
14 18 24
14 18 24
13 17 23
13 17 24
14 18 24
14 18 24
13 17 24
13 17 23
14 17 23
13 17 23
14 18 24
14 18 24
13 17 23
13 17 22
13 16 22
13 17 23
13 17 23
13 16 22
14 18 24
13 18 24
13 17 23
13 18 24
13 17 24
14 18 24
13 17 23
13 17 23
13 16 22
14 18 24
13 17 24
13 17 23
13 17 23
13 17 23
13 17 23
13 17 22
13 17 22
13 17 24
13 17 23
13 16 22
14 17 23
13 17 23
13 17 23
12 16 21
13 17 23
13 17 23
13 17 23
12 16 22
13 17 23
13 17 22
13 16 22
13 17 23
13 17 23
13 16 22
12 16 22
13 17 23
13 16 22
12 16 22
13 16 22
12 16 21
12 16 21
13 16 22
12 16 21
12 16 22
13 17 22
12 16 22
12 16 21
11 15 20
12 16 21
11 15 20
13 16 22
12 16 21
12 16 22
12 15 21
12 16 22
12 15 21
11 15 20
12 15 21
11 14 19
12 15 21
11 15 20
12 16 21
10 13 18
11 14 19
12 15 20
12 16 21
12 15 20
11 14 19
12 16 21
11 15 20
10 13 18
11 14 19
11 14 19
10 13 18
10 13 18
11 15 20
11 14 19
10 13 18
10 13 18
11 14 18
10 13 18
9 12 16
10 12 16
11 14 19
11 14 18
10 13 17
11 14 19
10 13 18
11 14 19
10 13 18
11 14 19
9 11 15
9 11 15
9 12 16
10 13 17
8 10 14
10 12 17
9 11 15
9 11 15
9 12 16
9 11 15
9 11 15
8 11 14
8 10 14
8 10 14
8 11 15
8 10 14
8 10 14
7 9 12
7 9 12
7 9 12
8 10 13
7 9 12
10 12 16
8 10 13
8 10 13
6 8 11
7 9 12
7 9 13
6 8 10
8 10 14
6 8 10
6 7 9
6 8 10
6 8 11
6 7 9
6 8 10
7 8 11
5 6 8
6 8 10
6 8 10
5 6 8
5 7 9
6 7 9
5 7 9
6 7 10
5 6 8
5 6 8
4 5 7
5 7 9
5 6 8
4 5 7
4 5 6
3 4 5
4 5 6
3 4 5
4 5 6
4 6 7
3 4 5
5 6 8
3 4 6
2 3 4
3 3 4
3 4 5
5 6 8
4 5 6
4 6 7
4 5 7
5 7 9
3 4 6
6 7 9
3 4 6
3 4 5
5 6 8
4 5 7
5 6 7
5 6 8
5 6 7
4 5 7
3 4 5
4 6 7
6 7 9
4 5 6
5 6 8
6 8 10
5 7 9
5 6 8
5 7 9
4 5 7
5 6 8
7 9 11
7 9 11
5 6 8
6 7 9
6 8 11
5 7 9
6 8 11
5 6 8
6 8 10
4 5 7
4 6 7
7 9 11
6 8 10
5 6 8
7 9 11
5 7 9
7 9 12
6 8 10
7 9 12
6 8 10
8 10 13
8 10 13
8 10 13
8 10 13
9 12 16
7 9 12
7 9 12
8 11 14
10 12 16
9 12 16
8 11 14
9 12 16
8 10 14
8 11 14
8 10 13
10 13 18
10 12 17
10 12 16
10 13 17
10 13 17
9 11 15
9 12 16
10 12 17
9 12 16
9 12 16
10 13 17
9 12 16
10 13 17
10 14 18
10 13 18
10 13 17
10 13 17
10 13 18
11 14 19
10 13 18
9 12 17
11 14 19
10 13 18
11 14 18
12 15 20
11 14 19
11 14 19
11 14 19
11 14 20
11 14 19
11 14 19
10 13 18
12 15 21
12 15 20
11 14 19
10 14 18
11 14 19
12 15 20
12 16 21
12 15 21
11 14 19
12 15 21
11 15 20
13 17 23
11 14 19
12 15 20
12 15 21
13 16 22
11 15 20
13 16 22
11 15 19
13 17 23
12 16 22
12 16 22
12 16 21
12 16 21
12 16 22
12 16 22
13 16 22
12 15 21
12 15 21
13 16 22
12 16 21
12 16 22
13 16 22
12 16 21
12 16 22
13 16 22
13 17 23
13 16 22
12 16 22
13 16 22
12 16 22
13 17 23
13 17 23
13 17 24
12 16 21
13 17 22
14 18 24
13 17 23
13 17 23
13 16 22
13 17 23
13 17 23
13 17 22
14 18 24
12 16 22
13 17 23
13 17 23
12 16 22
14 18 24
12 16 22
13 17 23
13 17 24
13 17 24
13 17 23
14 18 24
13 17 23
13 17 23
14 18 24
13 17 23
14 18 24
13 17 23
13 17 23
13 18 24
14 18 24
14 18 24
13 17 23
13 17 24
14 18 24
13 17 23
13 17 23
13 17 24
13 17 23
13 17 23
14 18 24
13 17 23
14 18 24
13 18 24
14 18 24
14 18 24
13 17 23
14 18 25
13 17 24
14 18 24
14 18 24
14 18 24
13 18 24
13 17 24
14 18 24
14 18 25
13 18 24
14 18 24
14 18 24
14 18 24
13 17 24
14 18 24
14 18 24
14 18 25
14 18 24
13 17 24
14 18 24
13 17 23
14 18 24
14 18 24
14 18 24
14 18 24
14 18 24
13 17 23
14 18 24
13 17 23
13 17 24
14 18 24
13 17 23
14 18 25
14 18 25
14 18 24
13 17 23
14 18 24
14 18 24
14 18 25
13 18 24
14 18 25
14 18 24
13 17 24
14 18 24
14 18 25
14 18 24
13 17 24
13 17 23
14 18 24
14 18 24
14 18 23
13 17 23
14 18 24
14 18 24
13 17 23
13 18 24
14 18 24
13 17 23
14 18 24
13 17 23
14 18 24
13 17 23
13 17 23
13 17 23
13 17 23
13 17 23
13 17 23
13 17 22
13 17 24
13 17 23
13 17 23
14 18 24
13 17 24
13 17 22
13 16 22
13 16 22
13 17 22
13 17 22
14 18 24
12 16 22
13 17 23
13 17 23
13 16 22
13 16 22
13 17 23
13 17 23
13 17 23
13 17 22
13 16 22
13 16 22
13 17 23
12 16 22
11 15 21
13 16 22
12 16 22
13 16 22
13 17 23
12 16 22
13 17 23
13 17 22
12 16 21
12 16 21
13 17 23
12 16 22
13 16 22
12 16 21
12 16 21
12 16 21
13 16 22
12 16 21
12 16 22
13 17 22
13 16 22
12 16 22
13 16 22
12 16 22
11 14 19
11 14 19
12 15 21
12 15 21
11 15 20
13 16 22
12 15 20
11 15 20
11 15 20
13 16 22
12 15 20
12 15 20
12 16 22
11 15 20
12 16 21
11 14 19
12 15 21
11 15 20
10 13 18
11 14 19
11 14 19
10 13 18
11 14 19
12 15 20
9 12 16
10 13 17
10 13 18
10 12 17
10 12 16
10 13 18
12 15 20
10 13 17
10 13 17
11 14 19
8 10 14
10 13 17
11 14 18
10 13 18
10 13 18
11 14 18
9 11 15
10 13 17
11 14 18
9 11 15
9 12 16
10 13 18
8 11 14
10 13 17
8 11 15
7 9 12
10 12 17
8 11 14
9 11 15
8 10 13
8 10 14
8 10 13
7 9 12
7 9 13
7 10 13
8 10 14
8 10 14
8 10 13
8 10 13
8 10 13
6 8 11
6 8 11
7 9 11
6 8 10
6 8 10
7 8 11
6 8 10
6 8 10
6 8 10
7 9 12
5 7 9
6 8 10
8 10 13
6 8 10
7 8 11
7 8 11
6 7 10
5 6 8
5 7 9
6 7 10
6 7 9
6 8 10
6 7 10
5 7 9
4 5 6
4 5 6
4 5 7
5 6 8
5 6 8
4 5 7
4 5 6
5 6 8
5 7 9
5 6 8
6 7 9
4 5 6
4 5 6
5 6 8
5 6 8
4 5 6
4 5 7
5 6 7
3 4 6
4 5 6
5 6 8
4 5 7
4 5 7
3 4 6
4 6 7
4 5 6
5 6 8
4 5 6
5 6 8
4 5 6
5 6 8
6 7 9
3 4 5
5 6 8
5 6 8
6 7 9
4 5 6
5 6 8
4 5 6
5 6 8
5 6 8
5 6 8
6 8 11
5 6 8
5 6 8
5 7 8
5 6 8
4 6 7
7 8 11
5 7 9
6 7 10
7 8 11
6 8 11
7 8 11
7 9 12
7 9 12
7 9 12
7 9 11
7 9 11
8 10 13
6 8 10
7 9 12
7 9 13
9 11 15
7 9 12
8 11 14
8 10 13
9 11 15
8 11 14
9 11 15
9 12 16
9 11 15
7 9 12
9 11 15
9 12 16
8 11 14
9 12 16
9 12 16
9 12 16
9 11 15
9 12 16
10 13 17
9 12 15
10 13 18
10 13 18
9 12 16
11 14 19
9 12 16
10 13 17
11 14 19
9 11 15
9 12 16
10 13 17
11 14 19
11 14 19
10 14 18
11 14 19
11 15 20
11 14 19
11 14 18
9 12 17
10 13 17
12 15 20
11 14 19
11 14 19
12 15 20
11 14 19
11 15 20
11 15 20
11 14 19
11 14 19
10 13 18
12 15 20
11 14 19
11 15 19
10 14 18
11 15 20
12 16 22
11 14 19
12 16 22
11 14 19
12 16 21
12 16 21
12 16 21
12 15 20
12 15 21
12 16 22
12 15 21
12 16 21
12 15 21
12 16 22
12 16 22
13 16 22
13 17 23
13 17 23
13 16 22
13 17 22
13 16 22
11 15 20
13 16 22
12 16 22
13 17 23
12 15 21
13 16 22
13 17 23
12 16 22
12 16 21
12 16 21
13 17 23
13 16 22
13 17 23
12 16 22
14 18 23
13 16 22
13 17 23
14 17 23
13 17 23
13 17 22
13 17 23
13 17 23
13 16 22
13 17 23
13 16 22
13 17 23
13 17 23
13 17 23
14 18 24
14 18 24
13 17 23
13 17 23
13 17 23
14 18 24
14 18 24
14 18 24
13 18 24
13 17 23
14 18 24
14 18 24
13 17 23
13 17 23
14 18 24
14 18 24
14 18 24
13 17 24
13 17 22
13 17 24
13 17 23
14 18 24
14 18 25
12 16 22
14 18 24
14 18 24
13 18 24
14 18 24
13 17 23
13 17 23
13 17 23
14 18 24
14 18 25
13 17 24
14 18 24
14 18 24
14 18 24
14 18 24
14 18 24
14 18 24
13 17 24
14 18 24
13 17 24
13 17 23
14 18 24
13 17 23
13 17 24
14 18 24
13 18 24
14 18 24
14 18 24
14 18 24
14 18 24
14 18 25
14 18 25
14 18 24
14 18 24
14 18 24
14 18 24
14 18 24
13 17 23
13 17 23
14 18 25
14 18 24
14 18 25
14 18 24
13 17 23
13 17 24
14 18 24
14 18 24
13 17 24
13 17 23
14 18 24
14 18 24
14 18 25
14 18 23
14 18 24
13 17 23
13 18 24
14 18 24
13 18 24
14 18 25
13 18 24
13 17 24
13 17 23
14 18 24
13 17 22
13 17 24
13 17 23
13 16 22
13 17 23
13 17 22
13 17 24
13 18 24
13 17 23
13 17 23
13 16 22
14 18 24
13 17 23
14 18 24
14 18 24
13 17 24
13 17 23
13 17 22
13 17 23
13 16 22
13 17 23
13 17 23
13 17 23
14 18 24
12 16 21
13 17 23
12 16 21
13 17 24
13 17 23
13 17 23
13 17 23
14 18 24
13 17 23
13 17 23
13 17 23
12 16 21
13 17 22
14 17 23
13 17 23
12 16 21
13 17 24
13 17 23
13 16 22
11 15 20
12 15 21
12 16 21
12 16 21
13 17 23
12 16 22
12 16 22
12 16 22
12 16 22
12 16 21
12 15 20
11 14 19
13 17 23
12 16 21
11 15 20
11 15 20
12 15 21
11 15 20
12 15 20
12 16 22
11 15 20
12 15 21
12 15 21
11 14 19
12 16 21
11 15 21
11 15 20
11 14 19
11 15 21
11 14 19
11 14 19
11 15 20
11 14 19
12 15 20
12 15 21
10 13 17
11 15 20
11 14 19
10 13 17
11 14 19
11 15 20
11 15 20
12 15 20
11 14 19
11 15 19
11 14 19
10 13 17
12 15 20
11 14 19
10 13 17
9 12 16
11 14 18
11 14 18
10 13 18
9 11 15
10 13 18
11 14 18
11 14 18
9 12 16
11 14 19
8 10 14
9 12 16
7 9 12
10 12 16
9 11 15
8 11 14
8 10 13
9 11 15
9 11 15
8 11 14
8 11 14
8 10 14
9 11 15
7 9 12
8 10 14
8 10 13
8 10 13
8 10 14
7 9 12
8 10 13
7 9 12
8 10 13
8 10 13
7 9 12
8 10 13
8 10 14
7 9 12
8 10 12
7 8 11
6 7 9
6 8 11
5 7 9
5 7 9
7 9 11
6 8 11
6 8 10
7 9 11
6 7 9
5 6 9
6 7 10
5 7 9
6 7 10
6 7 9
6 8 11
6 7 9
4 5 6
4 5 6
5 6 9
5 6 8
5 6 8
4 5 6
5 6 8
4 5 7
4 6 7
4 5 7
5 7 9
6 7 9
5 6 8
4 5 7
4 5 6
5 6 8
4 5 7
3 4 5
5 6 8
5 6 8
4 5 6
6 7 9
4 5 7
5 7 9
5 6 8
6 7 9
4 5 6
4 5 7
4 5 6
5 6 8
5 6 8
5 6 8
5 6 8
6 8 10
6 7 10
5 6 8
5 6 8
4 5 7
5 6 8
6 7 10
6 8 10
6 8 10
5 6 8
5 7 9
5 6 8
5 7 9
6 7 9
5 6 9
6 8 10
7 9 12
8 11 14
6 8 11
8 10 13
6 8 11
7 9 13
7 9 12
7 8 11
8 10 13
7 9 12
6 8 11
7 9 11
8 11 14
9 12 16
8 10 13
8 10 13
7 9 13
8 10 13
8 11 14
7 10 13
8 10 14
7 10 13
6 8 11
9 12 17
8 10 14
8 11 15
8 11 15
9 12 16
9 12 16
9 11 15
10 12 17
9 11 15
9 12 16
10 13 17
9 12 16
10 13 17
9 12 16
10 13 18
10 13 17
10 13 17
9 11 15
12 15 20
9 12 17
10 13 17
10 12 17
10 14 18
10 13 18
11 14 18
10 13 17
11 14 18
10 13 18
12 15 20
11 15 20
10 13 18
12 16 22
11 15 20
12 15 21
12 16 22
11 14 19
11 14 19
10 13 18
12 15 20
11 14 19
12 15 20
12 15 20
11 15 20
12 15 20
11 15 20
12 16 21
11 14 19
11 15 20
12 15 20
12 16 21
12 15 20
11 15 20
12 16 22
12 16 21
13 16 22
12 16 21
13 17 23
12 16 22
13 16 22
12 16 22
13 17 22
12 15 21
13 16 22
13 17 22
12 16 21
12 16 21
13 16 22
12 16 21
12 16 21
12 16 22
12 16 22
14 18 24
13 17 22
13 16 22
13 17 23
13 17 23
12 16 22
13 17 23
12 16 21
13 17 23
13 16 22
12 16 22
13 17 22
13 16 22
13 17 23
13 16 22
12 16 22
14 18 24
13 17 23
13 17 23
13 17 22
13 17 24
13 17 23
13 17 23
13 17 22
13 17 23
13 17 23
14 17 23
12 16 22
13 17 23
13 17 23
14 18 24
12 16 22
13 17 23
14 18 24
13 17 23
14 18 24
14 18 25
14 18 24
14 18 24
13 16 22
13 17 24
13 17 24
14 18 24
14 18 24
14 18 24
14 17 23
13 17 23
14 18 24
12 16 22
14 18 24
13 17 23
14 18 24
13 17 24
13 17 23
13 17 23
14 18 24
13 17 24
14 18 24
14 18 24
13 17 23
13 17 23
14 18 25
14 18 24
14 18 24
14 18 24
14 18 24
13 17 23
14 18 24
13 18 24
14 19 25
13 17 24
14 18 24
14 18 24
14 18 24
14 18 24
13 17 23
14 18 25
14 18 24
14 18 25
14 18 24
13 17 23
14 18 24
14 18 25
14 18 24
13 17 23
14 18 25
14 18 23
14 18 24
14 18 24
14 18 24
14 18 24
13 17 24
13 18 24
13 17 24
14 18 24
14 18 24
13 17 23
14 18 24
14 18 24
13 17 23
14 18 24
13 17 23
14 18 25
13 17 23
13 18 24
14 18 24
13 17 23
13 17 24
13 17 23
13 17 23
14 18 24
14 18 24
14 18 24
14 18 24
13 16 22
12 16 22
14 17 23
13 16 22
13 17 23
13 17 23
12 16 22
13 17 23
13 17 24
13 17 23
13 17 24
13 17 24
13 17 22
13 17 23
13 17 23
13 17 23
14 18 24
13 16 22
13 17 23
13 16 22
13 17 23
13 17 23
14 18 24
13 17 23
13 17 23
12 16 22
13 17 23
12 16 22
12 16 22
14 18 24
13 17 23
12 16 22
13 17 22
12 15 21
13 16 22
12 16 21
13 16 22
12 15 21
13 16 22
12 15 21
12 16 21
12 16 22
12 16 21
12 16 21
12 16 22
11 15 20
13 16 22
12 16 21
12 16 22
13 16 22
11 14 19
12 15 20
12 16 21
12 15 21
12 16 21
12 15 20
11 15 20
11 14 19
11 14 20
12 15 20
11 15 20
12 15 21
11 14 19
11 15 19
12 15 20
11 15 20
13 16 22
11 15 20
11 14 19
11 15 20
11 14 19
11 14 19
11 15 20
11 14 19
12 15 20
11 14 19
11 14 19
11 14 19
12 15 20
11 14 19
11 14 19
11 15 20
11 14 19
10 13 18
10 13 18
9 12 17
10 13 17
8 11 14
10 13 17
10 12 16
10 13 18
8 11 15
9 12 16
10 13 17
9 12 17
9 11 15
10 13 17
10 13 18
9 12 16
9 11 15
8 10 14
9 11 15
9 12 16
9 12 16
9 12 16
8 11 14
10 12 17
9 12 16
9 12 16
8 10 13
7 10 13
9 11 15
8 10 14
9 12 15
7 9 12
7 9 12
8 11 14
8 10 13
7 10 13
7 9 12
7 9 12
7 9 12
8 10 13
8 11 14
6 8 11
5 7 9
6 7 10
7 9 12
8 10 13
6 8 11
6 7 10
7 8 11
6 7 10
5 7 9
6 8 10
5 6 8
6 8 11
6 7 10
7 9 11
6 7 9
5 6 8
5 7 9
5 7 9
5 6 8
4 5 7
6 8 10
6 7 10
5 6 8
6 8 10
5 7 8
5 6 8
3 4 5
5 6 8
5 6 8
5 6 8
6 7 9
4 5 7
6 7 9
4 5 7
5 6 8
5 6 8
4 5 6
4 5 6
5 7 9
4 6 7
5 6 8
4 5 7
5 6 8
5 7 9
4 5 7
5 7 9
6 7 10
4 6 7
4 5 7
5 6 8
5 6 8
5 6 8
6 8 10
5 7 9
6 7 10
6 7 10
4 5 7
5 7 9
6 7 10
7 9 11
5 6 8
6 8 10
6 8 10
6 8 11
8 10 13
7 9 11
6 8 10
6 7 10
8 10 13
8 10 13
7 9 11
5 7 9
7 9 12
8 10 13
7 9 12
7 9 11
7 9 13
6 8 11
7 9 12
6 8 11
8 11 14
7 9 12
8 10 13
9 12 16
8 11 14
8 11 14
8 10 13
8 10 14
8 10 13
8 11 15
9 12 16
8 11 14
8 11 15
9 12 16
9 11 15
9 12 16
8 10 13
9 12 16
9 11 15
10 13 17
9 12 16
9 12 17
10 13 17
10 13 17
8 11 15
10 13 17
10 13 17
9 11 15
11 14 18
11 14 19
10 13 17
9 11 15
10 12 17
8 10 14
11 14 19
11 14 19
10 13 17
11 14 18
11 14 19
11 15 20
10 13 17
11 14 19
11 15 20
12 16 21
10 13 18
11 14 19
11 14 19
11 14 19
11 15 20
11 15 20
12 16 21
11 14 19
10 14 18
11 14 19
13 17 22
11 15 20
12 15 20
12 15 21
11 14 19
12 16 21
12 15 20
11 15 20
12 15 21
12 16 21
12 16 21
13 17 22
11 14 19
12 15 20
12 16 21
11 15 20
13 17 23
12 16 22
13 17 22
12 16 22
12 16 21
13 17 23
12 16 21
12 16 21
12 16 21
12 16 21
13 17 23
13 17 23
12 16 22
12 15 21
12 16 21
12 16 21
13 17 22
13 17 23
12 16 21
12 16 21
13 17 22
13 17 23
13 17 22
13 16 22
12 16 22
13 17 23
13 16 22
12 16 22
13 17 23
12 16 22
13 17 23
13 17 24
13 17 22
13 17 23
13 18 24
14 18 24
13 17 22
12 16 22
13 17 23
13 17 23
13 17 23
13 17 24
13 17 23
13 17 23
14 18 24
13 17 23
13 17 23
13 17 23
14 18 24
13 17 22
13 17 23
14 18 24
13 17 23
14 18 24
14 18 24
13 17 23
14 18 24
13 17 23
13 17 23
13 17 23
14 18 25
13 18 24
13 17 24
13 17 23
14 18 24
13 17 24
13 17 24
13 17 23
14 18 24
13 18 24
13 17 23
14 18 24
14 18 24
14 18 24
13 17 23
14 18 24
14 18 24
13 17 23
14 18 24
14 18 24
14 18 24
14 17 23
14 18 25
13 17 23
13 17 23
14 18 25
13 17 23
14 18 25
13 17 23
14 18 24
14 18 24
14 18 25
14 18 25
13 17 23
13 17 23
14 18 24
13 18 24
13 17 24
13 17 22
14 18 24
14 18 24
13 17 23
13 17 24
14 18 24
14 18 25
14 18 24
13 18 24
13 18 24
14 18 24
13 17 23
14 18 24
13 17 24
14 18 24
13 17 22
13 17 24
14 18 24
14 18 24
13 17 23
13 17 23
14 18 24
13 18 24
14 18 24
13 17 22
12 16 22
13 17 22
14 18 24
14 18 24
13 17 23
13 17 23
12 16 21
13 17 24
13 17 23
13 17 23
13 17 23
13 17 23
13 17 23
13 17 23
13 17 23
13 17 23
13 17 23
12 15 21
13 17 22
13 17 24
13 17 22
12 16 22
13 16 22
13 17 22
13 16 22
13 17 23
12 16 22
12 16 21
12 16 22
13 17 22
13 16 22
13 16 22
12 16 22
13 17 22
13 17 23
12 16 22
13 17 23
13 17 23
13 17 23
12 16 21
13 17 23
12 16 22
12 16 21
12 16 22
12 15 21
14 18 24
13 16 22
12 16 21
12 15 21
13 17 22
12 16 22
13 17 22
11 15 20
12 15 20
12 16 21
12 15 21
12 16 21
12 16 21
11 15 20
11 15 20
13 17 22
11 14 20
12 15 21
12 16 21
12 15 21
10 14 18
12 15 20
11 15 20
11 14 19
11 14 20
10 13 18
12 15 20
11 15 20
10 14 19
12 16 21
11 14 19
11 14 19
11 14 19
11 15 20
10 13 18
10 13 18
11 14 20
11 14 19
11 14 19
10 13 18
9 12 16
10 13 18
10 12 16
11 14 19
10 13 17
10 12 16
10 13 17
9 12 16
10 12 17
11 15 20
8 11 14
10 14 18
10 13 17
9 12 16
10 13 17
9 11 15
9 11 15
10 13 17
8 11 14
9 12 16
10 13 17
9 11 15
7 10 13
8 11 14
9 11 14
8 11 14
8 11 14
9 12 15
8 11 15
9 12 16
8 10 13
7 10 13
8 10 13
9 12 16
8 10 13
7 10 13
7 9 12
8 10 13
7 9 12
7 9 12
7 9 12
7 8 11
7 9 12
7 9 12
6 7 10
5 6 9
6 7 10
6 8 11
6 7 10
7 9 12
8 10 13
6 8 10
5 7 9
6 7 10
6 8 10
5 6 8
8 10 13
6 8 10
6 7 9
4 5 7
6 8 10
5 7 9
5 7 9
4 5 7
6 7 9
6 7 9
6 7 9
5 6 8
6 7 9
4 5 7
5 6 9
5 7 9
6 7 9
6 8 11
5 7 8
4 6 7
5 7 9
5 6 8
5 6 8
4 5 7
5 6 8
5 6 8
5 7 8
4 5 7
6 7 9
5 6 8
5 7 9
6 7 9
4 6 7
6 7 9
5 7 9
5 7 9
5 6 8
6 7 9
6 8 10
7 9 11
6 7 10
7 8 11
5 7 9
6 8 10
6 8 11
5 6 9
7 9 11
5 7 9
5 7 9
6 8 11
7 9 12
6 7 9
7 8 11
5 7 9
7 8 11
7 9 12
7 9 11
5 7 9
6 8 11
7 9 12
9 11 15
7 9 12
9 11 15
8 11 14
7 9 12
8 10 14
8 10 13
8 10 13
7 10 13
9 11 15
9 11 15
9 12 16
8 10 13
8 10 14
8 10 14
8 10 14
8 11 14
8 10 14
9 11 15
9 12 16
8 10 13
9 12 16
9 12 16
9 12 16
10 13 17
9 11 15
9 12 16
10 13 17
10 13 18
10 13 18
10 12 16
10 13 18
9 12 16
11 14 19
10 12 17
10 13 18
11 14 19
11 14 19
11 14 19
11 14 19
11 14 19
11 14 19
10 13 18
11 14 19
10 13 18
11 14 19
11 14 19
11 15 20
11 15 20
11 14 19
10 13 18
11 14 19
11 14 19
10 13 17
11 14 19
11 15 20
12 16 21
12 15 20
11 15 20
11 14 19
11 15 20
11 14 20
12 15 21
12 15 20
11 14 19
12 16 21
11 14 19
11 15 20
11 14 19
11 14 19
12 16 22
11 15 20
12 15 21
13 17 23
12 15 20
12 16 21
13 17 22
12 16 21
12 16 21
12 15 21
12 16 21
13 17 23
12 16 22
12 16 22
12 16 22
13 17 23
13 17 23
12 16 21
13 17 23
12 16 22
11 15 20
12 16 21
14 18 24
13 18 24
12 16 21
12 16 21
13 17 22
13 17 23
13 17 23
12 16 21
13 17 23
13 17 23
13 17 23
14 18 24
12 16 22
12 16 21
13 17 23
13 17 23
13 17 22
12 16 22
13 17 22
12 16 21
13 17 23
14 18 24
12 16 22
13 17 23
13 17 23
14 18 24
14 18 24
12 16 21
13 17 23
13 17 23
13 17 22
13 17 23
14 18 24
13 17 23
14 18 25
13 18 24
12 16 21
13 17 23
13 18 24
13 17 23
13 17 22
13 16 22
13 17 24
13 17 23
13 17 23
14 18 24
14 18 24
14 18 24
14 18 24
12 16 22
14 18 24
14 18 24
14 18 24
14 18 24
13 18 24
13 17 23
14 18 24
13 17 24
14 18 24
13 17 23
14 18 24
14 18 24
14 18 24
14 19 25
14 18 24
14 18 24
14 18 24
13 17 24
14 18 24
14 18 24
14 18 24
13 17 23
13 17 23
14 18 24
13 17 22
14 18 25
13 17 23
14 18 24
14 18 24
13 17 24
14 18 24
14 18 24
14 18 24
13 18 24
14 18 23
14 18 24
13 18 24
14 18 24
13 17 23
14 18 24
13 16 22
14 18 24
14 18 24
13 17 24
14 18 24
13 17 23
13 17 22
14 18 24
13 17 23
14 18 24
13 17 23
14 18 24
13 17 24
13 17 22
13 17 23
14 17 23
14 18 24
13 17 23
13 17 23
13 17 23
13 17 23
14 18 24
13 17 24
13 17 23
13 17 23
13 16 22
13 16 22
14 18 24
12 16 22
13 16 22
13 18 24
12 16 22
14 18 24
14 18 24
13 17 22
13 17 22
13 18 24
12 15 21
12 16 22
13 17 23
13 17 23
13 16 22
14 17 23
12 16 22
14 18 24
12 16 21
11 15 20
13 16 22
12 16 21
13 17 22
13 17 23
14 18 24
13 16 22
12 16 21
13 17 22
13 16 22
12 15 20
12 15 20
13 17 23
13 16 22
12 16 21
13 17 23
12 16 21
12 15 21
12 16 21
12 15 21
13 16 22
13 17 22
12 16 21
12 16 21
12 15 20
11 15 20
13 17 22
10 13 18
12 16 22
13 16 22
12 15 21
12 16 21
11 15 20
11 15 20
12 16 21
11 15 20
12 15 20
11 15 20
11 14 19
10 13 18
11 15 19
11 14 19
13 16 22
9 12 17
10 14 18
11 14 19
11 14 20
10 13 18
10 13 18
12 15 20
11 14 19
10 13 17
9 12 16
10 14 18
11 14 20
10 14 19
10 13 18
11 15 19
10 12 17
10 13 18
10 12 16
10 13 18
10 13 17
10 13 18
10 13 17
10 13 17
10 12 17
10 13 17
10 13 17
8 11 14
9 12 16
10 13 17
10 13 17
10 13 18
10 13 17
7 10 13
9 12 16
10 13 17
9 12 16
9 12 16
8 11 14
9 11 15
8 10 14
7 9 13
9 11 15
10 12 16
9 11 15
9 11 14
9 11 15
8 11 14
8 11 14
8 10 13
8 10 13
8 10 14
7 9 12
7 9 11
7 9 11
7 9 11
7 9 12
8 10 13
7 9 11
6 8 10
7 9 12
6 7 10
7 9 11
6 8 10
6 8 11
6 8 10
6 7 10
5 7 9
6 7 9
6 7 10
5 7 9
7 8 11
6 7 10
6 7 10
6 7 10
5 7 9
6 8 11
5 6 8
5 6 8
6 8 10
6 8 10
5 7 9
5 6 8
4 5 7
6 7 10
7 9 11
4 5 7
6 7 10
5 7 9
7 8 11
5 6 8
6 8 10
6 7 10
5 7 9
5 7 9
5 7 9
5 7 9
6 7 9
6 7 9
5 6 8
5 7 9
6 7 9
5 7 9
4 5 7
5 7 9
7 9 12
6 8 10
5 7 9
7 8 11
5 6 8
5 6 8
7 8 11
5 6 8
5 6 8
5 7 9
6 7 9
6 8 11
5 7 9
7 8 11
6 8 11
8 10 13
6 8 10
6 8 11
6 8 11
8 10 13
6 8 11
7 8 11
8 10 13
7 9 12
8 10 13
8 11 14
8 10 13
8 10 13
8 11 14
8 11 14
8 10 13
7 9 12
9 11 15
7 9 12
8 10 13
8 11 14
9 11 15
8 10 13
8 11 15
10 12 16
9 12 16
8 11 14
8 10 14
9 12 17
8 11 15
9 12 16
9 11 15
9 12 16
8 11 15
9 12 16
9 11 15
9 12 16
10 12 17
9 11 15
9 12 16
9 12 16
9 11 15
9 11 15
10 13 18
10 14 18
9 12 16
11 14 19
10 13 17
11 14 19
10 13 17
11 14 18
11 14 19
12 15 20
11 15 20
10 13 18
12 15 21
11 15 20
12 15 20
11 14 19
11 14 19
10 14 19
11 14 19
10 13 18
11 14 19
11 15 20
12 15 20
11 15 20
11 14 19
12 15 21
11 14 19
10 13 18
11 15 20
11 15 20
11 14 19
11 15 20
12 16 22
13 17 23
11 14 19
12 15 20
12 16 21
12 16 21
13 17 23
12 15 21
12 15 20
11 14 19
12 16 21
12 16 22
12 15 20
12 16 21
12 16 22
11 15 20
12 16 21
12 15 21
12 15 20
13 17 23
12 15 21
12 16 21
13 16 22
13 17 23
12 16 21
12 16 22
12 16 22
13 16 22
13 17 23
12 16 22
13 17 23
12 15 21
13 17 23
13 17 23
13 17 22
13 17 23
13 17 22
13 17 23
13 17 23
13 17 23
13 17 23
13 17 22
14 18 24
13 17 23
13 17 23
13 17 22
13 17 23
13 17 24
13 17 23
14 18 23
13 17 23
13 17 23
13 17 23
13 17 23
13 16 22
14 18 24
13 17 24
13 17 23
13 17 23
13 17 23
14 18 23
14 18 24
13 17 23
13 17 23
14 18 24
14 18 24
14 18 24
13 17 23
14 18 24
13 17 23
13 17 24
14 18 24
14 18 24
14 18 24
14 18 24
13 17 23
14 18 24
14 18 24
14 18 24
13 17 24
14 18 24
14 18 24
14 18 23
14 18 24
13 17 24
14 18 24
14 18 24
14 18 24
13 17 24
14 18 24
13 17 23
13 18 24
13 17 24
14 18 24
14 18 24
13 18 24
14 18 24
13 17 23
14 18 24
14 18 24
14 18 24
13 17 23
14 18 24
14 18 24
14 18 24
14 18 24
14 18 24
13 17 23
13 17 23
14 18 24
13 17 24
13 18 24
13 17 23
13 17 23
14 18 24
13 17 23
14 18 24
13 17 22
14 18 24
13 17 23
13 17 23
13 17 23
13 17 23
13 17 23
14 18 25
14 18 24
13 17 23
14 18 24
14 18 24
13 17 23
13 17 23
13 17 24
13 17 23
14 18 24
12 16 22
13 17 24
13 17 23
13 17 23
14 18 24
14 18 24
13 17 23
13 17 23
13 17 24
13 17 23
14 18 24
14 18 24
13 17 23
13 17 22
13 18 24
13 17 23
13 17 23
13 17 22
14 17 23
13 17 23
12 16 21
12 16 21
13 17 22
13 17 22
13 17 23
13 17 22
13 17 23
12 16 22
12 16 21
13 16 22
11 14 19
12 16 22
12 16 22
13 16 22
13 17 22
12 16 22
13 17 22
12 16 22
12 16 21
13 17 22
11 14 19
13 17 23
13 17 23
12 16 22
12 15 20
11 15 20
11 15 21
12 16 22
12 16 22
12 16 21
12 16 21
12 16 22
11 14 19
12 16 22
11 14 19
11 14 19
12 16 22
12 16 22
11 15 20
11 14 19
11 15 20
11 15 20
10 13 18
13 17 22
12 15 20
11 14 19
12 15 21
12 16 21
10 13 17
12 16 21
11 14 20
11 14 18
11 15 20
11 14 19
10 14 18
11 14 19
10 14 18
12 15 20
11 14 19
12 15 20
11 14 19
12 15 21
11 14 19
11 14 18
11 14 19
10 13 18
10 12 17
10 13 18
10 13 18
11 15 20
11 14 19
10 13 18
9 12 16
10 13 17
9 12 16
11 14 18
10 13 17
8 10 14
10 13 18
9 11 15
9 11 15
9 11 15
10 13 18
9 12 16
8 10 14
9 11 15
9 11 15
7 9 12
7 10 13
8 10 13
10 12 17
10 12 17
8 11 14
9 11 14
10 13 17
8 10 14
7 9 12
9 11 15
8 10 13
8 10 13
7 9 13
7 10 13
7 9 12
9 11 14
7 9 12
7 10 13
7 9 12
7 9 12
6 8 11
8 10 13
7 8 11
7 9 12
6 8 11
5 7 9
7 8 11
7 9 11
7 9 12
6 8 10
6 8 11
7 9 12
7 9 11
7 9 12
7 9 12
6 8 11
7 8 11
7 9 12
6 8 10
6 7 10
6 8 10
6 8 10
6 8 10
6 8 10
5 6 8
5 7 9
6 7 9
6 7 9
7 9 11
6 8 10
6 8 10
6 8 10
5 6 8
5 7 9
6 7 10
7 9 11
6 7 10
6 7 9
5 6 8
6 7 9
5 7 9
5 6 8
5 6 9
4 6 7
6 8 11
5 6 8
6 8 10
7 9 11
6 8 11
5 6 8
6 7 9
5 7 9
6 8 11
7 9 11
7 8 11
7 9 11
7 8 11
7 8 11
7 8 11
6 7 9
6 8 10
5 7 9
7 9 12
8 10 12
7 9 11
6 8 10
7 9 12
7 9 11
7 9 12
7 8 11
7 9 12
6 8 10
7 9 11
8 10 14
8 10 14
8 10 13
7 10 13
8 10 13
7 9 12
7 9 12
9 11 15
7 9 12
9 12 15
7 9 12
8 11 14
8 10 14
9 11 15
10 13 18
10 13 17
9 12 16
9 12 15
7 10 13
9 11 15
8 10 14
9 11 15
9 11 15
8 11 15
10 12 17
9 12 16
9 12 16
10 13 17
10 12 16
10 13 18
9 12 15
10 13 17
9 12 16
10 14 18
9 12 16
10 13 17
10 13 17
11 14 19
11 14 19
11 15 20
11 14 18
10 13 17
9 12 16
11 14 19
11 15 20
10 14 18
11 14 19
10 13 17
11 15 20
12 15 21
11 14 19
11 15 20
11 14 20
11 14 19
10 13 18
12 15 21
11 15 20
12 15 20
12 16 21
12 15 20
11 14 18
12 15 21
11 14 19
12 16 22
11 14 19
12 16 21
11 14 18
10 14 18
12 15 20
11 15 20
12 16 21
12 15 21
13 16 22
12 16 22
11 15 20
13 16 22
12 16 22
13 17 22
12 15 20
12 15 20
12 16 21
11 15 20
12 15 21
13 16 22
13 17 22
12 16 22
13 17 23
12 16 22
12 16 22
13 17 23
13 16 22
13 17 22
12 16 21
13 16 21
13 17 23
13 17 22
12 16 22
12 16 21
13 17 23
13 17 23
13 17 23
13 17 22
13 17 22
13 17 23
13 17 24
13 16 22
14 18 24
13 16 22
13 17 23
13 16 22
13 17 23
13 16 22
13 17 23
13 17 23
13 17 23
13 17 24
13 17 22
13 17 23
13 17 23
13 17 23
13 17 23
14 18 24
13 17 23
14 18 24
14 18 24
13 17 23
14 18 24
13 18 24
14 18 24
13 17 23
13 17 23
13 18 24
13 17 23
13 17 24
13 17 22
13 17 23
13 18 24
13 17 23
14 18 24
14 18 24
14 18 24
13 17 24
13 17 23
14 18 24
14 18 24
14 18 24
14 18 25
13 18 24
13 18 24
13 17 23
14 18 24
14 18 24
13 17 24
14 18 24
13 17 24
13 17 23
13 18 24
13 17 23
13 17 23
14 18 25
14 18 24
13 18 24
14 18 24
13 17 23
14 18 24
14 18 24
14 18 24
14 18 24
14 18 24
14 18 24
14 18 24
13 17 23
14 18 24
13 17 23
14 18 24
13 17 24
13 18 24
13 18 24
14 18 24
14 18 24
14 18 24
14 18 24
13 17 23
14 18 24
13 16 22
14 18 24
14 18 24
14 18 24
14 18 24
14 18 24
14 18 24
14 17 23
13 17 23
13 17 23
14 18 24
14 18 24
14 18 24
12 16 21
14 18 24
14 18 24
14 18 24
14 18 24
13 17 23
13 17 23
13 17 24
13 17 22
13 17 23
13 17 23
13 17 24
13 17 23
13 17 23
13 16 22
13 17 23
13 17 22
13 17 23
13 17 22
13 17 23
12 16 22
12 15 21
13 17 23
13 16 22
12 16 22
12 16 22
13 17 23
14 18 24
12 16 22
12 16 21
13 17 23
13 17 22
13 17 22
13 17 23
13 17 23
12 16 21
12 16 22
13 17 23
13 16 22
13 16 22
13 17 23
12 16 22
13 16 22
12 16 21
12 15 21
11 15 20
12 16 21
12 16 21
12 16 21
12 15 20
12 16 21
12 15 20
12 16 21
12 16 22
11 14 19
12 15 20
12 16 21
12 16 22
11 14 19
12 16 21
12 15 20
11 15 20
12 16 21
12 16 21
10 14 18
11 14 19
12 15 21
11 15 20
11 14 19
11 15 20
12 16 21
12 15 21
11 15 20
11 15 20
10 13 18
12 15 20
12 15 20
11 14 19
10 14 18
10 13 18
10 14 18
10 13 17
11 15 20
10 13 18
10 13 18
10 13 18
10 13 17
11 14 18
10 13 18
11 14 19
11 15 20
9 12 16
10 13 17
9 12 16
9 12 16
10 13 18
8 11 15
10 13 17
11 14 18
10 13 17
10 13 18
9 12 16
9 11 15
9 11 15
9 11 15
10 12 16
9 12 16
10 13 17
9 12 16
9 11 15
9 11 15
9 12 15
9 11 15
8 10 14
10 13 18
9 11 15
10 13 17
7 10 13
8 10 14
8 10 14
7 9 12
8 11 14
7 8 11
8 10 13
7 9 12
8 10 13
7 9 11
9 12 15
7 9 12
7 9 12
7 9 12
6 8 11
8 11 14
8 10 13
7 9 13
7 9 11
6 8 10
7 9 12
8 10 13
7 9 12
7 9 12
8 10 13
5 7 9
8 10 14
5 7 9
6 8 10
6 8 10
6 8 10
7 8 11
7 8 11
6 8 11
6 8 11
6 7 9
4 5 7
8 9 12
6 8 11
5 7 9
6 8 11
6 7 9
5 7 9
5 6 8
5 7 9
6 8 10
7 9 11
7 8 11
6 8 10
5 6 8
5 7 9
5 6 8
5 6 8
5 6 8
5 6 8
6 8 10
5 7 9
4 5 7
7 9 12
4 6 7
5 7 9
5 7 9
5 6 8
6 8 10
6 7 9
7 9 12
5 6 8
6 7 9
6 7 9
7 9 12
7 9 11
7 9 11
8 10 13
7 9 12
7 9 12
5 7 9
6 8 10
7 9 12
6 8 11
8 10 13
7 9 13
6 7 10
7 9 12
6 8 11
6 8 11
8 10 13
9 11 15
8 10 13
9 11 14
8 10 13
8 10 13
9 12 15
8 10 14
10 12 17
9 11 15
8 10 14
9 11 15
10 12 16
9 12 15
9 12 16
9 12 15
7 8 11
8 11 15
7 10 13
9 11 15
9 12 16
10 13 17
8 10 14
10 13 17
10 13 17
8 11 15
10 13 17
10 13 17
10 13 17
8 11 14
8 11 14
9 12 16
10 13 17
10 13 18
9 12 16
10 13 18
10 13 17
10 13 18
8 11 15
10 14 18
10 13 18
10 14 18
12 15 20
10 14 18
11 14 19
11 14 18
10 14 18
10 13 17
11 14 19
11 14 18
11 14 19
10 13 17
10 13 18
11 14 19
11 14 19
11 14 19
12 15 20
11 15 20
12 15 21
12 15 20
11 14 19
12 16 21
11 15 20
11 15 20
11 15 20
12 16 21
11 15 20
12 15 21
10 14 19
12 15 21
12 15 21
12 15 21
12 16 22
11 15 20
11 15 20
10 14 18
11 15 20
12 15 20
12 16 21
13 16 22
13 16 22
12 16 22
11 15 20
12 15 20
12 16 22
13 17 22
12 16 21
13 17 22
12 15 21
13 17 22
13 17 23
12 16 22
12 16 22
12 16 21
12 16 21
12 16 21
12 15 21
12 16 22
13 17 23
13 16 22
13 16 22
13 17 23
13 17 22
13 17 23
14 18 24
14 18 24
13 16 22
13 18 24
13 16 22
12 16 22
13 16 22
13 17 23
12 16 21
13 17 23
13 16 22
13 17 23
13 17 23
14 17 23
13 17 23
13 17 23
13 17 23
13 17 23
13 17 23
13 17 24
13 17 23
13 16 22
13 17 23
13 17 24
13 17 23
13 17 23
13 17 23
14 18 24
14 18 24
14 18 24
13 17 23
13 18 24
14 18 24
13 17 22
14 17 23
13 17 24
13 17 22
13 17 23
13 17 23
13 17 23
13 18 24
13 17 23
13 17 23
14 18 24
14 18 24
13 17 24
13 17 23
14 18 25
13 17 24
13 17 24
13 17 24
13 17 23
13 17 23
14 18 24
14 18 24
13 18 24
14 18 24
13 18 24
14 18 24
13 18 24
14 17 23
14 18 24
14 18 25
14 18 24
14 18 24
13 17 23
14 18 24
13 17 24
14 18 24
14 18 24
14 18 24
14 18 24
13 17 24
14 18 24
13 17 23
13 17 23
13 17 23
14 18 24
13 17 23
14 18 25
13 17 23
13 17 23
13 16 22
14 18 24
14 18 24
14 18 24
13 18 24
13 17 22
13 17 24
13 17 23
13 17 23
13 17 23
13 17 23
14 18 24
13 18 24
14 18 24
13 17 23
13 17 23
14 18 24
13 17 23
13 17 23
12 16 22
14 18 24
13 17 23
12 16 22
11 15 20
13 17 23
13 16 22
13 17 22
13 17 22
13 17 23
13 16 22
13 17 23
13 16 22
13 17 23
13 16 22
13 17 22
13 17 23
13 17 23
13 16 22
12 15 21
13 16 22
12 16 22
12 15 21
13 17 24
13 17 23
13 17 23
13 16 22
12 16 21
13 17 23
13 16 22
12 16 22
12 16 21
13 16 22
12 16 21
12 16 21
13 17 22
12 16 21
13 17 23
12 15 21
12 15 20
11 15 20
13 16 22
13 16 22
12 15 21
12 16 22
13 16 22
12 16 22
12 15 20
11 15 20
11 15 20
12 16 22
11 15 20
12 15 21
12 15 20
12 16 21
12 15 21
12 15 20
12 16 21
12 15 20
11 14 19
12 15 21
12 15 21
11 15 20
12 15 21
12 15 20
12 15 20
11 14 18
11 15 19
10 14 18
12 15 21
11 14 19
11 14 19
10 14 18
12 15 20
12 15 20
10 13 17
10 14 18
10 13 17
10 14 18
11 14 19
11 14 19
11 14 19
10 13 18
10 13 17
10 13 17
10 13 18
11 14 19
10 13 17
9 12 16
11 14 19
10 13 18
10 12 16
9 12 16
9 11 15
9 11 15
10 13 17
9 12 16
9 12 16
10 12 16
9 11 15
10 13 17
9 12 16
10 13 17
8 10 14
9 11 15
9 11 15
9 11 15
9 11 15
10 13 18
8 10 14
7 10 13
9 11 15
8 10 13
8 10 14
8 10 13
8 10 13
9 11 15
7 9 13
8 10 13
7 9 12
8 10 13
6 8 11
7 10 13
6 8 11
7 9 12
7 9 12
7 9 12
6 8 11
7 9 12
8 10 13
8 10 13
8 10 13
7 9 12
6 8 11
6 8 10
5 7 9
7 8 11
7 9 11
6 7 10
7 8 11
6 7 9
6 7 10
5 7 9
6 8 10
5 6 8
7 9 12
7 9 11
7 9 12
5 7 9
6 7 10
6 8 10
6 7 9
7 8 11
7 9 13
6 7 10
6 8 10
6 8 10
6 8 10
5 6 8
6 7 10
6 7 10
5 6 8
6 8 10
5 6 8
7 9 11
7 9 11
6 8 10
5 6 8
7 9 12
5 7 9
7 8 11
7 9 12
6 8 10
7 9 12
5 7 9
6 8 10
6 7 10
5 7 9
7 9 12
6 7 9
8 10 13
6 8 10
7 9 11
9 11 14
6 8 11
8 10 13
7 9 12
8 10 13
8 10 13
7 9 12
7 9 12
8 10 14
8 11 14
8 10 13
7 9 12
7 8 11
7 9 12
9 11 15
7 9 12
8 10 13
8 10 13
7 10 13
7 9 13
8 11 14
9 12 16
7 9 13
8 10 13
8 10 14
9 12 16
7 9 12
8 10 13
8 11 15
8 10 14
9 11 15
8 10 14
9 11 15
8 11 15
8 10 14
9 11 15
9 11 15
10 13 18
9 12 16
9 11 15
11 14 19
10 13 18
10 12 16
9 12 16
9 11 15
11 14 19
10 12 17
10 13 17
10 13 17
10 13 17
10 13 17
9 12 16
9 12 16
10 13 17
10 12 17
10 13 18
11 14 19
10 13 17
11 14 19
11 14 19
11 14 19
11 14 19
10 13 17
11 14 19
11 15 20
11 14 19
12 15 21
11 14 19
11 14 19
11 15 20
12 16 21
11 14 19
12 15 20
12 15 21
11 14 19
11 15 19
12 16 22
11 14 19
12 16 21
12 15 21
12 16 21
11 15 20
12 15 21
13 16 22
12 16 21
12 16 21
12 15 20
12 15 20
12 16 22
12 15 21
12 15 21
12 16 22
12 16 21
12 15 21
12 16 22
12 16 21
13 17 22
12 16 21
13 17 22
13 16 22
13 17 22
12 16 22
12 16 21
12 15 21
12 16 22
13 17 22
12 16 22
12 15 20
13 17 23
12 15 21
13 17 23
13 17 23
13 17 23
12 16 22
13 17 23
13 17 23
12 16 22
13 17 22
12 16 22
14 18 24
13 17 23
13 17 23
13 17 23
13 17 23
13 16 22
13 17 23
13 17 22
13 17 22
13 17 23
14 18 24
13 17 22
13 17 23
13 16 22
13 16 22
14 18 24
13 17 24
12 16 22
13 17 23
13 17 23
13 17 24
13 17 23
14 18 24
14 18 24
13 16 22
13 17 23
14 18 24
14 18 24
13 17 23
12 16 22
14 18 24
13 17 23
13 17 23
14 18 24
14 18 24
14 18 24
13 17 23
13 17 23
13 17 23
14 18 24
14 18 24
14 18 25
14 18 24
14 18 24
13 17 23
13 17 23
14 18 24
14 18 25
14 18 24
14 18 24
13 17 24
13 17 23
13 17 23
13 17 23
14 18 24
14 18 24
13 17 23
14 18 25
13 17 24
13 17 24
14 18 24
14 18 24
14 18 24
14 18 24
14 17 23
13 17 23
14 18 24
14 18 24
13 17 23
13 17 23
12 16 22
13 17 23
14 18 25
13 17 23
14 18 23
14 18 24
14 18 24
13 17 23
12 16 22
13 17 23
14 18 24
13 17 23
14 18 24
14 18 24
14 17 23
13 17 24
14 18 24
13 17 23
14 18 24
13 16 22
13 17 23
14 18 24
14 18 24
13 17 23
13 17 23
13 17 23
12 16 22
13 17 23
13 17 23
13 17 23
13 17 23
13 17 23
13 17 23
12 15 20
13 17 23
13 17 23
14 18 25
13 17 23
13 17 23
13 17 23
13 17 23
13 17 23
12 16 21
13 17 22
14 17 23
13 17 23
14 18 24
12 16 22
12 15 21
13 17 22
12 16 21
13 16 22
14 18 24
12 16 21
13 17 23
13 16 22
12 16 21
12 15 21
14 18 24
12 16 21
12 16 22
13 17 22
12 16 21
13 17 23
12 16 22
12 15 20
11 15 21
13 16 22
12 15 21
12 16 21
12 16 22
12 15 20
13 16 22
12 16 21
12 15 21
12 16 22
12 16 22
11 15 20
12 16 21
12 15 20
12 16 21
11 14 19
11 15 20
10 13 18
12 15 20
11 15 20
11 14 19
11 14 18
12 16 21
12 15 21
10 13 18
12 15 21
11 15 20
11 14 18
12 15 20
11 15 20
11 14 19
10 13 18
11 14 19
10 13 17
11 14 19
10 12 17
12 15 21
10 13 17
10 13 17
10 13 18
10 13 17
10 13 18
10 13 18
9 12 16
11 14 19
11 14 19
10 13 18
10 13 18
10 13 17
11 14 19
9 11 15
9 12 17
10 13 18
9 12 16
10 13 17
9 11 15
8 10 14
10 13 18
9 12 16
9 11 15
10 13 18
9 12 16
8 11 15
9 11 15
9 12 16
7 9 12
9 12 16
9 12 16
9 12 15
9 12 16
9 11 15
8 10 13
10 12 16
9 11 15
8 11 14
7 9 11
7 9 12
9 11 15
9 11 14
8 10 13
9 11 14
8 10 13
8 10 13
8 11 15
8 10 13
8 10 13
7 9 11
8 10 14
8 10 13
7 9 12
6 8 11
6 8 10
7 9 12
7 9 12
7 9 12
7 8 11
8 11 14
7 9 12
7 9 12
8 10 13
6 7 10
6 8 11
7 9 12
7 9 12
6 7 9
6 7 10
5 7 9
7 9 12
6 8 10
7 8 11
6 8 10
7 9 11
6 7 10
6 8 10
5 7 9
6 8 10
6 8 10
7 8 11
8 10 13
6 8 10
6 8 11
4 6 8
6 8 11
5 6 8
6 8 11
7 9 11
6 8 10
7 9 11
4 6 7
5 7 9
7 9 11
7 9 11
7 9 12
5 6 8
7 9 11
8 10 12
7 9 12
7 9 12
8 10 13
7 9 12
7 9 11
7 9 12
8 10 14
5 7 10
7 9 12
9 11 15
6 8 11
7 9 12
7 9 12
9 12 16
6 8 10
6 8 10
8 11 14
7 9 11
8 10 13
8 10 13
8 10 13
8 10 13
8 10 13
7 8 11
7 9 13
7 10 13
8 10 13
9 11 15
8 11 15
8 11 15
9 11 15
8 11 14
8 10 13
9 12 16
9 12 16
7 9 13
10 12 16
8 10 14
8 10 14
9 11 15
9 12 16
7 9 12
9 11 15
8 10 14
9 12 16
10 12 16
8 11 15
10 13 17
9 11 15
8 11 15
10 13 17
9 12 16
9 12 16
10 12 17
10 13 18
11 14 18
10 12 17
10 13 18
10 13 17
10 13 18
10 13 17
11 14 18
10 13 17
10 13 17
11 14 19
11 14 19
11 14 19
10 13 17
10 13 18
10 13 18
11 14 19
11 14 19
12 15 20
11 14 19
10 13 18
11 14 19
11 15 20
11 14 19
12 16 21
11 14 19
12 16 22
12 15 20
12 16 21
11 14 19
12 15 20
11 15 20
12 15 21
12 15 20
12 15 21
11 15 20
13 16 22
12 16 21
11 15 20
11 15 20
12 16 21
12 15 20
12 15 20
12 16 21
11 15 20
12 16 21
12 15 20
13 17 23
12 15 20
12 16 22
11 15 20
12 16 21
12 16 22
13 16 22
13 17 23
12 16 21
12 16 22
13 17 22
13 17 23
13 17 22
12 16 22
13 17 23
13 16 22
12 16 22
12 16 21
13 16 22
13 17 22
13 17 23
12 16 22
13 17 22
12 16 22
12 16 22
13 17 22
13 17 23
13 17 23
13 17 23
13 17 23
13 16 22
13 16 22
13 16 22
13 17 23
14 18 24
13 17 23
14 18 24
13 16 22
13 17 24
13 17 23
14 18 24
13 17 23
13 17 23
14 18 24
13 17 22
13 18 24
13 17 23
13 17 23
13 17 23
14 18 24
13 17 22
13 17 22
14 18 24
14 18 24
14 18 24
14 18 24
14 18 24
13 18 24
14 18 24
13 17 23
13 17 23
14 18 23
14 17 23
13 17 23
14 18 24
14 17 23
13 16 22
14 18 25
13 17 22
14 18 24
14 18 24
13 17 23
13 17 23
14 18 24
13 17 23
13 17 23
14 18 24
14 18 24
13 17 24
13 17 23
14 18 24
14 18 24
14 18 24
14 18 24
13 17 23
14 18 24
14 18 24
14 18 24
13 17 23
14 18 24
14 18 24
14 18 24
14 18 24
13 18 24
13 17 23
13 17 23
14 17 23
14 17 23
14 18 24
12 16 22
13 17 23
13 17 23
14 18 24
13 17 23
14 18 24
13 17 23
13 17 23
14 17 23
13 17 23
13 17 23
13 17 23
13 17 23
13 18 24
14 18 24
13 18 24
14 17 23
14 18 24
13 17 23
13 17 24
14 18 24
13 17 24
13 17 23
14 18 24
13 17 22
12 16 22
13 17 22
13 17 23
12 16 22
13 17 24
14 18 24
13 17 23
14 18 24
14 17 23
12 16 21
13 17 22
13 17 23
12 16 22
13 17 22
13 16 22
13 17 22
12 16 22
14 18 24
13 17 22
12 16 22
13 17 23
12 16 22
12 16 22
13 17 23
11 14 20
13 17 23
12 16 21
12 16 22
12 16 22
12 16 21
13 17 23
13 16 22
11 15 20
12 15 21
13 16 22
13 16 22
12 16 21
13 17 23
12 16 21
13 16 22
12 15 20
12 15 21
12 15 21
12 16 21
13 17 23
10 14 18
12 15 20
12 15 21
12 16 21
11 15 20
11 15 20
11 15 20
12 15 20
11 15 20
13 16 22
11 14 19
12 16 21
11 15 20
11 15 20
12 15 21
12 16 21
10 13 18
12 15 21
11 14 19
11 15 20
11 15 20
11 15 20
12 15 20
11 15 20
11 14 19
11 14 19
11 15 20
12 16 22
11 15 20
11 14 19
11 14 18
11 15 20
11 14 19
11 14 19
11 14 19
10 13 18
10 13 18
9 12 16
9 11 15
10 12 17
10 13 17
10 12 17
10 13 17
10 13 18
10 13 17
9 12 16
10 13 18
9 12 16
9 11 15
9 12 16
9 12 16
9 12 16
10 12 16
9 12 16
10 12 17
10 12 16
9 11 15
9 11 15
8 10 14
9 12 16
10 13 17
9 12 16
8 10 14
8 10 14
9 11 15
8 11 14
7 9 12
7 9 12
9 12 16
8 10 13
9 12 16
9 11 15
8 11 14
7 9 13
8 11 14
8 10 14
8 10 13
8 10 14
7 9 12
8 10 12
8 11 14
6 8 11
9 12 15
6 8 10
8 10 14
6 8 11
7 10 13
7 9 12
7 10 13
7 9 12
7 9 12
7 9 11
7 8 11
7 8 11
7 9 12
6 8 11
7 9 11
6 8 11
7 9 12
6 7 9
6 8 10
7 8 11
7 9 12
7 8 11
6 8 10
6 7 9
5 7 9
6 8 11
7 9 12
5 6 8
7 9 11
5 7 9
6 8 10
6 8 10
6 8 10
6 7 9
6 8 10
6 7 10
6 8 10
5 7 9
7 9 11
5 6 8
7 9 11
6 7 9
7 9 12
8 10 13
6 8 11
5 7 9
7 9 12
7 9 13
7 9 11
7 9 12
7 9 13
7 9 11
5 7 9
7 9 12
7 9 13
7 9 12
7 9 12
7 9 13
6 8 11
7 9 12
7 9 12
7 9 12
7 9 12
8 10 14
7 9 13
9 11 15
8 10 14
7 9 12
7 9 13
8 11 14
7 9 12
7 9 12
9 11 15
9 11 15
8 10 13
7 9 12
8 11 14
8 10 13
8 10 14
9 11 15
7 10 13
9 11 15
9 12 16
9 11 15
9 11 15
8 10 13
8 10 14
9 12 16
9 12 16
10 13 17
9 11 15
8 11 15
11 13 18
9 12 16
9 11 15
11 14 19
10 13 18
9 12 16
12 15 20
9 12 16
10 13 17
10 13 18
9 11 15
11 14 19
11 14 19
10 13 18
10 13 17
10 13 17
10 13 17
9 12 16
11 14 18
10 13 17
10 13 18
11 14 19
11 14 19
11 14 19
10 13 18
11 14 19
11 14 19
11 14 19
12 16 21
11 14 18
11 15 20
11 14 19
12 16 21
12 15 20
11 14 18
11 14 19
12 15 20
11 15 20
10 13 18
12 15 20
12 15 21
12 15 20
11 15 20
12 15 21
12 16 22
12 16 21
12 15 21
12 15 21
12 15 21
12 16 21
13 17 22
12 15 21
12 16 21
11 15 20
12 15 21
12 16 21
12 15 20
12 15 21
12 15 21
11 15 20
12 16 21
12 15 20
12 16 22
13 17 22
13 17 22
12 16 21
13 16 22
13 16 21
12 16 22
12 15 20
12 16 21
12 16 21
12 16 22
12 15 21
12 16 21
13 16 22
13 16 22
13 17 23
12 16 22
13 16 22
13 16 22
13 17 23
13 17 22
13 17 22
13 17 23
13 16 22
13 17 22
12 15 20
13 16 22
14 18 24
12 16 21
13 17 23
13 17 22
13 17 22
14 18 24
13 17 23
14 18 25
13 17 23
13 17 23
13 16 22
14 18 24
13 17 22
14 18 24
13 17 23
13 17 23
14 18 24
13 17 23
13 18 24
13 17 23
13 17 23
13 17 23
13 17 23
14 18 24
13 17 23
13 17 23
13 17 23
13 17 23
13 17 23
13 17 23
14 18 24
13 17 23
14 18 24
13 17 24
13 17 23
14 18 24
13 17 23
14 18 24
13 17 23
13 17 23
13 17 23
13 17 23
14 18 24
13 17 23
14 18 24
14 18 25
14 18 24
13 17 23
13 17 23
15 19 25
14 18 25
13 17 23
13 18 24
13 17 23
13 17 23
13 17 23
14 18 24
14 18 24
14 18 24
13 17 23
13 17 23
14 18 24
13 17 23
14 18 24
14 18 24
13 17 23
13 17 23
14 18 24
14 18 24
13 17 23
14 18 24
13 17 23
13 17 23
13 17 22
13 17 23
13 17 23
13 16 22
14 18 24
14 18 24
14 18 24
14 18 24
13 17 24
13 17 23
13 18 24
14 18 24
13 17 24
14 18 24
13 18 24
13 17 22
13 17 23
13 17 23
12 16 22
13 17 23
14 18 24
13 17 22
13 16 22
13 17 23
13 16 22
13 17 23
13 17 23
12 16 22
12 15 20
13 17 22
12 16 22
13 17 23
14 18 24
13 17 23
13 18 24
13 17 24
12 16 22
13 17 22
13 17 23
13 17 23
12 15 21
13 16 22
13 17 23
12 16 21
13 17 22
12 16 22
12 16 21
13 16 22
13 17 23
12 16 21
12 15 21
13 17 23
12 16 22
12 15 21
13 16 22
13 17 23
13 16 22
11 15 20
12 16 22
11 15 20
12 16 21
13 16 22
12 16 21
12 15 20
12 15 20
12 16 21
12 15 21
10 14 18
12 16 21
12 16 22
13 16 22
12 15 20
11 14 19
11 14 19
12 16 22
13 16 21
12 15 20
11 14 19
12 15 21
12 15 21
12 16 21
12 16 21
11 14 19
12 16 21
11 15 20
11 14 19
11 14 18
10 14 18
11 14 19
10 13 18
11 14 19
10 13 17
11 15 20
10 13 17
11 14 19
11 14 19
11 14 19
11 14 18
11 14 19
9 12 16
11 14 19
10 14 19
10 13 18
11 14 18
11 14 18
10 12 17
10 12 17
10 13 17
10 13 18
9 12 17
10 13 17
9 11 15
10 13 17
10 12 17
8 11 15
10 12 17
10 13 17
9 11 15
9 12 16
9 11 15
9 12 16
9 11 15
8 11 14
9 11 15
9 12 16
9 11 15
9 12 16
9 11 15
10 12 16
8 10 14
8 11 14
9 12 16
7 9 12
10 13 17
8 10 13
10 12 16
8 11 14
7 9 12
9 11 14
8 11 14
7 9 12
8 11 14
7 9 11
7 9 12
8 11 14
9 11 15
7 9 13
6 8 11
6 8 10
7 9 12
8 10 13
7 9 12
8 10 13
7 9 12
7 9 13
8 10 13
4 6 8
6 8 11
6 8 11
6 7 9
6 8 10
5 7 9
7 9 12
7 8 11
7 9 12
6 8 10
7 10 13
8 10 13
7 9 12
5 7 9
7 9 11
5 6 8
6 7 10
6 8 10
6 8 10
8 10 14
7 9 11
7 9 11
6 8 11
6 7 10
7 9 12
7 9 12
6 8 11
6 8 10
6 7 10
6 8 11
6 8 11
7 9 12
8 10 13
8 10 12
6 8 10
5 7 9
6 7 9
6 8 11
7 9 12
7 10 13
7 8 11
7 8 11
7 9 12
7 10 13
7 8 11
7 9 12
7 9 12
7 9 11
7 9 12
8 10 13
7 9 13
7 9 12
8 10 13
8 10 14
7 9 12
7 9 12
8 11 14
9 11 15
8 10 13
7 9 13
9 11 15
8 11 14
9 11 15
7 9 12
8 10 13
9 12 16
8 10 13
8 10 13
9 11 15
8 11 14
8 10 13
9 11 15
11 14 19
9 11 14
8 11 14
9 12 16
10 13 17
10 12 16
8 11 14
9 11 15
9 12 16
9 11 15
9 11 15
10 12 17
9 12 16
10 12 16
9 11 15
9 11 15
10 12 16
10 13 18
10 12 16
9 12 16
10 13 17
9 12 17
9 11 15
10 13 17
9 12 16
10 13 17
11 14 19
11 14 19
12 15 20
10 13 17
10 13 18
9 12 16
10 13 17
11 14 19
12 15 20
11 14 19
11 14 19
10 12 17
10 14 18
11 14 19
11 14 20
11 15 20
10 13 18
11 14 19
12 16 21
11 14 19
11 14 19
11 14 20
12 16 21
10 14 18
12 16 22
12 16 21
11 14 19
11 15 20
13 17 23
12 15 21
12 16 21
12 16 21
12 16 21
13 16 22
12 16 22
11 15 20
12 15 20
12 16 21
11 15 20
12 15 20
12 15 21
12 16 21
12 15 21
11 15 20
12 16 21
12 15 21
13 16 22
13 17 23
12 15 20
13 16 22
12 16 21
12 15 20
12 15 21
12 15 20
12 16 22
13 17 23
13 16 22
13 17 23
12 16 22
13 17 23
13 17 23
13 16 22
13 17 24
12 16 21
14 18 24
13 17 22
13 17 23
12 16 22
12 16 22
13 17 23
13 17 23
13 17 23
13 17 23
13 17 24
13 17 23
13 17 23
12 16 22
13 17 23
14 18 24
13 17 22
13 16 22
14 18 24
14 18 24
14 18 24
13 17 23
13 17 23
14 18 24
13 17 23
13 17 23
13 17 23
13 17 23
13 17 23
13 16 22
12 16 22
14 18 24
12 16 22
13 17 23
13 17 23
14 18 24
13 17 23
13 17 23
13 17 23
13 17 23
14 18 24
13 17 23
13 17 23
14 18 24
14 18 24
14 18 24
13 16 22
13 17 23
13 17 23
14 18 24
14 18 25
13 17 23
14 18 24
14 18 25
14 18 24
14 18 25
13 17 24
14 18 24
14 18 24
14 18 24
13 17 23
14 17 23
14 18 25
14 18 24
13 17 24
13 17 23
14 18 24
14 18 24
14 18 24
13 17 23
14 18 24
14 18 24
14 18 24
13 17 24
14 18 24
13 17 23
13 17 23
14 18 24
13 18 24
14 18 24
13 17 23
13 17 23
14 18 24
13 17 23
13 17 23
14 18 24
13 17 23
13 17 23
13 17 23
13 17 23
14 18 24
13 17 23
13 17 23
13 17 23
13 17 23
12 16 22
14 18 24
13 17 23
13 17 23
13 17 23
13 17 23
13 17 23
13 17 23
13 17 23
13 17 22
13 17 22
13 17 22
13 17 23
13 17 23
13 17 22
13 17 23
13 17 23
12 16 22
12 15 21
12 16 22
12 16 22
13 16 22
13 17 22
12 16 21
14 18 24
12 16 21
12 16 22
12 16 21
13 17 22
12 16 21
13 17 23
13 17 23
12 16 22
11 15 20
13 16 22
13 16 22
13 16 22
13 16 22
12 16 22
13 17 23
12 15 21
11 15 20
12 16 21
12 15 21
12 16 22
12 15 21
12 16 21
12 16 22
12 16 21
12 16 21
12 15 20
12 16 21
12 15 21
12 15 21
12 16 21
12 15 20
12 16 21
11 15 20
11 14 19
11 15 20
13 17 22
11 14 19
11 15 20
11 14 19
12 15 20
12 15 20
11 14 19
11 14 19
12 16 21
11 14 19
10 13 18
11 14 19
11 15 20
10 14 18
11 14 19
11 14 18
10 13 18
11 15 20
11 14 19
11 15 20
10 12 17
10 13 18
11 14 19
11 15 20
11 14 19
11 14 19
10 13 17
11 14 19
11 14 19
11 14 19
11 14 19
10 13 18
10 13 18
10 13 17
11 14 19
10 13 17
9 12 16
10 13 17
11 14 18
10 12 17
10 13 17
8 11 14
10 13 17
9 12 16
10 13 17
11 14 18
9 11 15
10 13 18
9 12 16
10 13 18
9 12 16
8 11 14
7 9 12
8 11 14
9 11 15
9 11 15
8 10 14
8 10 14
9 12 16
8 10 13
9 12 15
8 10 13
9 11 15
8 10 13
8 11 15
11 14 18
9 12 15
7 9 12
9 12 16
8 10 14
7 8 11
7 8 11
9 12 15
8 11 14
8 11 14
9 11 15
8 10 14
7 9 12
7 9 12
6 8 10
7 9 12
8 10 14
8 10 13
6 8 10
8 10 13
6 8 11
7 9 12
8 10 13
7 8 11
8 10 13
7 9 12
7 9 12
7 10 13
6 7 10
6 8 10
7 9 12
7 8 11
5 7 9
7 9 12
6 8 11
9 11 15
6 8 10
8 10 13
6 8 11
8 10 13
7 8 11
6 8 11
7 9 11
7 9 12
8 10 12
6 8 11
6 8 10
7 9 12
6 8 10
7 9 12
6 8 11
6 8 11
6 8 11
7 9 12
7 9 13
6 8 11
8 10 13
8 11 14
7 9 12
6 8 10
7 9 12
7 9 12
8 10 14
6 8 11
7 9 11
8 10 14
7 9 12
7 9 12
8 10 14
9 11 15
7 9 12
7 9 12
7 9 13
8 11 14
7 9 12
8 11 14
7 9 12
8 10 14
7 9 12
8 10 14
9 12 16
9 11 14
9 12 15
7 10 13
8 11 14
10 12 16
8 10 14
7 9 13
9 11 15
8 11 14
9 12 16
9 11 14
9 11 15
9 12 16
10 13 18
8 11 14
10 13 17
9 12 16
9 12 16
9 12 16
9 12 16
9 11 15
10 12 17
9 12 16
10 12 16
9 12 16
10 13 18
10 13 18
10 13 18
10 13 17
9 12 16
11 14 18
10 13 17
9 12 16
10 13 17
11 14 18
11 14 19
10 13 17
11 14 19
10 13 18
11 14 19
11 14 19
10 13 18
11 14 19
10 13 17
11 14 19
11 14 19
11 15 20
12 15 21
11 14 19
11 14 19
10 13 18
13 16 21
11 15 20
11 15 19
10 14 18
11 15 20
11 15 20
10 13 18
11 14 19
11 14 18
12 16 22
11 14 19
12 15 21
10 13 18
13 17 23
11 15 20
12 15 20
10 14 18
11 15 20
11 14 19
12 15 20
12 15 21
12 16 21
11 14 19
13 16 22
12 16 21
12 15 21
13 17 22
12 15 21
12 16 21
12 15 20
13 16 22
11 15 20
12 16 22
13 16 22
12 16 21
12 16 21
12 16 21
13 17 23
13 17 23
12 15 21
12 16 22
12 16 21
12 16 22
12 16 22
13 17 23
13 17 23
13 18 24
12 16 22
13 16 22
12 16 22
13 17 23
13 17 23
12 15 21
12 16 22
13 16 22
13 17 23
13 16 22
12 15 21
11 15 20
13 17 23
13 17 23
13 17 23
12 15 21
13 16 22
12 16 22
13 17 23
13 17 23
13 17 23
12 16 22
13 17 22
13 17 23
12 16 22
14 18 24
13 16 22
13 17 23
13 16 22
14 18 24
13 17 23
13 17 23
13 17 23
13 17 24
14 18 24
13 17 23
13 17 23
13 17 23
13 17 23
14 18 24
13 17 23
13 17 24
13 17 23
12 16 21
14 18 24
14 18 24
14 18 24
14 18 24
14 18 25
14 18 24
14 18 24
14 18 24
12 16 22
14 18 24
14 18 24
14 18 24
13 17 23
14 18 24
14 18 24
14 18 24
14 18 24
13 17 22
13 17 23
13 17 23
14 18 24
14 18 24
14 18 24
13 17 23
14 18 24
13 17 23
14 18 24
13 18 24
14 18 24
13 17 23
13 17 23
13 17 23
13 17 23
13 17 23
13 17 23
13 17 24
13 17 22
14 18 24
13 17 24
13 17 23
13 17 24
14 18 24
13 17 23
13 17 23
13 17 23
13 17 23
14 18 24
13 17 23
13 17 23
14 18 24
13 17 24
13 17 24
13 17 23
14 18 24
13 17 23
13 17 23
13 17 24
14 18 24
13 16 22
14 18 24
13 17 23
13 17 24
13 17 22
13 16 22
13 17 23
12 16 22
13 17 23
13 17 23
13 16 22
13 17 23
13 17 23
13 17 23
13 17 23
12 16 22
13 17 23
13 17 23
13 17 22
13 17 24
13 16 22
13 17 22
12 16 22
12 16 21
13 17 23
12 16 21
13 17 22
12 15 21
13 16 22
12 16 22
12 16 22
12 15 21
13 17 23
13 17 22
11 14 20
13 16 22
13 17 23
12 16 22
13 16 22
11 15 20
12 16 22
12 16 21
11 15 20
12 15 21
13 16 22
11 14 19
12 15 20
12 15 21
12 16 21
12 16 21
12 15 20
11 15 20
13 17 23
11 15 20
11 14 19
12 16 21
11 15 20
11 14 19
11 15 20
11 14 19
12 16 21
12 15 21
11 15 20
11 14 19
10 14 18
10 13 17
12 15 20
11 14 19
11 14 19
10 13 17
10 14 18
11 14 19
12 15 21
11 14 18
10 13 18
11 14 19
10 13 17
12 15 21
10 13 18
10 13 18
11 14 19
10 13 17
11 14 19
9 12 16
10 13 18
11 14 19
11 14 19
12 15 20
11 14 18
10 13 17
9 11 15
11 15 20
11 14 18
9 11 15
9 12 16
10 13 18
10 13 17
10 12 16
9 12 15
10 14 18
10 13 17
9 11 15
9 12 16
10 13 17
10 13 17
8 10 14
8 11 14
10 12 16
8 10 14
9 11 15
9 12 16
9 11 15
8 10 13
7 9 12
8 10 14
9 11 15
8 10 13
9 11 15
8 11 14
7 9 12
8 11 14
9 11 15
7 9 13
7 9 12
8 11 14
8 10 14
8 10 13
8 11 14
8 10 13
8 10 13
8 10 14
7 9 12
8 10 13
7 9 12
9 11 14
7 10 13
7 9 12
9 11 15
6 8 11
8 10 13
6 8 11
6 8 11
6 8 11
6 8 11
7 9 11
7 9 11
8 10 13
7 9 12
6 8 11
6 8 10
8 10 13
7 8 11
9 11 14
7 9 12
6 8 11
6 7 10
6 8 10
6 8 11
8 10 13
7 9 12
7 9 12
6 8 11
7 9 11
7 9 12
7 8 11
4 6 8
7 8 11
8 10 13
8 10 13
5 7 9
6 7 9
7 9 12
6 8 10
7 8 11
6 8 11
9 11 14
7 9 12
6 8 11
7 9 11
8 10 13
8 10 13
9 11 15
7 9 13
7 8 11
8 10 13
7 9 13
9 11 14
8 10 14
8 11 14
8 10 13
6 8 10
9 11 15
8 10 13
8 10 14
8 11 14
8 11 14
8 11 14
7 9 12
10 12 16
9 12 15
8 10 14
7 9 12
9 12 16
8 11 14
7 9 12
9 11 15
8 11 15
8 10 13
7 9 13
8 10 14
8 11 14
8 11 14
10 12 16
10 13 17
9 12 16
9 12 16
9 12 16
9 12 16
9 11 15
9 12 16
9 11 15
10 13 18
11 14 19
10 13 17
9 12 16
8 10 14
10 12 17
10 13 17
9 12 16
11 14 18
11 14 19
11 14 19
10 13 18
9 12 16
10 13 18
9 11 15
10 13 17
11 14 18
10 13 18
12 16 21
10 13 17
11 14 18
10 13 17
10 13 18
11 14 19
11 14 18
11 14 19
11 15 20
11 14 19
10 14 19
12 15 20
11 14 19
11 15 20
11 15 20
12 15 20
11 14 19
10 13 17
11 15 20
10 13 18
11 14 19
11 15 20
12 16 22
10 13 18
12 15 21
11 14 19
11 14 20
11 15 20
12 15 21
11 14 19
12 16 21
12 15 20
11 15 20
12 16 21
12 16 22
12 16 21
12 16 21
12 15 21
12 16 21
12 16 21
12 16 22
12 16 22
12 15 20
12 16 22
12 15 21
13 16 22
13 16 22
13 17 22
12 16 21
12 15 20
13 17 22
12 16 22
12 16 22
12 16 22
13 17 23
12 16 22
13 17 23
12 16 21
13 16 22
12 16 21
12 16 22
13 16 22
13 17 23
13 17 23
13 17 23
13 17 22
12 16 22
13 17 23
13 17 23
13 17 23
13 17 23
14 17 23
13 17 23
13 16 22
14 18 24
13 17 22
12 16 21
12 16 22
13 17 23
13 17 23
13 17 23
13 17 22
13 17 23
13 17 23
13 17 23
13 17 23
13 17 23
13 16 22
12 16 21
13 17 23
13 17 24
13 17 24
13 17 23
13 17 23
13 17 23
14 18 24
13 17 23
14 18 23
12 16 22
14 18 24
14 18 24
13 17 23
13 18 24
13 17 23
13 17 24
13 17 23
13 16 22
13 17 23
14 18 24
14 18 24
14 18 24
14 18 24
13 17 23
13 17 23
14 18 25
13 17 23
14 18 24
14 18 24
14 18 24
14 18 25
13 17 23
14 18 24
14 18 24
13 17 23
13 17 23
13 17 24
14 18 24
14 18 24
13 17 24
13 17 24
14 18 25
13 17 23
13 17 23
14 18 24
12 16 22
13 17 23
13 17 23
14 18 24
13 17 23
14 18 24
13 17 23
14 18 24
14 18 24
13 18 24
13 17 23
13 17 23
13 17 23
14 18 25
13 17 22
14 18 24
13 17 22
13 17 23
13 18 24
13 17 23
13 16 22
13 17 23
13 17 23
13 17 23
13 17 23
14 17 23
13 17 24
13 17 22
13 17 23
13 17 23
13 17 23
13 16 22
12 16 22
13 17 23
13 17 23
12 16 22
13 17 22
13 17 22
13 17 23
13 17 23
13 17 23
13 17 23
13 17 23
13 17 23
13 17 22
12 16 22
12 16 22
13 17 23
13 16 22
12 15 21
12 16 21
12 16 22
12 16 22
13 17 23
13 17 23
12 16 21
13 16 22
13 17 23
12 16 22
13 16 22
12 16 21
13 16 22
12 16 21
11 14 19
12 16 21
13 16 22
12 16 22
13 16 22
12 16 21
12 16 22
12 16 22
12 16 21
12 16 22
12 15 20
11 14 19
12 15 20
12 16 21
11 15 20
11 15 20
12 15 21
11 15 20
12 15 21
11 15 20
12 15 21
12 16 21
12 15 21
12 16 21
10 13 18
10 13 18
12 15 21
11 14 19
11 14 19
11 15 20
10 13 18
11 15 20
11 14 18
10 13 18
10 13 18
11 14 19
11 14 18
11 14 19
11 14 19
11 14 19
11 14 19
9 12 16
11 14 19
10 13 18
10 13 18
10 13 18
10 13 17
9 12 16
9 12 15
10 12 17
10 13 17
10 13 18
9 11 15
9 12 16
9 11 15
8 10 14
8 10 14
10 13 18
11 15 20
10 12 17
9 11 15
9 12 16
9 12 16
10 13 17
8 11 15
9 12 16
9 11 15
9 12 16
9 12 15
9 11 15
8 11 14
9 12 16
10 12 16
8 11 15
10 13 17
10 13 17
8 10 13
7 10 13
9 12 16
8 10 14
8 11 14
9 11 15
9 11 15
8 10 14
9 12 16
8 11 14
8 10 13
9 12 15
8 11 14
8 10 14
8 10 14
7 9 12
8 11 14
8 10 14
8 11 14
7 9 12
8 11 14
8 10 13
7 9 12
8 11 14
7 9 12
7 9 13
7 8 11
7 9 12
6 7 10
7 9 12
6 8 10
7 9 13
7 9 12
8 11 14
8 10 13
6 7 9
7 9 12
7 9 12
5 7 9
6 8 10
8 10 13
7 9 12
6 8 11
6 8 10
7 9 11
8 10 13
8 10 13
5 7 9
7 9 12
7 9 12
8 10 14
7 10 13
5 6 8
7 9 12
7 9 12
7 9 12
7 9 11
7 9 11
6 8 11
8 11 14
7 9 11
8 10 13
6 7 10
8 10 14
6 7 10
7 9 12
7 9 12
8 10 14
8 10 13
7 9 11
8 11 14
9 11 14
7 9 12
7 9 12
7 9 12
7 8 11
8 11 14
7 9 13
8 10 14
7 8 11
8 10 13
9 12 15
8 10 13
8 10 14
7 9 11
9 11 14
8 10 14
9 12 16
10 12 16
7 9 12
9 11 15
9 11 15
9 12 15
9 12 16
8 11 14
8 10 14
9 11 15
10 13 17
7 10 13
9 12 16
8 11 15
9 12 16
10 12 16
9 11 15
9 11 15
10 13 18
9 12 16
9 11 15
10 13 17
11 14 19
9 12 16
10 13 17
9 12 16
10 13 17
9 12 17
10 12 17
10 13 18
8 11 15
9 11 15
10 13 17
10 13 18
10 13 17
11 14 19
10 14 18
9 12 17
10 13 18
10 13 18
10 13 18
11 14 19
10 13 18
11 15 20
10 13 17
10 12 17
10 13 18
9 12 16
10 13 17
12 15 20
11 14 19
11 14 19
10 13 18
10 13 17
11 15 20
10 13 17
11 15 20
11 14 19
11 14 18
10 13 18
12 15 20
12 15 20
12 15 21
11 14 19
11 14 19
12 16 22
12 15 20
11 14 19
11 15 20
12 16 22
12 16 21
11 15 20
12 15 21
12 16 21
13 16 22
12 16 21
11 15 20
12 16 21
13 17 22
12 15 20
11 15 20
12 15 20
12 16 21
13 17 23
12 15 21
12 16 21
11 14 19
11 15 20
12 16 22
11 15 20
12 15 20
13 17 22
12 16 21
12 16 22
12 16 22
12 16 21
12 16 21
13 17 23
12 16 21
13 16 22
13 16 22
13 17 22
13 17 22
12 16 21
14 18 24
13 17 23
12 16 21
13 17 23
13 16 22
12 16 21
12 16 22
13 17 23
13 17 23
13 17 23
13 17 23
13 17 23
13 17 23
12 16 21
13 17 23
13 17 23
14 18 24
13 17 23
13 17 23
13 17 23
13 17 23
13 17 23
13 16 22
13 17 23
13 17 23
13 17 22
13 16 22
13 18 24
13 17 23
13 16 22
13 17 23
13 17 24
14 18 24
13 17 23
13 17 24
13 17 24
14 18 24
13 17 24
14 18 24
13 17 23
14 18 24
13 17 23
14 18 24
14 18 24
14 18 24
13 17 23
14 18 24
14 18 24
13 17 23
13 17 23
13 17 23
14 18 24
14 18 24
13 17 23
13 18 24
13 17 23
14 18 24
14 18 24
14 18 24
14 18 24
14 18 24
13 17 23
13 17 24
14 18 25
13 16 22
14 18 24
13 17 23
13 17 24
13 17 24
14 18 24
14 18 24
14 18 24
13 18 24
14 18 24
13 17 23
13 17 23
13 17 24
13 17 22
13 17 23
13 17 23
13 17 23
14 18 24
14 18 24
13 16 22
13 17 23
13 17 24
13 16 22
14 18 24
14 18 24
14 18 24
13 17 23
13 16 22
13 17 23
13 16 22
12 16 22
13 17 23
13 17 22
13 17 23
13 17 23
13 17 23
14 18 24
13 17 23
12 15 21
13 16 22
13 17 23
12 16 21
13 16 22
13 17 23
13 17 23
12 16 22
13 17 23
13 17 22
13 17 23
12 16 21
13 17 22
12 16 22
13 17 23
13 17 23
13 17 23
12 16 21
11 15 20
12 16 21
13 16 22
12 16 22
13 16 22
13 17 23
12 16 21
13 16 22
12 15 21
11 15 20
12 16 21
12 16 21
12 16 22
13 16 22
12 16 21
12 15 21
12 16 21
12 16 21
12 15 21
11 14 20
11 15 20
12 16 21
12 15 21
11 15 20
13 16 22
13 16 21
11 15 20
12 16 21
10 14 18
12 15 20
10 13 18
12 16 22
12 15 20
12 16 21
12 15 20
11 15 20
12 16 21
11 15 20
11 14 19
11 15 20
10 14 18
10 14 19
12 16 21
12 15 20
10 13 18
11 14 19
12 15 20
11 14 20
10 13 18
11 15 20
11 14 19
11 14 19
11 14 19
10 13 18
10 14 19
11 14 18
11 15 20
10 14 18
11 14 19
10 13 18
9 12 16
9 12 16
10 13 17
10 12 16
9 12 16
10 13 18
9 12 16
10 13 18
10 13 17
10 12 16
10 13 18
11 14 19
10 13 17
10 13 18
9 12 15
9 11 15
9 12 16
10 13 17
9 11 15
9 11 15
10 13 17
10 13 18
8 11 14
9 11 15
10 13 17
8 10 14
9 11 15
10 12 16
11 14 18
8 10 14
8 10 13
7 9 12
9 12 16
8 10 13
9 11 15
8 11 15
8 10 13
8 10 14
8 11 14
8 11 14
8 11 14
9 11 15
7 9 12
9 11 15
6 8 11
9 11 15
9 11 15
7 9 13
8 10 13
8 10 13
6 8 11
7 9 12
6 8 11
9 11 14
7 9 11
8 10 14
8 11 14
7 10 13
6 8 11
7 9 12
8 10 13
6 8 11
6 8 11
8 10 13
7 9 12
8 10 13
8 10 14
8 10 13
8 10 14
7 9 12
7 9 12
6 8 10
6 8 11
6 7 10
7 8 11
8 10 13
9 11 15
7 9 12
7 8 11
8 10 13
7 10 13
7 9 11
7 9 13
8 10 13
7 9 11
7 9 12
6 8 11
8 10 13
8 10 14
8 10 14
7 9 12
6 8 11
7 9 12
7 9 12
6 8 11
7 9 12
6 8 11
7 9 12
8 10 13
8 11 14
8 10 14
8 10 13
8 10 14
7 9 12
7 10 13
8 10 14
7 9 12
7 9 12
7 9 12
8 11 14
8 10 13
6 8 11
7 9 12
9 12 16
8 11 14
8 11 14
9 11 15
8 10 14
9 11 15
9 11 15
8 10 14
10 12 16
8 10 14
8 11 14
8 10 14
10 12 16
10 12 17
10 12 16
8 11 15
8 11 14
8 11 14
9 11 15
10 13 18
8 11 15
10 13 18
10 13 17
9 11 15
10 13 18
10 14 18
11 13 18
10 13 17
9 11 15
9 11 15
10 13 18
10 13 18
9 12 16
9 11 15
10 13 18
10 13 18
9 12 16
10 13 18
10 13 17
10 13 18
11 14 19
10 13 18
11 15 19
11 14 19
10 13 18
11 15 20
11 15 20
11 15 20
10 13 18
11 14 19
10 13 18
11 15 20
11 14 19
10 13 18
11 14 19
10 13 18
11 14 19
11 15 20
11 14 19
11 14 19
11 14 19
11 15 20
11 15 20
11 14 19
12 15 20
12 16 22
11 14 19
12 16 21
12 16 21
12 15 21
12 15 21
12 15 20
11 15 20
12 16 21
12 15 21
12 15 21
12 15 20
11 15 20
12 16 21
12 15 21
12 16 22
13 16 22
11 15 20
12 16 21
12 16 21
10 14 19
13 17 22
12 15 20
12 15 21
12 16 21
13 16 22
13 17 23
13 16 22
12 15 21
13 16 22
13 17 22
13 17 22
12 15 21
13 16 22
13 16 22
12 16 22
13 17 23
13 16 22
13 16 22
13 17 22
13 17 22
12 15 21
14 18 24
13 16 22
13 17 23
12 16 22
12 16 22
13 17 22
12 16 22
14 18 24
13 17 23
13 17 22
13 18 24
12 16 22
13 17 23
13 17 23
13 17 23
13 17 22
13 17 23
12 16 22
14 18 24
13 17 23
13 17 23
13 17 23
13 17 23
13 17 22
13 17 23
13 17 23
13 18 24
13 16 22
13 17 23
13 17 23
13 17 23
14 18 24
13 17 23
13 17 23
13 17 23
14 18 24
13 17 24
13 17 23
13 17 23
14 18 24
13 17 23
14 18 24
13 17 23
13 17 23
13 17 23
13 18 24
14 18 24
13 17 23
13 17 23
13 17 23
14 18 24
13 17 24
14 18 25
14 18 24
14 18 24
14 18 24
13 17 23
14 18 24
13 18 24
14 18 24
13 17 23
14 18 25
14 18 24
13 17 23
13 16 22
13 17 23
14 18 24
14 18 24
13 17 23
13 18 24
14 18 25
14 18 24
14 18 24
14 18 24
13 17 23
14 18 24
13 17 23
14 18 24
13 17 23
14 18 24
14 18 25
13 17 23
13 17 23
13 17 23
13 17 23
14 18 24
14 18 24
14 18 24
14 18 24
13 17 22
13 17 23
13 17 22
13 17 23
13 17 23
12 16 22
13 17 23
13 17 23
12 16 21
13 17 23
13 17 22
13 17 23
13 17 23
12 16 21
13 17 22
14 18 24
13 16 22
13 17 23
13 17 23
13 17 23
12 16 22
13 17 22
13 17 22
12 16 22
13 16 22
13 17 22
12 16 22
11 15 20
12 16 21
13 17 22
13 16 22
13 17 23
13 17 23
13 16 22
13 17 23
13 16 22
12 16 22
12 16 21
13 16 22
13 17 22
13 16 22
12 16 22
13 17 22
12 16 22
11 14 18
12 15 20
13 17 23
13 16 22
12 16 22
10 13 18
12 16 21
12 15 21
12 16 22
11 15 20
12 16 21
13 17 22
12 16 21
12 16 22
11 14 19
11 15 20
11 14 19
12 16 22
12 15 21
11 15 20
12 16 21
11 14 20
11 14 19
11 15 20
11 15 20
11 15 20
11 14 19
12 15 20
12 15 20
12 15 21
11 14 20
10 13 18
11 14 19
10 13 18
10 14 18
11 14 19
10 13 18
12 15 20
11 14 19
10 14 19
11 14 19
11 14 19
11 14 19
11 14 19
10 14 18
10 13 17
11 14 18
9 12 16
10 13 17
10 13 17
10 13 17
10 13 18
11 14 19
12 15 20
10 13 17
11 14 19
10 13 17
10 13 17
10 13 17
11 14 18
10 13 18
11 14 19
10 13 18
10 12 17
10 13 18
10 13 17
10 12 17
10 13 17
10 13 18
9 12 16
10 13 18
8 10 14
10 13 17
9 11 15
9 12 16
9 11 15
9 11 15
9 12 16
9 11 15
8 11 15
10 12 17
9 11 15
9 12 15
8 11 14
9 11 15
8 10 14
9 12 16
9 12 15
7 9 12
7 9 13
7 9 12
8 10 14
9 11 15
8 11 14
9 11 15
7 9 12
8 10 13
7 9 12
8 11 14
7 9 11
6 8 11
9 11 15
7 9 12
8 10 14
7 9 12
7 9 11
7 9 12
8 11 14
7 10 13
8 11 14
8 10 13
7 9 12
8 10 14
5 7 9
8 10 14
7 9 12
8 10 13
7 9 12
7 8 11
5 7 9
8 10 13
8 10 13
8 10 13
7 9 12
7 9 12
8 10 13
8 10 13
7 9 11
7 9 11
8 10 14
8 10 13
8 10 13
7 9 12
7 10 13
8 10 13
5 7 9
7 9 12
6 8 10
6 8 11
8 10 14
8 10 13
8 10 13
8 10 13
7 9 12
8 10 14
7 10 13
7 9 12
8 11 14
7 9 12
8 10 14
8 11 14
9 11 15
8 10 14
8 11 14
8 10 13
9 11 15
7 9 12
7 9 12
7 10 13
8 10 12
8 11 14
9 11 15
9 12 16
8 10 14
9 11 15
10 12 16
11 14 19
10 12 16
8 10 14
8 10 14
10 13 17
10 13 18
9 11 15
9 11 15
9 12 16
9 12 15
9 11 15
8 10 14
10 13 18
9 11 15
10 13 17
9 11 15
8 11 14
10 13 17
9 12 16
10 14 18
12 15 20
10 13 18
10 13 17
11 14 19
10 13 18
10 13 18
10 12 17
9 12 16
9 11 15
11 14 18
9 12 16
10 13 18
9 11 16
10 13 18
11 14 19
11 14 18
9 12 16
9 12 17
10 13 18
10 13 18
11 15 20
10 13 18
11 14 19
10 13 18
11 14 19
11 14 19
12 15 20
11 14 18
10 12 16
11 14 19
11 14 19
12 15 21
12 15 21
11 14 20
11 14 19
12 16 21
11 15 20
11 14 19
11 15 20
11 14 18
12 16 21
12 15 21
11 14 19
11 15 20
12 16 21
11 15 20
11 15 20
11 14 19
12 15 21
12 15 21
12 16 21
12 16 22
12 16 21
12 15 20
12 15 20
12 15 20
11 15 20
11 15 20
12 16 21
12 16 22
13 17 23
12 15 21
12 16 22
13 16 22
13 17 23
13 16 22
12 15 21
12 15 21
12 16 21
12 15 20
12 16 22
12 15 21
12 16 22
12 16 21
13 17 22
12 16 21
12 16 21
12 16 21
13 17 23
13 17 23
12 16 22
13 16 22
13 16 22
13 17 23
13 16 22
12 15 21
13 17 22
13 17 23
13 17 23
13 16 22
12 16 22
13 17 22
13 17 23
14 18 24
13 17 23
13 17 23
13 17 23
13 17 24
14 18 24
13 17 22
13 17 23
13 17 23
14 18 24
13 17 23
13 16 22
13 16 22
13 17 24
13 17 24
13 17 22
14 18 24
13 17 23
13 17 23
13 17 23
14 18 24
12 16 21
13 17 23
14 18 24
13 17 23
14 17 23
13 17 23
14 18 24
13 17 24
13 17 23
13 17 24
13 17 23
13 17 22
13 17 24
13 17 22
14 18 24
13 18 24
13 17 23
14 18 25
13 17 23
13 17 23
13 17 23
13 17 24
14 18 24
14 18 24
14 18 25
14 18 24
13 17 23
13 17 23
13 17 23
13 17 23
13 17 23
13 17 23
13 17 24
14 18 24
13 17 23
13 17 23
13 17 23
13 17 23
13 17 23
14 18 24
13 17 24
14 18 24
13 17 23
13 17 23
13 17 23
13 17 23
13 17 23
13 17 23
12 16 22
13 17 23
13 16 22
14 18 24
13 17 23
13 17 23
13 17 23
13 17 23
13 17 23
12 16 22
13 17 23
13 17 24
13 18 24
13 18 24
13 17 23
13 17 23
13 17 23
13 16 22
12 16 21
13 16 22
13 17 23
12 16 22
13 17 23
13 17 23
13 17 23
13 17 23
13 16 22
12 16 21
12 16 21
13 17 23
13 16 22
13 17 23
13 17 23
12 15 20
13 16 22
12 16 22
12 16 22
13 17 22
12 15 21
12 16 22
11 15 20
12 15 20
12 16 21
13 16 22
13 17 22
13 17 22
13 17 23
13 16 22
12 16 21
12 15 21
12 16 22
12 15 20
13 16 22
12 16 21
11 14 20
12 16 22
12 16 21
12 16 21
11 15 20
12 16 21
12 16 21
11 15 20
13 16 22
12 15 21
11 14 20
13 17 22
11 15 20
11 15 20
11 14 19
12 15 20
10 13 18
12 15 21
13 16 22
12 15 20
12 15 20
11 15 20
11 15 20
11 14 19
10 14 19
12 16 21
11 14 19
11 14 19
12 15 20
10 13 18
10 13 18
12 15 21
11 14 18
11 14 19
10 13 18
10 13 18
10 12 16
10 13 17
12 15 20
11 14 19
10 13 17
9 12 16
11 14 20
9 12 16
10 13 18
10 13 17
10 13 18
10 13 17
10 12 17
11 14 19
11 15 20
9 12 16
10 13 17
11 14 19
10 13 17
10 13 17
9 12 16
9 12 16
9 12 16
8 11 14
11 14 18
8 10 14
10 13 17
9 11 15
9 12 16
10 13 18
9 11 15
9 11 15
10 12 17
8 11 14
8 11 15
10 13 17
10 13 17
9 12 16
8 10 14
10 12 16
9 12 16
7 10 13
8 11 14
9 12 15
8 10 14
10 13 17
8 11 14
9 12 16
8 11 14
8 11 14
9 11 15
7 9 12
9 11 15
9 12 15
9 12 15
9 12 16
8 10 14
8 10 13
8 10 14
8 10 14
8 10 13
7 10 13
9 12 16
9 11 15
8 11 14
7 9 12
7 9 13
8 10 14
8 10 13
7 10 13
7 9 12
7 9 12
8 11 14
8 10 13
9 11 15
7 9 12
8 10 14
7 9 12
7 9 12
7 9 13
7 10 13
8 10 13
8 10 13
6 8 10
6 8 11
6 8 11
8 10 13
8 10 13
7 9 11
7 9 12
7 9 12
7 10 13
5 7 9
7 9 12
6 7 10
7 9 12
8 11 14
8 10 13
7 9 13
8 10 13
7 9 11
7 9 12
7 9 12
7 9 11
8 10 14
8 11 14
7 9 12
7 9 11
8 11 14
9 12 16
7 10 13
7 9 12
8 10 13
7 9 12
8 11 14
9 11 15
7 9 12
7 10 13
8 10 14
7 9 12
7 9 12
7 9 12
8 10 13
9 12 16
7 9 12
8 11 14
9 11 15
9 11 15
8 11 14
9 12 16
8 10 13
9 12 16
8 11 14
9 11 15
10 13 17
9 12 16
10 12 16
9 12 16
9 11 15
9 11 15
8 11 14
8 11 15
9 12 16
9 12 16
10 13 18
10 13 18
8 10 13
10 13 18
10 13 17
10 12 17
9 12 16
10 12 17
11 14 18
9 12 16
10 13 18
11 14 19
10 13 18
10 13 17
10 13 18
11 14 19
10 13 18
10 13 17
10 13 18
10 13 18
12 15 20
9 12 17
11 15 20
10 13 17
11 14 18
11 14 18
11 15 20
10 13 18
10 13 17
11 14 19
11 15 20
11 14 19
12 15 20
10 13 18
11 14 19
10 13 18
11 14 19
11 14 19
11 14 19
12 15 21
12 16 21
12 15 21
12 15 20
11 15 20
12 16 21
12 15 21
11 15 20
11 14 19
12 15 21
12 16 22
11 15 20
12 15 20
12 16 22
12 15 21
12 15 21
11 15 20
12 16 21
12 16 22
12 15 21
12 16 21
12 15 21
13 17 23
13 17 23
12 16 21
12 16 21
11 15 20
12 16 22
13 17 23
12 15 20
12 16 21
12 15 20
12 16 22
13 17 23
12 16 21
13 16 22
12 16 22
12 16 22
13 17 23
12 16 21
12 16 21
12 16 22
13 16 22
13 16 22
12 15 21
12 16 21
12 16 22
13 16 22
13 17 22
13 17 23
13 17 23
13 17 23
13 17 22
13 17 23
12 16 21
13 16 22
13 17 23
12 16 22
13 17 23
13 17 23
13 17 23
13 16 22
13 16 22
13 18 24
11 15 20
13 17 23
12 16 22
13 17 24
13 17 22
13 17 23
13 17 23
13 17 23
13 17 23
13 16 22
13 17 23
13 17 23
13 17 24
13 17 22
13 17 23
13 17 23
14 18 24
13 17 22
13 17 23
13 17 23
13 17 23
12 15 21
14 18 24
14 17 23
14 18 24
13 17 23
14 18 24
13 17 23
13 17 23
13 17 23
13 17 22
13 17 23
14 18 24
13 17 23
14 18 24
13 18 24
13 17 22
13 17 23
13 17 23
14 18 24
14 18 24
14 18 24
13 17 23
13 17 23
14 18 24
14 18 24
13 17 23
13 17 23
13 17 23
13 17 24
13 17 23
13 17 23
13 17 23
13 17 23
14 18 24
14 18 24
14 18 24
13 17 24
13 17 23
14 18 24
13 17 24
13 17 23
14 18 24
14 17 23
12 16 22
13 17 23
13 17 23
14 18 24
13 16 22
13 17 23
14 18 25
13 17 23
14 18 24
13 17 23
13 17 23
13 17 23
13 17 23
13 17 23
13 17 23
13 17 22
13 18 24
13 17 23
12 15 21
13 17 23
13 18 24
13 17 23
13 18 24
13 17 22
13 17 23
13 17 23
13 17 23
12 15 20
13 17 23
13 17 24
13 17 23
13 17 23
13 17 22
12 16 22
12 16 21
12 15 21
12 16 21
13 17 23
13 17 22
13 16 22
11 15 20
12 15 21
12 16 22
11 14 19
12 16 21
13 17 23
12 16 21
12 16 21
13 17 22
12 15 21
12 15 20
12 16 21
12 16 21
13 16 22
12 15 21
12 15 21
12 15 20
12 15 21
11 15 20
12 15 20
12 15 21
12 15 21
11 15 20
12 15 21
12 15 21
11 14 19
12 16 21
13 16 22
11 15 20
11 15 19
11 14 19
12 15 20
11 14 19
12 15 21
12 16 21
11 15 20
12 15 20
11 14 19
12 15 21
13 16 22
12 15 20
12 15 21
12 15 20
12 15 20
11 15 20
12 15 21
11 14 19
11 14 19
11 14 18
11 14 19
11 14 19
11 14 19
11 14 19
9 12 16
11 14 19
10 13 17
10 13 18
11 15 20
10 13 17
10 13 17
9 12 16
11 14 19
10 13 17
10 13 18
11 14 19
11 14 19
9 12 16
10 12 17
9 12 16
10 13 17
9 12 16
9 12 16
10 13 17
9 12 16
10 13 18
10 12 16
10 13 18
11 14 18
10 13 18
10 12 17
9 12 16
9 12 16
10 13 17
9 12 16
9 11 15
9 12 16
9 11 15
9 11 15
9 11 14
8 11 14
10 12 16
8 10 14
9 12 16
9 12 16
8 10 14
8 11 14
10 13 18
7 10 13
8 10 14
9 11 15
9 11 15
8 11 15
8 10 14
8 10 13
9 11 15
7 9 12
7 9 12
9 12 16
8 11 14
10 13 17
8 10 13
8 11 15
7 9 11
7 10 13
9 11 14
8 10 14
7 9 12
7 9 12
9 12 16
7 9 13
8 10 13
8 11 14
7 10 13
7 9 12
10 13 17
7 9 13
7 9 13
8 11 14
7 9 12
7 10 13
9 12 16
8 10 13
7 9 12
8 10 14
7 9 11
7 9 12
7 9 13
7 9 12
8 11 14
6 8 11
7 9 12
8 10 13
9 11 15
7 9 12
8 10 13
8 10 14
8 10 13
7 9 13
7 9 12
7 9 12
6 8 11
8 10 13
8 10 13
8 11 14
10 12 16
8 11 14
7 8 11
8 11 14
8 10 13
7 10 13
9 11 15
8 10 14
7 9 12
9 11 15
7 10 13
8 10 13
8 10 14
7 9 12
8 10 13
8 11 14
9 12 16
9 12 16
9 12 16
9 12 16
9 11 15
10 12 16
9 11 15
9 12 16
9 12 16
9 12 16
8 11 15
9 12 16
8 11 15
9 11 15
9 11 15
9 12 16
9 11 15
8 10 13
8 10 13
11 14 18
9 11 15
9 12 16
9 12 16
9 12 16
10 13 17
8 10 13
9 12 16
10 13 17
9 12 15
10 13 17
9 12 16
8 11 15
10 13 18
10 13 18
10 13 18
10 13 17
10 13 18
10 13 17
10 13 17
10 12 17
11 14 19
10 13 17
11 14 18
11 14 18
10 13 18
11 15 20
10 13 18
11 14 19
11 14 19
11 14 19
10 14 19
11 14 19
11 15 20
11 14 19
10 13 17
10 14 18
9 12 16
12 15 20
11 14 19
12 15 20
10 13 18
12 15 20
11 15 20
12 15 20
11 15 20
11 14 19
12 15 20
11 14 19
11 14 20
11 14 19
11 14 19
10 13 18
11 14 19
12 16 21
12 16 21
12 15 21
12 15 21
12 15 20
12 15 20
12 15 20
12 16 21
11 14 19
13 16 22
12 16 21
11 15 20
12 16 22
11 15 20
12 15 21
12 16 21
12 15 20
13 16 22
13 17 23
12 15 21
12 16 22
12 15 21
12 16 22
12 16 22
13 16 22
13 16 22
13 16 22
13 17 23
12 16 21
12 16 21
12 15 21
13 17 23
13 17 23
12 16 21
12 16 21
13 16 22
13 16 22
14 18 24
13 17 23
14 18 24
13 17 22
13 17 23
13 17 23
13 17 23
13 17 23
13 17 22
13 17 23
13 17 23
13 17 23
13 17 23
12 15 21
13 16 22
13 17 23
12 16 22
13 16 22
13 17 23
14 18 24
13 17 24
13 16 22
12 16 22
13 17 23
13 17 23
13 17 23
13 17 23
13 17 23
13 16 22
13 17 22
13 17 23
13 17 24
13 17 23
14 17 23
12 16 22
13 17 23
13 17 23
12 16 22
13 17 23
14 18 24
14 18 24
14 18 24
13 17 24
13 17 23
13 17 23
14 18 24
12 16 22
13 17 23
13 18 24
13 17 23
14 18 24
13 17 23
14 18 24
14 18 24
14 18 24
14 18 24
13 17 23
14 18 24
13 17 22
13 17 23
13 17 23
14 18 24
14 18 24
14 18 24
13 17 23
14 18 24
14 18 24
13 17 23
14 18 24
13 17 23
13 17 23
13 17 24
13 17 23
13 17 23
14 18 24
13 17 23
13 17 23
14 18 24
14 18 24
13 17 23
13 17 24
12 16 22
14 18 24
12 16 21
13 17 23
13 17 22
14 18 23
13 17 22
13 17 23
13 17 22
14 18 24
13 17 23
12 16 22
13 17 22
13 17 24
13 17 23
13 17 23
13 17 23
13 18 24
13 17 23
13 16 22
12 16 22
13 17 23
13 16 22
12 16 22
13 17 22
12 16 21
13 16 22
13 17 22
13 17 23
12 16 22
13 17 23
13 16 22
12 15 21
13 17 23
13 17 23
13 16 22
12 16 22
13 17 23
13 16 22
12 16 22
12 16 22
12 16 22
13 16 22
12 16 22
13 16 22
13 17 23
12 16 22
12 15 21
13 17 22
12 16 21
13 16 22
11 14 19
12 15 21
12 15 21
11 14 19
12 16 22
12 15 20
11 14 18
12 16 22
11 15 20
12 15 20
12 16 21
12 16 21
12 15 20
12 16 21
11 15 20
12 16 21
12 16 21
12 15 20
12 16 21
12 15 20
12 16 21
12 15 20
11 14 19
11 14 19
12 16 21
12 16 22
12 15 20
12 15 20
11 15 20
11 15 20
11 14 19
11 14 18
10 13 18
12 15 21
11 14 19
11 14 19
10 13 18
12 15 21
11 14 18
10 12 17
11 15 20
11 15 20
11 14 19
10 13 18
11 14 18
10 13 17
11 14 19
11 14 19
10 12 17
9 11 15
10 13 17
10 13 17
10 13 17
10 12 17
9 12 17
10 13 17
10 13 17
10 13 18
10 13 17
9 12 16
9 12 16
10 14 18
10 13 17
9 12 16
10 13 17
9 12 16
9 12 16
9 11 15
9 12 17
9 12 16
10 12 17
9 12 16
10 13 17
9 12 15
8 10 14
8 11 14
9 11 15
9 11 15
10 13 17
8 10 13
8 11 14
10 12 16
9 12 15
8 10 13
8 10 14
9 11 15
9 11 15
8 11 14
7 9 13
8 10 13
8 10 14
7 9 12
8 11 14
7 9 12
9 12 16
9 11 15
8 10 14
8 10 13
10 13 17
8 11 14
8 11 14
8 10 13
8 10 14
8 10 13
8 11 14
7 9 12
8 11 14
9 11 15
8 11 14
7 9 12
8 10 14
9 12 16
7 9 12
8 10 14
9 11 14
9 11 15
9 11 15
8 10 14
8 11 14
9 11 15
7 9 12
9 12 16
6 7 10
7 9 12
7 9 12
8 11 14
7 9 12
7 9 12
8 10 14
8 10 14
8 10 14
7 9 11
9 11 15
7 8 11
9 12 16
8 10 14
8 10 14
8 10 13
8 10 13
8 10 13
8 11 14
8 10 13
7 10 13
7 9 13
7 9 13
7 9 12
8 11 14
8 11 14
8 10 14
7 9 12
8 10 13
7 9 12
7 9 13
7 9 13
8 11 15
8 10 14
9 11 15
7 9 12
9 11 15
7 9 12
8 10 13
9 12 16
8 11 14
9 12 15
9 12 15
8 10 14
8 10 14
9 11 15
9 12 16
8 10 14
8 11 14
8 11 14
8 10 14
10 12 17
9 11 15
9 11 15
8 11 14
9 11 15
10 13 17
9 12 16
10 13 17
9 12 15
10 13 17
9 12 16
10 13 18
9 12 16
10 13 17
11 14 19
10 12 16
10 13 18
10 14 18
9 11 15
9 12 16
9 12 16
10 13 17
10 13 18
10 13 18
9 12 16
11 15 20
11 14 19
11 14 19
10 13 18
10 14 18
10 13 17
11 14 19
11 14 19
11 14 19
10 13 18
12 15 20
9 12 17
10 13 18
10 13 18
11 14 19
11 14 19
10 13 18
11 14 19
12 15 20
10 13 18
11 14 19
12 15 20
12 15 20
12 16 21
12 16 21
11 15 20
11 15 20
12 16 21
11 14 19
11 14 19
11 14 19
12 15 21
11 14 19
12 16 22
12 16 22
12 15 21
11 14 19
12 15 21
11 15 20
11 15 20
11 15 20
12 15 21
12 15 21
13 16 22
11 14 20
12 16 22
13 17 22
11 14 19
12 16 21
12 15 20
12 16 21
12 16 22
13 17 22
12 16 21
12 16 21
12 15 21
12 16 21
12 16 21
12 16 21
12 15 21
13 17 23
12 15 21
14 18 24
12 16 22
13 17 23
12 16 21
13 17 23
12 16 21
13 17 23
12 16 22
13 16 22
14 18 24
12 16 21
13 17 23
13 17 23
12 16 21
13 17 23
13 17 22
14 18 24
13 17 23
12 16 22
13 17 23
13 17 22
13 17 22
13 17 22
13 16 22
13 17 23
13 17 23
13 17 23
13 17 22
13 17 23
12 16 22
13 17 24
13 16 22
13 17 23
14 18 24
13 17 23
13 17 23
13 17 23
14 18 24
12 16 22
13 17 23
13 17 23
14 18 24
13 17 23
13 17 22
13 17 23
13 17 23
13 17 23
13 16 22
13 17 23
13 17 23
13 17 24
13 17 24
13 17 23
13 17 23
13 17 22
13 17 23
14 18 24
13 17 24
13 17 24
12 16 22
13 17 23
13 17 23
14 18 24
13 16 22
14 17 23
14 18 24
13 17 23
13 17 23
13 18 24
14 17 23
13 17 23
14 17 23
13 17 23
13 18 24
14 17 23
14 18 24
13 17 23
13 17 23
13 17 24
13 17 23
12 16 22
13 17 24
13 17 23
14 18 24
14 18 24
13 17 23
14 18 24
13 17 23
13 17 22
14 18 24
13 17 23
13 17 23
13 17 23
13 17 23
13 16 22
14 18 24
13 18 24
13 17 23
13 17 23
13 17 23
13 17 23
13 17 23
13 17 23
12 16 22
14 18 24
13 17 22
13 17 23
13 17 23
13 17 23
13 17 22
12 16 22
13 16 22
13 17 23
13 16 22
12 15 21
12 16 21
12 16 22
13 17 23
12 16 22
13 17 22
13 17 23
13 17 22
13 16 22
12 16 22
12 15 21
13 17 23
13 16 22
12 16 22
12 15 21
13 17 23
12 16 22
12 15 20
12 16 21
12 15 21
13 16 22
13 17 23
13 16 22
12 16 22
12 16 21
12 16 21
12 16 21
12 16 22
12 16 21
12 15 21
13 16 22
12 16 22
11 15 20
12 15 21
11 14 19
11 15 20
12 16 21
12 16 22
12 16 21
13 16 22
12 15 20
12 15 21
10 14 18
11 14 18
11 15 20
11 15 20
11 15 20
11 15 20
12 15 20
11 15 20
11 15 20
11 15 20
10 13 18
11 15 20
10 13 17
11 14 19
12 15 21
11 15 20
11 14 18
11 14 19
11 14 19
10 13 18
11 14 19
10 13 18
11 15 20
10 13 18
10 13 17
12 15 21
10 14 18
10 13 17
10 13 17
10 13 18
10 13 18
10 13 18
11 14 18
11 14 18
11 14 18
10 13 17
10 13 18
10 13 18
10 13 17
9 12 16
10 13 18
9 12 16
10 13 17
10 12 17
10 13 17
10 13 18
9 12 16
11 14 18
9 12 16
10 13 18
9 12 17
9 12 17
10 12 17
11 14 18
10 13 17
8 11 14
9 11 15
10 12 16
9 12 16
9 12 16
9 12 16
9 12 17
10 13 18
9 11 15
9 12 16
8 10 14
8 10 14
9 11 15
9 12 16
8 10 14
9 11 15
7 10 13
9 11 15
8 11 15
8 10 13
9 12 16
9 11 15
8 11 14
8 10 14
8 10 14
9 11 15
9 11 15
7 9 12
7 9 12
8 10 14
10 12 16
8 10 13
9 11 14
7 9 12
7 9 12
7 9 12
8 11 14
8 10 13
7 9 12
8 10 13
8 10 13
9 11 15
8 10 14
7 10 13
8 10 14
8 10 13
9 11 15
7 9 12
7 8 11
7 9 12
8 10 14
8 10 14
8 10 13
7 9 12
7 9 12
7 9 12
8 10 14
8 10 13
7 8 11
8 10 13
8 10 14
7 9 12
8 10 13
9 12 15
7 8 11
8 10 13
7 10 13
8 10 14
8 10 14
8 11 14
10 12 16
7 9 12
9 11 15
9 11 15
7 8 11
9 11 15
10 13 17
8 10 13
8 10 14
9 12 16
9 11 15
11 14 18
8 10 14
8 10 14
10 13 17
8 10 13
9 12 16
7 9 12
9 12 16
8 10 14
10 13 17
9 12 16
8 11 14
8 10 14
8 10 14
9 11 15
8 10 14
9 11 15
8 11 14
9 12 16
10 12 16
10 13 17
10 13 18
9 12 16
9 11 15
9 11 15
9 11 15
10 13 17
10 13 17
10 13 18
10 13 18
9 12 16
10 13 18
10 13 18
10 12 17
10 14 18
10 13 17
9 11 15
10 13 18
9 12 16
9 12 16
10 12 16
10 13 17
10 13 17
10 13 18
9 12 16
10 13 17
10 13 17
10 13 18
10 12 17
10 13 18
11 15 20
10 13 18
11 14 19
11 14 18
11 14 18
11 14 19
11 14 18
10 13 18
11 14 19
12 15 20
12 16 21
10 13 17
11 14 18
11 14 19
12 15 21
11 15 20
10 14 18
12 16 21
11 14 18
10 13 18
10 14 18
12 15 21
11 15 20
12 15 20
11 14 19
12 16 21
12 15 20
12 16 21
12 15 20
12 16 21
11 14 19
11 15 20
12 16 21
12 15 21
12 15 21
12 16 21
12 16 21
11 15 20
11 14 19
12 16 21
11 14 19
12 15 20
12 15 21
11 15 20
13 17 22
12 16 21
12 16 21
13 17 23
12 16 21
14 18 24
13 16 22
12 15 21
13 17 22
12 15 20
13 17 22
12 15 20
13 16 22
12 16 21
12 15 20
12 16 22
12 16 21
13 17 23
13 17 23
13 17 22
12 16 22
12 15 21
12 16 22
12 16 21
12 16 22
13 17 22
13 17 22
13 16 22
13 17 22
13 16 22
13 17 23
13 17 23
13 17 22
13 17 23
13 17 24
14 18 24
13 17 23
13 17 23
13 17 23
13 17 22
13 17 23
13 16 22
13 17 23
13 17 23
13 17 23
13 17 23
13 17 23
13 17 24
13 17 23
13 17 23
14 18 24
13 17 24
12 16 22
13 17 23
14 18 24
13 17 23
13 17 23
13 17 23
13 17 23
14 18 24
13 16 22
14 18 24
13 17 23
13 17 23
13 16 22
14 18 24
14 18 24
14 18 24
14 19 25
14 18 24
13 17 23
14 18 24
14 18 24
13 17 24
13 17 23
13 17 24
13 17 23
13 17 24
14 18 24
13 17 23
14 18 24
13 17 24
13 17 23
14 18 24
13 17 23
13 17 23
14 18 24
13 17 23
13 17 23
13 17 23
13 17 23
13 17 24
12 16 22
13 17 23
14 18 24
13 17 23
13 17 23
13 17 23
13 17 22
13 17 23
13 17 22
14 18 24
14 18 24
12 16 21
13 17 23
13 17 23
12 16 21
13 16 22
13 17 23
13 17 23
13 17 23
13 17 23
13 17 23
13 17 22
13 17 22
13 16 22
12 16 22
12 16 21
13 16 22
13 17 23
13 17 23
13 16 22
13 17 22
13 17 23
13 17 23
12 15 21
13 17 23
13 17 22
12 15 20
12 16 22
13 17 23
13 17 23
13 17 23
12 16 21
12 16 22
13 17 22
12 15 21
13 17 22
13 17 22
12 16 22
12 16 22
13 16 22
12 16 22
12 15 21
12 15 20
12 16 22
12 16 22
12 16 22
13 16 22
13 17 23
12 16 21
12 16 22
12 16 21
13 17 22
11 15 20
11 14 19
12 15 20
12 15 21
12 16 22
11 15 20
11 14 19
11 14 19
12 15 20
11 15 20
11 15 20
12 15 21
12 16 22
12 15 21
12 15 20
11 15 20
12 16 21
11 15 20
11 14 19
11 14 19
10 13 18
12 16 21
11 15 20
11 15 20
11 14 19
11 14 19
13 16 22
11 15 20
11 14 19
11 15 20
11 15 20
12 15 20
11 14 19
11 14 19
11 14 18
12 15 20
12 15 20
9 12 16
11 14 19
11 14 19
10 14 18
11 15 19
10 13 17
10 13 18
11 14 18
11 14 19
11 15 20
10 13 18
10 12 17
10 13 18
9 12 17
11 14 19
10 12 17
11 14 19
10 13 18
10 13 17
11 14 18
10 13 17
10 12 16
10 12 16
10 14 18
10 12 16
10 13 18
9 12 16
8 11 14
10 13 17
10 13 17
9 12 16
8 11 15
10 13 18
9 11 15
10 13 18
9 12 16
9 12 15
9 12 16
8 11 14
10 13 18
10 12 16
8 11 14
9 11 15
10 12 16
10 13 17
9 12 16
8 11 15
8 10 14
8 10 13
8 11 14
8 11 15
8 11 15
8 10 13
8 10 13
9 11 15
10 13 17
9 11 15
7 9 12
9 11 15
8 11 14
8 11 14
8 10 13
8 10 14
9 11 15
8 11 14
9 11 15
8 10 13
8 10 13
9 11 15
8 10 14
9 12 16
8 10 14
7 9 13
8 11 14
9 12 16
7 9 12
8 10 13
9 11 15
8 10 14
7 9 13
8 10 13
8 10 13
8 10 13
9 11 15
8 10 13
8 10 13
9 11 15
7 9 12
7 9 12
8 10 13
8 10 13
8 11 14
9 11 15
9 11 15
8 10 14
7 9 11
9 11 15
8 11 14
7 10 13
8 10 14
10 12 16
7 10 13
9 12 15
7 9 12
8 11 14
9 11 15
8 10 14
8 10 14
10 12 16
7 9 13
8 10 13
9 11 14
7 9 13
8 11 15
8 10 13
7 9 12
8 10 14
9 11 15
9 12 16
7 10 13
9 11 15
11 14 19
9 11 15
9 11 15
8 11 14
8 11 14
9 11 15
8 10 13
10 13 17
9 12 16
9 11 15
10 13 17
8 10 13
9 11 15
9 11 15
8 10 14
9 11 15
7 9 13
9 11 15
10 13 17
9 12 16
9 12 16
10 13 17
8 11 14
10 13 17
9 12 17
10 13 17
9 12 16
10 13 17
9 12 15
10 12 17
11 14 18
9 12 16
9 12 16
10 12 17
8 11 14
10 14 18
10 13 18
11 15 19
9 11 15
9 12 17
12 15 21
11 14 19
10 13 18
10 13 18
10 13 18
12 16 21
11 15 20
12 15 20
11 15 20
10 13 18
10 13 18
11 14 19
11 14 18
11 14 19
10 13 18
11 14 19
11 14 19
11 14 19
11 14 19
11 15 20
12 15 21
12 15 20
11 14 19
11 15 20
12 16 21
12 15 20
11 15 19
11 15 20
12 15 20
12 15 20
12 15 21
11 14 19
11 15 20
12 16 22
10 13 18
12 15 20
12 15 20
11 15 20
12 15 20
11 15 20
12 16 21
13 16 21
12 16 21
12 16 21
13 16 22
11 14 20
13 17 22
11 14 19
12 16 21
12 16 21
12 16 21
12 16 22
12 16 21
12 15 21
11 14 19
12 16 21
12 15 20
12 16 22
13 16 22
12 16 22
13 17 23
13 16 22
12 15 21
13 17 23
13 16 22
13 17 23
12 16 22
12 15 21
12 16 21
13 17 22
12 16 22
12 16 21
13 17 23
12 15 21
13 16 22
12 16 21
13 17 23
13 16 22
13 17 23
13 17 23
14 18 24
12 15 21
13 16 22
13 17 23
13 17 23
12 16 22
13 17 23
13 17 23
13 17 23
13 17 23
12 16 22
13 17 23
14 18 25
13 17 22
13 17 23
13 17 23
13 17 23
13 17 23
12 16 22
13 17 22
12 16 22
13 17 22
13 17 22
13 17 23
13 17 24
13 16 22
13 17 24
14 18 24
13 17 23
13 16 22
14 17 23
13 17 23
13 17 23
13 17 23
14 18 24
14 18 23
13 17 22
13 17 23
13 17 22
13 17 23
13 17 23
13 17 24
13 17 23
13 17 23
13 18 24
13 17 23
14 18 24
14 18 24
13 17 23
13 17 23
13 17 22
13 17 23
13 17 23
13 17 23
13 17 22
13 17 22
14 18 24
13 17 23
14 18 24
13 18 24
14 18 23
14 18 24
14 17 23
14 17 23
12 16 22
13 17 23
13 17 22
13 17 23
13 17 24
13 17 23
13 17 23
13 17 23
13 17 23
13 17 22
13 17 23
13 17 23
13 17 24
13 16 22
13 16 22
13 17 23
13 16 22
13 16 22
13 17 23
13 16 22
13 17 23
13 16 22
13 17 23
12 16 22
13 17 23
12 16 22
13 17 23
12 16 21
12 15 21
12 16 22
13 17 22
12 15 21
13 17 23
11 15 20
13 17 22
12 15 20
12 16 21
12 16 22
12 16 22
12 16 22
12 16 21
12 15 21
12 16 22
12 16 22
12 15 21
11 15 20
13 17 23
11 15 20
12 16 21
13 17 22
12 16 22
13 17 23
13 17 22
12 16 22
13 17 22
12 16 22
12 15 21
11 15 20
12 16 21
12 16 21
12 16 21
12 15 21
12 15 20
12 15 21
11 15 20
12 16 21
12 15 21
12 16 21
11 14 19
12 15 21
11 14 20
11 15 20
11 15 20
12 16 21
12 15 21
11 14 19
11 14 19
12 16 21
11 14 18
12 15 21
12 16 21
10 13 18
11 15 20
11 15 19
11 15 20
12 15 20
12 15 20
11 14 19
11 14 19
10 13 17
12 16 22
12 16 21
10 13 18
12 15 20
11 14 19
11 14 19
11 15 20
11 14 19
11 14 19
11 14 19
11 14 19
9 12 16
12 15 21
10 13 17
11 14 19
11 14 19
11 14 19
10 13 18
11 14 19
11 13 18
11 14 18
9 12 16
10 13 17
11 14 18
9 12 16
9 12 16
10 13 18
10 13 17
9 12 16
9 11 15
11 14 18
9 12 16
10 12 16
10 13 18
9 12 16
9 11 15
10 13 17
9 12 16
9 12 16
9 12 16
9 12 16
9 12 16
9 12 16
10 13 17
9 11 15
10 12 16
9 12 16
8 10 14
9 12 16
9 12 16
9 11 15
10 13 17
9 12 16
8 10 14
8 10 14
9 11 15
8 11 14
9 12 16
8 11 14
9 12 16
8 10 13
9 11 15
8 10 14
7 9 13
9 11 15
8 10 13
9 11 15
8 10 14
8 11 15
9 11 15
8 10 13
8 11 14
8 10 13
8 10 13
7 9 13
8 11 14
8 10 13
8 10 13
8 10 13
8 10 13
8 10 14
7 9 13
10 12 16
8 10 13
8 10 14
7 10 13
8 11 14
8 11 14
9 11 14
9 12 15
9 11 15
8 10 13
8 10 14
9 11 15
7 9 12
8 10 14
8 10 13
9 11 15
7 10 13
7 9 12
9 12 16
8 10 13
6 8 11
8 10 13
8 10 13
8 11 14
8 10 13
7 9 12
8 10 13
8 11 14
9 11 15
8 11 14
8 11 14
8 11 14
9 11 15
8 10 14
8 11 15
9 11 15
8 11 14
8 10 14
9 11 15
8 11 14
8 10 14
9 12 16
8 10 14
8 10 14
9 12 16
8 10 13
8 11 14
8 10 14
9 11 15
9 12 15
11 14 19
9 12 16
9 12 16
9 12 16
9 11 15
9 11 15
10 13 17
9 11 15
12 15 20
8 11 14
9 12 15
9 11 15
9 11 15
9 11 15
10 13 17
10 14 18
9 12 16
10 13 17
9 12 16
9 12 16
9 12 16
10 13 17
9 12 16
11 13 18
10 13 17
10 13 17
10 13 17
11 14 19
10 13 17
10 14 19
9 12 16
10 13 17
11 14 19
11 14 19
10 13 18
10 13 17
9 12 17
11 14 19
10 13 18
10 13 18
11 14 19
12 15 20
12 15 20
10 13 18
11 14 19
11 15 20
11 14 18
10 13 18
12 15 20
10 12 17
11 14 19
11 14 19
10 13 17
11 15 20
11 14 19
11 14 19
11 14 19
12 15 20
12 15 20
12 15 21
12 16 21
11 14 19
11 14 19
11 15 20
11 14 19
12 16 21
10 13 18
11 14 19
11 14 19
11 15 20
12 15 21
12 16 22
13 16 22
12 15 21
11 15 20
11 15 20
13 16 22
12 16 21
13 16 21
12 15 21
12 16 21
12 16 22
12 16 21
13 17 22
12 16 21
12 16 21
11 15 20
11 14 19
13 17 23
12 15 21
12 16 21
12 15 20
12 16 21
12 15 21
12 16 22
12 16 22
12 15 21
13 17 24
12 16 22
13 17 23
11 15 19
12 15 20
13 17 22
12 16 22
13 16 22
13 17 23
13 16 22
13 16 22
14 18 24
12 16 21
13 16 22
14 18 24
12 15 21
13 17 22
13 17 24
12 16 22
13 17 23
13 17 23
12 16 22
13 16 22
13 17 23
13 17 23
13 17 22
14 17 23
13 16 22
14 18 24
13 17 23
13 17 23
13 17 23
13 16 22
14 18 24
13 17 23
13 17 23
13 17 24
13 17 23
13 17 23
13 16 22
13 17 23
13 17 23
12 16 22
13 17 23
13 17 24
13 17 23
13 17 23
13 17 23
13 17 23
14 18 24
13 17 23
13 17 23
13 17 23
13 17 23
13 17 23
14 18 24
14 18 24
14 18 24
14 18 24
14 18 24
13 17 23
13 17 24
13 17 23
13 17 23
13 17 23
14 18 24
14 18 24
13 17 23
13 17 23
13 17 24
13 17 23
13 17 24
13 17 23
13 17 23
13 16 22
13 17 23
13 17 23
12 16 22
13 16 22
14 18 24
14 18 24
13 17 23
13 17 24
13 17 23
13 18 24
13 17 23
14 17 23
13 17 23
13 17 23
13 17 23
13 17 23
14 18 24
13 17 23
13 17 22
13 17 23
13 16 22
13 17 23
13 17 23
13 17 23
14 18 24
13 16 22
12 16 22
13 17 22
13 17 23
14 18 24
13 17 23
13 17 22
13 16 22
13 17 23
12 16 22
12 15 21
13 17 23
12 16 21
12 16 22
12 16 22
12 16 22
12 16 22
13 16 22
13 17 23
13 17 22
13 17 22
13 16 22
12 16 21
12 16 22
13 17 24
12 16 21
11 15 20
12 15 21
12 16 21
11 15 20
12 16 22
12 16 21
12 15 21
12 16 21
13 17 22
12 16 21
12 15 21
13 16 21
12 15 21
11 15 20
11 14 19
11 14 19
11 15 20
12 16 22
12 16 21
12 16 22
11 15 20
12 16 21
12 16 22
12 16 22
12 16 21
12 16 21
11 14 20
12 15 21
12 15 21
11 14 19
12 15 21
11 15 20
13 17 23
11 14 18
12 16 21
12 15 21
12 16 21
12 15 20
12 16 21
12 15 20
10 13 17
11 14 19
12 15 20
11 15 20
11 15 20
10 13 18
11 14 19
11 14 19
11 14 19
11 14 19
11 14 19
10 13 18
9 12 17
11 14 18
11 14 19
10 12 17
12 15 20
11 14 19
11 14 18
11 14 18
11 14 19
10 13 18
10 14 18
9 11 15
11 15 20
10 13 18
11 14 19
9 12 16
10 13 17
9 12 17
11 14 19
9 12 16
11 14 19
10 13 17
10 13 17
9 12 16
10 12 17
8 11 14
9 12 16
11 14 19
9 12 16
10 13 17
10 13 17
10 12 17
9 11 15
10 13 18
9 11 15
9 12 16
9 11 15
10 12 16
10 13 18
9 12 16
10 13 17
11 13 18
9 11 15
9 11 15
9 11 15
8 10 13
9 11 15
10 13 18
8 10 14
9 12 16
9 12 16
8 10 14
8 10 13
8 10 13
8 11 14
9 12 15
9 12 16
9 11 15
9 11 15
9 11 15
9 12 15
8 10 13
9 12 15
10 12 16
9 11 15
8 10 14
8 10 13
8 10 13
9 12 15
9 11 15
8 10 13
9 12 15
9 11 15
10 13 17
8 10 13
8 11 14
8 10 14
8 10 14
6 8 11
7 9 12
8 10 13
7 9 12
9 11 15
8 11 14
8 11 14
8 11 15
9 12 16
9 11 15
8 10 13
8 10 13
7 9 12
9 11 15
9 11 15
8 10 13
8 11 14
9 11 15
8 11 14
8 10 14
7 10 13
8 11 14
8 11 14
8 10 14
10 13 17
9 11 14
9 11 14
7 9 12
8 10 14
7 10 13
8 11 14
7 8 11
9 11 15
8 11 14
8 10 14
8 10 14
7 10 13
8 11 14
10 12 16
8 11 15
8 10 13
9 12 16
9 11 15
8 11 15
9 11 15
9 12 16
8 11 14
10 13 17
10 13 17
9 12 16
8 11 14
9 12 17
10 13 18
10 13 17
10 13 17
9 11 15
9 12 16
10 13 17
10 13 17
9 12 16
9 12 16
9 12 16
9 11 15
11 14 19
11 14 19
8 11 14
9 11 15
9 12 17
10 12 17
10 13 17
10 13 17
10 13 17
10 13 18
10 13 18
11 14 19
11 14 19
10 13 17
10 13 18
10 13 18
12 15 20
11 14 19
10 13 17
9 12 16
10 13 18
11 15 20
11 15 20
11 15 20
11 15 20
11 14 19
12 15 20
12 15 21
11 15 19
11 14 19
11 14 19
11 15 20
11 14 19
11 14 19
11 14 18
11 15 20
12 15 20
12 15 21
10 13 18
12 15 21
12 15 20
12 15 21
11 14 20
12 15 20
11 15 20
11 14 19
11 14 19
12 15 21
12 16 21
12 15 20
11 14 19
11 14 19
12 16 22
12 16 21
12 16 21
11 14 19
12 16 21
13 17 22
13 16 22
11 15 20
13 17 23
12 15 21
13 17 23
12 16 21
12 16 21
11 15 20
13 17 22
12 15 21
12 16 21
13 16 22
12 15 21
12 15 21
13 17 22
12 16 21
12 16 21
12 16 21
13 17 23
13 17 23
12 16 21
13 17 23
11 14 19
12 16 22
12 16 21
12 16 21
13 17 23
12 16 21
13 17 23
13 17 23
13 17 22
12 15 21
13 17 23
12 16 21
13 17 23
13 16 22
12 16 21
12 16 22
13 17 23
13 17 24
12 16 22
13 16 22
13 17 22
13 17 23
13 17 23
13 17 23
13 17 23
14 18 24
12 16 21
13 17 22
13 17 23
13 16 22
13 17 22
13 17 23
14 18 24
12 16 22
12 16 22
13 18 24
13 17 23
13 17 23
13 17 23
13 16 22
13 17 22
13 17 22
13 17 23
13 17 23
12 16 22
13 17 24
13 17 22
13 17 22
13 18 24
14 18 24
13 17 23
13 17 24
13 17 23
14 18 24
14 18 24
13 17 24
13 18 24
13 17 23
13 17 23
14 18 24
13 17 22
13 17 23
13 17 24
14 18 24
14 18 24
13 17 23
13 17 23
13 17 23
13 17 23
13 17 23
14 18 24
14 18 24
13 17 23
12 16 21
13 17 22
13 17 23
13 17 24
14 18 25
13 16 22
13 17 23
13 17 23
13 17 22
13 17 23
13 17 23
13 16 22
12 16 22
13 17 23
14 18 24
13 17 23
13 17 23
13 17 23
12 16 21
12 16 21
13 17 22
13 17 23
12 16 21
13 16 22
13 17 23
13 17 23
13 17 22
13 17 23
13 16 22
13 17 22
13 16 22
12 16 22
13 17 23
12 16 21
12 16 22
14 18 24
13 17 23
13 16 22
13 16 22
12 16 21
13 17 22
12 16 21
13 17 23
12 16 21
12 16 21
13 16 22
13 16 22
12 16 22
13 17 23
12 16 21
13 16 22
12 16 22
11 15 20
12 16 21
12 16 22
12 15 20
13 17 23
12 16 21
12 16 21
11 15 20
12 16 21
11 15 20
12 16 21
13 16 22
12 16 21
10 14 18
12 16 21
12 16 22
12 16 21
12 15 21
12 16 22
12 16 22
12 15 21
12 15 21
12 16 21
11 15 20
13 17 23
13 17 22
12 15 20
13 16 22
12 15 21
12 15 20
12 15 20
12 15 21
12 15 20
11 14 19
11 15 20
12 15 21
12 15 20
11 14 19
12 16 21
12 16 21
11 14 19
12 15 20
12 16 21
11 15 20
11 14 19
11 14 19
12 15 21
11 14 20
11 15 19
11 15 20
11 15 20
10 13 17
11 15 20
11 15 20
10 13 18
11 14 19
11 15 20
11 14 19
11 14 19
10 14 18
11 14 18
11 14 19
11 14 19
10 13 17
10 13 18
11 14 19
9 12 16
10 12 16
10 14 18
11 14 19
10 13 17
10 13 17
10 13 17
11 14 19
11 14 19
9 11 15
10 13 17
10 13 17
11 14 18
10 13 18
11 14 18
8 11 15
10 13 17
10 13 17
9 11 15
9 11 15
11 14 18
10 12 16
10 12 17
10 13 17
10 12 16
9 12 16
10 13 17
8 10 13
9 12 16
10 13 17
9 12 16
9 11 15
10 12 17
9 12 16
9 11 15
9 12 16
8 10 14
9 11 15
8 10 13
8 10 14
9 11 15
9 12 16
10 13 17
9 11 15
9 11 15
9 12 16
7 9 12
8 10 14
7 9 13
8 11 14
9 12 16
8 11 14
9 12 15
9 11 15
9 12 15
9 12 16
9 11 14
8 10 14
8 11 14
8 10 14
8 11 15
9 12 15
8 10 13
8 10 13
8 10 14
10 12 17
8 10 13
8 11 14
8 10 14
7 9 11
9 11 15
8 11 14
9 12 16
10 13 17
8 10 14
8 11 14
9 12 15
7 9 12
9 11 15
8 11 14
8 10 14
9 11 15
8 10 14
9 11 15
8 11 14
9 11 15
9 11 15
8 10 14
9 11 14
8 11 14
9 12 16
9 11 15
9 12 15
9 11 15
8 10 14
9 12 15
7 10 13
9 11 15
8 10 13
10 13 17
9 12 15
8 11 14
9 12 15
9 12 15
8 10 14
10 12 17
9 12 16
9 11 15
10 13 17
10 13 17
10 12 17
9 11 15
8 11 14
9 12 16
10 13 18
9 12 15
9 12 15
9 12 16
8 10 13
10 13 17
10 13 18
9 12 16
10 13 17
10 13 18
10 13 17
10 13 17
10 13 17
9 11 15
10 13 17
10 13 18
9 12 16
9 12 16
11 14 18
10 13 17
10 13 17
11 14 18
11 14 18
10 13 18
11 14 18
10 13 17
10 13 17
10 13 17
9 12 17
10 14 18
9 12 16
11 15 19
10 13 18
11 14 19
11 14 19
10 12 17
10 13 18
11 14 18
10 13 17
11 14 18
11 14 19
11 15 20
11 14 19
11 14 19
10 13 18
10 13 18
11 14 19
12 16 21
10 13 18
11 15 20
11 14 19
12 15 20
11 14 19
12 15 20
11 15 20
11 14 19
11 15 20
11 14 19
11 14 19
11 15 20
12 15 21
12 16 21
11 14 19
11 15 20
12 16 21
11 15 20
12 16 21
11 15 20
12 15 20
12 16 21
12 15 20
11 15 20
12 15 21
12 15 21
12 16 22
12 15 20
12 16 22
12 16 21
12 15 21
12 16 22
12 15 21
12 16 22
12 15 20
12 15 21
12 15 21
12 16 21
12 15 21
12 15 21
12 15 21
13 16 22
12 15 21
12 16 21
12 16 21
12 16 21
12 16 21
12 16 22
12 16 21
12 15 21
12 16 21
12 16 21
13 17 23
12 16 22
13 17 23
12 16 22
12 16 21
13 16 22
12 16 21
12 16 21
12 16 21
13 17 24
13 16 22
13 16 22
13 16 22
13 17 23
13 18 24
13 16 22
13 17 23
13 17 23
13 17 23
13 17 23
13 17 23
13 17 23
13 17 23
12 15 20
12 15 21
14 18 24
13 17 23
13 17 23
13 17 23
13 17 23
13 17 23
14 18 24
13 17 23
13 17 23
13 17 23
13 17 22
13 17 22
13 17 23
13 17 24
13 17 22
13 17 23
14 18 24
14 18 24
13 18 24
13 17 23
14 18 24
14 18 24
13 17 22
13 17 23
14 18 24
12 16 21
14 18 24
13 17 23
13 17 24
13 17 24
13 17 23
14 17 23
14 18 24
13 17 23
14 17 23
13 17 23
13 17 24
14 18 24
14 18 24
13 17 23
14 18 24
13 17 24
13 18 24
14 18 24
13 17 23
14 17 23
14 18 24
14 18 25
14 18 23
13 17 23
13 17 23
13 17 23
12 16 22
13 17 23
13 17 23
13 17 23
13 17 23
13 17 23
13 17 23
13 17 23
13 17 24
13 17 23
13 16 22
13 17 22
13 17 23
13 17 23
13 16 22
12 15 21
13 17 24
13 17 23
13 16 22
13 17 23
12 16 22
13 17 22
13 17 23
13 17 23
12 16 22
12 16 21
13 17 22
13 16 22
13 17 23
13 17 23
12 16 21
13 17 23
13 17 23
13 16 22
13 16 22
11 15 20
13 17 23
12 16 21
12 15 21
12 16 21
12 15 21
12 16 22
12 16 21
13 17 23
12 16 22
13 16 22
13 17 23
13 17 23
13 16 22
13 16 22
12 15 20
12 16 22
12 15 21
12 16 22
13 16 22
12 15 21
12 16 21
12 15 20
12 16 21
13 17 23
11 14 19
11 14 20
12 16 21
11 14 19
13 16 22
13 17 22
11 14 19
13 17 22
12 15 20
12 16 21
11 15 20
12 15 20
12 15 21
12 16 21
12 15 20
11 15 20
12 15 20
12 15 20
11 15 20
11 14 19
11 15 20
11 15 20
12 15 20
12 15 20
11 15 20
11 14 19
11 14 18
11 14 20
11 14 19
10 13 18
11 14 19
11 14 19
11 15 20
11 15 19
11 14 19
11 14 19
10 13 18
11 14 19
12 16 21
11 14 19
11 14 19
11 14 18
12 15 20
11 14 19
11 14 20
11 15 20
11 14 19
10 13 18
9 12 15
10 13 18
10 13 18
10 13 18
11 14 19
11 14 19
10 13 17
11 14 19
10 13 18
10 13 17
10 13 17
10 13 17
11 14 19
10 13 18
9 12 16
10 12 17
10 13 18
9 12 16
9 12 16
9 11 15
10 13 18
10 13 17
9 12 16
9 11 15
9 12 16
10 13 17
8 10 14
8 11 14
10 13 17
9 11 15
8 11 15
9 12 16
9 12 16
9 12 16
8 11 15
8 10 13
10 12 17
9 12 16
9 11 15
9 11 15
8 10 14
9 12 17
9 12 15
9 11 15
10 13 17
10 12 17
9 12 16
9 12 15
8 11 14
9 11 14
8 10 14
9 11 15
9 12 16
8 11 14
9 12 16
9 12 16
8 11 14
8 10 14
8 10 13
9 11 14
9 12 16
8 11 14
8 11 14
9 12 16
8 10 14
7 9 11
8 10 14
9 11 15
8 10 14
9 12 16
8 10 14
8 11 14
7 9 13
8 11 15
9 11 15
10 12 16
7 9 13
7 10 13
8 10 14
9 11 15
9 12 15
9 11 15
8 11 14
10 13 17
8 10 14
7 9 12
8 10 14
10 12 16
8 10 14
9 12 16
7 9 13
9 11 15
8 11 15
9 11 15
9 11 15
9 11 15
8 11 14
9 11 15
9 11 15
9 11 15
10 13 17
8 11 14
9 11 15
8 11 14
9 11 15
9 12 15
9 12 16
9 11 15
9 11 15
8 11 14
10 13 17
9 12 17
10 13 17
10 13 17
10 13 17
10 12 17
9 11 15
9 12 16
8 11 15
9 12 15
10 12 16
9 12 16
9 12 16
10 13 18
8 11 15
10 12 17
10 13 18
10 13 18
10 13 17
9 11 15
9 12 16
9 12 17
10 13 17
10 13 17
11 14 19
10 13 18
10 13 18
11 14 18
9 12 16
10 13 18
10 13 18
10 13 17
11 15 20
11 14 19
10 13 18
10 13 18
11 15 20
11 14 19
10 13 18
11 14 19
11 15 20
11 14 18
11 15 20
11 14 18
11 14 19
11 14 19
11 14 18
11 14 19
11 14 20
12 15 20
11 14 18
11 15 20
11 14 19
11 14 19
10 13 18
11 14 18
11 14 19
11 15 20
12 15 21
11 15 20
11 14 18
11 14 19
11 14 19
11 15 20
12 16 21
12 15 21
12 15 21
12 16 21
12 16 21
11 15 20
12 16 21
12 15 20
11 14 19
13 17 22
12 15 21
12 15 21
11 15 20
12 16 22
11 15 20
11 14 19
13 17 22
13 17 22
12 15 21
12 15 21
12 16 22
12 16 22
13 17 23
12 15 21
11 15 20
11 14 19
12 15 20
12 16 21
12 16 22
12 16 21
12 16 21
12 16 21
12 16 21
12 16 21
13 17 23
13 17 23
12 16 21
13 16 22
11 14 19
13 16 22
12 15 20
12 16 22
13 17 23
13 16 22
13 17 22
13 17 23
12 16 21
13 17 22
12 16 22
13 17 23
12 16 22
13 17 23
13 17 23
13 17 23
13 17 23
13 16 22
13 16 22
13 17 22
13 17 23
13 16 22
13 17 22
13 17 22
13 17 23
13 17 23
13 16 22
13 16 22
13 17 23
13 17 23
13 17 22
12 16 22
14 18 24
13 17 22
13 17 23
13 17 23
14 17 23
13 17 23
14 17 23
12 16 22
13 17 23
13 17 23
14 18 24
13 17 23
14 18 24
13 17 23
13 17 23
13 17 23
14 18 24
13 17 23
13 17 23
13 17 23
13 17 23
13 18 24
12 16 22
13 17 22
13 17 23
13 17 23
13 17 22
13 17 23
13 16 22
14 18 24
13 17 23
13 17 23
14 17 23
13 17 24
13 17 23
13 17 23
14 18 24
14 18 24
13 17 23
13 17 23
14 18 24
13 17 23
14 18 24
13 17 23
13 17 23
12 16 22
14 18 24
13 17 22
13 17 23
13 17 24
13 16 22
13 17 22
13 17 23
13 17 23
13 17 23
14 18 24
13 17 23
11 15 20
13 17 23
14 18 24
12 16 21
13 17 23
13 17 23
14 18 24
13 16 22
12 15 21
13 16 22
13 17 23
13 17 23
12 16 22
13 16 22
12 16 21
13 17 23
13 17 23
13 16 22
12 15 21
12 16 22
13 17 23
12 16 22
12 15 20
13 17 23
11 15 20
13 16 22
12 15 21
12 16 22
12 16 21
12 15 21
13 16 22
13 16 22
11 15 20
13 17 22
13 16 22
12 16 21
14 17 23
13 17 23
11 14 19
13 16 22
12 16 21
12 16 22
11 15 20
11 14 19
13 16 22
12 16 21
12 15 21
12 15 21
11 15 20
12 16 21
13 16 22
12 16 22
11 15 20
12 15 21
12 16 21
12 16 22
12 15 20
10 14 18
12 16 21
11 14 19
13 16 22
12 15 21
12 15 21
12 15 20
11 15 20
11 15 20
12 15 20
11 14 19
12 15 20
11 15 20
11 14 19
12 15 21
10 14 18
12 15 21
12 15 20
11 15 20
11 15 20
10 13 18
10 13 17
11 14 19
10 14 18
12 15 20
11 14 19
10 13 18
10 13 18
11 15 20
10 13 18
12 16 21
11 14 19
10 13 18
10 14 18
10 13 18
11 14 19
10 13 17
11 14 19
10 13 18
11 15 20
11 15 19
10 13 18
10 14 18
10 14 18
9 12 16
10 13 18
11 14 18
11 14 19
11 14 18
9 12 16
11 14 18
10 13 18
11 14 18
9 12 16
10 13 17
11 14 19
10 13 17
9 12 16
10 13 18
9 12 15
10 13 17
9 12 15
8 11 14
10 13 18
10 13 17
8 11 15
9 12 16
10 13 17
10 13 18
9 11 15
10 13 17
10 13 18
10 12 16
9 12 16
9 12 16
9 12 16
11 14 18
9 12 16
9 12 16
8 10 14
9 11 15
7 9 12
9 12 16
9 12 16
9 11 15
9 12 16
9 11 15
8 10 13
9 11 15
9 12 16
10 13 17
8 11 14
9 11 15
9 11 15
9 12 15
10 13 17
8 11 14
8 11 14
8 11 14
8 10 13
7 10 13
8 10 14
8 10 14
9 12 16
9 11 15
9 11 15
8 11 15
8 10 14
8 10 14
8 10 13
8 11 14
10 12 16
7 9 13
8 10 13
8 10 14
8 11 14
9 11 15
7 9 13
9 12 15
8 10 14
9 11 15
7 9 11
8 10 13
8 10 14
7 9 12
8 11 14
8 10 14
9 11 15
9 11 15
10 12 17
10 13 17
9 11 15
9 12 15
10 12 16
9 11 15
10 12 16
9 11 15
8 10 13
10 13 17
9 12 16
9 11 15
9 11 15
8 10 14
9 11 15
9 11 15
10 13 18
8 11 14
9 11 15
9 11 15
8 10 14
9 12 16
9 12 16
9 12 16
9 11 15
10 12 17
10 13 17
9 12 16
9 12 16
9 11 15
8 11 15
10 12 16
9 12 16
10 13 17
9 12 17
9 12 16
10 13 17
10 13 17
9 11 15
11 14 19
10 12 17
9 12 17
9 12 15
10 13 18
11 15 20
11 14 18
10 13 17
10 13 17
7 9 12
10 13 18
10 13 17
11 14 18
9 12 16
9 12 16
11 14 19
10 13 17
11 14 19
11 14 19
9 12 16
10 13 18
10 13 17
9 12 17
12 15 21
10 13 17
11 15 19
12 15 21
11 14 19
11 14 19
10 13 18
11 15 20
11 14 19
10 14 18
11 15 20
11 15 20
10 13 18
10 13 17
10 13 18
12 16 21
11 15 20
11 14 19
11 14 18
11 15 20
12 15 20
11 15 20
11 15 20
12 16 21
12 15 20
11 14 18
10 13 18
12 15 21
12 15 20
12 15 21
12 15 20
12 16 21
12 16 22
12 15 20
12 15 20
10 13 18
13 17 22
12 15 21
12 16 22
11 14 19
12 15 20
13 16 22
13 16 22
11 15 20
12 15 21
12 15 21
13 17 22
13 16 22
11 15 20
12 15 21
12 16 21
13 16 22
13 16 22
12 15 20
13 16 22
12 16 21
11 15 20
12 15 21
12 16 22
12 16 22
13 16 22
13 17 23
12 16 22
13 17 23
13 16 22
12 16 22
12 15 20
12 15 21
12 16 21
13 16 22
12 16 22
13 17 23
12 15 21
11 15 20
14 17 23
12 16 22
13 16 22
12 15 20
13 17 24
13 16 22
13 16 22
13 17 23
12 16 22
13 16 22
13 17 23
12 16 22
13 17 24
13 17 23
12 16 21
13 17 23
12 16 22
13 17 23
13 17 23
12 16 21
13 17 23
12 16 22
13 17 23
14 17 23
12 16 22
13 17 23
13 17 23
13 17 23
13 17 23
12 16 21
13 17 24
13 17 24
13 18 24
13 17 22
14 18 24
13 17 23
13 17 23
14 18 23
13 17 23
14 18 24
13 17 23
13 17 22
13 17 23
13 17 23
13 18 24
13 17 24
13 17 23
14 18 24
14 18 24
14 18 24
14 17 23
13 17 23
13 17 23
14 18 25
13 17 24
13 16 22
13 17 23
14 18 24
12 16 22
12 16 22
13 17 23
12 16 22
13 17 22
13 17 23
13 17 22
14 18 23
13 17 23
13 17 23
13 17 23
13 17 22
13 17 22
13 17 23
13 17 23
13 17 23
13 17 23
13 17 22
13 17 23
13 17 23
13 17 24
13 17 23
13 17 23
12 16 22
13 17 23
12 16 21
13 17 24
14 18 23
13 17 23
13 17 23
13 17 23
13 17 22
13 16 22
13 17 23
13 17 22
12 16 21
12 16 21
13 17 22
12 16 22
13 17 22
12 16 22
13 16 22
12 16 22
12 15 21
12 15 21
13 17 22
12 16 22
12 16 22
13 16 22
12 15 21
12 16 22
12 16 21
12 16 22
12 16 21
12 16 22
12 16 21
11 15 20
12 16 21
13 17 23
12 16 21
13 17 23
12 16 22
13 16 22
12 16 21
13 16 22
12 15 20
12 16 21
11 14 19
12 15 21
12 16 21
12 16 21
12 15 21
12 15 21
11 14 18
12 16 21
9 12 16
11 15 20
12 15 21
11 15 20
11 14 20
11 14 19
12 15 21
12 16 22
12 16 21
11 14 19
12 15 20
11 15 20
10 13 18
12 16 22
10 14 18
12 16 21
12 15 21
11 14 19
11 14 19
11 15 20
10 13 18
12 16 21
12 15 21
12 15 21
11 15 20
12 15 21
12 16 21
11 15 20
10 14 18
11 14 19
11 14 19
11 15 20
11 15 20
10 13 18
10 13 18
11 15 20
11 14 19
12 15 20
11 15 20
11 14 19
10 14 19
11 15 20
10 13 17
10 13 18
11 14 19
12 15 20
10 14 18
10 13 17
10 13 17
9 12 16
10 13 18
9 12 16
10 13 17
11 14 19
10 13 18
10 13 18
9 12 16
10 12 17
11 14 19
10 13 18
10 13 17
10 12 17
10 13 17
10 13 17
10 13 17
10 13 17
10 13 17
9 12 16
9 11 15
10 13 18
10 12 17
9 12 16
10 13 18
9 11 15
9 11 15
10 12 17
10 13 18
9 11 15
10 13 17
10 13 17
9 12 16
8 11 15
10 13 17
9 12 16
8 10 13
9 11 15
9 12 16
8 11 14
9 12 16
8 10 14
9 11 14
10 13 17
10 12 17
8 10 13
9 12 16
8 11 15
9 12 16
8 10 14
9 12 15
9 11 15
8 11 14
9 12 16
9 11 15
9 11 15
9 11 15
9 11 15
9 12 16
9 11 15
9 12 17
9 11 15
9 12 16
8 11 14
9 12 16
9 12 16
8 10 13
8 10 13
8 11 15
8 11 14
9 11 15
9 12 16
9 12 15
9 12 16
7 9 12
8 11 14
9 11 15
8 11 14
8 10 14
9 12 16
8 11 14
9 11 15
9 12 16
8 10 14
8 10 13
8 11 15
9 12 16
8 10 14
9 11 15
9 12 16
10 12 17
8 10 14
9 11 15
9 11 15
9 11 15
9 12 16
8 11 14
8 10 13
8 11 14
10 12 16
9 11 15
10 13 17
9 12 16
9 12 16
9 12 16
9 11 15
8 11 14
9 11 15
10 12 17
8 11 15
10 12 17
9 12 16
10 13 18
10 13 18
9 12 16
9 11 15
10 13 17
10 13 18
10 12 17
10 13 18
11 14 18
9 12 16
11 14 19
8 11 15
11 14 19
10 13 17
11 14 18
11 14 19
11 14 19
10 13 18
10 12 17
10 13 17
10 13 18
9 12 16
10 13 18
11 14 19
11 14 19
10 13 18
10 13 17
10 13 17
11 14 19
10 12 16
10 13 18
10 13 18
11 14 19
11 14 18
11 13 18
10 13 18
12 16 21
10 13 18
11 14 19
11 14 18
11 14 19
11 14 19
11 14 19
12 15 20
11 15 20
11 14 19
12 15 20
11 15 20
11 14 19
11 14 19
11 15 19
11 15 20
11 14 19
12 15 21
11 14 19
12 15 20
12 15 21
11 15 20
11 14 19
12 16 21
10 13 17
11 15 20
11 15 20
11 15 20
12 16 21
12 15 20
11 14 19
12 15 20
11 15 20
12 16 21
10 13 18
11 15 20
11 14 19
12 16 21
12 16 21
12 15 21
12 16 21
12 16 21
12 16 21
12 16 21
12 16 22
12 15 21
11 14 19
13 17 22
11 15 20
13 17 23
12 16 22
13 16 22
11 15 20
13 16 22
12 16 21
12 15 21
12 16 21
12 16 21
11 14 19
13 16 22
12 16 21
13 17 23
12 16 21
13 16 22
13 16 22
12 16 22
12 16 21
12 16 21
12 16 21
13 17 23
12 15 21
13 17 23
13 17 22
13 17 22
13 17 23
12 16 21
13 16 22
11 14 20
14 18 24
13 16 22
13 16 22
13 17 23
12 15 21
14 18 24
13 17 24
12 15 21
13 16 22
13 17 23
13 17 23
13 17 22
13 17 22
14 18 24
13 17 23
13 16 22
13 17 23
13 17 22
14 18 24
13 17 24
12 16 21
13 17 23
13 17 23
13 17 23
13 16 22
12 16 22
13 16 22
14 18 24
13 17 23
13 17 23
13 16 22
13 17 23
14 18 24
13 17 23
13 17 23
13 17 23
13 17 23
13 17 23
13 17 24
13 17 24
13 17 23
13 17 23
13 17 24
14 18 24
13 17 23
14 18 24
13 17 23
14 18 24
13 17 23
14 18 24
13 16 22
14 18 24
13 17 23
12 16 21
13 17 23
13 17 23
13 16 22
13 17 23
13 17 23
13 17 23
13 17 23
12 16 21
13 17 23
14 17 23
13 18 24
14 18 24
14 18 24
13 18 24
13 17 23
14 18 24
11 15 20
13 16 22
13 18 24
13 17 23
14 18 24
13 17 23
12 16 21
13 17 22
12 16 22
12 16 21
13 17 22
13 16 22
13 17 23
14 18 24
13 17 23
13 16 22
13 16 22
13 17 23
13 16 22
14 17 23
13 17 24
13 17 23
13 16 22
14 18 24
13 16 22
12 16 22
12 16 21
12 15 21
12 16 21
12 16 22
13 16 22
13 17 23
13 17 22
13 16 22
12 15 20
11 15 20
13 16 22
12 16 22
12 15 21
12 15 20
13 16 22
11 15 20
13 16 22
12 16 22
12 16 22
12 16 21
12 15 21
11 14 19
12 16 22
12 15 20
13 16 22
13 16 22
12 15 21
12 16 21
12 15 20
12 16 21
12 16 21
12 15 20
11 15 20
12 16 21
12 15 20
12 15 21
12 16 21
12 16 21
11 15 20
11 15 20
12 16 22
12 15 20
12 15 21
11 14 19
11 14 18
11 15 20
11 14 19
11 14 19
12 15 20
12 15 21
12 15 20
10 14 18
11 15 20
11 15 20
10 13 17
12 16 21
11 15 20
12 15 20
10 13 18
12 16 21
10 13 18
10 13 18
11 14 19
10 13 17
11 14 19
10 14 18
10 13 17
11 14 18
11 15 20
11 14 19
11 14 19
10 13 18
10 13 18
10 13 17
10 13 18
10 13 17
10 13 18
10 13 18
10 13 18
11 14 19
11 14 19
9 12 16
11 14 19
10 13 17
11 14 18
10 13 17
10 13 18
10 13 17
10 13 18
11 14 19
9 12 16
10 13 18
10 13 18
10 13 18
10 13 17
11 14 18
9 12 16
9 12 16
9 12 16
10 13 17
9 12 16
8 10 14
8 11 15
8 11 14
10 12 17
9 12 16
10 12 16
9 11 15
9 12 16
9 12 16
10 13 17
8 10 13
10 12 17
10 13 17
9 12 16
9 12 16
9 12 16
9 11 15
10 12 17
9 11 15
10 13 17
9 11 15
10 13 17
9 12 16
10 13 17
8 11 14
8 11 15
9 11 15
9 12 16
8 11 14
9 11 15
9 11 15
7 10 13
10 12 17
7 10 13
9 11 14
10 13 17
8 11 14
7 10 13
9 11 15
9 12 16
9 11 15
9 11 15
10 12 16
9 12 16
9 11 15
8 10 13
9 11 15
8 10 13
9 11 15
9 12 16
9 11 15
8 10 14
9 12 16
8 11 14
9 11 15
9 12 16
9 11 15
9 12 16
8 10 14
9 12 16
9 12 15
8 10 13
10 12 16
8 10 14
9 12 16
8 10 14
11 14 19
8 11 14
8 11 15
9 11 15
8 11 14
8 11 15
9 12 15
10 12 16
10 12 17
10 12 16
10 12 17
9 12 16
10 13 17
8 10 14
9 12 16
9 12 16
10 13 17
9 12 16
9 12 16
9 12 15
10 13 17
10 13 17
10 13 18
9 12 16
10 13 17
10 13 17
9 12 16
9 12 16
10 13 18
10 13 18
9 11 15
10 12 16
11 14 19
10 13 17
8 10 14
10 13 18
10 13 18
10 13 17
11 14 19
10 12 17
10 13 17
9 12 16
10 12 17
9 12 17
9 12 16
9 12 16
11 15 20
10 13 17
10 13 17
9 12 16
9 11 15
11 14 19
10 13 17
10 14 18
11 14 18
10 13 18
9 12 16
11 14 19
12 16 22
10 13 18
11 14 19
10 13 18
10 13 17
11 14 19
11 15 19
11 14 18
11 14 19
10 14 18
11 15 20
11 14 18
11 15 20
11 15 20
10 13 18
11 14 19
12 16 21
12 15 21
12 15 21
12 15 20
12 16 21
12 15 20
11 14 18
11 15 19
11 15 20
10 13 18
11 15 20
11 14 18
12 16 22
12 15 21
11 14 19
12 15 20
12 15 21
11 14 19
11 15 20
11 14 19
12 15 20
12 15 21
12 16 22
13 16 22
12 15 21
12 16 21
12 15 21
12 16 21
12 16 21
12 16 22
12 16 21
13 16 22
12 15 20
11 15 20
12 15 21
12 16 21
13 16 22
12 16 21
13 17 23
12 16 22
12 16 21
12 15 21
12 16 21
12 15 20
13 17 23
12 16 21
12 16 22
12 16 21
11 15 20
12 15 21
12 16 21
12 15 21
13 17 22
13 17 22
13 17 22
13 17 23
12 16 21
13 17 23
13 17 22
13 17 22
12 16 22
12 16 22
12 16 22
12 16 21
12 16 22
12 16 22
12 16 21
12 16 22
13 17 23
12 16 22
13 17 23
12 16 22
12 16 21
13 16 22
13 17 23
13 16 22
12 16 22
13 17 23
13 17 23
13 17 24
13 18 24
13 17 23
13 17 22
13 16 22
13 17 23
13 17 24
12 16 21
13 17 23
13 17 23
13 17 23
13 17 23
13 17 23
13 16 22
13 17 23
13 16 22
13 16 22
13 17 23
13 17 24
13 17 23
13 18 24
13 17 23
14 18 24
13 16 22
13 17 24
13 17 23
13 17 23
13 17 23
14 18 24
13 17 23
14 18 24
13 17 23
13 17 23
13 18 24
12 16 22
14 18 24
13 16 22
14 18 24
12 16 22
13 17 22
12 16 22
13 17 23
13 17 23
12 16 21
14 18 24
13 17 23
14 18 24
13 17 23
13 18 24
13 17 23
12 16 22
13 16 22
13 17 22
13 17 22
12 16 21
13 17 23
13 17 23
12 16 21
12 16 22
13 17 23
12 16 21
13 17 23
13 17 22
13 17 23
12 16 21
13 17 23
12 16 21
13 17 22
12 16 22
12 16 22
12 16 22
13 17 23
12 16 21
13 17 23
12 16 21
13 16 22
13 17 22
12 16 22
13 17 23
12 16 21
13 17 23
12 16 21
13 17 23
12 16 22
13 17 23
12 16 22
12 16 21
12 16 22
13 16 22
11 14 19
12 15 21
13 16 22
12 15 20
11 15 20
13 16 22
12 16 21
12 15 20
12 16 21
12 15 20
12 16 22
13 16 22
13 16 22
12 16 21
12 15 21
11 15 20
12 16 21
13 17 23
12 15 21
12 16 21
11 15 20
11 14 19
12 16 22
12 15 20
11 14 19
12 15 20
11 15 20
12 15 21
11 14 19
12 16 21
11 14 19
11 14 19
12 15 21
11 14 19
13 17 22
11 15 20
11 14 19
11 14 19
11 14 19
12 16 21
9 12 17
12 16 21
11 14 19
11 14 19
12 15 20
11 14 19
11 15 20
10 13 18
11 14 19
12 15 21
10 14 18
10 13 18
11 14 19
10 13 17
11 14 18
11 14 19
10 13 18
10 13 17
10 13 18
11 14 19
10 12 17
10 12 17
11 14 19
11 14 18
11 14 19
10 12 17
10 12 16
9 12 16
11 14 19
10 13 17
12 15 20
10 13 18
11 14 19
11 15 20
9 11 15
11 14 19
9 12 16
10 13 18
10 13 17
11 14 18
11 14 18
11 14 19
9 12 16
10 13 17
10 12 17
10 13 17
11 14 18
9 11 15
10 13 18
11 14 18
10 13 17
9 12 15
10 12 17
9 12 16
10 13 18
9 11 15
9 12 16
11 14 18
9 12 16
8 10 14
8 10 14
8 11 14
10 13 17
7 10 13
9 11 15
10 12 16
8 11 15
9 11 15
9 11 15
10 13 18
10 13 17
10 12 16
10 12 17
9 11 15
9 11 15
10 13 18
9 11 15
10 12 17
11 14 19
9 11 15
9 11 15
10 12 16
9 11 15
9 11 15
9 12 16
9 11 15
10 13 17
8 10 13
9 11 15
9 12 16
9 11 15
8 11 14
9 11 15
9 12 16
9 12 16
9 11 15
10 12 16
10 12 16
7 9 12
9 12 15
9 12 16
8 11 14
10 13 17
8 11 15
9 12 16
10 12 16
8 10 14
9 12 15
9 12 16
9 12 16
9 12 16
9 11 15
8 10 14
8 11 14
9 12 16
9 12 16
7 9 13
9 11 15
9 11 15
10 13 17
10 13 17
9 11 15
10 13 17
9 11 15
9 11 15
9 12 15
9 12 16
9 12 15
10 13 18
9 12 16
9 12 16
8 10 14
10 13 18
9 12 16
9 12 16
9 11 15
9 11 15
9 12 16
11 14 19
9 12 16
10 13 18
10 13 17
8 11 14
11 14 19
10 13 18
9 12 16
10 13 18
9 12 16
10 13 17
10 13 18
9 11 15
11 14 19
10 13 18
10 13 18
9 12 16
10 13 18
11 14 18
10 13 17
9 12 16
10 13 18
10 13 17
9 12 16
10 12 17
8 11 14
9 12 16
10 13 18
10 13 18
9 12 16
9 12 16
9 12 16
11 14 19
11 14 19
10 13 18
10 13 18
11 15 20
11 15 20
11 14 19
10 14 18
11 14 19
9 12 16
10 14 18
11 14 19
10 14 19
11 15 19
10 14 18
11 14 19
11 14 20
12 16 21
10 13 18
12 15 20
12 15 20
11 14 18
11 14 19
11 14 19
12 15 21
12 15 20
12 16 21
11 15 20
12 15 20
12 15 20
12 16 21
11 14 20
12 16 21
11 14 19
12 15 20
11 15 20
11 14 19
11 15 20
12 16 22
13 16 22
12 16 21
12 15 20
11 14 19
12 15 20
11 14 19
13 17 22
12 15 20
12 16 21
12 16 21
11 15 20
11 14 19
12 16 21
11 14 19
12 16 21
11 15 20
12 16 22
12 16 21
12 16 21
12 15 20
12 15 21
13 17 23
13 17 22
12 15 20
12 15 21
13 17 22
11 14 20
12 16 21
12 15 21
12 16 22
13 16 21
13 17 23
12 16 21
13 16 22
13 17 23
13 17 24
12 16 21
12 15 21
12 16 21
13 17 22
13 17 22
13 17 22
12 15 21
13 16 22
12 16 22
13 16 22
13 17 22
12 16 22
13 17 23
13 17 23
12 16 22
13 17 23
13 17 23
13 17 23
13 16 22
13 17 23
13 16 22
13 17 22
13 17 23
13 17 23
13 17 23
13 17 23
13 17 22
13 17 23
13 17 23
13 17 23
13 17 23
13 17 24
13 17 23
13 17 23
13 17 23
13 17 23
13 17 23
13 17 23
13 16 22
13 17 23
12 16 22
13 17 23
13 17 23
13 17 24
14 18 24
14 18 24
13 17 23
13 17 23
13 17 23
13 17 23
13 17 23
14 18 24
14 18 24
14 18 24
13 17 23
13 17 23
13 16 22
13 16 22
14 17 23
14 18 25
13 17 23
13 17 23
14 18 24
13 16 22
13 17 23
14 18 24
14 17 23
13 17 22
14 18 24
12 16 22
13 17 23
13 17 23
13 16 22
13 17 23
13 17 23
13 17 22
14 18 24
12 16 22
13 17 23
13 17 24
14 18 24
13 16 22
13 17 22
13 17 23
13 17 22
13 17 23
12 16 22
14 18 24
13 17 23
12 16 21
13 17 23
13 17 22
13 17 23
13 17 23
12 16 21
12 16 22
13 17 22
13 16 22
13 16 22
13 17 23
13 17 23
12 15 21
13 17 22
12 16 22
13 17 23
12 16 21
13 17 23
13 17 23
12 16 21
13 17 23
12 16 22
12 16 21
12 16 21
13 17 22
12 15 21
12 15 21
13 17 23
13 16 22
12 15 20
12 16 21
12 16 21
12 16 21
13 16 22
12 15 21
12 16 21
12 15 20
12 16 22
12 16 21
11 15 20
12 16 21
12 15 20
13 17 22
12 16 21
11 14 19
12 16 21
12 15 20
12 15 20
12 16 21
12 16 22
12 15 20
11 15 20
12 15 21
12 15 20
11 15 20
11 15 20
10 13 17
12 15 20
11 15 20
11 14 18
12 15 20
11 14 19
11 14 19
11 14 19
12 15 20
11 14 19
11 14 19
10 13 18
11 14 19
11 14 19
11 14 19
11 14 18
10 13 18
11 14 20
11 15 19
12 15 20
11 15 20
10 14 18
11 14 19
11 15 20
10 13 18
10 13 17
11 15 20
12 15 20
12 15 20
10 13 18
10 13 18
11 14 18
11 15 19
11 14 18
10 13 18
10 13 17
11 14 19
10 13 18
10 13 17
11 14 18
9 12 16
11 15 20
11 14 19
10 13 17
11 14 19
10 13 18
11 14 19
10 13 17
11 14 18
10 13 17
10 13 17
9 12 16
10 13 17
11 15 19
9 11 15
9 12 16
10 12 17
9 12 16
9 12 15
10 12 17
8 11 15
8 11 15
9 12 16
10 13 18
9 12 17
9 12 16
9 12 16
9 12 16
10 13 17
10 13 18
10 13 17
9 11 15
8 11 14
10 12 16
9 12 16
9 12 16
9 12 16
9 12 16
10 12 16
10 13 17
9 11 15
9 12 16
9 12 16
10 12 17
9 11 15
9 12 16
8 11 15
9 11 15
9 12 16
10 12 17
9 12 16
9 12 17
10 13 17
9 11 15
8 10 14
7 9 12
9 11 15
7 10 13
10 12 16
11 14 18
9 12 15
9 12 16
9 11 15
9 11 15
10 13 17
8 10 13
8 10 14
8 11 14
9 11 15
8 11 14
9 11 15
9 11 15
8 10 14
9 11 15
9 12 16
10 13 18
9 12 16
8 10 14
9 11 15
8 11 15
8 10 13
9 11 15
9 12 15
9 11 15
9 12 16
10 13 18
9 11 15
9 12 16
9 12 16
10 12 17
10 13 17
10 12 16
9 12 16
9 11 15
10 13 17
8 10 14
10 12 16
9 12 16
10 13 17
10 13 17
10 13 17
9 11 15
11 14 19
10 13 17
8 11 14
9 12 16
8 11 15
10 12 16
10 14 18
11 14 18
8 10 14
9 12 16
9 12 16
10 12 17
9 12 16
10 13 17
10 13 17
9 12 16
9 11 15
10 13 17
10 13 17
10 13 17
10 13 18
10 12 17
12 15 20
10 13 18
10 12 16
10 13 18
11 14 19
10 12 16
9 11 15
10 12 16
10 12 17
10 13 18
11 14 19
11 14 19
11 14 18
11 14 19
10 14 18
10 13 18
11 14 19
11 15 20
11 14 19
9 12 16
11 15 20
10 13 18
11 14 19
11 14 19
12 15 20
11 14 19
10 13 18
11 14 19
11 14 19
11 14 19
10 13 18
11 14 19
10 13 18
10 13 18
12 15 20
11 14 19
11 15 20
12 15 20
10 13 18
11 15 20
12 15 20
11 14 19
12 15 21
11 14 19
12 15 20
12 15 21
12 15 20
12 15 21
11 15 20
11 14 19
12 15 20
12 16 21
13 16 22
12 15 21
12 15 20
11 15 20
11 14 19
12 15 20
10 14 19
10 13 17
12 15 20
12 16 21
12 16 21
13 17 23
11 15 20
11 15 20
11 14 19
12 15 21
12 15 20
12 16 22
13 16 22
11 15 20
12 16 21
12 15 21
13 17 23
11 14 19
13 17 23
13 16 22
12 15 21
12 16 21
12 15 21
13 17 22
12 16 21
12 15 20
11 14 19
13 16 22
11 15 21
13 16 22
13 17 22
13 17 23
13 17 23
13 16 22
13 17 23
13 17 22
13 17 23
12 16 21
12 15 21
12 16 22
13 17 23
13 17 22
13 16 22
13 17 22
12 16 21
13 17 22
12 15 20
12 16 22
12 15 21
13 17 23
13 17 23
13 17 23
12 16 22
12 16 22
13 17 22
14 18 24
13 17 23
13 17 23
13 17 22
14 18 24
13 17 24
13 17 23
13 17 23
13 16 22
13 17 23
13 17 23
14 17 23
13 17 23
13 17 23
13 17 23
14 18 24
13 17 22
13 18 24
13 17 23
13 17 23
13 17 23
13 17 23
13 17 24
14 17 23
13 17 23
13 17 23
13 17 23
13 17 23
13 17 23
14 18 24
13 17 24
13 17 23
13 17 23
12 16 21
13 17 23
13 17 23
13 17 23
13 17 23
14 18 24
13 17 23
13 17 23
13 17 23
13 17 23
13 17 22
13 17 23
14 18 24
13 17 23
13 17 23
13 17 23
12 16 22
13 17 23
13 17 23
13 16 22
12 16 22
14 18 23
13 17 23
13 17 22
14 18 24
13 17 22
13 17 22
13 17 24
12 15 21
13 17 23
13 17 23
12 16 21
13 17 22
13 17 22
12 16 22
13 17 23
13 16 22
13 18 24
13 17 22
13 17 23
12 16 21
12 16 21
12 16 21
13 16 22
13 17 22
13 16 22
12 15 21
11 15 20
13 17 23
13 17 23
12 16 22
12 16 22
12 16 21
13 17 23
13 17 23
13 17 22
13 16 22
12 16 21
13 16 22
12 15 21
13 17 23
12 16 21
11 15 20
12 16 22
12 16 21
12 15 21
12 15 20
12 15 20
13 17 22
12 16 21
13 17 24
12 16 21
12 15 21
12 16 21
13 17 23
11 15 20
12 15 21
12 15 21
12 15 20
11 15 19
12 15 21
12 16 21
12 16 21
12 15 20
12 15 20
11 14 19
12 15 21
12 15 20
11 15 20
11 15 20
12 16 21
12 16 21
11 14 19
11 14 19
10 13 18
11 14 19
11 15 20
11 15 20
11 14 19
10 14 18
11 14 19
10 13 18
11 14 19
11 14 19
11 15 20
11 15 20
11 14 19
11 14 19
12 15 20
12 16 21
12 15 20
11 14 19
11 15 20
12 15 20
11 14 19
9 12 16
10 13 17
10 13 18
11 14 19
12 15 20
12 15 20
10 13 18
10 13 17
11 14 19
10 13 18
11 14 19
11 14 19
10 14 18
11 13 18
9 12 16
10 13 17
10 13 18
10 13 18
9 12 16
11 15 19
10 13 18
10 13 17
9 12 17
9 12 16
9 12 17
10 14 18
9 12 16
10 13 17
9 12 17
9 12 17
9 12 16
9 11 15
10 13 17
10 13 17
11 14 19
10 13 17
10 13 17
9 12 16
8 10 14
9 11 15
9 11 15
9 12 17
10 13 17
9 11 15
11 14 18
9 12 16
9 12 16
8 11 15
8 10 14
11 14 19
8 11 14
10 13 18
10 12 16
10 13 17
10 13 17
9 12 17
8 11 14
9 12 16
8 10 13
10 13 17
9 11 15
8 10 13
8 10 13
10 13 17
9 11 15
9 12 16
9 12 16
9 11 15
10 13 18
10 13 17
9 12 16
10 13 18
9 11 15
8 11 14
9 12 16
9 11 15
8 11 14
10 12 16
8 11 15
9 12 17
8 11 14
9 12 16
9 12 16
9 11 15
9 12 16
10 13 17
10 13 17
9 12 16
9 11 15
9 11 14
10 13 17
9 11 15
7 9 13
8 11 14
8 10 14
8 10 14
9 11 15
9 11 15
9 11 15
9 11 15
9 11 15
10 12 16
9 11 15
9 12 15
10 13 17
9 12 16
9 12 15
8 10 14
10 13 17
9 12 16
10 12 16
9 11 15
10 13 17
9 11 15
10 13 17
10 14 18
8 11 15
9 11 16
9 11 15
8 11 15
8 10 14
11 14 18
10 13 17
9 12 16
9 11 15
10 13 17
10 12 16
9 12 16
9 12 15
11 14 19
10 13 17
10 13 18
9 11 15
9 12 16
10 13 17
9 11 15
10 13 18
10 13 17
10 13 18
10 13 17
11 15 20
10 13 17
10 12 17
10 13 17
12 15 20
9 11 15
10 14 19
10 13 18
10 13 18
10 13 17
10 13 17
10 13 18
12 15 20
11 14 19
11 14 19
10 13 17
10 13 17
10 13 17
11 14 19
11 14 18
12 15 20
11 14 19
12 15 20
10 14 18
11 14 18
11 15 20
12 15 21
10 13 17
12 15 21
11 14 19
12 15 20
11 14 19
11 15 20
11 15 20
12 15 20
11 14 18
12 15 21
12 16 21
10 12 17
11 14 19
11 14 19
10 14 18
12 15 20
12 15 21
12 15 20
11 14 19
11 14 19
11 15 20
10 13 18
12 15 20
12 16 21
12 15 20
10 13 18
11 15 20
12 15 21
11 14 19
11 14 19
12 16 22
12 16 21
12 16 21
12 15 21
12 16 22
13 17 22
12 15 21
12 16 21
12 15 21
11 15 20
12 15 21
13 17 22
12 16 22
12 16 21
11 15 20
11 15 20
12 16 21
13 16 22
12 16 21
12 16 22
13 16 22
13 16 22
12 16 21
12 16 21
12 16 22
13 17 23
13 17 22
12 16 22
13 17 23
12 16 22
13 17 22
12 16 21
12 16 22
12 16 21
13 17 22
12 16 22
13 17 22
13 17 23
13 17 23
12 16 22
13 16 22
12 16 22
13 17 23
13 17 23
13 17 23
13 17 23
13 16 22
12 16 22
13 16 22
12 16 21
13 17 23
12 16 21
12 16 22
13 17 23
12 16 21
12 16 21
11 15 20
13 17 23
13 17 22
13 17 23
14 18 24
12 16 22
13 17 23
13 17 23
12 15 21
14 18 24
13 17 23
12 16 22
14 18 24
13 17 23
13 17 23
14 18 24
13 17 23
12 16 22
13 17 23
13 17 24
13 17 23
13 17 23
13 17 23
13 17 22
13 17 23
13 17 23
13 17 24
14 18 24
13 16 22
13 17 23
13 17 23
13 17 24
13 17 23
14 18 24
13 18 24
13 17 23
13 17 23
13 17 23
13 17 23
13 17 23
13 16 22
13 17 23
13 17 23
14 18 24
12 16 22
13 17 23
12 16 22
14 18 24
13 17 23
13 17 23
13 17 23
13 17 23
13 17 23
13 17 24
12 16 22
13 17 23
13 16 22
13 17 23
13 17 22
13 16 22
13 17 23
12 16 22
13 17 23
13 17 23
13 17 22
13 17 23
13 17 23
13 17 22
12 16 22
12 16 22
12 16 22
13 17 23
13 17 22
14 18 24
12 15 21
13 17 23
13 17 22
12 16 22
13 17 23
13 16 22
13 16 22
12 16 21
12 16 22
12 16 22
12 16 22
12 15 20
12 16 21
13 17 22
13 17 22
12 16 22
13 17 23
12 16 21
13 17 23
12 16 22
11 15 20
12 15 21
12 16 22
12 15 20
12 16 21
12 15 21
13 17 23
12 16 22
12 16 21
12 16 22
11 15 20
12 16 21
12 15 21
12 15 21
11 15 20
11 14 19
12 15 20
11 15 20
12 15 20
11 14 19
13 16 22
13 16 22
12 16 21
11 14 19
11 15 20
11 14 19
11 14 19
11 15 20
12 15 20
11 14 19
12 15 20
12 15 20
11 15 20
12 15 21
12 15 20
11 14 19
12 15 20
12 15 20
12 16 22
12 16 21
12 15 20
11 14 19
11 15 20
10 13 18
11 15 20
12 15 20
11 14 19
10 13 17
12 15 21
10 13 18
11 15 20
11 15 20
11 15 20
11 14 19
11 14 19
11 14 20
11 14 18
12 15 21
10 13 17
11 14 19
11 14 18
11 14 19
11 14 18
10 13 18
11 14 19
11 14 18
9 12 16
11 14 18
11 14 19
10 13 18
9 11 15
11 14 19
11 14 19
11 14 19
9 12 16
9 11 15
11 14 19
10 13 17
10 13 18
10 12 17
11 14 18
10 13 18
9 12 16
9 12 16
9 12 16
9 12 16
10 13 17
11 13 18
9 12 16
10 12 17
10 13 17
9 12 16
10 13 17
8 11 15
10 13 17
10 13 17
10 13 17
11 14 18
10 13 17
11 14 18
9 11 15
9 12 16
10 12 17
10 13 17
9 12 16
9 12 16
9 11 15
9 12 16
9 12 16
9 12 16
9 12 16
9 12 16
9 11 15
10 13 17
9 12 16
10 13 17
8 11 14
9 11 15
9 11 15
9 12 16
9 12 16
8 11 14
9 12 16
9 11 15
9 12 16
7 9 12
9 12 16
9 12 16
9 11 15
9 12 16
10 13 18
9 12 16
10 13 17
7 10 13
10 12 16
9 12 16
10 13 17
9 11 15
10 12 16
8 11 15
9 12 16
9 11 15
9 11 15
9 12 16
10 12 17
8 11 14
10 13 17
9 11 15
9 11 15
10 13 17
8 10 14
9 11 15
10 12 16
9 12 16
9 12 15
9 12 16
10 13 17
9 11 15
10 13 17
10 13 17
8 11 15
9 11 15
9 11 15
9 12 16
8 10 14
9 12 16
10 13 18
10 12 16
9 11 15
9 12 16
9 11 15
10 13 18
8 11 15
9 12 16
9 12 16
10 12 16
9 12 17
10 12 17
8 11 14
10 13 18
9 12 15
9 12 16
11 14 19
9 12 16
11 14 18
9 12 16
10 12 17
10 13 17
9 12 16
11 14 19
10 13 17
10 12 16
11 14 19
10 13 18
9 12 16
10 13 18
9 12 16
10 13 17
11 14 19
10 13 18
11 14 18
11 14 19
10 13 18
11 14 19
11 14 19
10 12 17
11 14 19
11 14 19
9 12 16
11 14 19
11 14 19
10 13 18
11 14 19
12 16 21
10 13 17
10 13 18
11 14 19
10 13 17
11 14 19
11 14 19
10 12 17
11 14 18
11 15 20
10 13 18
11 15 20
11 15 20
10 13 18
11 15 20
11 14 19
11 14 19
11 15 20
11 15 20
10 14 18
12 16 22
12 15 21
12 16 21
11 15 20
11 14 19
12 15 21
12 16 22
11 14 19
12 15 21
11 14 18
12 16 21
11 15 20
12 15 20
12 15 21
11 14 19
11 15 20
12 15 20
11 15 20
11 14 19
12 15 20
12 16 21
12 16 22
11 15 20
12 15 20
11 14 18
12 15 20
12 16 22
13 17 22
11 15 20
11 15 20
12 16 21
11 15 20
12 15 21
13 16 22
12 15 20
11 15 20
13 17 23
12 16 21
12 15 20
12 16 22
12 16 22
12 15 20
12 16 22
12 16 21
13 16 22
12 16 21
13 16 22
12 16 21
12 15 21
13 17 23
12 16 22
12 15 21
12 15 21
13 17 22
12 16 22
13 17 22
12 16 22
12 15 21
13 16 22
13 17 23
12 16 22
12 15 20
13 16 22
12 16 22
13 17 24
12 16 21
13 17 23
13 17 23
13 17 23
13 16 22
12 16 22
13 17 22
13 17 23
13 17 22
13 17 23
13 17 22
13 17 23
13 17 23
12 16 22
12 16 21
13 17 23
12 16 22
13 16 22
14 18 24
13 17 23
13 17 23
13 17 23
14 18 24
13 17 23
14 18 24
13 17 23
13 17 22
13 17 22
13 17 23
13 17 23
13 17 23
13 17 22
13 17 23
13 17 23
13 17 23
13 17 23
13 17 23
13 17 23
13 17 23
13 17 23
13 17 24
12 16 22
13 17 23
13 17 23
13 17 23
13 17 23
13 16 22
12 16 22
13 17 23
13 17 23
13 18 24
12 16 22
14 18 24
13 17 22
13 17 23
13 17 23
14 18 24
13 17 23
14 18 24
13 16 22
12 16 22
13 17 23
13 17 23
13 17 22
13 17 22
13 17 23
12 16 21
12 16 22
13 17 23
13 16 22
12 16 22
12 16 22
13 17 23
13 17 23
13 16 22
13 17 23
13 17 23
13 17 23
13 17 23
12 16 22
12 16 21
13 16 22
13 17 22
12 16 22
13 17 22
13 17 22
12 16 22
12 16 22
13 17 23
12 16 22
13 17 23
13 17 23
12 16 21
12 16 22
13 16 22
13 16 22
12 16 21
12 16 22
12 16 22
11 14 19
12 15 20
11 15 20
13 17 23
12 16 21
13 16 22
13 17 23
12 16 21
11 15 20
12 15 21
12 15 20
13 17 23
12 16 22
11 15 20
13 17 22
11 14 19
13 17 23
11 14 19
12 15 21
12 15 21
11 15 20
12 16 22
12 16 21
11 15 20
13 16 22
12 16 21
12 15 21
12 16 21
11 14 19
12 16 22
12 16 22
11 15 20
13 17 22
11 15 20
11 15 20
11 15 20
12 15 20
12 15 20
11 15 20
12 15 21
12 15 20
11 15 20
11 14 19
11 14 19
11 14 19
10 13 18
11 14 19
11 15 20
11 14 20
11 15 20
10 14 18
11 14 19
11 15 20
10 13 18
12 15 20
11 14 19
12 16 21
11 15 20
11 14 19
11 14 18
11 15 20
12 15 20
12 15 20
11 15 20
10 13 18
10 14 18
11 14 18
11 14 19
9 12 16
10 12 16
10 12 17
10 14 18
11 14 18
11 14 19
10 13 17
11 14 19
10 13 18
10 12 17
11 14 19
10 13 18
11 14 19
10 13 18
12 15 20
10 13 17
10 13 18
10 13 17
10 12 17
9 11 15
10 13 18
11 14 18
10 12 17
10 13 17
9 11 15
9 11 15
9 12 16
9 12 16
10 13 17
9 11 15
11 14 18
9 11 15
10 13 17
9 12 16
9 12 16
10 13 17
9 12 16
8 10 14
11 13 18
10 13 17
10 13 17
11 14 19
9 12 16
10 13 17
11 14 19
8 10 14
10 13 17
10 13 17
11 14 19
8 11 14
9 12 16
9 11 15
9 12 16
8 11 15
9 11 15
10 12 17
9 12 16
8 11 14
9 12 16
10 13 17
8 11 15
9 12 16
9 11 15
9 11 15
10 12 16
9 12 16
10 13 17
10 13 17
9 12 16
9 12 16
7 9 13
8 11 14
10 13 18
10 12 16
9 11 15
9 11 15
10 13 18
8 10 13
9 11 15
8 10 14
10 12 17
9 12 16
9 11 15
9 12 16
9 12 16
8 10 14
9 12 16
10 13 17
10 13 17
9 11 15
9 12 17
9 12 16
9 11 15
10 12 17
9 12 16
8 11 14
10 13 17
9 12 16
10 12 17
8 10 14
11 14 19
11 14 18
9 12 16
10 13 17
9 12 16
9 12 16
9 12 15
11 14 19
10 13 17
10 12 17
10 13 18
9 12 16
9 12 16
10 13 17
10 14 18
10 13 17
10 13 17
10 13 17
10 13 18
10 13 17
10 13 17
9 12 16
11 14 19
10 12 16
10 13 17
10 13 18
11 14 18
9 12 17
9 12 16
10 13 17
11 14 18
9 12 16
11 14 18
9 12 16
10 13 17
9 12 16
10 13 18
11 14 19
10 13 18
9 11 15
11 14 18
9 12 16
10 12 17
11 14 19
11 14 19
10 13 17
10 14 18
11 14 19
11 14 19
11 14 19
11 14 19
11 14 19
10 13 18
11 14 19
11 14 19
11 14 19
10 13 17
11 15 20
11 14 19
10 13 18
10 13 18
10 13 18
11 14 19
12 16 21
11 14 19
11 15 20
11 15 20
11 14 19
11 15 19
13 16 22
11 14 19
11 15 20
11 15 20
10 13 18
11 15 20
11 14 19
13 16 22
11 14 19
12 15 20
11 15 20
11 15 20
11 15 20
12 15 21
12 15 21
13 16 22
11 14 19
12 15 21
11 14 20
12 15 20
10 14 18
12 16 21
12 15 21
12 15 21
13 16 22
13 17 22
12 15 21
12 16 21
12 16 21
12 15 21
12 16 22
12 15 21
13 16 22
12 15 20
12 16 22
12 15 20
12 16 21
12 16 21
12 16 22
12 16 22
13 17 23
12 15 21
13 16 22
12 16 22
13 16 22
12 16 22
12 16 21
12 16 22
12 16 21
13 17 23
13 17 23
13 17 22
13 16 22
13 16 22
13 16 22
13 16 22
13 17 23
13 17 23
12 16 22
13 16 22
12 16 22
13 17 23
13 17 23
13 17 22
12 15 21
13 16 22
12 16 21
12 16 22
13 17 23
12 16 22
12 16 22
13 17 23
12 16 21
14 17 23
13 17 22
13 17 23
12 16 21
13 17 23
13 17 24
13 16 22
13 18 24
13 16 22
13 17 23
13 16 22
11 15 20
13 17 24
13 17 23
13 17 23
13 17 23
13 17 23
13 16 22
13 16 22
13 17 23
13 17 22
13 17 23
13 17 23
13 17 23
13 17 23
13 17 23
13 17 23
13 17 23
13 17 24
13 17 23
13 17 23
14 18 24
13 17 23
13 17 23
13 17 22
13 17 22
13 16 22
13 17 22
12 16 22
13 17 23
13 18 24
13 17 23
13 17 22
13 17 23
12 16 22
13 16 22
13 17 22
13 17 22
13 17 23
13 17 24
13 17 23
12 16 22
13 17 22
13 17 24
13 17 23
12 16 21
12 16 22
13 17 23
12 16 22
12 16 21
12 16 22
13 16 22
12 16 21
13 17 23
13 17 23
13 17 23
13 16 22
13 17 23
13 17 23
13 17 23
13 17 23
13 17 22
14 18 24
13 17 23
12 16 21
12 16 22
12 16 21
12 16 21
12 16 21
13 17 22
12 16 21
14 18 24
12 16 22
12 16 22
12 16 21
13 16 22
13 17 23
13 16 22
12 15 20
12 16 21
13 16 22
12 15 21
12 16 22
12 16 22
13 17 23
12 15 20
11 14 19
12 15 21
12 16 22
13 16 22
12 16 22
13 17 22
12 16 21
12 16 21
11 15 20
12 16 22
12 16 21
12 16 21
11 15 20
11 15 20
12 16 21
12 16 21
11 14 20
11 14 20
12 15 21
11 14 20
12 16 21
12 15 21
12 15 21
12 15 20
12 15 21
12 15 20
12 16 21
11 14 20
12 15 20
12 16 21
11 15 20
10 13 18
11 15 20
12 16 21
12 15 21
11 15 20
11 15 19
10 13 18
12 15 20
11 14 19
11 14 19
10 13 18
12 15 21
10 14 18
11 15 20
11 14 19
10 13 18
10 13 18
11 14 19
11 14 19
10 12 16
11 14 18
12 15 20
12 15 20
11 14 18
11 14 19
11 14 19
10 14 19
10 13 18
11 14 19
11 14 19
11 14 18
10 13 17
10 13 18
11 14 19
9 12 16
11 15 20
11 14 19
10 13 17
10 13 18
11 14 19
9 12 16
9 12 15
10 12 16
8 11 15
10 13 17
11 14 19
10 12 17
10 13 18
10 13 18
11 15 20
11 14 18
10 13 18
9 12 16
9 12 16
9 12 16
10 13 18
10 13 17
10 13 17
9 11 15
10 13 18
9 12 16
8 10 14
9 11 15
10 13 17
10 13 18
9 12 16
10 13 17
10 13 17
9 12 15
10 13 17
10 13 17
9 12 16
9 12 16
11 14 18
9 11 15
8 10 14
9 12 16
10 13 17
10 12 16
10 13 18
9 12 16
9 11 15
9 12 16
8 11 14
9 12 16
9 12 16
10 13 18
10 13 18
8 11 14
10 13 17
9 12 16
9 11 15
9 11 15
10 13 17
8 10 14
9 12 16
9 12 16
9 12 16
9 12 17
10 12 17
9 11 15
10 12 17
10 13 17
9 11 15
8 11 14
10 13 18
9 11 15
9 11 15
9 12 16
10 13 17
10 12 16
9 12 15
9 11 15
9 12 16
10 13 17
9 11 15
8 11 15
9 12 16
10 13 17
10 13 17
10 12 17
9 12 16
11 13 18
10 13 18
9 11 15
9 12 16
10 13 18
11 14 19
11 14 19
10 13 18
9 11 15
10 13 17
9 12 16
10 12 17
10 13 17
10 13 17
9 12 16
10 14 18
10 13 17
10 13 17
9 12 16
8 11 14
9 12 16
9 11 15
10 13 17
11 14 18
9 12 16
10 13 18
9 12 16
9 12 16
11 14 18
10 14 18
10 13 17
11 14 19
11 14 19
10 13 17
11 14 19
11 14 19
10 13 18
11 14 19
9 12 16
10 13 17
10 13 18
10 13 18
12 15 20
10 13 18
10 13 18
10 13 17
9 12 16
10 13 18
10 13 17
11 15 20
9 12 16
10 13 17
11 15 20
12 15 20
9 12 16
11 14 20
12 15 21
11 15 20
11 14 19
11 14 19
12 15 20
11 14 18
11 14 19
11 14 19
12 16 21
10 13 18
12 16 21
11 14 19
10 13 18
12 15 20
11 14 19
11 14 19
10 13 18
10 13 17
12 15 20
11 14 19
12 15 21
10 13 17
11 14 19
12 16 21
10 13 18
11 14 19
12 15 21
11 14 19
11 15 20
12 15 20
11 15 20
11 14 20
10 13 17
12 16 22
11 14 19
12 15 21
11 15 20
11 15 20
12 16 21
12 15 21
12 16 21
12 16 21
12 16 21
12 16 21
12 15 21
12 16 21
12 16 21
11 14 19
12 16 21
12 16 22
11 14 19
12 15 21
13 16 22
12 15 21
11 15 20
12 16 21
12 16 21
12 16 22
12 15 20
12 16 21
12 16 22
13 17 23
12 16 22
12 16 21
11 15 20
12 16 21
13 16 22
13 16 22
13 17 22
13 17 22
13 16 22
13 16 22
13 16 22
13 17 23
13 17 22
13 17 23
13 17 23
13 17 22
14 18 24
13 16 22
12 16 22
13 17 24
13 18 24
13 17 22
13 16 22
13 17 23
12 16 22
14 18 24
13 17 23
13 17 22
13 17 22
13 17 23
13 16 22
13 17 23
13 17 23
12 16 22
13 17 23
13 17 23
13 16 22
13 17 23
13 16 22
13 17 23
14 18 24
13 17 23
13 17 22
13 17 23
13 17 23
13 17 23
13 16 22
13 17 23
14 18 24
13 17 23
13 16 22
13 17 23
13 17 23
14 18 24
13 17 23
13 17 23
12 16 22
13 17 23
13 17 23
13 17 23
14 18 24
13 17 23
13 17 23
13 17 23
13 16 22
13 17 24
14 18 24
13 17 23
13 17 22
13 18 24
13 17 22
13 17 23
13 17 23
13 17 23
13 17 22
13 17 22
14 18 24
13 17 23
13 17 22
13 17 22
13 17 23
12 16 22
13 17 23
14 18 24
13 17 23
13 17 23
12 16 21
13 16 22
13 17 23
13 17 24
14 17 23
13 17 23
13 17 23
13 16 22
13 16 22
13 16 22
13 17 23
12 16 22
13 16 22
13 17 23
13 17 23
13 17 23
12 16 22
13 16 22
12 16 21
13 17 23
12 16 22
12 15 20
12 16 22
12 15 21
13 17 22
13 17 23
13 17 22
13 17 22
12 16 22
12 16 22
12 15 21
12 16 22
12 16 22
13 17 23
12 16 22
12 16 21
12 16 21
13 16 22
13 17 23
13 17 23
12 16 22
14 17 23
12 16 22
11 15 20
12 16 22
13 17 23
12 15 20
12 16 22
13 17 23
12 16 21
12 15 21
12 15 21
13 17 22
11 15 20
12 15 20
12 16 21
11 14 19
12 15 21
12 16 21
12 16 21
12 15 20
11 15 20
11 14 19
11 15 20
12 16 21
11 14 19
11 15 20
11 14 19
12 15 20
11 15 20
12 15 20
12 15 21
12 15 21
11 15 20
10 13 18
11 15 20
12 15 20
12 16 21
11 15 20
11 14 19
11 14 19
11 15 20
11 14 19
11 14 19
10 14 18
11 15 20
11 14 19
11 14 19
11 14 19
10 13 18
11 14 19
11 14 19
10 13 18
11 14 19
11 14 19
11 14 19
10 14 18
12 15 20
10 13 18
11 14 19
11 14 19
10 13 17
11 14 19
11 14 19
11 14 19
11 14 19
11 14 19
10 13 17
11 14 19
11 15 20
10 13 18
9 12 16
11 14 19
10 13 18
10 13 18
10 13 18
10 13 17
12 15 21
11 14 19
10 13 18
10 13 18
9 12 16
10 13 18
10 13 17
9 11 15
12 15 20
10 12 17
11 14 18
9 12 16
11 14 19
11 14 18
9 11 15
9 12 16
10 13 18
10 12 17
10 13 17
10 13 17
9 11 16
10 12 16
10 13 17
10 13 17
11 14 18
9 11 15
9 11 15
10 12 17
10 12 17
10 12 17
10 13 17
10 13 17
10 12 16
9 12 16
10 12 17
8 11 15
10 13 18
10 13 17
8 11 15
8 11 15
9 11 15
11 14 19
10 13 17
9 12 16
9 12 15
9 12 16
9 12 16
9 12 16
10 13 17
10 12 17
10 12 17
10 12 16
9 12 16
9 12 16
10 13 17
9 12 16
10 13 17
9 12 16
10 13 18
10 12 16
8 11 15
10 13 17
11 14 19
10 13 18
9 11 15
10 12 16
9 11 15
9 11 15
9 12 16
10 12 16
9 11 15
10 12 17
9 12 16
10 13 17
9 12 16
8 11 15
9 11 15
10 13 17
9 11 15
9 12 16
9 12 15
8 11 14
9 12 16
9 12 16
8 11 14
10 13 17
10 13 18
9 12 16
9 11 15
10 12 17
9 12 16
9 12 16
8 11 15
10 13 17
10 13 18
9 12 16
10 13 17
9 12 16
10 12 16
10 13 17
11 14 19
10 13 17
11 14 18
10 12 17
10 13 17
10 14 18
10 13 17
8 11 15
9 12 17
9 12 17
9 12 16
10 13 17
10 13 17
10 13 18
11 14 18
11 14 18
10 13 17
9 11 15
10 12 17
11 14 18
10 13 17
9 12 16
9 12 16
11 14 19
11 14 19
11 14 19
10 13 18
11 15 20
10 13 17
11 14 18
10 13 18
10 13 17
11 14 19
11 15 20
11 14 20
9 12 16
10 13 18
11 14 19
10 14 18
11 14 19
12 15 21
12 15 20
10 14 18
10 14 19
10 13 18
11 14 19
10 14 19
11 14 19
11 15 20
11 14 19
12 15 20
12 16 21
10 13 18
11 14 19
12 15 21
11 14 19
13 16 22
12 15 21
11 15 20
12 16 21
12 15 20
10 13 18
12 16 21
11 14 19
12 16 21
11 14 19
11 14 19
11 15 20
12 15 20
11 15 20
12 15 21
11 14 19
12 16 22
12 16 21
12 16 21
11 15 20
11 14 20
12 16 21
11 14 19
10 14 18
12 15 20
11 15 20
11 15 20
13 17 23
12 16 21
12 16 21
12 16 21
12 15 20
12 15 21
12 15 20
12 15 21
12 15 21
11 15 20
12 15 21
12 16 21
12 16 21
13 17 23
11 15 20
13 17 23
13 16 22
12 16 22
13 17 23
13 17 23
11 14 19
12 16 22
12 16 22
13 17 23
12 16 21
13 17 23
12 15 21
13 16 22
12 16 22
12 16 21
13 17 22
12 16 21
13 17 23
13 17 22
13 16 22
13 16 22
13 17 23
13 17 22
13 17 23
12 16 22
13 17 23
12 16 21
14 18 24
13 17 22
13 17 23
13 17 22
13 16 22
14 18 24
13 16 22
13 17 23
13 17 23
13 16 22
13 17 22
13 17 22
12 16 21
13 17 22
13 18 24
12 16 22
13 17 24
12 15 21
13 17 23
13 17 23
13 17 24
14 18 24
13 16 22
13 17 24
13 16 22
13 17 22
13 17 23
13 17 23
13 17 23
13 17 23
13 17 22
13 17 23
14 18 24
13 17 22
13 17 24
13 18 24
13 17 23
13 17 23
13 17 23
13 17 23
13 17 22
13 17 23
13 17 22
13 17 23
13 18 24
14 18 24
13 17 23
12 16 21
13 16 22
14 18 24
13 17 23
13 17 23
12 16 21
13 16 22
13 17 22
13 17 23
13 17 22
13 17 23
12 16 22
12 16 22
13 17 22
13 16 22
13 17 23
12 16 22
12 16 21
13 17 22
13 17 23
13 16 22
12 16 22
13 17 23
12 16 21
13 16 22
12 16 21
13 17 23
14 18 24
13 17 23
13 17 22
11 15 20
14 18 24
13 17 22
12 16 22
12 15 20
13 17 23
13 17 23
13 16 22
12 16 21
12 16 22
13 17 22
13 16 22
12 16 21
12 15 20
12 15 21
12 16 22
12 15 21
12 16 21
12 16 21
12 15 20
12 16 21
11 14 19
11 14 19
13 17 23
12 16 22
12 15 21
13 16 22
13 17 23
12 16 22
12 16 22
11 14 19
12 15 20
11 15 20
12 16 22
11 15 20
12 16 21
11 14 19
12 16 21
12 15 21
12 15 21
12 15 21
11 14 20
12 15 20
11 15 20
11 14 19
11 15 20
11 15 20
12 16 22
11 14 19
11 14 19
12 16 21
11 14 19
11 15 20
11 14 19
12 15 20
11 14 20
12 15 20
10 13 18
11 14 19
12 15 21
11 14 19
12 16 21
10 13 17
11 14 19
12 16 21
10 14 18
10 13 18
11 15 20
12 15 20
11 14 19
11 14 19
11 14 18
12 15 21
13 16 22
10 13 17
11 14 19
10 13 17
12 16 21
11 14 19
10 13 18
11 15 20
10 13 18
10 13 18
10 13 17
10 14 18
11 14 19
10 13 18
11 14 19
10 14 18
10 13 17
9 12 16
11 14 19
11 14 18
11 15 20
10 13 18
9 12 16
11 14 19
11 14 18
10 13 17
11 14 19
11 14 19
9 12 16
11 14 19
10 13 17
10 13 18
10 13 17
10 12 16
10 13 18
10 13 17
10 13 17
9 12 16
8 11 15
11 14 19
10 13 17
10 13 17
11 14 18
10 13 17
10 13 17
9 12 16
8 11 15
9 12 16
11 14 19
10 13 18
9 12 16
8 11 14
10 13 17
8 11 14
9 12 17
8 11 14
10 12 17
10 13 17
10 13 17
10 13 17
10 13 17
10 13 18
9 12 16
9 12 16
8 10 14
10 13 17
10 13 17
10 13 18
9 12 15
9 12 16
9 12 16
10 12 17
9 12 17
9 11 15
9 11 15
9 12 17
9 11 16
8 10 14
9 12 16
10 13 17
9 12 16
8 11 14
9 12 16
8 10 13
8 10 14
9 11 15
10 12 16
9 12 16
9 12 15
10 13 17
10 13 18
9 11 15
9 11 15
9 11 15
9 11 15
9 12 16
9 12 16
8 11 15
9 12 16
9 12 16
11 14 19
8 10 14
10 13 17
9 11 15
8 11 14
10 12 17
9 12 16
9 12 15
9 12 16
10 13 17
9 12 16
8 10 14
10 13 17
9 12 16
9 12 16
9 11 15
10 13 17
9 12 16
10 13 17
10 13 18
9 12 16
11 14 18
11 14 18
8 11 14
10 13 17
10 13 18
8 10 14
9 11 15
9 11 15
11 14 19
11 14 18
10 13 18
10 13 18
10 13 17
10 13 17
10 12 17
10 13 17
10 13 17
10 13 17
10 13 18
11 14 19
11 15 19
9 12 16
10 13 18
11 14 18
10 13 18
12 15 20
10 13 17
11 14 19
11 15 20
10 13 17
9 12 16
10 12 16
10 13 17
11 15 20
9 12 16
11 14 19
11 14 19
11 14 19
12 15 21
11 14 19
12 16 21
11 14 19
11 14 19
11 14 19
11 15 19
11 15 20
11 14 20
11 15 20
11 15 20
10 14 18
11 14 18
11 14 19
12 15 21
10 13 17
11 14 19
11 14 19
12 15 21
10 13 18
11 15 20
11 14 19
11 15 20
11 15 20
11 15 20
12 16 21
11 14 19
12 15 21
12 16 21
12 16 21
12 15 20
11 14 18
12 15 21
12 15 20
12 15 20
11 14 19
12 16 22
10 13 18
10 14 18
12 16 21
12 16 21
12 15 21
12 15 21
12 15 21
12 15 21
12 15 20
11 15 20
12 16 21
12 15 20
12 15 21
11 15 20
12 16 21
12 16 21
11 14 19
12 15 21
13 16 22
11 15 20
12 16 22
11 14 19
12 16 22
13 17 23
12 16 22
12 15 21
12 16 21
12 15 21
12 16 22
11 15 20
12 16 21
13 16 22
12 16 22
13 17 23
12 16 21
12 15 20
12 16 21
12 16 21
13 17 23
13 17 23
12 16 22
13 16 22
13 17 22
12 16 22
13 17 23
12 16 22
13 17 23
13 17 22
13 16 22
12 16 22
13 17 22
13 17 23
13 17 23
13 17 23
13 17 23
12 15 21
13 17 24
13 17 23
13 17 23
13 17 23
13 17 24
13 17 23
13 17 23
13 17 23
13 17 23
13 17 23
12 16 21
12 16 21
13 17 23
13 16 22
13 17 22
13 16 22
14 18 24
13 17 22
13 17 24
13 17 23
13 17 24
14 18 25
13 17 23
13 17 23
13 17 22
13 17 23
13 17 24
14 18 24
13 17 23
13 17 23
14 18 24
14 18 24
13 17 23
13 16 22
14 18 24
12 16 21
13 17 24
13 17 23
12 16 21
13 17 23
13 17 23
13 17 23
13 17 23
13 16 22
14 18 24
12 16 21
14 18 24
13 17 23
12 16 22
13 16 22
13 17 23
13 17 23
13 17 23
13 17 23
12 16 21
13 17 23
12 16 22
13 17 23
14 18 23
13 17 23
13 17 23
13 17 22
12 16 22
13 17 23
11 15 20
12 16 22
13 17 23
13 17 23
12 16 22
13 17 23
13 16 22
13 17 22
13 16 22
13 17 23
13 17 23
13 17 23
12 16 21
12 16 21
13 16 22
13 16 22
14 18 24
12 16 22
13 17 23
13 17 23
13 17 22
12 16 22
13 17 23
12 16 21
11 15 20
12 15 21
12 16 22
13 17 22
12 16 21
13 17 23
11 15 20
11 15 20
12 16 21
13 16 22
13 16 22
12 16 21
12 15 21
13 16 22
12 16 21
13 17 23
12 15 21
12 15 20
12 16 22
13 17 23
12 16 21
13 16 22
12 16 21
12 16 21
13 17 22
12 15 20
11 15 20
13 17 23
12 15 20
12 15 21
13 16 22
12 15 20
11 15 20
11 15 19
12 15 20
10 13 18
12 15 20
12 16 21
12 15 21
11 15 20
11 15 20
11 14 18
12 15 21
12 15 21
12 15 20
11 15 20
11 14 19
12 15 21
11 15 21
11 15 20
10 13 18
10 13 17
10 13 18
10 13 18
10 13 18
11 14 19
11 14 19
11 14 19
12 15 20
11 14 18
11 14 19
12 15 21
10 13 17
11 14 19
11 15 20
10 13 17
10 13 18
11 15 20
11 14 19
12 15 20
11 15 20
12 15 20
11 14 18
11 15 20
10 13 18
11 14 19
10 13 18
10 13 18
10 13 18
10 13 17
11 14 18
9 12 17
11 13 18
10 13 17
10 13 17
10 13 17
10 12 16
9 12 17
10 12 17
10 13 17
11 14 19
9 12 16
11 14 19
11 15 20
10 13 17
10 13 17
10 13 18
10 13 17
10 13 17
11 14 19
10 13 18
9 12 16
10 13 18
11 14 19
9 12 16
10 13 17
9 11 15
9 12 16
10 13 18
9 12 16
10 13 17
10 13 18
9 12 17
9 12 16
9 11 15
8 10 14
10 13 17
10 13 17
10 13 17
10 13 17
10 13 17
10 13 17
10 13 17
9 11 14
9 11 15
10 13 17
9 12 17
9 11 15
9 11 15
9 12 15
9 12 16
9 12 16
9 12 16
10 12 17
12 15 20
9 11 15
9 11 15
10 13 18
9 12 15
9 12 16
9 11 15
8 10 14
10 13 17
10 13 17
9 12 16
10 12 16
8 11 14
9 11 15
10 12 16
9 11 15
8 10 14
9 11 15
10 13 18
10 13 18
10 13 17
9 12 16
9 12 16
10 12 17
9 12 16
10 13 17
9 12 16
9 12 16
9 12 15
10 12 17
9 12 16
9 12 16
9 12 15
8 11 14
10 13 17
9 12 16
10 13 18
10 13 17
9 12 16
10 13 18
10 13 17
9 11 15
10 13 18
10 13 17
10 13 18
10 12 17
9 12 16
11 14 19
10 13 17
10 12 17
11 14 19
9 12 17
9 12 16
11 14 18
10 13 17
11 14 19
9 12 16
9 12 16
11 14 18
10 13 17
10 14 19
9 12 16
11 14 19
10 13 18
9 12 16
11 15 20
11 14 18
10 13 17
10 13 18
10 13 18
10 13 17
10 13 17
10 13 18
10 13 18
10 13 18
11 15 20
10 13 18
9 12 16
10 14 19
11 14 19
11 14 18
10 13 17
10 13 18
10 13 17
10 13 18
11 14 19
10 13 17
12 15 20
10 13 17
11 14 19
11 14 19
11 14 19
11 14 19
12 15 21
11 14 19
11 14 18
11 14 19
12 15 21
12 16 21
11 14 19
11 15 20
11 14 19
12 15 21
11 14 19
11 14 19
12 15 20
11 15 20
11 14 19
11 15 20
11 15 20
10 13 17
10 14 18
12 15 21
11 14 19
10 14 19
11 14 19
12 16 21
11 14 19
11 14 20
12 15 21
11 15 20
12 16 21
12 15 21
11 15 20
12 15 21
12 15 21
12 16 22
11 15 20
11 14 19
11 15 20
12 15 20
11 15 20
12 16 22
11 15 20
12 16 21
12 16 22
12 15 21
12 15 20
12 15 21
12 15 21
12 15 21
12 15 20
12 16 21
12 16 21
12 16 22
12 15 20
12 15 21
13 16 22
12 16 21
12 16 22
12 16 21
12 16 21
13 17 23
12 16 21
13 16 22
13 16 22
12 16 21
12 16 21
13 17 23
13 17 22
12 16 21
13 17 22
12 16 21
12 16 22
12 16 22
12 16 21
12 16 21
13 17 23
12 16 22
13 17 22
12 16 22
13 17 22
11 15 20
13 17 22
13 17 23
13 17 22
13 17 23
12 15 21
13 17 22
12 16 22
12 16 22
12 16 22
13 16 22
13 16 22
12 16 22
12 16 21
13 17 22
13 17 23
13 16 22
13 17 22
13 17 23
13 18 24
12 16 21
13 17 23
13 17 23
13 17 23
13 17 23
13 17 23
13 17 22
13 18 24
13 16 22
13 17 23
13 17 23
14 18 24
13 17 23
14 18 24
12 16 22
13 17 22
13 17 23
13 17 23
13 17 23
13 17 24
13 17 22
13 17 23
13 17 24
14 18 24
13 16 22
13 17 24
13 17 24
13 16 22
13 17 23
14 17 23
14 18 24
13 17 22
14 18 24
12 16 22
13 17 23
14 18 24
12 16 22
12 16 21
12 16 22
14 18 24
13 17 22
12 16 21
13 16 22
13 17 23
12 16 22
12 16 21
13 17 23
13 17 23
12 16 22
14 18 23
12 16 22
12 15 21
12 16 22
12 16 22
12 16 22
13 17 23
11 15 20
12 16 22
13 17 23
12 15 21
12 16 21
13 16 22
11 15 20
12 16 21
12 15 21
13 17 22
12 16 22
13 16 22
13 17 23
13 17 22
13 17 23
12 16 22
13 17 22
11 15 20
12 16 22
13 17 23
11 14 19
12 16 21
12 16 21
12 16 22
13 17 23
12 16 21
12 16 22
12 16 22
13 17 22
12 16 21
12 15 20
12 16 21
12 16 22
12 15 21
13 16 22
13 17 23
12 15 20
12 15 21
11 15 20
12 16 22
12 16 22
12 15 20
12 16 22
12 16 22
11 15 20
11 15 20
11 14 20
11 14 19
12 16 22
12 15 21
13 17 23
12 16 21
12 16 21
11 15 20
11 14 19
12 15 20
10 14 18
13 16 22
12 16 22
11 14 18
12 16 21
11 15 20
12 15 21
12 15 21
12 15 21
12 16 21
13 16 22
12 15 20
11 15 20
11 14 19
11 15 20
12 16 21
11 14 19
11 14 19
11 15 19
11 14 19
11 15 20
10 14 19
11 15 20
12 15 21
11 14 19
11 15 20
12 16 22
11 14 19
10 13 17
10 13 18
11 15 20
11 15 20
11 14 19
11 14 19
9 12 16
11 14 19
11 14 19
9 12 17
11 14 18
9 12 16
10 13 17
10 13 17
10 13 18
10 13 17
10 13 17
10 13 18
11 14 19
9 11 15
10 13 18
11 14 19
9 11 15
10 13 18
11 15 20
11 14 19
10 13 17
9 11 15
10 13 17
11 14 19
10 13 17
10 13 17
9 11 15
11 14 19
10 14 18
9 12 16
9 11 15
8 11 15
9 12 16
9 12 16
10 13 17
10 13 17
11 14 19
9 12 16
10 12 17
11 14 18
11 14 18
9 12 16
10 13 17
10 13 17
10 13 17
10 12 16
10 13 18
11 14 19
10 13 18
9 11 15
10 13 17
10 13 17
9 12 16
9 12 16
9 12 16
10 13 17
10 13 17
10 12 16
10 12 17
9 12 16
9 12 16
10 13 17
10 12 16
10 13 17
10 13 18
8 10 14
9 12 16
10 13 18
10 13 17
10 13 18
10 12 17
11 14 19
10 13 17
10 12 16
8 10 13
9 12 16
9 12 16
9 12 16
9 12 16
8 11 14
10 12 17
11 14 19
11 14 18
10 13 17
10 13 17
8 11 14
11 14 19
9 12 16
9 11 15
9 12 16
9 12 16
11 14 19
9 11 15
10 13 17
9 11 15
9 12 16
9 12 16
10 13 18
8 11 15
9 11 15
10 13 17
10 13 17
10 12 16
10 13 18
10 13 17
10 12 17
10 12 17
10 13 18
11 14 19
9 11 15
10 13 17
9 12 16
10 13 18
9 12 16
9 12 16
9 12 16
10 13 17
11 14 19
9 11 15
9 12 16
11 14 19
10 13 18
10 13 18
9 12 16
11 14 18
10 13 18
10 13 18
10 13 17
9 12 15
9 12 16
10 13 18
10 13 18
11 14 19
10 13 18
9 11 15
11 15 20
11 14 19
11 14 19
9 12 16
9 12 16
11 15 20
11 14 19
12 16 21
10 13 18
12 15 20
11 14 18
10 13 17
9 12 16
10 12 16
11 14 19
11 14 19
10 13 18
10 13 18
10 13 18
12 15 20
11 14 19
10 13 17
11 14 19
12 15 20
12 16 21
10 13 17
11 15 20
11 14 19
12 16 21
11 15 20
11 14 19
10 14 19
12 16 21
11 14 19
12 15 20
12 16 21
11 14 18
11 14 19
10 13 18
11 14 19
12 15 20
10 14 18
12 15 20
12 15 21
13 17 22
11 15 20
13 17 22
12 16 22
11 15 20
12 15 21
11 15 20
12 16 22
11 14 19
12 15 20
12 16 21
12 15 20
11 14 19
12 16 21
11 15 20
12 16 22
12 16 21
12 15 21
12 15 20
11 15 20
13 16 22
12 16 22
13 16 22
12 16 22
12 16 22
12 16 22
11 15 20
12 16 22
12 15 20
13 16 22
13 17 22
12 16 21
12 16 21
12 16 21
13 17 23
12 15 21
12 15 21
12 16 22
12 15 21
11 15 20
12 16 21
12 16 21
12 16 21
12 16 22
13 16 22
12 16 22
12 15 21
13 17 23
13 17 23
13 17 24
13 17 23
13 17 23
12 16 21
13 17 22
12 16 21
11 15 20
13 16 22
13 17 23
13 17 22
12 16 22
13 17 23
13 17 23
13 17 23
12 16 22
12 16 21
13 17 22
13 17 22
13 17 23
13 17 24
13 17 23
13 17 23
13 17 23
12 16 22
12 16 21
13 17 24
12 16 22
13 17 23
13 17 23
13 16 22
13 17 23
12 16 22
12 16 21
13 17 22
13 17 23
13 16 22
13 17 23
14 18 24
13 17 23
13 17 23
14 18 24
13 17 23
13 17 23
14 17 23
