P3
400 400
255
14 28 37
74 68 80
40 45 53
76 76 74
73 57 65
49 52 53
62 72 62
56 64 54
24 45 44
35 43 34
56 64 67
53 61 52
51 66 55
74 85 83
74 60 70
47 42 47
19 24 32
60 64 69
79 79 78
44 47 43
40 47 67
60 70 57
56 62 56
53 62 65
54 56 51
52 60 53
40 50 56
72 90 90
67 73 66
60 69 70
54 59 67
76 88 78
50 58 47
45 48 50
43 62 64
56 73 73
45 53 47
22 36 26
71 81 83
59 67 59
54 64 60
55 62 60
66 65 60
52 63 74
69 71 66
63 58 60
44 65 53
45 48 65
54 68 69
63 71 63
21 28 25
49 67 59
80 79 84
51 54 55
69 70 78
63 64 68
52 67 74
52 60 59
42 61 56
67 65 62
57 62 72
55 66 64
25 32 33
53 66 72
62 80 62
68 71 68
44 25 34
74 66 60
59 66 68
69 66 60
50 39 54
22 31 36
65 66 60
52 55 57
49 49 54
50 62 57
21 34 39
53 52 63
66 64 72
43 59 44
58 57 60
59 66 62
56 61 52
63 77 74
69 76 69
70 71 71
66 71 79
60 66 84
68 66 73
60 76 65
66 76 72
48 62 55
55 72 71
69 61 65
53 56 64
61 70 71
84 64 63
80 75 75
61 64 73
61 65 59
63 49 59
57 75 65
69 70 79
50 61 61
54 61 62
67 74 63
67 68 63
67 67 71
61 64 59
35 55 56
61 76 65
51 48 51
46 42 57
43 54 53
61 69 70
67 70 70
62 73 73
56 54 49
70 80 89
79 71 71
75 62 57
37 46 40
71 57 59
71 67 77
40 45 58
47 56 55
74 75 75
56 59 55
57 63 60
57 60 72
59 77 85
35 50 70
68 69 72
44 51 46
45 51 54
63 78 71
41 56 52
79 74 86
62 67 83
61 56 62
53 54 37
70 81 86
89 84 89
70 74 76
31 55 67
50 43 48
46 35 60
84 75 77
62 67 66
76 65 74
48 57 59
55 67 81
46 58 64
68 79 70
70 70 79
63 57 62
60 52 58
68 64 58
43 41 39
52 55 59
64 67 78
74 65 85
80 66 71
63 61 71
80 87 96
39 30 23
56 71 69
63 67 82
39 40 40
58 60 69
63 55 63
43 62 56
55 66 74
60 57 63
46 53 62
73 78 85
48 44 65
50 61 55
65 63 66
70 69 80
42 50 59
56 53 53
33 38 35
81 87 85
55 44 50
46 60 50
56 49 48
67 50 63
74 78 100
55 48 52
59 59 63
48 48 54
30 46 49
53 62 63
86 87 92
72 85 87
51 57 65
60 68 68
75 79 84
70 63 66
69 76 86
52 39 40
72 86 83
51 29 39
66 74 74
75 69 71
95 99 101
75 78 92
29 35 38
39 47 55
62 81 77
66 68 71
81 94 90
59 62 67
56 75 69
56 62 54
57 54 72
49 63 77
37 55 59
66 67 73
63 63 66
67 73 91
60 78 75
44 56 54
61 56 58
49 28 44
65 64 76
51 58 59
51 57 60
54 55 60
51 56 61
75 80 89
63 65 73
56 64 60
56 56 71
57 52 58
45 53 54
71 40 53
69 75 76
51 62 64
80 81 78
47 57 62
68 62 70
48 56 74
61 59 72
65 59 64
51 59 62
69 71 76
75 65 80
64 60 52
64 44 58
36 35 37
61 62 65
74 67 78
42 43 59
70 75 74
53 54 65
75 79 82
48 59 70
59 61 86
56 61 74
59 63 64
50 41 52
64 69 80
89 72 82
51 45 59
53 55 59
66 62 69
45 59 64
38 52 71
73 67 83
52 59 60
52 47 50
57 54 71
53 53 66
60 68 79
62 57 70
44 47 68
57 62 61
35 48 78
70 64 85
76 86 88
25 34 37
63 68 81
61 64 77
36 52 39
29 51 59
53 57 60
57 52 65
86 77 97
58 63 91
63 57 69
66 51 72
67 69 72
65 74 99
62 71 72
55 66 103
61 58 68
62 83 98
55 36 45
44 50 51
80 69 67
41 53 56
42 60 47
76 78 89
73 74 87
40 42 56
72 57 73
75 72 81
73 60 74
50 55 70
31 42 54
61 70 82
25 38 59
42 54 64
50 59 66
67 72 73
59 58 68
53 54 68
51 49 60
43 57 72
69 69 79
61 63 74
47 54 78
51 58 74
64 64 75
50 53 64
74 66 75
67 68 72
72 74 94
28 47 54
62 62 81
48 44 62
80 80 81
50 44 62
48 46 40
50 59 89
71 79 98
64 68 83
53 51 54
85 82 105
44 55 79
41 55 60
76 77 98
38 56 82
87 84 96
33 47 63
33 15 19
36 49 53
65 68 74
43 55 61
63 53 53
58 73 74
49 45 53
52 53 74
60 66 77
53 54 72
34 51 56
51 55 57
37 28 51
52 46 67
44 43 49
43 47 65
65 66 80
58 62 78
64 63 72
46 49 62
85 75 75
48 49 64
52 60 75
60 68 68
61 68 68
75 75 81
56 56 71
28 33 44
48 50 61
59 50 61
76 77 87
46 52 75
46 54 59
28 39 58
67 47 57
74 78 77
18 30 54
51 53 71
57 56 68
72 76 89
55 68 75
84 73 86
60 63 80
59 52 81
49 51 56
51 53 66
79 75 80
78 75 81
49 63 64
48 50 64
46 56 52
72 80 80
66 63 65
18 37 29
48 48 49
43 57 71
49 59 68
72 75 80
38 52 42
59 67 67
49 64 61
47 46 61
48 63 61
45 52 57
45 65 62
26 37 32
54 56 48
49 55 56
44 56 43
51 59 53
65 77 70
49 67 66
71 65 70
64 71 66
57 63 57
35 52 57
44 49 51
61 70 65
64 50 45
39 52 59
49 59 59
36 38 29
49 45 34
85 86 77
24 38 28
77 69 74
52 62 55
81 83 79
52 63 62
64 72 65
77 77 77
54 61 53
57 63 78
41 53 41
60 55 52
39 46 44
51 57 52
56 58 61
68 72 67
72 94 91
43 45 34
61 54 52
40 53 43
72 75 71
61 70 77
74 72 70
64 78 82
61 56 58
44 63 52
59 67 67
62 72 71
61 74 70
74 75 87
64 48 49
67 74 64
59 68 75
38 48 51
40 42 45
63 55 48
72 78 77
35 48 58
64 84 60
61 73 72
41 61 52
64 66 70
57 69 66
71 82 74
57 63 68
44 60 56
71 72 56
72 61 57
78 90 92
58 53 52
51 55 65
90 99 96
58 61 47
71 79 80
75 84 73
58 66 58
66 69 63
41 44 55
74 85 91
50 60 52
48 56 44
59 46 52
29 43 37
69 76 70
40 57 64
50 53 52
69 74 82
64 73 90
27 36 46
63 75 76
36 57 41
38 59 62
67 73 76
61 42 45
54 67 65
46 47 38
68 74 70
61 77 68
70 77 80
74 61 68
74 80 83
61 66 66
50 43 47
33 54 57
77 88 83
71 70 69
77 78 81
63 66 59
61 69 79
66 69 58
79 80 80
42 57 64
79 79 73
53 65 55
71 75 72
70 68 73
57 68 74
25 42 35
54 67 77
52 65 68
47 51 62
79 67 75
56 76 80
65 66 85
32 34 33
70 60 61
82 84 83
60 71 81
59 44 45
72 75 85
54 71 70
57 56 57
43 43 40
60 57 61
53 50 57
57 58 58
50 65 50
85 87 84
41 53 60
57 55 54
45 65 72
70 72 70
41 46 40
82 70 75
77 69 70
69 80 78
59 70 67
70 72 77
62 67 80
52 49 45
38 48 55
50 55 51
60 74 80
58 55 73
73 80 79
30 48 42
51 53 43
59 77 74
52 62 76
65 69 79
82 98 102
58 63 71
88 84 81
62 51 59
43 57 59
78 83 91
87 86 95
64 65 75
65 70 68
27 45 58
56 61 76
56 56 61
56 73 66
67 70 66
83 72 79
59 45 50
56 56 60
44 58 68
64 70 87
83 88 106
65 71 74
71 69 61
60 58 63
75 55 63
60 68 67
78 86 89
65 56 69
66 67 80
54 59 75
66 69 62
58 65 64
65 58 83
73 67 67
80 84 89
65 61 68
50 54 55
89 85 89
59 59 69
26 46 46
71 71 80
52 69 63
61 51 64
60 68 68
87 92 92
76 82 94
79 77 88
57 66 65
90 92 99
82 83 107
47 65 86
77 76 75
44 59 71
51 64 56
44 56 55
58 59 67
47 43 56
89 83 93
59 73 80
38 44 60
47 52 65
39 36 40
51 52 66
51 52 77
53 53 54
48 66 79
71 56 69
56 67 81
60 68 77
42 49 63
46 45 48
68 76 87
68 59 61
74 74 86
64 59 76
29 46 64
64 69 87
66 67 84
58 49 68
71 78 78
73 79 73
40 52 62
62 65 84
52 56 60
74 76 83
49 48 51
76 76 72
87 99 104
62 72 76
59 57 67
66 67 73
57 56 70
62 47 57
46 43 52
54 66 90
44 58 70
