P3
400 400
255
24 41 22
54 42 42
22 36 20
72 60 60
51 50 45
59 49 43
47 41 36
43 37 19
29 45 25
19 36 21
66 76 64
73 81 72
74 80 57
32 63 36
55 57 53
72 80 67
8 18 6
55 67 45
56 46 28
57 73 54
54 48 43
65 49 45
83 90 83
18 35 20
54 58 47
73 88 74
58 60 49
34 35 21
53 76 55
51 37 24
81 79 72
64 77 66
70 75 65
62 54 46
47 53 45
61 68 62
51 57 47
87 63 51
46 60 46
57 63 56
59 54 46
89 64 64
69 71 67
86 64 56
78 50 60
61 69 62
63 74 63
49 62 62
48 57 47
47 53 45
29 47 27
69 69 61
70 41 36
76 83 74
56 65 51
66 71 54
81 75 63
72 81 66
88 94 87
64 67 64
32 57 32
75 83 76
102 104 94
41 39 22
59 43 43
51 73 53
24 49 27
66 51 46
59 41 26
22 42 20
58 53 46
70 71 54
17 16 9
72 62 50
60 64 60
108 100 96
72 56 48
53 72 54
49 62 49
57 58 48
97 96 82
87 81 76
45 50 27
68 88 70
57 53 46
63 55 47
71 99 73
78 84 73
56 28 19
69 65 51
82 70 63
50 42 42
73 66 62
85 46 46
47 54 45
43 39 24
63 55 46
58 68 52
55 56 33
45 60 42
58 54 46
87 62 61
52 54 46
62 55 48
56 65 50
67 81 58
73 76 69
22 41 21
49 44 47
86 70 68
61 57 47
87 83 76
54 60 48
68 56 53
55 60 48
63 69 62
81 73 61
53 31 21
42 73 42
84 85 80
50 51 39
53 51 51
104 93 91
64 70 53
65 71 54
60 52 52
48 53 45
49 55 45
44 52 39
48 53 30
46 53 45
69 75 64
28 49 27
24 35 19
84 74 65
53 54 52
35 30 18
60 63 60
61 25 19
71 63 61
80 78 78
50 69 52
48 48 40
38 36 35
63 66 61
67 59 59
64 53 46
73 53 53
72 75 64
53 76 55
78 79 78
24 39 22
34 55 35
40 49 27
108 109 99
66 48 47
37 28 17
54 57 53
68 74 55
49 61 45
69 33 24
74 81 74
72 67 62
72 63 50
64 67 61
85 96 86
53 52 51
71 59 59
72 55 61
50 44 42
12 25 12
56 31 22
30 33 21
67 83 67
60 59 59
60 58 58
62 65 71
76 59 59
53 52 44
84 85 80
74 79 74
82 68 65
89 89 88
89 77 67
52 45 43
74 95 73
97 63 62
47 60 47
84 65 57
64 67 61
41 52 29
33 33 20
80 76 71
71 60 59
59 75 55
51 57 51
50 41 41
73 73 76
57 62 44
72 73 64
62 48 44
82 56 49
89 88 88
98 84 82
81 57 49
78 60 60
57 48 29
67 47 44
42 41 42
72 71 64
82 69 67
86 73 56
85 82 75
86 85 82
89 70 68
58 52 52
62 58 50
63 43 42
60 60 61
70 67 62
45 52 45
85 69 63
67 53 46
74 44 45
42 44 43
76 67 54
68 44 44
33 25 14
46 38 24
69 44 44
61 43 43
54 53 36
79 69 67
75 77 73
113 119 113
61 40 26
70 31 22
67 56 55
52 42 41
43 42 24
80 59 50
82 70 66
86 47 46
64 59 49
55 62 54
76 74 72
57 29 20
87 99 86
51 51 51
62 43 43
77 61 60
74 66 66
76 72 72
61 67 61
41 41 41
91 70 70
99 87 79
35 41 46
65 47 43
74 79 74
81 62 60
74 59 59
82 61 60
54 44 43
48 26 17
48 64 49
109 59 53
85 86 77
41 41 41
63 55 55
100 70 73
57 43 43
79 64 70
61 53 39
60 15 15
42 16 10
36 48 27
85 84 73
73 68 62
76 77 74
72 39 26
91 86 79
61 54 46
71 60 59
67 43 43
59 39 24
68 55 47
59 43 43
58 16 16
61 59 58
57 43 43
81 69 63
61 46 29
1 1 0
61 39 34
60 57 47
72 55 48
99 70 65
26 21 13
84 29 25
46 40 46
62 53 46
65 47 44
38 41 37
48 14 13
66 65 61
57 51 44
82 78 70
71 56 48
56 17 15
46 45 36
79 68 62
69 44 44
52 35 23
53 42 42
86 73 67
42 10 10
56 53 46
56 42 42
60 39 26
96 81 88
75 45 45
52 52 51
78 57 55
98 43 33
77 51 51
87 71 75
89 70 64
70 34 34
74 72 72
63 44 43
71 60 43
84 55 48
88 60 60
76 21 21
59 41 26
71 46 44
31 40 23
46 46 50
63 45 43
86 75 73
48 19 13
95 68 68
77 68 71
72 69 68
65 55 47
90 84 83
68 55 49
22 29 16
56 55 54
93 62 62
36 28 16
75 60 60
65 59 59
75 56 56
82 60 60
57 42 42
59 51 45
94 78 75
64 43 43
55 12 12
44 13 11
48 48 38
73 20 20
48 11 11
42 23 16
77 45 45
74 60 60
77 44 44
68 61 50
65 44 43
82 45 45
88 65 62
89 61 61
68 40 38
80 61 60
78 45 44
62 41 41
75 43 29
72 44 44
69 70 62
47 41 41
78 47 45
113 76 76
65 44 43
72 60 59
41 22 12
57 27 16
86 79 78
73 61 70
65 52 52
76 45 44
88 89 85
66 66 60
77 60 60
63 53 52
69 44 44
74 60 60
66 38 38
55 14 14
25 38 21
4 4 1
49 20 13
43 33 19
42 51 38
37 31 30
2 1 0
47 57 46
53 30 19
56 47 47
52 50 44
18 33 19
52 66 51
5 19 6
62 60 49
34 62 35
56 49 48
49 62 49
53 42 23
52 50 44
42 45 42
3 2 0
71 76 68
64 52 31
69 65 51
59 49 45
19 25 14
24 43 24
21 40 23
75 72 64
67 77 65
100 92 87
54 62 49
62 58 48
66 76 64
82 58 50
57 71 53
67 73 63
41 48 37
65 78 65
76 82 67
47 60 48
60 33 23
48 54 46
69 82 67
11 20 11
33 31 19
63 77 56
26 55 29
59 62 59
71 72 64
70 76 69
18 36 24
59 47 29
39 49 40
81 76 71
61 67 61
52 53 46
55 68 52
16 14 6
50 61 48
57 72 52
62 68 52
65 74 55
51 16 14
65 67 61
61 66 50
78 93 79
60 78 56
80 81 67
61 54 47
72 66 61
46 47 43
43 21 17
62 50 35
47 52 31
66 59 59
77 60 59
28 50 27
61 71 62
51 58 49
64 72 53
62 64 50
32 47 27
74 73 64
21 33 19
62 67 52
91 86 78
102 91 87
73 68 53
81 89 82
86 76 66
69 66 57
76 67 62
88 87 77
28 21 12
72 73 70
68 66 66
77 71 56
62 71 63
85 81 67
16 33 18
49 43 42
34 67 37
45 44 27
65 77 65
56 62 49
80 68 62
29 27 15
53 57 53
52 74 54
42 22 36
64 79 66
46 47 28
58 57 47
63 54 47
80 84 74
0 0 0
80 68 53
54 55 30
49 36 32
87 89 80
47 46 45
13 7 4
40 43 25
41 26 17
48 39 23
48 55 46
56 62 55
37 40 37
105 104 97
59 53 45
66 67 62
35 11 9
51 70 52
60 43 42
64 46 41
85 85 78
31 7 4
74 76 60
54 62 50
50 46 27
53 43 42
14 28 14
40 27 16
75 68 62
96 88 85
77 54 34
82 84 76
71 65 51
70 44 44
75 60 57
50 50 44
62 70 62
71 62 59
95 95 88
66 66 66
16 25 41
87 97 88
47 49 29
52 62 49
60 49 45
78 78 76
47 39 59
99 88 82
115 102 89
66 16 16
30 51 29
45 44 42
72 91 70
62 59 59
66 48 44
100 74 74
100 90 86
88 70 74
46 42 41
52 14 14
68 76 75
73 60 60
66 62 55
62 48 48
77 57 49
61 68 61
74 67 66
53 53 46
42 48 42
85 46 46
56 41 41
82 91 76
58 45 28
67 64 60
72 71 63
62 63 50
93 86 90
45 53 45
66 64 60
86 71 64
90 60 50
60 59 48
95 81 75
78 65 52
20 33 17
53 46 38
66 50 39
45 47 43
48 55 46
84 68 60
76 70 63
84 82 75
48 58 47
78 79 65
61 60 49
93 81 86
72 72 72
77 66 66
77 68 62
73 72 61
96 84 84
72 22 20
41 34 21
75 68 62
39 36 35
75 75 76
65 51 46
57 39 25
43 46 26
71 72 64
86 62 62
83 67 67
72 42 27
69 66 66
68 60 54
46 37 22
60 63 60
78 45 45
63 29 21
74 64 51
63 38 38
86 50 47
79 68 62
73 64 61
35 34 20
69 63 51
111 79 79
75 79 64
77 69 67
66 44 44
51 15 14
78 55 49
57 67 57
91 77 75
13 19 6
70 53 33
64 78 65
75 61 60
59 43 42
94 64 58
70 55 48
88 80 75
49 37 36
64 58 48
74 57 49
62 49 45
77 47 53
64 59 59
58 38 46
33 38 21
61 33 33
70 52 47
82 77 74
88 61 61
69 44 44
51 32 32
87 62 67
71 64 61
70 75 65
78 62 66
80 40 28
60 61 59
54 43 42
61 37 23
31 32 19
75 61 50
50 47 42
65 19 16
53 65 49
82 71 64
91 74 73
64 43 40
91 58 58
85 64 52
77 68 62
76 75 61
92 73 73
60 43 27
63 57 53
95 86 86
78 21 21
55 35 24
87 84 76
94 83 81
68 44 44
92 76 66
105 78 76
33 9 9
97 74 74
63 54 47
13 7 4
50 24 15
81 75 72
68 67 61
55 42 42
71 22 19
65 43 43
56 57 47
81 23 21
63 53 45
58 42 42
110 73 87
81 84 76
112 92 87
69 52 51
63 48 29
104 85 85
74 35 35
94 71 71
67 55 53
72 21 20
66 59 59
91 65 62
18 1 0
91 55 55
93 67 74
72 59 59
66 54 47
64 32 23
90 51 48
84 48 46
77 60 60
52 36 23
55 17 14
70 67 62
57 13 13
81 53 48
31 8 4
45 44 26
49 48 44
93 75 74
69 60 53
91 47 50
82 74 72
73 53 53
57 37 37
76 54 53
69 19 18
91 59 51
86 60 60
84 67 62
58 29 29
45 41 41
77 56 49
50 35 23
65 59 59
101 71 65
59 51 45
78 71 67
63 40 40
52 45 42
73 19 18
73 59 59
39 33 19
70 61 50
88 67 63
83 70 70
68 44 44
54 31 20
58 59 49
77 60 60
83 64 52
47 41 25
30 6 4
107 91 91
46 28 16
26 20 11
61 47 43
78 73 67
55 42 42
54 54 54
48 42 41
74 55 48
56 15 15
60 49 45
69 45 44
75 49 49
61 54 47
21 8 4
87 79 76
66 40 35
43 34 21
55 42 42
25 18 7
15 25 9
32 35 20
85 65 58
26 26 15
49 55 46
35 24 17
50 56 47
48 57 46
51 58 47
32 64 36
30 25 15
43 43 41
73 62 50
56 51 43
42 42 25
52 61 48
70 72 63
64 73 54
47 54 46
62 58 47
42 31 19
64 42 42
69 64 51
70 74 64
46 53 45
23 34 19
75 72 63
65 49 45
77 68 52
60 66 51
63 66 55
66 77 65
36 66 37
70 67 62
58 58 58
27 51 28
75 86 76
83 62 58
71 91 79
76 84 76
50 65 50
46 60 35
42 65 38
86 88 77
66 71 62
42 45 42
58 79 59
69 81 67
60 63 49
70 44 44
60 63 57
21 29 16
71 94 72
50 68 52
3 6 1
28 53 28
36 30 18
54 57 48
31 32 17
34 61 35
32 66 36
89 95 85
53 53 46
57 65 54
52 51 42
17 32 18
80 94 87
59 40 25
62 70 61
55 54 32
31 56 32
47 50 44
59 59 59
72 87 72
32 59 34
67 75 55
56 36 24
36 59 34
51 56 46
78 90 78
21 34 19
64 53 45
19 2 1
69 66 66
67 56 47
99 94 87
45 26 17
43 42 41
45 48 44
79 80 66
51 55 46
71 74 50
67 61 49
69 75 64
43 32 31
83 85 77
61 47 58
48 42 42
64 73 59
44 52 45
94 90 86
91 88 83
50 48 29
53 60 49
49 57 46
51 70 52
61 63 60
56 14 13
86 80 75
64 54 47
99 101 91
61 66 61
69 55 47
84 80 67
70 62 55
50 62 52
46 67 48
73 68 62
21 32 19
34 31 30
85 73 68
54 64 50
57 43 43
89 73 63
49 61 47
32 49 26
35 55 34
51 47 28
47 61 45
48 52 45
86 86 77
48 61 48
59 41 35
69 65 61
70 46 44
72 67 66
67 61 55
41 26 17
25 46 26
92 78 67
80 84 80
79 62 61
80 72 72
72 70 62
50 60 48
82 80 69
86 46 46
80 77 79
113 102 96
66 69 53
57 46 36
102 79 76
49 47 58
81 74 65
63 62 50
67 73 64
67 59 62
65 75 64
58 58 58
110 91 77
99 99 95
71 68 62
93 84 75
71 59 59
61 46 43
76 83 75
68 67 61
63 66 58
68 53 47
32 24 14
78 81 68
56 54 46
48 53 46
61 51 46
69 72 59
83 83 76
64 67 52
44 50 44
52 59 47
77 67 67
55 51 45
70 59 59
37 44 25
71 62 60
91 101 89
74 80 71
49 49 43
49 64 50
74 68 55
46 54 46
77 60 59
82 60 51
57 61 54
65 58 54
46 30 19
54 59 54
49 45 27
72 52 47
48 45 28
87 88 80
77 55 48
81 74 65
71 79 67
54 33 32
47 47 47
92 81 79
43 47 36
77 77 56
70 59 59
93 98 84
55 55 54
76 68 66
80 73 64
60 63 59
41 44 41
87 79 74
60 58 58
89 76 68
73 59 43
66 64 60
48 22 14
87 68 53
75 70 67
55 37 37
74 63 56
88 65 52
70 52 51
54 44 27
71 51 46
35 11 9
73 75 73
73 44 44
55 52 45
74 62 50
71 37 26
34 10 8
71 72 63
100 93 87
84 76 73
68 39 38
92 80 76
67 68 62
76 38 27
86 73 77
68 53 46
81 51 47
79 61 61
80 51 47
71 62 60
56 57 47
60 54 47
59 34 23
69 67 62
56 64 57
102 91 86
82 65 59
84 75 73
61 54 46
80 61 60
97 70 65
64 43 43
28 39 29
83 77 74
66 58 53
57 16 15
57 35 23
70 62 60
88 52 48
60 51 46
94 62 61
39 27 43
53 31 26
79 23 21
46 32 31
79 60 57
52 43 42
55 44 44
53 16 15
77 74 65
92 64 62
67 54 49
20 2 1
85 71 60
57 61 54
65 57 53
35 24 41
61 74 54
52 53 46
70 70 58
62 43 43
45 45 42
41 41 41
56 62 50
55 25 18
81 76 74
89 61 61
21 24 14
72 77 76
55 15 15
40 18 10
44 42 41
67 18 18
75 59 53
77 69 69
84 64 52
86 58 52
60 58 58
65 59 59
81 73 72
68 52 46
50 42 41
59 49 45
83 70 65
33 30 30
49 44 27
85 61 61
67 54 47
108 96 94
53 43 38
86 63 61
24 32 18
55 38 37
31 13 6
118 93 88
93 62 62
81 46 45
50 22 14
99 67 63
58 28 20
70 50 44
96 73 65
77 67 52
103 85 84
71 61 60
76 63 56
46 55 46
56 55 46
45 44 41
89 84 80
75 69 63
46 34 22
93 86 83
107 82 77
64 65 61
82 59 57
73 55 48
80 65 59
84 40 40
43 20 15
78 60 60
62 36 25
79 55 48
83 67 63
53 35 23
52 14 14
91 59 53
80 36 36
50 42 42
49 41 31
70 44 44
52 15 14
85 46 46
89 44 38
58 59 58
92 46 46
68 19 18
64 28 43
49 12 10
68 70 60
70 55 55
86 46 46
76 60 60
85 73 73
46 32 21
40 26 17
62 64 60
32 10 6
53 17 13
87 75 70
66 44 43
64 44 48
32 8 8
48 13 13
55 14 14
40 9 9
53 42 42
68 36 24
65 43 43
79 40 40
63 32 32
79 72 72
61 55 55
39 19 10
70 67 61
51 32 32
63 54 47
62 54 57
55 14 12
46 16 11
17 32 18
36 56 31
24 46 24
19 41 21
65 64 63
22 28 16
41 47 27
29 29 16
44 38 24
48 46 28
58 58 48
47 47 43
65 52 46
41 24 16
13 23 13
4 8 1
43 48 43
33 33 20
67 58 56
29 53 27
16 32 18
28 29 17
65 62 59
46 49 28
62 65 61
30 30 30
22 42 24
52 43 42
54 44 42
21 29 16
57 70 53
39 67 38
73 58 48
61 49 43
42 39 23
90 90 82
50 59 48
55 67 53
69 83 68
62 60 62
50 46 28
62 80 63
48 48 29
27 46 25
69 80 55
30 50 29
68 33 24
83 80 75
59 56 34
75 80 62
42 50 27
62 67 61
59 62 49
77 72 72
17 30 15
63 70 63
78 91 79
47 60 48
53 53 42
44 39 22
89 99 81
92 104 91
45 41 41
53 42 30
5 14 4
53 78 56
80 79 57
67 67 57
56 65 50
60 52 46
66 66 61
83 76 65
56 65 50
60 69 57
47 43 42
59 69 60
48 35 21
44 52 45
82 67 62
48 53 31
27 29 16
64 70 62
78 95 80
44 26 16
88 87 70
61 60 59
45 60 46
46 64 37
43 41 41
60 66 51
60 72 60
44 36 28
71 64 61
58 62 55
19 38 22
47 15 13
56 85 59
72 56 48
80 75 69
54 54 46
60 65 61
61 72 53
83 83 83
74 83 71
17 32 18
20 39 21
57 50 46
94 81 79
58 63 48
82 80 75
83 61 61
85 80 75
33 9 9
65 51 46
64 67 51
58 43 43
74 76 73
71 55 48
72 96 73
53 42 42
74 79 74
85 96 81
48 60 48
20 34 19
100 87 86
42 36 21
67 58 67
60 59 47
81 77 73
75 59 59
14 27 16
27 28 16
85 93 80
44 58 44
93 76 72
47 53 30
86 86 77
76 70 68
84 81 75
28 43 25
43 34 21
46 41 41
70 75 55
51 41 26
74 75 65
55 61 54
75 70 69
97 91 86
89 90 83
68 75 64
88 54 49
83 79 74
49 35 22
55 52 51
96 88 93
17 7 4
47 47 39
72 60 59
74 66 52
84 83 75
53 42 42
85 91 85
86 70 63
55 50 30
83 80 78
40 45 26
45 44 26
53 53 45
79 96 77
73 60 60
79 78 70
19 33 18
80 60 59
64 67 61
57 69 52
69 73 68
36 32 42
49 49 49
51 60 49
96 84 84
57 60 43
77 72 72
60 46 43
68 56 48
63 60 49
75 75 75
113 110 101
51 53 46
29 26 15
64 70 56
70 44 44
84 69 63
48 59 48
64 62 55
75 77 65
45 53 45
68 65 57
99 72 71
94 98 94
66 69 58
82 77 72
79 82 68
96 80 76
74 80 67
79 53 47
46 42 41
86 56 37
54 43 42
72 63 58
101 102 96
17 32 18
66 53 52
82 86 77
53 42 42
116 97 90
42 41 41
59 58 59
38 25 16
69 68 58
47 22 14
28 36 23
26 49 27
33 33 20
76 74 64
76 78 73
94 77 84
77 69 63
80 80 71
51 35 23
16 0 0
42 17 17
47 47 28
85 78 74
82 80 67
66 58 48
84 69 63
97 88 77
57 67 52
54 43 27
62 69 62
31 36 27
55 61 49
74 79 74
85 70 70
90 61 61
46 30 20
68 64 54
62 64 60
68 62 63
68 50 42
92 88 78
61 49 59
90 74 72
74 59 59
80 72 72
84 56 49
80 67 67
82 76 73
90 61 61
58 37 23
83 66 53
114 111 105
79 70 60
77 58 46
45 26 17
50 50 44
73 67 61
96 78 75
119 86 86
87 88 87
69 55 47
47 43 41
64 48 48
77 80 77
89 73 65
68 71 54
80 53 53
65 64 56
105 67 55
46 40 24
106 85 85
59 54 52
56 32 22
62 59 35
45 35 22
51 16 13
69 58 49
48 40 36
85 66 60
56 14 14
73 68 62
66 46 44
73 57 54
57 49 49
57 43 43
89 71 67
55 51 31
59 59 47
83 86 77
45 48 43
59 43 42
78 66 62
105 80 76
86 46 46
72 52 32
42 45 42
73 60 56
71 78 63
65 49 49
83 56 51
116 50 50
70 75 64
82 77 72
98 83 75
92 87 76
87 69 64
81 69 63
66 57 48
88 79 67
39 47 27
60 43 43
95 76 73
79 41 29
62 54 46
75 47 45
75 60 60
77 63 58
72 66 63
86 69 64
61 49 41
73 60 59
57 43 43
81 70 63
89 80 75
59 21 29
50 41 36
96 70 51
97 38 31
95 74 74
54 42 39
74 63 72
39 10 10
59 43 43
39 36 35
62 53 51
72 68 62
73 60 59
80 58 58
48 30 30
83 76 73
77 55 48
53 43 36
72 63 61
88 61 61
85 61 61
63 41 32
75 41 37
58 46 40
24 33 19
64 59 54
18 22 40
88 61 61
56 45 43
87 76 83
80 69 67
87 60 60
61 43 43
48 30 20
18 37 19
107 84 74
118 75 75
77 56 48
72 39 38
75 51 46
79 60 51
59 36 33
66 45 43
67 30 29
85 55 49
60 52 52
68 66 66
45 23 18
82 64 73
63 61 59
87 22 22
63 61 70
74 40 34
71 67 56
81 45 45
65 59 56
59 37 36
43 41 28
56 61 54
57 15 16
75 64 61
53 15 14
76 50 47
24 29 16
52 18 14
58 18 15
23 22 7
28 50 27
31 52 28
18 33 17
48 47 28
77 65 59
41 24 16
58 58 58
16 24 8
71 82 69
31 41 32
47 53 31
50 50 30
31 25 14
45 56 46
51 53 44
36 60 38
43 39 28
75 66 57
40 27 17
